def moving():
set_payload_mass(0.606)
set_tcp(p[0.0005,0.0025,0.058,0,0,0])
movej(p[0.5359, 0.0125, 0.1626, -1.263, 1.183, -1.155], a = 0.2, v = 0.2, t = 0.2)
movej(p[0.536008715768837, 0.0124068925151484, 0.162697528856605, -1.2611951163603, 1.18136264918527, -1.15321089796327], a = 0.2, v = 0.2, t = 0.2)
movej(p[0.5359, 0.0125, 0.1626, -1.263, 1.183, -1.155], a = 0.2, v = 0.2, t = 0.2)
movej(p[0.536008715768837, 0.0124068925151484, 0.162697528856605, -1.2611951163603, 1.18136264918527, -1.15321089796327], a = 0.2, v = 0.2, t = 0.2)
movej(p[0.5359, 0.0125, 0.1626, -1.263, 1.183, -1.155], a = 0.2, v = 0.2, t = 0.2)
movej(p[0.536008715768837, 0.0124068925151484, 0.162697528856605, -1.2611951163603, 1.18136264918527, -1.15321089796327], a = 0.2, v = 0.2, t = 0.2)
movej(p[0.532561742947413, 0.0132786159331087, 0.163518765546568, -1.2602985021709, 1.18271005235336, -1.14770172728699], a = 0.2, v = 0.2, t = 0.2)
movej(p[0.5330699658646, 0.013152727159272, 0.163277369993445, -1.26764094608051, 1.1850751959874, -1.14816901622704], a = 0.2, v = 0.2, t = 0.2)
movej(p[0.533578022882638, 0.0129857541651514, 0.162997245261127, -1.27481439210065, 1.1782224993973, -1.15050324831633], a = 0.2, v = 0.2, t = 0.2)
movej(p[0.534895875645309, 0.012780833482, 0.162801907938685, -1.26168072081643, 1.18658239048489, -1.15153573112789], a = 0.2, v = 0.2, t = 0.2)
movej(p[0.535159278480726, 0.0127366018597383, 0.162830777990401, -1.25608961684166, 1.18789962452049, -1.15297656639486], a = 0.2, v = 0.2, t = 0.2)
movej(p[0.535311510679382, 0.0127221435089288, 0.162865473145458, -1.25189226556567, 1.19254775655402, -1.15094681040556], a = 0.2, v = 0.2, t = 0.2)
movej(p[0.535414541981428, 0.0127214195873995, 0.162857182986451, -1.24877200151771, 1.19437116632029, -1.15138348287028], a = 0.2, v = 0.2, t = 0.2)
movej(p[0.535120628380533, 0.0127594729474065, 0.163018326019193, -1.24657469445458, 1.19489640249344, -1.15124109100816], a = 0.2, v = 0.2, t = 0.2)
movej(p[0.534137366877597, 0.0131545660284755, 0.163686047917992, -1.22316166697717, 1.22278753972227, -1.13808550055026], a = 0.2, v = 0.2, t = 0.2)
movej(p[0.5323468827301, 0.013508442527643, 0.1642350383741, -1.2298238690315, 1.22489151606502, -1.13197412374307], a = 0.2, v = 0.2, t = 0.2)
movej(p[0.530025786747666, 0.0140101073931914, 0.164871654964367, -1.24229462963601, 1.22843979920809, -1.12167336450878], a = 0.2, v = 0.2, t = 0.2)
movej(p[0.528036073099313, 0.0144388701920512, 0.16529905949157, -1.25960020505659, 1.22290887748798, -1.11631058390583], a = 0.2, v = 0.2, t = 0.2)
movej(p[0.526033165016272, 0.0148971318298019, 0.165968351462427, -1.2625539382989, 1.22581695503462, -1.11161454297362], a = 0.2, v = 0.2, t = 0.2)
movej(p[0.524671674410613, 0.015182404130439, 0.166619404766844, -1.25552733186984, 1.23933860531145, -1.09942807427383], a = 0.2, v = 0.2, t = 0.2)
movej(p[0.52411138209736, 0.015265292100569, 0.166767567070136, -1.25821739366839, 1.23295416405495, -1.10386381080741], a = 0.2, v = 0.2, t = 0.2)
movej(p[0.525505086961907, 0.014876114043149, 0.166299776433036, -1.25438342542288, 1.22527079828797, -1.11465006093495], a = 0.2, v = 0.2, t = 0.2)
movej(p[0.527762980560501, 0.0144521756110068, 0.16521475930728, -1.26858512567681, 1.20423199307784, -1.1272136026801], a = 0.2, v = 0.2, t = 0.2)
movej(p[0.529829938941825, 0.0139703560748539, 0.164490645673617, -1.2641503513292, 1.19927802889841, -1.13618859313305], a = 0.2, v = 0.2, t = 0.2)
movej(p[0.531869146277527, 0.013572205443741, 0.163979055576995, -1.24557140672759, 1.20227900957521, -1.14716495644205], a = 0.2, v = 0.2, t = 0.2)
movej(p[0.532959438503151, 0.0134403777322022, 0.16358813430971, -1.24608179891821, 1.20443083401746, -1.14316528285209], a = 0.2, v = 0.2, t = 0.2)
movej(p[0.533741040780846, 0.013272284277672, 0.163555085103271, -1.22732018181806, 1.21256089829755, -1.14710506014498], a = 0.2, v = 0.2, t = 0.2)
movej(p[0.534384523977126, 0.0131638529952411, 0.163422790571654, -1.21992100008515, 1.21749131362022, -1.14683635962109], a = 0.2, v = 0.2, t = 0.2)
movej(p[0.534797984282538, 0.0131475492862219, 0.163455112776411, -1.20975451132496, 1.22314095814734, -1.14718488599874], a = 0.2, v = 0.2, t = 0.2)
movej(p[0.53534048289644, 0.0130533810622534, 0.163465715583066, -1.20000476818299, 1.22939154973594, -1.14676865741802], a = 0.2, v = 0.2, t = 0.2)
movej(p[0.535338600121053, 0.0130877270915362, 0.163387098438439, -1.20435097038071, 1.22702159831738, -1.14384351360161], a = 0.2, v = 0.2, t = 0.2)
movej(p[0.535008867574646, 0.0130786146252401, 0.163603431216348, -1.2034389144907, 1.23004314403336, -1.14394465815428], a = 0.2, v = 0.2, t = 0.2)
movej(p[0.533836715761218, 0.0133210146938421, 0.163840598421122, -1.21955741316021, 1.22684747220268, -1.13572128349659], a = 0.2, v = 0.2, t = 0.2)
movej(p[0.532744349650848, 0.0134642959438656, 0.164106345188374, -1.22920718340771, 1.22345603691996, -1.13650243101767], a = 0.2, v = 0.2, t = 0.2)
movej(p[0.531697501296903, 0.0136121798706376, 0.164361633981797, -1.23625766490925, 1.22270933052603, -1.1304789224891], a = 0.2, v = 0.2, t = 0.2)
movej(p[0.529057130764323, 0.0140525447039644, 0.164976233358831, -1.26168571907907, 1.21433068874203, -1.12354639336153], a = 0.2, v = 0.2, t = 0.2)
movej(p[0.526641649603209, 0.0146417351880891, 0.165527648985849, -1.27019066129532, 1.2131163511525, -1.11135802379156], a = 0.2, v = 0.2, t = 0.2)
movej(p[0.524980207029239, 0.0149582128727211, 0.165916779437663, -1.28938897911342, 1.20499499780589, -1.10720344740577], a = 0.2, v = 0.2, t = 0.2)
movej(p[0.522811589931523, 0.0152532716157982, 0.166488764535044, -1.30052378414392, 1.19827031658671, -1.10585801591279], a = 0.2, v = 0.2, t = 0.2)
movej(p[0.524099101789433, 0.0151564396771679, 0.166219730110853, -1.27440938358288, 1.21215513983168, -1.10766059315961], a = 0.2, v = 0.2, t = 0.2)
movej(p[0.525849365642733, 0.0149362292605237, 0.165797142171799, -1.26309226546501, 1.21327297112967, -1.12080831067911], a = 0.2, v = 0.2, t = 0.2)
movej(p[0.527928784926726, 0.0145873597391244, 0.165278341566173, -1.25435085171726, 1.21321773310318, -1.12953114638541], a = 0.2, v = 0.2, t = 0.2)
movej(p[0.529783231881472, 0.0142366440919611, 0.16476708899956, -1.25615938793838, 1.20904908831891, -1.13413735064317], a = 0.2, v = 0.2, t = 0.2)
movej(p[0.531767522896626, 0.0136768937784549, 0.164179973871406, -1.26107223214514, 1.20247444161283, -1.1449922722926], a = 0.2, v = 0.2, t = 0.2)
movej(p[0.533076139150803, 0.0132878523729038, 0.163804393861195, -1.25784189706424, 1.20025225347522, -1.14343988762566], a = 0.2, v = 0.2, t = 0.2)
movej(p[0.53379341563395, 0.0128815508550031, 0.163481525554797, -1.27395947071585, 1.18640529550163, -1.14956530114918], a = 0.2, v = 0.2, t = 0.2)
movej(p[0.534402153228971, 0.0128796734663612, 0.163340601370143, -1.26833801278903, 1.18774234809307, -1.14612229845873], a = 0.2, v = 0.2, t = 0.2)
movej(p[0.534835688303667, 0.0129922286968237, 0.163355444520182, -1.24056189237592, 1.20362698697927, -1.13655465162536], a = 0.2, v = 0.2, t = 0.2)
movej(p[0.535204283805249, 0.0130992181385914, 0.163382917153181, -1.21403445802073, 1.21874560376952, -1.12821021684406], a = 0.2, v = 0.2, t = 0.2)
movej(p[0.535129871487917, 0.0131374422158733, 0.163469852858994, -1.20235410542038, 1.22782539129701, -1.12791435337316], a = 0.2, v = 0.2, t = 0.2)
movej(p[0.535124413795894, 0.0129532224953066, 0.163342824837865, -1.22423007975554, 1.21429984975085, -1.13022676776326], a = 0.2, v = 0.2, t = 0.2)
movej(p[0.534743145069918, 0.0130031288420007, 0.163485414196347, -1.20982945521225, 1.22355934644472, -1.1301805742127], a = 0.2, v = 0.2, t = 0.2)
movej(p[0.533383683826657, 0.0134180884045691, 0.163868795246353, -1.22641502332153, 1.2176320750141, -1.13091513298554], a = 0.2, v = 0.2, t = 0.2)
movej(p[0.532583355309281, 0.0135898838309921, 0.163984799581335, -1.26232043515738, 1.20132671728031, -1.14259373826862], a = 0.2, v = 0.2, t = 0.2)
movej(p[0.531495635029826, 0.0138251846737872, 0.164283691797766, -1.26327692033325, 1.20787383647721, -1.13896733172453], a = 0.2, v = 0.2, t = 0.2)
movej(p[0.528389447757851, 0.0145684506669653, 0.165281398199873, -1.25652605254805, 1.22177011826654, -1.12445450852919], a = 0.2, v = 0.2, t = 0.2)
movej(p[0.525051661267102, 0.0153939701143196, 0.166373403865706, -1.24552329811, 1.235224719446, -1.1042297393597], a = 0.2, v = 0.2, t = 0.2)
movej(p[0.523505932632108, 0.0157242304035918, 0.166795994504846, -1.2561947771823, 1.22984520131047, -1.09735230741592], a = 0.2, v = 0.2, t = 0.2)
movej(p[0.522655225353345, 0.0158912471569796, 0.167042852783923, -1.25587151170714, 1.22868337591636, -1.09394054958766], a = 0.2, v = 0.2, t = 0.2)
movej(p[0.523581075950367, 0.0157743780667583, 0.166955638119187, -1.24275764168604, 1.23202236061863, -1.11343807041754], a = 0.2, v = 0.2, t = 0.2)
movej(p[0.525131943920513, 0.0154062350904037, 0.166470031376918, -1.2371762159831, 1.23046400865435, -1.11102989074964], a = 0.2, v = 0.2, t = 0.2)
movej(p[0.526912891875784, 0.0149579738061543, 0.165836130713044, -1.25220719089641, 1.21579856731416, -1.11737784930939], a = 0.2, v = 0.2, t = 0.2)
movej(p[0.529280172026687, 0.0143407158781213, 0.165030194730833, -1.26067632852775, 1.20274372974436, -1.12544877958081], a = 0.2, v = 0.2, t = 0.2)
movej(p[0.530665943417583, 0.0139344274872664, 0.164523435048509, -1.26640033985478, 1.19819788007264, -1.13315983069152], a = 0.2, v = 0.2, t = 0.2)
movej(p[0.531619482251475, 0.0135475407174352, 0.164125739813951, -1.26659815456239, 1.19544874778034, -1.14026228046877], a = 0.2, v = 0.2, t = 0.2)
movej(p[0.532745050143545, 0.0134203817884097, 0.163955160280859, -1.23821810799323, 1.21002658229043, -1.13438044458102], a = 0.2, v = 0.2, t = 0.2)
movej(p[0.533669561493101, 0.0130942983099471, 0.16360500981375, -1.23077006958768, 1.21047279026825, -1.1349577034858], a = 0.2, v = 0.2, t = 0.2)
movej(p[0.534459546923647, 0.0130536354743173, 0.16343367705762, -1.235802654766, 1.20733216712424, -1.13811571625006], a = 0.2, v = 0.2, t = 0.2)
movej(p[0.53468997938665, 0.0130608943919952, 0.16340142216484, -1.23344123823422, 1.20715262881043, -1.13667047110616], a = 0.2, v = 0.2, t = 0.2)
movej(p[0.534906213774618, 0.0128512383703088, 0.16320170042834, -1.23621014730344, 1.20217725181905, -1.13713876784552], a = 0.2, v = 0.2, t = 0.2)
movej(p[0.534963610641908, 0.0128995578686804, 0.16321450650902, -1.24115539789988, 1.20085102165612, -1.13955266700776], a = 0.2, v = 0.2, t = 0.2)
movej(p[0.535304150690966, 0.0128983701797029, 0.163167006147098, -1.2413517483397, 1.20238011431459, -1.14226002668624], a = 0.2, v = 0.2, t = 0.2)
movej(p[0.534911012359189, 0.0130704610338587, 0.163344013067878, -1.24335592474865, 1.20234298795218, -1.14099390299532], a = 0.2, v = 0.2, t = 0.2)
movej(p[0.533917400080889, 0.0131585906307928, 0.163548945726463, -1.24270015264159, 1.20298413137993, -1.13783721219436], a = 0.2, v = 0.2, t = 0.2)
movej(p[0.532825184644018, 0.0134536542195613, 0.163872067217615, -1.26680213175204, 1.19550545728634, -1.14523246647919], a = 0.2, v = 0.2, t = 0.2)
movej(p[0.531376244065509, 0.0138502829334846, 0.164334307753744, -1.28223382756253, 1.19560157756827, -1.14552851637714], a = 0.2, v = 0.2, t = 0.2)
movej(p[0.529148841358431, 0.0145261178314553, 0.165184098146245, -1.26685087033136, 1.2169343228857, -1.12712019103033], a = 0.2, v = 0.2, t = 0.2)
movej(p[0.527197562316927, 0.0150211734695649, 0.16587474693352, -1.26092844035509, 1.22806142899254, -1.11962606138692], a = 0.2, v = 0.2, t = 0.2)
movej(p[0.525313576096757, 0.0153814507857458, 0.16643031096912, -1.25264443115839, 1.23313278880077, -1.10932650510988], a = 0.2, v = 0.2, t = 0.2)
movej(p[0.524841271546921, 0.015554467878802, 0.166647027737542, -1.25120528624294, 1.22910973640001, -1.10615419426412], a = 0.2, v = 0.2, t = 0.2)
movej(p[0.52656690397709, 0.0150800601892718, 0.166021116953112, -1.25582019941782, 1.21624679169087, -1.11272096129011], a = 0.2, v = 0.2, t = 0.2)
movej(p[0.529091048253514, 0.0143641660350388, 0.165054434956937, -1.26090371108326, 1.20360972715062, -1.12621544887378], a = 0.2, v = 0.2, t = 0.2)
movej(p[0.530511420491554, 0.0138830836452402, 0.164480356338949, -1.26639996420419, 1.19655259751174, -1.13319458694501], a = 0.2, v = 0.2, t = 0.2)
movej(p[0.531671016218462, 0.0136272501566, 0.164194324546614, -1.26047451447737, 1.20279989246692, -1.14104508431065], a = 0.2, v = 0.2, t = 0.2)
movej(p[0.532816934321513, 0.0132451429895867, 0.163729780959835, -1.25034825885111, 1.20563614555144, -1.14151888468603], a = 0.2, v = 0.2, t = 0.2)
movej(p[0.533739116026289, 0.0130539498334061, 0.163454301395426, -1.24473016379555, 1.20380113831035, -1.14068678806701], a = 0.2, v = 0.2, t = 0.2)
movej(p[0.534579573260676, 0.0128577717966063, 0.163170625374157, -1.24939646714095, 1.19978214963866, -1.14486779933293], a = 0.2, v = 0.2, t = 0.2)
movej(p[0.534785676232944, 0.0127990710706679, 0.163085808220252, -1.25160802880548, 1.19827892336667, -1.14632453649614], a = 0.2, v = 0.2, t = 0.2)
movej(p[0.534785438203124, 0.0128289620305823, 0.16311512210531, -1.25044420109102, 1.19818117275485, -1.1454049982168], a = 0.2, v = 0.2, t = 0.2)
movej(p[0.535007528927777, 0.01269759234068, 0.162971715673802, -1.24887567332433, 1.19981583078597, -1.14720902686456], a = 0.2, v = 0.2, t = 0.2)
movej(p[0.53537925941901, 0.0125405752859511, 0.162782721053741, -1.24974610282588, 1.20006113030993, -1.15021067896388], a = 0.2, v = 0.2, t = 0.2)
movej(p[0.535555414570567, 0.0126867951340784, 0.162883443238951, -1.25621565380613, 1.19379437138604, -1.14958442002833], a = 0.2, v = 0.2, t = 0.2)
movej(p[0.535372547875574, 0.0128069353238925, 0.163011881576896, -1.25852867464799, 1.19293904494569, -1.14887918951248], a = 0.2, v = 0.2, t = 0.2)
movej(p[0.534708121777046, 0.013057349433871, 0.163336390888191, -1.25662833419757, 1.19822202604419, -1.14642914286029], a = 0.2, v = 0.2, t = 0.2)
movej(p[0.533418905063399, 0.0134503489818156, 0.163844439351008, -1.25843194711054, 1.20198683329977, -1.14225854545136], a = 0.2, v = 0.2, t = 0.2)
movej(p[0.532082333284465, 0.0138550511351928, 0.164340776843856, -1.27478528910174, 1.19779849008753, -1.1423470803597], a = 0.2, v = 0.2, t = 0.2)
movej(p[0.530698061416166, 0.0141572683924334, 0.164736360986693, -1.27210101576807, 1.20756110093106, -1.13392814748282], a = 0.2, v = 0.2, t = 0.2)
movej(p[0.528822684032636, 0.0145764238144384, 0.165340690856504, -1.26299264578609, 1.22298358635207, -1.12501853874963], a = 0.2, v = 0.2, t = 0.2)
movej(p[0.526715556325074, 0.0151281518299796, 0.166065789243547, -1.26565567048315, 1.22776363674525, -1.11601247421826], a = 0.2, v = 0.2, t = 0.2)
movej(p[0.524828320693157, 0.0155932868690445, 0.166691756043829, -1.26042713925014, 1.23249136130402, -1.1059524529984], a = 0.2, v = 0.2, t = 0.2)
movej(p[0.525254848135749, 0.0155350740192831, 0.166622542570875, -1.25601656649056, 1.22665459431951, -1.105942190568], a = 0.2, v = 0.2, t = 0.2)
movej(p[0.526744312318019, 0.015078021338929, 0.166051293494627, -1.25644884114593, 1.21850850654233, -1.11477884310304], a = 0.2, v = 0.2, t = 0.2)
movej(p[0.528719486892552, 0.0144815219216702, 0.165263206916054, -1.26150636602302, 1.20565720319047, -1.12551747235854], a = 0.2, v = 0.2, t = 0.2)
movej(p[0.529190757063872, 0.0143445018509317, 0.165064680102149, -1.26583048139016, 1.20046592085288, -1.12806708892804], a = 0.2, v = 0.2, t = 0.2)
movej(p[0.531804004201344, 0.0134980612943176, 0.163983860263965, -1.25611180042958, 1.20598871016251, -1.13923889686654], a = 0.2, v = 0.2, t = 0.2)
movej(p[0.533910295857151, 0.013042307704819, 0.163365672075515, -1.25469181013383, 1.2070303343076, -1.14748877217447], a = 0.2, v = 0.2, t = 0.2)
movej(p[0.534170599591248, 0.0129604465945764, 0.163263333106179, -1.25168205538212, 1.19958201553112, -1.14835440881615], a = 0.2, v = 0.2, t = 0.2)
movej(p[0.53458871571462, 0.0128598613369996, 0.163138231094464, -1.25418821667318, 1.20334814592768, -1.15171339929457], a = 0.2, v = 0.2, t = 0.2)
movej(p[0.535032793337436, 0.0127907531870189, 0.16302326280092, -1.25756878241165, 1.19873697361024, -1.1534486887252], a = 0.2, v = 0.2, t = 0.2)
movej(p[0.535323413788823, 0.0127076102156035, 0.162899542917555, -1.25824514234295, 1.19622574557516, -1.15452638285149], a = 0.2, v = 0.2, t = 0.2)
movej(p[0.535489556837266, 0.0126868661375209, 0.16287305026426, -1.2567756181257, 1.19662497013165, -1.15470549167348], a = 0.2, v = 0.2, t = 0.2)
movej(p[0.535494513088778, 0.0126925256240018, 0.162882771672786, -1.25870495310057, 1.1990045415884, -1.15546214563225], a = 0.2, v = 0.2, t = 0.2)
movej(p[0.53550122289052, 0.0126271673700417, 0.162796388993967, -1.25719675622125, 1.20196059017115, -1.15582296396891], a = 0.2, v = 0.2, t = 0.2)
movej(p[0.535048219064628, 0.0128053407548755, 0.163029016912894, -1.25864394016513, 1.20018334869849, -1.15358003021704], a = 0.2, v = 0.2, t = 0.2)
movej(p[0.534534194990297, 0.0131502503725899, 0.163498172309981, -1.26330616320536, 1.19669835388714, -1.15083946949851], a = 0.2, v = 0.2, t = 0.2)
movej(p[0.533442891486627, 0.0134027209908398, 0.163846672280998, -1.25820112163478, 1.200161010188, -1.1453730301886], a = 0.2, v = 0.2, t = 0.2)
movej(p[0.531315018659094, 0.0138841078930916, 0.164482218070209, -1.26609031284241, 1.20900714293202, -1.13782996859492], a = 0.2, v = 0.2, t = 0.2)
movej(p[0.529703685845159, 0.014185071046085, 0.164849690930808, -1.26400948329067, 1.21771369168281, -1.12934812306236], a = 0.2, v = 0.2, t = 0.2)
movej(p[0.527757677228468, 0.0146794724589417, 0.165506976345777, -1.25999274016885, 1.22097133332464, -1.11901227936049], a = 0.2, v = 0.2, t = 0.2)
movej(p[0.526632640433167, 0.0150643163783329, 0.166063335678336, -1.25613755157095, 1.22308351535799, -1.1133798119103], a = 0.2, v = 0.2, t = 0.2)
movej(p[0.526585053764706, 0.0150099682664, 0.165990159440976, -1.25018593522463, 1.22421624696104, -1.11308792314666], a = 0.2, v = 0.2, t = 0.2)
movej(p[0.528297402238321, 0.0144846862931857, 0.165251434855272, -1.25838632765648, 1.21079594515142, -1.12408516028149], a = 0.2, v = 0.2, t = 0.2)
movej(p[0.530171314471858, 0.0139150324561655, 0.164445695426569, -1.25551717543467, 1.19959677633601, -1.13321423650099], a = 0.2, v = 0.2, t = 0.2)
movej(p[0.531891847186712, 0.013397504130825, 0.163735292372249, -1.25786152025314, 1.20173348412546, -1.14167813676006], a = 0.2, v = 0.2, t = 0.2)
movej(p[0.53350180015359, 0.0130070619535416, 0.163205804326455, -1.25947500717044, 1.20713115013042, -1.14755362101949], a = 0.2, v = 0.2, t = 0.2)
movej(p[0.533901153185391, 0.0127209244499678, 0.162734071992349, -1.26285314828434, 1.20683800774219, -1.15035271136257], a = 0.2, v = 0.2, t = 0.2)
movej(p[0.534365951123651, 0.0125565131062028, 0.162467291545858, -1.26180181101169, 1.20509923435135, -1.15225027102628], a = 0.2, v = 0.2, t = 0.2)
movej(p[0.534759389236116, 0.0125133332514078, 0.162418144096278, -1.26356828561111, 1.20336854304421, -1.15383851355378], a = 0.2, v = 0.2, t = 0.2)
movej(p[0.53512365825156, 0.0124342004169974, 0.162305463135573, -1.26560105440286, 1.20509202465865, -1.1550623531678], a = 0.2, v = 0.2, t = 0.2)
movej(p[0.535215782728662, 0.0124662077139276, 0.162361392588118, -1.26555915701185, 1.2064399793314, -1.15474777548879], a = 0.2, v = 0.2, t = 0.2)
movej(p[0.535394672360366, 0.0124324229375468, 0.162298603587857, -1.26655577525377, 1.20369034122724, -1.15556285208292], a = 0.2, v = 0.2, t = 0.2)
movej(p[0.535397638872399, 0.0123660406969387, 0.162154510951202, -1.26947288921145, 1.20561612778021, -1.15542917267559], a = 0.2, v = 0.2, t = 0.2)
movej(p[0.535398938033101, 0.0124811038782851, 0.162383181776801, -1.26932226239574, 1.20674634968169, -1.15471892237279], a = 0.2, v = 0.2, t = 0.2)
movej(p[0.535577589301519, 0.0124945991800771, 0.162419317785466, -1.26878152886533, 1.20715352521508, -1.15469381358931], a = 0.2, v = 0.2, t = 0.2)
movej(p[0.535191789500305, 0.0126662680686135, 0.162681252369078, -1.26818106807851, 1.2022449054107, -1.1535462333603], a = 0.2, v = 0.2, t = 0.2)
movej(p[0.534216159241224, 0.0129338761065989, 0.163054400443671, -1.26656883486898, 1.20636321050265, -1.14867516248757], a = 0.2, v = 0.2, t = 0.2)
movej(p[0.532523965875032, 0.0134850050582356, 0.163887203535694, -1.26591349818354, 1.20055273255548, -1.14282477141002], a = 0.2, v = 0.2, t = 0.2)
movej(p[0.530911561071016, 0.0138704549603028, 0.164370876783849, -1.26503147279416, 1.21081702537276, -1.13378019802344], a = 0.2, v = 0.2, t = 0.2)
movej(p[0.529438791705044, 0.0142934991740127, 0.164990096969165, -1.26334644729404, 1.21423689559101, -1.12646774677537], a = 0.2, v = 0.2, t = 0.2)
movej(p[0.527425447828542, 0.014783377825705, 0.165618255636675, -1.26102563066888, 1.22145728473771, -1.11637074303368], a = 0.2, v = 0.2, t = 0.2)
movej(p[0.525139071426122, 0.015292093347301, 0.16624351049235, -1.25774177343724, 1.22838871602081, -1.10599670413727], a = 0.2, v = 0.2, t = 0.2)
movej(p[0.52393410710157, 0.01561054121956, 0.166692900600395, -1.25602651022178, 1.22609383650073, -1.10230555020598], a = 0.2, v = 0.2, t = 0.2)
movej(p[0.524821554164401, 0.0154353353444294, 0.166506058790321, -1.25425504756959, 1.21998388656389, -1.10770032106559], a = 0.2, v = 0.2, t = 0.2)
movej(p[0.52769004615633, 0.0146493564070149, 0.165452823492688, -1.25460727778121, 1.19985785439772, -1.127076879369], a = 0.2, v = 0.2, t = 0.2)
movej(p[0.529273216401952, 0.0140995583612135, 0.164446599416147, -1.2634419481728, 1.19183001791322, -1.13545871804382], a = 0.2, v = 0.2, t = 0.2)
movej(p[0.531134496720593, 0.0136117582448975, 0.16369268549403, -1.26846005932249, 1.18661681597243, -1.14426855462394], a = 0.2, v = 0.2, t = 0.2)
movej(p[0.532495612796602, 0.0132506680736486, 0.163186630362786, -1.27356186371411, 1.18588421459906, -1.14874770218006], a = 0.2, v = 0.2, t = 0.2)
movej(p[0.533791097451946, 0.0130233284502083, 0.162849533917565, -1.27796527809618, 1.201614019728, -1.14518775622912], a = 0.2, v = 0.2, t = 0.2)
movej(p[0.534537607964226, 0.0128425098971622, 0.162585888614307, -1.28084902316686, 1.20314979617167, -1.14586831996717], a = 0.2, v = 0.2, t = 0.2)
movej(p[0.534650211485395, 0.012799810189394, 0.162445751210389, -1.28356270040474, 1.20149194614669, -1.14628780048176], a = 0.2, v = 0.2, t = 0.2)
movej(p[0.534930911829489, 0.0127603041037017, 0.162469284081415, -1.28036763704598, 1.20197402666203, -1.14589024814992], a = 0.2, v = 0.2, t = 0.2)
movej(p[0.535286267732016, 0.0127252015418712, 0.162549044050647, -1.27582373370905, 1.20353162760827, -1.14619971090888], a = 0.2, v = 0.2, t = 0.2)
movej(p[0.535897296677208, 0.0127376758346174, 0.163107165722111, -1.2591691249273, 1.21166785071838, -1.14774373857117], a = 0.2, v = 0.2, t = 0.2)
movej(p[0.535964129067869, 0.0127089752870609, 0.163071607317641, -1.25861583059483, 1.2122602386552, -1.14757711605255], a = 0.2, v = 0.2, t = 0.2)
movej(p[0.535798467440135, 0.0127210315650568, 0.16298099373556, -1.26236956710844, 1.2126622625796, -1.14482149462904], a = 0.2, v = 0.2, t = 0.2)
movej(p[0.535399556552641, 0.0128151067122013, 0.163094878021255, -1.26187283972641, 1.21231237255576, -1.1435345458012], a = 0.2, v = 0.2, t = 0.2)
movej(p[0.534792726212694, 0.0129757566934645, 0.163404527326179, -1.25669041238666, 1.21245435593003, -1.14323552043207], a = 0.2, v = 0.2, t = 0.2)
movej(p[0.533941915392363, 0.0132234173593004, 0.163983080342423, -1.24647234429569, 1.21687655940386, -1.14129928804877], a = 0.2, v = 0.2, t = 0.2)
movej(p[0.532054045587682, 0.0136506374593623, 0.164373822196695, -1.2528744956248, 1.21457457933849, -1.13544690657699], a = 0.2, v = 0.2, t = 0.2)
movej(p[0.530713217057133, 0.0139565502320405, 0.164645864486013, -1.2583923040884, 1.21428881284012, -1.12986835988652], a = 0.2, v = 0.2, t = 0.2)
movej(p[0.529553056365415, 0.0142492396115157, 0.16491675183628, -1.2618319983596, 1.21552699425662, -1.12402488876012], a = 0.2, v = 0.2, t = 0.2)
movej(p[0.526467069583261, 0.0150181383985905, 0.165985826789501, -1.26073062549034, 1.22261837860172, -1.1107882287769], a = 0.2, v = 0.2, t = 0.2)
movej(p[0.525005974416563, 0.0153826138918513, 0.166592206100382, -1.25398346017168, 1.22445654352344, -1.10828512923298], a = 0.2, v = 0.2, t = 0.2)
movej(p[0.522813373009852, 0.018075056947499, 0.163993046629826, -1.25899499595348, 1.21771738884024, -1.11143487590716], a = 0.2, v = 0.2, t = 0.2)
movej(p[0.524204228697852, 0.0175197315051971, 0.163901351710182, -1.25800485278105, 1.2172860641331, -1.11586253555608], a = 0.2, v = 0.2, t = 0.2)
movej(p[0.525595187064673, 0.0169644127717014, 0.163809753806269, -1.25701770512267, 1.21685188479048, -1.1202875121681], a = 0.2, v = 0.2, t = 0.2)
movej(p[0.526986148564997, 0.0164089935324707, 0.163718056460019, -1.25603640615932, 1.21640937466651, -1.12471061350701], a = 0.2, v = 0.2, t = 0.2)
movej(p[0.528377106931817, 0.015853674798975, 0.163626458556106, -1.25506025880087, 1.21596396497075, -1.1291288661055], a = 0.2, v = 0.2, t = 0.2)
movej(p[0.529768062395191, 0.0152983553760353, 0.16353476069673, -1.25408969201124, 1.21551402033741, -1.13354699409099], a = 0.2, v = 0.2, t = 0.2)
movej(p[0.531159020762012, 0.0147430366425396, 0.163443162792817, -1.25312249008636, 1.21505746333374, -1.13796062401095], a = 0.2, v = 0.2, t = 0.2)
movej(p[0.532549976225386, 0.0141877172196, 0.16335146493344, -1.25216221872119, 1.21459761422186, -1.14237326760448], a = 0.2, v = 0.2, t = 0.2)
movej(p[0.533940940629156, 0.0136322986698132, 0.163259867542654, -1.25120664990171, 1.21413240296044, -1.14678055786718], a = 0.2, v = 0.2, t = 0.2)
movej(p[0.535331896092531, 0.0130769792468736, 0.163168169683277, -1.2502562371316, 1.21366016272694, -1.15118719666288], a = 0.2, v = 0.2, t = 0.2)
movej(p[0.536358738237699, 0.0126649837016782, 0.163162593874348, -1.25324147115389, 1.21142477542298, -1.15567922882923], a = 0.2, v = 0.2, t = 0.2)
movej(p[0.535110562717151, 0.012986420998538, 0.163532582622951, -1.26632406156138, 1.20873648379847, -1.15365808442822], a = 0.2, v = 0.2, t = 0.2)
movej(p[0.533463018132635, 0.013315379770769, 0.163847490447881, -1.27042114553123, 1.21388944004719, -1.14515429625514], a = 0.2, v = 0.2, t = 0.2)
movej(p[0.531594844279938, 0.0137375192237463, 0.16430442494903, -1.27395598438496, 1.21787668468811, -1.13585480420074], a = 0.2, v = 0.2, t = 0.2)
movej(p[0.529882791033809, 0.014178692576335, 0.16485373648667, -1.27345502013137, 1.22384911970133, -1.12686010045593], a = 0.2, v = 0.2, t = 0.2)
movej(p[0.528387114433948, 0.0145896907326214, 0.165425983901831, -1.26594655063206, 1.22308097072977, -1.12182529716921], a = 0.2, v = 0.2, t = 0.2)
movej(p[0.526828915036913, 0.014945671827503, 0.165814744225381, -1.27000443833207, 1.22495590506825, -1.11431567217123], a = 0.2, v = 0.2, t = 0.2)
movej(p[0.526138419841598, 0.0150701654403065, 0.165921881780038, -1.27157064996888, 1.22270939435347, -1.11217759531773], a = 0.2, v = 0.2, t = 0.2)
movej(p[0.527026678563592, 0.0148504223457222, 0.165695205722228, -1.26371258091823, 1.22027291066683, -1.11795842551381], a = 0.2, v = 0.2, t = 0.2)
movej(p[0.528570116611017, 0.0143873535053222, 0.165072608153318, -1.26469724464255, 1.21186373142971, -1.12738732147625], a = 0.2, v = 0.2, t = 0.2)
movej(p[0.530945594783271, 0.0137631583904903, 0.164282388973747, -1.26701441077231, 1.20382339797752, -1.13897198463302], a = 0.2, v = 0.2, t = 0.2)
movej(p[0.532857234040332, 0.0133063651687921, 0.163705778096746, -1.26612727560123, 1.20535640860384, -1.14467362788726], a = 0.2, v = 0.2, t = 0.2)
movej(p[0.533853233268338, 0.0130710995338377, 0.163440463662874, -1.26811635881435, 1.20693458390254, -1.14840861086761], a = 0.2, v = 0.2, t = 0.2)
movej(p[0.534660630894392, 0.0128939905607535, 0.163240553345242, -1.27059792295495, 1.20886052406083, -1.1508112592514], a = 0.2, v = 0.2, t = 0.2)
movej(p[0.535122418594321, 0.0127496445663267, 0.163014740205486, -1.27354039116167, 1.21003278280119, -1.15179403192626], a = 0.2, v = 0.2, t = 0.2)
movej(p[0.535880101065445, 0.0127061849095278, 0.163166608573432, -1.27380190279265, 1.21397013270221, -1.15430438721567], a = 0.2, v = 0.2, t = 0.2)
movej(p[0.536287632601895, 0.0126471726789055, 0.163165382426798, -1.27215093879862, 1.21316597113458, -1.15650504553218], a = 0.2, v = 0.2, t = 0.2)
movej(p[0.536157057994879, 0.0126069299190477, 0.163012182810997, -1.27213801055906, 1.21035527168726, -1.1564228955921], a = 0.2, v = 0.2, t = 0.2)
movej(p[0.536035100920663, 0.0125977604589602, 0.162936153125673, -1.27347270840192, 1.21091641684979, -1.15522453028345], a = 0.2, v = 0.2, t = 0.2)
movej(p[0.535998020178731, 0.0125606018573079, 0.16280912936057, -1.27537980502756, 1.21124648520609, -1.15431058493402], a = 0.2, v = 0.2, t = 0.2)
movej(p[0.536017573061154, 0.0125715715919443, 0.162842100707387, -1.27574872640364, 1.21285735868831, -1.15368713650792], a = 0.2, v = 0.2, t = 0.2)
movej(p[0.536137600749509, 0.0126682494873317, 0.163164492811155, -1.27288207532924, 1.21598016898142, -1.15407478670858], a = 0.2, v = 0.2, t = 0.2)
movej(p[0.53515601973558, 0.0129478091026261, 0.163574447655731, -1.26924349120157, 1.21539103537195, -1.15123153161865], a = 0.2, v = 0.2, t = 0.2)
movej(p[0.533881941807688, 0.0132245711378881, 0.163841250522088, -1.26928850198694, 1.21520494967278, -1.14598599509335], a = 0.2, v = 0.2, t = 0.2)
movej(p[0.532216517283768, 0.0135291200700535, 0.164081012306038, -1.27049199755328, 1.20963675734439, -1.14155003460671], a = 0.2, v = 0.2, t = 0.2)
movej(p[0.530404631342096, 0.0139733570868162, 0.164510447920897, -1.27258936313447, 1.22006313001227, -1.12929720659902], a = 0.2, v = 0.2, t = 0.2)
movej(p[0.529147657930311, 0.014346805828706, 0.165045507038421, -1.27008682588566, 1.22094099268671, -1.12463448446957], a = 0.2, v = 0.2, t = 0.2)
movej(p[0.52863480796827, 0.014481656434745, 0.165233251254007, -1.2684136907477, 1.22050918485672, -1.12306825558525], a = 0.2, v = 0.2, t = 0.2)
movej(p[0.528173140189706, 0.0145907606262489, 0.165384170529224, -1.26634042747815, 1.21829369085944, -1.12254589277173], a = 0.2, v = 0.2, t = 0.2)
movej(p[0.52720152932377, 0.0148343773389859, 0.165681333468484, -1.26326367769578, 1.21996838425594, -1.11816768732231], a = 0.2, v = 0.2, t = 0.2)
movej(p[0.52676037474521, 0.014918853060409, 0.165750090361267, -1.26564788983414, 1.22022795758445, -1.11615528125085], a = 0.2, v = 0.2, t = 0.2)
movej(p[0.529031123187681, 0.014238002171123, 0.164837247950128, -1.26552919704706, 1.20731499631489, -1.13054094512443], a = 0.2, v = 0.2, t = 0.2)
movej(p[0.531089919291198, 0.0137251272455601, 0.164170510966852, -1.26552846833954, 1.2081172565585, -1.13768022416033], a = 0.2, v = 0.2, t = 0.2)
movej(p[0.533523021550907, 0.013068604699138, 0.163215268086826, -1.2718418405464, 1.20902171058913, -1.14497079589219], a = 0.2, v = 0.2, t = 0.2)
movej(p[0.534749419699275, 0.0127352869087094, 0.162758755006769, -1.27549133881888, 1.20691128151477, -1.14991044656143], a = 0.2, v = 0.2, t = 0.2)
movej(p[0.535084360757597, 0.0126321285225397, 0.162604972905038, -1.27917909453881, 1.20643821544376, -1.15098354132361], a = 0.2, v = 0.2, t = 0.2)
movej(p[0.535624638176479, 0.0125718110438684, 0.162697943504765, -1.2774301364461, 1.21094934465062, -1.15286993389885], a = 0.2, v = 0.2, t = 0.2)
movej(p[0.536003168144169, 0.01254862828558, 0.162816465710611, -1.27426413306759, 1.21161293982674, -1.15521825661534], a = 0.2, v = 0.2, t = 0.2)
movej(p[0.536363825584764, 0.0125017414077136, 0.162841128460405, -1.27193373755385, 1.21152505871815, -1.15734243124773], a = 0.2, v = 0.2, t = 0.2)
movej(p[0.537195018440328, 0.0124704665789516, 0.163114732703693, -1.26792441222955, 1.21782885769355, -1.16004426716178], a = 0.2, v = 0.2, t = 0.2)
movej(p[0.536496025985982, 0.0125398905177944, 0.162977187672948, -1.27170863893626, 1.21435268745792, -1.15659433640275], a = 0.2, v = 0.2, t = 0.2)
movej(p[0.535797039568585, 0.0126092146403462, 0.162839643155331, -1.27548285886044, 1.21086650641717, -1.15314479109974], a = 0.2, v = 0.2, t = 0.2)
movej(p[0.535251128814929, 0.0127297506702606, 0.16295091190447, -1.27588862938364, 1.21077489090603, -1.15040882358318], a = 0.2, v = 0.2, t = 0.2)
movej(p[0.534175559010847, 0.013081558863683, 0.163553783467565, -1.2724831640087, 1.2149592225361, -1.14598073586504], a = 0.2, v = 0.2, t = 0.2)
movej(p[0.531456078334471, 0.0137592741517706, 0.164302903277149, -1.27358302043585, 1.22069211891369, -1.13241429416415], a = 0.2, v = 0.2, t = 0.2)
movej(p[0.528472123545669, 0.0145300967778354, 0.16518892099567, -1.27140395906067, 1.22646118452448, -1.1173799625425], a = 0.2, v = 0.2, t = 0.2)
movej(p[0.525805070460321, 0.0151694592142342, 0.165948287583596, -1.27338790468846, 1.22450245567137, -1.10731264003216], a = 0.2, v = 0.2, t = 0.2)
movej(p[0.52457526140934, 0.0153360473562669, 0.166070100140664, -1.25615154134167, 1.20554148415509, -1.11419576847451], a = 0.2, v = 0.2, t = 0.2)
movej(p[0.525529469058138, 0.0151149692230434, 0.165840717290418, -1.2562166988506, 1.20551141896401, -1.11816752283706], a = 0.2, v = 0.2, t = 0.2)
movej(p[0.527532002908262, 0.014640783268661, 0.165313209120079, -1.25754906661208, 1.20511631166131, -1.12638882893302], a = 0.2, v = 0.2, t = 0.2)
movej(p[0.530082163095703, 0.0139643778772493, 0.164374912154903, -1.26664649774835, 1.20547499854063, -1.13413825581588], a = 0.2, v = 0.2, t = 0.2)
movej(p[0.531457947768095, 0.0134204174198296, 0.163475216603077, -1.28470334310089, 1.19598132552341, -1.14212154502138], a = 0.2, v = 0.2, t = 0.2)
movej(p[0.533317410929078, 0.01320418736446, 0.163477619955611, -1.27349972405978, 1.21073804408434, -1.14262567308736], a = 0.2, v = 0.2, t = 0.2)
movej(p[0.534607032236015, 0.0128875732260539, 0.163129504339683, -1.27232392909407, 1.20831551724955, -1.14917726760358], a = 0.2, v = 0.2, t = 0.2)
movej(p[0.535202304398858, 0.0127312220209945, 0.162895594714354, -1.27538318358666, 1.20954502439429, -1.14987320338513], a = 0.2, v = 0.2, t = 0.2)
movej(p[0.535185894257997, 0.0126700477862877, 0.162628373924959, -1.28071458474651, 1.20778202892126, -1.14843483535909], a = 0.2, v = 0.2, t = 0.2)
movej(p[0.535819440325761, 0.0126067003629781, 0.162788587357548, -1.27673730676053, 1.21291674967437, -1.15011653639012], a = 0.2, v = 0.2, t = 0.2)
movej(p[0.535646567375051, 0.0125865901819226, 0.162625472632489, -1.27727880756168, 1.20682764259864, -1.15170885243327], a = 0.2, v = 0.2, t = 0.2)
movej(p[0.535858182321642, 0.0126082118179054, 0.162841175505063, -1.27400631011918, 1.21172882814054, -1.15147435681913], a = 0.2, v = 0.2, t = 0.2)
movej(p[0.535969459508185, 0.012564943123922, 0.162722890265595, -1.27664682606324, 1.21212695130084, -1.15054539558955], a = 0.2, v = 0.2, t = 0.2)
movej(p[0.536117251800835, 0.0125250403386681, 0.162673852464234, -1.27623479550699, 1.21137364995973, -1.15148375467676], a = 0.2, v = 0.2, t = 0.2)
movej(p[0.536023141469839, 0.0125781639766963, 0.162850697409546, -1.27189349377831, 1.21127821281837, -1.15267785791903], a = 0.2, v = 0.2, t = 0.2)
movej(p[0.53576981689089, 0.0126548330443489, 0.162971777885948, -1.2715168232401, 1.21302061592299, -1.15079179260687], a = 0.2, v = 0.2, t = 0.2)
movej(p[0.535134496279799, 0.012845198383563, 0.163297156524995, -1.26857350012057, 1.21520165632744, -1.14824822213114], a = 0.2, v = 0.2, t = 0.2)
movej(p[0.533390680553275, 0.0132598443431005, 0.163717615774114, -1.26972959853238, 1.21525636447262, -1.14159608049277], a = 0.2, v = 0.2, t = 0.2)
movej(p[0.5315694832774, 0.0137359009609818, 0.16422953909739, -1.27524436746382, 1.22251378395295, -1.12931292246158], a = 0.2, v = 0.2, t = 0.2)
movej(p[0.529366615668253, 0.0142806816419164, 0.164749073587345, -1.27907066664154, 1.22551726481867, -1.11754301169978], a = 0.2, v = 0.2, t = 0.2)
movej(p[0.527349222157963, 0.0147970002028682, 0.165423188012541, -1.27777672709041, 1.22610656775841, -1.10993490542253], a = 0.2, v = 0.2, t = 0.2)
movej(p[0.527070080648309, 0.0148968741384092, 0.165606785928073, -1.27502171248488, 1.22831613532148, -1.10845658946981], a = 0.2, v = 0.2, t = 0.2)
movej(p[0.526850164601632, 0.0149841539785067, 0.165781347069014, -1.27195072466209, 1.23069025289023, -1.10726204620529], a = 0.2, v = 0.2, t = 0.2)
movej(p[0.526012210344689, 0.0151908087120414, 0.166144213455413, -1.26996691701234, 1.22923158105351, -1.10572581288989], a = 0.2, v = 0.2, t = 0.2)
movej(p[0.528062366886887, 0.0146428921485633, 0.165330203319144, -1.27037132724443, 1.22191679326514, -1.11627498259167], a = 0.2, v = 0.2, t = 0.2)
movej(p[0.529104017317794, 0.0143699929576681, 0.165060921122552, -1.26746714883005, 1.22172031820095, -1.12155156634433], a = 0.2, v = 0.2, t = 0.2)
movej(p[0.52945620156994, 0.014240272424705, 0.164740647355491, -1.26954376775229, 1.21148982407483, -1.1284434651631], a = 0.2, v = 0.2, t = 0.2)
movej(p[0.530479063416515, 0.0139631503798288, 0.164338680696345, -1.27066896827108, 1.20629159855081, -1.1344436112262], a = 0.2, v = 0.2, t = 0.2)
movej(p[0.533479825297671, 0.0132500075815996, 0.163678577937726, -1.26966397435179, 1.21604998651548, -1.13783420088467], a = 0.2, v = 0.2, t = 0.2)
movej(p[0.534358734470696, 0.0129897767307694, 0.163072083321222, -1.27861319070142, 1.20741100214473, -1.14306073931732], a = 0.2, v = 0.2, t = 0.2)
movej(p[0.535410681699528, 0.0127654685590675, 0.163149721661362, -1.26926649031685, 1.21793017889228, -1.14304518051312], a = 0.2, v = 0.2, t = 0.2)
movej(p[0.535485671273956, 0.0127339196986635, 0.162912356177067, -1.27654764397296, 1.2147941699, -1.14144641596479], a = 0.2, v = 0.2, t = 0.2)
movej(p[0.535657164027026, 0.012683258045248, 0.162849698356186, -1.27575763819291, 1.21302394900673, -1.1439285514252], a = 0.2, v = 0.2, t = 0.2)
movej(p[0.53574722613077, 0.0126607851799719, 0.162836332437008, -1.27520358266225, 1.21316926589115, -1.14416272196675], a = 0.2, v = 0.2, t = 0.2)
movej(p[0.535887016300689, 0.0126321763982791, 0.162817762676532, -1.27546961770408, 1.21514352242225, -1.14231390681439], a = 0.2, v = 0.2, t = 0.2)
movej(p[0.536007469143883, 0.0126081226147565, 0.162801924177085, -1.27581419162212, 1.21705746996119, -1.14030348594027], a = 0.2, v = 0.2, t = 0.2)
movej(p[0.536007600930406, 0.0126020965929588, 0.162797459908544, -1.27490398962495, 1.21566481110054, -1.14194614726246], a = 0.2, v = 0.2, t = 0.2)
movej(p[0.536007513495611, 0.0125987699333143, 0.162794484057276, -1.27441387154457, 1.21497143436475, -1.14260962586681], a = 0.2, v = 0.2, t = 0.2)
movej(p[0.536137678825183, 0.0125712758474994, 0.162774685516351, -1.2746375209999, 1.21680008172894, -1.14069044088407], a = 0.2, v = 0.2, t = 0.2)
movej(p[0.536078424801923, 0.0125883840564203, 0.162785192652741, -1.27526101914307, 1.21729583618137, -1.13931201705749], a = 0.2, v = 0.2, t = 0.2)
movej(p[0.535592870229465, 0.012703781744285, 0.162862829440412, -1.27650394579477, 1.21430819156298, -1.14006648157526], a = 0.2, v = 0.2, t = 0.2)
movej(p[0.53469976371366, 0.0129320417901136, 0.163224747763941, -1.27274663653991, 1.21545274927015, -1.13832402917114], a = 0.2, v = 0.2, t = 0.2)
movej(p[0.533476750367848, 0.0132414410480515, 0.163529459866019, -1.2740319560057, 1.21311199227492, -1.13600761661429], a = 0.2, v = 0.2, t = 0.2)
movej(p[0.531936127788764, 0.0136783634354233, 0.164119241339304, -1.27299437177244, 1.2206666237004, -1.12729721011092], a = 0.2, v = 0.2, t = 0.2)
movej(p[0.530877186654197, 0.0139667772625218, 0.164530781954383, -1.26998849813734, 1.22225893875574, -1.12424416971411], a = 0.2, v = 0.2, t = 0.2)
movej(p[0.528809664106981, 0.0144867598982267, 0.164987329690463, -1.2778348494928, 1.22117318223737, -1.1144334932178], a = 0.2, v = 0.2, t = 0.2)
movej(p[0.527317482803207, 0.0148947537776428, 0.165440743409958, -1.28079430904707, 1.22234632865151, -1.10738708693339], a = 0.2, v = 0.2, t = 0.2)
movej(p[0.527124928923547, 0.0149321122677557, 0.165482495136203, -1.28064553880678, 1.22124887077898, -1.10672204205693], a = 0.2, v = 0.2, t = 0.2)
movej(p[0.528535780433584, 0.0144770108449695, 0.164968440555829, -1.27730359689218, 1.21437142491368, -1.11807306269612], a = 0.2, v = 0.2, t = 0.2)
movej(p[0.530667661417708, 0.0139527282730566, 0.164282451667931, -1.27577115053408, 1.20924108954654, -1.13109244103666], a = 0.2, v = 0.2, t = 0.2)
movej(p[0.53251171532586, 0.013447482660333, 0.163670121238626, -1.27585137962673, 1.20683810230688, -1.13861623424913], a = 0.2, v = 0.2, t = 0.2)
movej(p[0.533166847233767, 0.013286663464197, 0.16293468105792, -1.29816544991328, 1.20021800414598, -1.1340815107548], a = 0.2, v = 0.2, t = 0.2)
movej(p[0.534524694668167, 0.0129614422485338, 0.162935399233005, -1.28279589233202, 1.20686792684853, -1.13649559786439], a = 0.2, v = 0.2, t = 0.2)
movej(p[0.535013457949153, 0.0128309798316561, 0.16265688368058, -1.28634284146699, 1.20286019697845, -1.13941299246256], a = 0.2, v = 0.2, t = 0.2)
movej(p[0.53570787154039, 0.0126485596258779, 0.16279203963801, -1.27413963429017, 1.21236662452291, -1.13939259985281], a = 0.2, v = 0.2, t = 0.2)
movej(p[0.535742537685187, 0.0126430039629712, 0.16280407678944, -1.2739193796734, 1.2142525321935, -1.13689854240393], a = 0.2, v = 0.2, t = 0.2)
movej(p[0.535735725781193, 0.0126809349682118, 0.162623332559089, -1.28083609659665, 1.20706731764414, -1.14149154044341], a = 0.2, v = 0.2, t = 0.2)
movej(p[0.535788460577797, 0.0126699347054513, 0.16266939778943, -1.27912019763509, 1.209945379522, -1.139025931555], a = 0.2, v = 0.2, t = 0.2)
movej(p[0.535890152018287, 0.0126456836089215, 0.162757951870352, -1.27539443931353, 1.2146372268326, -1.13586038127436], a = 0.2, v = 0.2, t = 0.2)
movej(p[0.536040402740498, 0.012601168817311, 0.162718278657688, -1.27433791454794, 1.21383632354495, -1.13790665924879], a = 0.2, v = 0.2, t = 0.2)
movej(p[0.536265425665342, 0.0125341944130829, 0.162789238593377, -1.26843286725704, 1.2167499494612, -1.13965898943995], a = 0.2, v = 0.2, t = 0.2)
movej(p[0.535608274456054, 0.0127145840978316, 0.162931538311462, -1.27204381128367, 1.21693371975073, -1.13450347527898], a = 0.2, v = 0.2, t = 0.2)
movej(p[0.534456584773072, 0.0129954781789084, 0.163380740447843, -1.26655753172429, 1.21566140911395, -1.13763760900283], a = 0.2, v = 0.2, t = 0.2)
movej(p[0.53279124122408, 0.0134165852158697, 0.163647608350096, -1.27745164019551, 1.21368938641162, -1.13075085740702], a = 0.2, v = 0.2, t = 0.2)
movej(p[0.531452165427618, 0.0137746929738158, 0.164113226106444, -1.2756540659061, 1.21371306581875, -1.1273347371141], a = 0.2, v = 0.2, t = 0.2)
movej(p[0.530105915078317, 0.0141126387121199, 0.164521965846341, -1.27616280116445, 1.21425135621174, -1.12344259572869], a = 0.2, v = 0.2, t = 0.2)
movej(p[0.528580313509889, 0.0145337854884076, 0.164925937203287, -1.28219766666745, 1.21553624101526, -1.11399847897505], a = 0.2, v = 0.2, t = 0.2)
movej(p[0.528162897534752, 0.0146454881733572, 0.165022729630034, -1.28285486216504, 1.21327604547856, -1.11426108013358], a = 0.2, v = 0.2, t = 0.2)
movej(p[0.529095440108733, 0.0143383077174483, 0.164708331577845, -1.27717991472007, 1.20981360512304, -1.12291435253189], a = 0.2, v = 0.2, t = 0.2)
movej(p[0.530975737397241, 0.0138903009081102, 0.164143875533835, -1.27643251865056, 1.20696847087984, -1.13117244211018], a = 0.2, v = 0.2, t = 0.2)
movej(p[0.532751871006326, 0.0134391958093898, 0.163500630096552, -1.27980371444952, 1.20313836839345, -1.1379453966616], a = 0.2, v = 0.2, t = 0.2)
movej(p[0.533897348474457, 0.0131674688799362, 0.162978412607555, -1.28714870771351, 1.19953268482692, -1.13726581827249], a = 0.2, v = 0.2, t = 0.2)
movej(p[0.534601904825451, 0.0129890122822285, 0.16282982037691, -1.28541798766795, 1.20361176694683, -1.1347382266876], a = 0.2, v = 0.2, t = 0.2)
movej(p[0.535027122683645, 0.012878188714354, 0.162734295930422, -1.28404310447937, 1.20509888623507, -1.1347087768513], a = 0.2, v = 0.2, t = 0.2)
movej(p[0.535453395282686, 0.0127610778072255, 0.16263108078261, -1.28205280268305, 1.2049512900866, -1.13761085451339], a = 0.2, v = 0.2, t = 0.2)
movej(p[0.535898989480948, 0.0126348467896486, 0.162709148257763, -1.2740481165304, 1.21301353584438, -1.13421967179599], a = 0.2, v = 0.2, t = 0.2)
movej(p[0.536000870725171, 0.0125887579201651, 0.162776437916592, -1.26848838578907, 1.21346496636761, -1.13913180124238], a = 0.2, v = 0.2, t = 0.2)
movej(p[0.535992441232187, 0.0126186179284267, 0.162486847820845, -1.28045798028851, 1.2060985408049, -1.13729443206784], a = 0.2, v = 0.2, t = 0.2)
movej(p[0.535992088857039, 0.0126185519274433, 0.16247815463526, -1.2805518568557, 1.20588786600301, -1.13693324056923], a = 0.2, v = 0.2, t = 0.2)
movej(p[0.53606272435517, 0.0125860873872309, 0.162523147635077, -1.2767409240288, 1.2063960011729, -1.14000494541281], a = 0.2, v = 0.2, t = 0.2)
movej(p[0.536371869143197, 0.0124854801578899, 0.162662427444958, -1.26730641127424, 1.21415309928721, -1.13847781506808], a = 0.2, v = 0.2, t = 0.2)
movej(p[0.536195637271384, 0.0125395049831398, 0.162713994737053, -1.2685198769239, 1.21562301411827, -1.13445689487428], a = 0.2, v = 0.2, t = 0.2)
movej(p[0.535791493422329, 0.0126168102634641, 0.163037740042664, -1.25935137274085, 1.21953374929306, -1.13697646775383], a = 0.2, v = 0.2, t = 0.2)
movej(p[0.53463965608961, 0.0129237180822443, 0.163365112857245, -1.26174015729891, 1.21954530559183, -1.13139388113319], a = 0.2, v = 0.2, t = 0.2)
movej(p[0.533247353499414, 0.0132671670736188, 0.163671206041845, -1.26506428381039, 1.21345920882556, -1.13657549832035], a = 0.2, v = 0.2, t = 0.2)
movej(p[0.53213138644832, 0.0135819160964211, 0.164146949400725, -1.26406225604701, 1.21968327041088, -1.12968481299741], a = 0.2, v = 0.2, t = 0.2)
movej(p[0.530219139363355, 0.0140909339449605, 0.164619371464044, -1.27143733472926, 1.21978878069695, -1.11967074201175], a = 0.2, v = 0.2, t = 0.2)
movej(p[0.528256424562174, 0.014633604463148, 0.165274508188639, -1.2727486439713, 1.22019900533215, -1.11276412997362], a = 0.2, v = 0.2, t = 0.2)
movej(p[0.526963246056699, 0.014979522072632, 0.165674148002003, -1.27447949558558, 1.22068603607771, -1.10837984235732], a = 0.2, v = 0.2, t = 0.2)
movej(p[0.52642155816177, 0.0151336183660348, 0.16594983599022, -1.27159563971935, 1.22096705378995, -1.10735447182828], a = 0.2, v = 0.2, t = 0.2)
movej(p[0.528447599282682, 0.0145293988382513, 0.16512731041699, -1.26953513703048, 1.21637000365638, -1.11844174243451], a = 0.2, v = 0.2, t = 0.2)
movej(p[0.530846388196002, 0.0138840874288094, 0.164340061330502, -1.27587550091979, 1.2031579144084, -1.13641065388015], a = 0.2, v = 0.2, t = 0.2)
movej(p[0.532615425788958, 0.0135013754300834, 0.163364702478212, -1.28488809268686, 1.1989205412516, -1.1381398462166], a = 0.2, v = 0.2, t = 0.2)
movej(p[0.533229417942277, 0.0134308303874964, 0.163251311417587, -1.32236228817818, 1.19531032338363, -1.13144185132111], a = 0.2, v = 0.2, t = 0.2)
movej(p[0.534874709054723, 0.012868667066209, 0.162753195240874, -1.29087893843381, 1.19868689849002, -1.137861463539], a = 0.2, v = 0.2, t = 0.2)
movej(p[0.535409867504978, 0.012711349905648, 0.162609877990991, -1.29234564155663, 1.19975915776926, -1.13518825342226], a = 0.2, v = 0.2, t = 0.2)
movej(p[0.536177171627596, 0.0123953892689747, 0.162628986614323, -1.29117081881554, 1.20358434945474, -1.13240808159354], a = 0.2, v = 0.2, t = 0.2)
movej(p[0.536009093054071, 0.0124114179426753, 0.162637960172202, -1.29311715826569, 1.19882287566837, -1.13848956929709], a = 0.2, v = 0.2, t = 0.2)
movej(p[0.536181419468408, 0.012366548756991, 0.16258144094452, -1.29202732322702, 1.20149858712874, -1.13524760135558], a = 0.2, v = 0.2, t = 0.2)
movej(p[0.536183464997422, 0.0123479689608671, 0.162626429687413, -1.2867203459184, 1.2043618999459, -1.13472378910118], a = 0.2, v = 0.2, t = 0.2)
movej(p[0.536184453884465, 0.0123376078953785, 0.162645580938661, -1.28452578475848, 1.20552331189109, -1.13441852317131], a = 0.2, v = 0.2, t = 0.2)
movej(p[0.536311430096151, 0.0123219869872156, 0.162575870904275, -1.28802734667498, 1.20458905238732, -1.13307333667331], a = 0.2, v = 0.2, t = 0.2)
movej(p[0.536309481475798, 0.0123122284441677, 0.162571392766681, -1.28769198927513, 1.20519115380444, -1.13370875046424], a = 0.2, v = 0.2, t = 0.2)
movej(p[0.535715847320959, 0.0123750194929451, 0.163002687786825, -1.28241800524395, 1.20836229068421, -1.13549396943386], a = 0.2, v = 0.2, t = 0.2)
movej(p[0.53375966699887, 0.0131152803628193, 0.163430371211811, -1.31795114712208, 1.20319309541083, -1.12669506760019], a = 0.2, v = 0.2, t = 0.2)
movej(p[0.532746173651967, 0.0133867158711672, 0.163648823336066, -1.28206521774771, 1.2082955729335, -1.13386990873393], a = 0.2, v = 0.2, t = 0.2)
movej(p[0.531398257598815, 0.0137510810822925, 0.164129961535107, -1.28059125252124, 1.20942745231452, -1.13027205607664], a = 0.2, v = 0.2, t = 0.2)
movej(p[0.529248474067041, 0.0144031176781397, 0.164796480750274, -1.27484719567326, 1.21787576609335, -1.11555118203115], a = 0.2, v = 0.2, t = 0.2)
movej(p[0.526892797190254, 0.0150854550615231, 0.165575018949343, -1.26713592585113, 1.22505486850346, -1.10533701833908], a = 0.2, v = 0.2, t = 0.2)
movej(p[0.524678939884308, 0.0156773822143571, 0.166430397043899, -1.25784701596308, 1.2342566449149, -1.09100459911434], a = 0.2, v = 0.2, t = 0.2)
movej(p[0.524688721290408, 0.0156274135757042, 0.166534203783786, -1.26323055791615, 1.23122997194069, -1.09228224984817], a = 0.2, v = 0.2, t = 0.2)
movej(p[0.527127632157893, 0.0149037739157254, 0.165706711884749, -1.26011167174189, 1.22152363337681, -1.11387144519086], a = 0.2, v = 0.2, t = 0.2)
movej(p[0.529068961304551, 0.0144272384858122, 0.164896571083176, -1.26544021365449, 1.21584873001825, -1.12189030666399], a = 0.2, v = 0.2, t = 0.2)
movej(p[0.530805384980946, 0.0140199434455043, 0.164141626809607, -1.27042545580225, 1.20968272330075, -1.12999901959436], a = 0.2, v = 0.2, t = 0.2)
movej(p[0.53251027386119, 0.0135881467064583, 0.163473805858924, -1.28586384361099, 1.19829319095121, -1.14011737343043], a = 0.2, v = 0.2, t = 0.2)
movej(p[0.533696679272841, 0.013300779815237, 0.163033044155694, -1.29135203845908, 1.20190530629266, -1.13227153083513], a = 0.2, v = 0.2, t = 0.2)
movej(p[0.535155914875481, 0.0128183220889716, 0.162669640470581, -1.29432955001511, 1.20276246241559, -1.13020180962654], a = 0.2, v = 0.2, t = 0.2)
movej(p[0.535387132197999, 0.0127110686699801, 0.162647256684428, -1.28824683820117, 1.20539071032257, -1.13039440029373], a = 0.2, v = 0.2, t = 0.2)
movej(p[0.535546118345583, 0.0126819470875644, 0.162595418297937, -1.29803712879251, 1.20056116397776, -1.13040619464804], a = 0.2, v = 0.2, t = 0.2)
movej(p[0.535839339049649, 0.0125715874441508, 0.1625450432266, -1.29985969659582, 1.19914332433444, -1.13238816570535], a = 0.2, v = 0.2, t = 0.2)
movej(p[0.535924229490407, 0.0125387865845439, 0.162532298946433, -1.29674601127177, 1.20146767293121, -1.13000822089973], a = 0.2, v = 0.2, t = 0.2)
movej(p[0.536092368785364, 0.0124406712722218, 0.162554603497076, -1.28969238146296, 1.20626515808772, -1.12975296995397], a = 0.2, v = 0.2, t = 0.2)
movej(p[0.535998878967657, 0.0124040611559513, 0.162691231178649, -1.29396665317489, 1.20509943343819, -1.12815120667775], a = 0.2, v = 0.2, t = 0.2)
movej(p[0.53555699924064, 0.0125270163427527, 0.162848183110431, -1.29904408728857, 1.20156054926521, -1.13027676881817], a = 0.2, v = 0.2, t = 0.2)
movej(p[0.533973092747109, 0.0130552043757785, 0.163264714923763, -1.2884008292044, 1.20800619322893, -1.12629303476882], a = 0.2, v = 0.2, t = 0.2)
movej(p[0.532847972771096, 0.013345004684721, 0.163691674313533, -1.28559251500711, 1.20410721954215, -1.13075832034559], a = 0.2, v = 0.2, t = 0.2)
movej(p[0.531352576704387, 0.013748638085348, 0.164231149763919, -1.27791811540823, 1.21142747147204, -1.12414843708876], a = 0.2, v = 0.2, t = 0.2)
movej(p[0.529214414376832, 0.0143838870859894, 0.164944768281201, -1.27243450584498, 1.21843513133584, -1.11337081899497], a = 0.2, v = 0.2, t = 0.2)
movej(p[0.527460446251608, 0.0149273369003805, 0.165478284621099, -1.27277039500382, 1.22150695819069, -1.10537289856692], a = 0.2, v = 0.2, t = 0.2)
movej(p[0.525489338319487, 0.0154040525647148, 0.166264578170169, -1.25455573892064, 1.23508857067193, -1.09351962421294], a = 0.2, v = 0.2, t = 0.2)
movej(p[0.525769480866167, 0.0153321845493623, 0.166138283625911, -1.25764530602474, 1.2301926755305, -1.09706689630549], a = 0.2, v = 0.2, t = 0.2)
movej(p[0.528184301053396, 0.0146254628156519, 0.165357795480933, -1.2609258165497, 1.2197300162631, -1.11546909486282], a = 0.2, v = 0.2, t = 0.2)
movej(p[0.529832135819329, 0.0142560188749275, 0.164667090986344, -1.25930988838293, 1.21977946497413, -1.11905074773639], a = 0.2, v = 0.2, t = 0.2)
movej(p[0.531747500576136, 0.0137875460951155, 0.163937884504642, -1.27118198290408, 1.205893390526, -1.1346885200525], a = 0.2, v = 0.2, t = 0.2)
movej(p[0.533141177410262, 0.0135045087023499, 0.163342906256034, -1.28704352584982, 1.19776249395136, -1.13740507621193], a = 0.2, v = 0.2, t = 0.2)
movej(p[0.534495358468649, 0.0130293447766839, 0.163061839155769, -1.29302983513222, 1.20088593334763, -1.12891500537881], a = 0.2, v = 0.2, t = 0.2)
movej(p[0.535281938077228, 0.01274759678991, 0.162883364251883, -1.29369579895606, 1.20150885756522, -1.12568036685723], a = 0.2, v = 0.2, t = 0.2)
movej(p[0.535569898142388, 0.012633785895863, 0.162827663342831, -1.29055530861997, 1.20328147139079, -1.12394353037216], a = 0.2, v = 0.2, t = 0.2)
movej(p[0.53567196261483, 0.0126726688387858, 0.162700975457795, -1.28609475565025, 1.20530561373169, -1.12277088951525], a = 0.2, v = 0.2, t = 0.2)
movej(p[0.535827373849984, 0.0126018991355859, 0.162677240523695, -1.29387095815285, 1.20024187362526, -1.1261618544022], a = 0.2, v = 0.2, t = 0.2)
movej(p[0.536027285172686, 0.012538241874209, 0.162617048280594, -1.29727991576544, 1.19826845634088, -1.12603125804525], a = 0.2, v = 0.2, t = 0.2)
movej(p[0.536301410868617, 0.0123037124142113, 0.162705245419003, -1.29052847448808, 1.20232920923465, -1.12534687387463], a = 0.2, v = 0.2, t = 0.2)
movej(p[0.535769382000262, 0.012566483386639, 0.162745498857197, -1.28671702555369, 1.20434726091475, -1.1224319227399], a = 0.2, v = 0.2, t = 0.2)
movej(p[0.534517093597032, 0.0129656633814748, 0.163124875209725, -1.28801640858053, 1.20422037589455, -1.12242749233518], a = 0.2, v = 0.2, t = 0.2)
movej(p[0.533208443403705, 0.0133166956641629, 0.16357114974184, -1.28427624697912, 1.20231469224742, -1.13092153105667], a = 0.2, v = 0.2, t = 0.2)
movej(p[0.531612233197118, 0.0139156635081025, 0.163966741473701, -1.28114220168879, 1.20580716845705, -1.12367260420713], a = 0.2, v = 0.2, t = 0.2)
movej(p[0.531371767845862, 0.0138974167597397, 0.16414282747831, -1.27066134672861, 1.2126473681862, -1.12247878809801], a = 0.2, v = 0.2, t = 0.2)
movej(p[0.530144817707081, 0.014221989145976, 0.164600117225668, -1.27947753942679, 1.21023140778381, -1.11606755908709], a = 0.2, v = 0.2, t = 0.2)
movej(p[0.527580372160515, 0.0149403376531861, 0.165466007536786, -1.26460923496406, 1.22307459759693, -1.10440619679872], a = 0.2, v = 0.2, t = 0.2)
movej(p[0.526313428100483, 0.015266127395434, 0.16592905265618, -1.25824660144756, 1.22862686455171, -1.09605738333763], a = 0.2, v = 0.2, t = 0.2)
movej(p[0.527630791671947, 0.0148472377236679, 0.165510305234138, -1.25161090636133, 1.22530493461222, -1.10946120349738], a = 0.2, v = 0.2, t = 0.2)
movej(p[0.52990506904714, 0.0142733655089528, 0.164708372199613, -1.25646502732445, 1.21794771306974, -1.11737568919465], a = 0.2, v = 0.2, t = 0.2)
movej(p[0.531577837525281, 0.0138761786534974, 0.164096170002301, -1.27632116107789, 1.20045667767915, -1.13121363613765], a = 0.2, v = 0.2, t = 0.2)
movej(p[0.532940259752279, 0.0135398031489888, 0.163627223080628, -1.29981039155525, 1.18551772467983, -1.13798480129274], a = 0.2, v = 0.2, t = 0.2)
movej(p[0.534363104043738, 0.0130042065412824, 0.163294155871079, -1.28240789885626, 1.20089872503597, -1.12200457488538], a = 0.2, v = 0.2, t = 0.2)
movej(p[0.535084509017013, 0.0128314233493621, 0.163018078557409, -1.28181862061491, 1.20177749519717, -1.11784066578476], a = 0.2, v = 0.2, t = 0.2)
movej(p[0.535727858502626, 0.0126458271159928, 0.162804883886929, -1.29078177655888, 1.19567281160076, -1.12096499542518], a = 0.2, v = 0.2, t = 0.2)
movej(p[0.535833007641128, 0.0126042431492783, 0.162774604151386, -1.29511633913513, 1.19280379155774, -1.12162559082077], a = 0.2, v = 0.2, t = 0.2)
movej(p[0.53582119873727, 0.0127423257539697, 0.162646337888981, -1.28700366086797, 1.19650449419481, -1.12244117133277], a = 0.2, v = 0.2, t = 0.2)
movej(p[0.535821196252555, 0.0127443148140839, 0.162643522994012, -1.28373115970058, 1.19872615765016, -1.1190578775067], a = 0.2, v = 0.2, t = 0.2)
movej(p[0.5358586338633, 0.0126913766159481, 0.162662809582094, -1.27869177866901, 1.20116324861538, -1.11982487306359], a = 0.2, v = 0.2, t = 0.2)
movej(p[0.536084205439381, 0.0126555587245819, 0.162571266408002, -1.29589154076616, 1.19103323513768, -1.12209368216837], a = 0.2, v = 0.2, t = 0.2)
movej(p[0.536084111378829, 0.0126560426382705, 0.162569064822175, -1.29176411070494, 1.19356073512234, -1.12031152326684], a = 0.2, v = 0.2, t = 0.2)
movej(p[0.535970392548775, 0.0125840921267725, 0.162695118785168, -1.28442445120726, 1.19818557800144, -1.11941866486138], a = 0.2, v = 0.2, t = 0.2)
movej(p[0.535364426008797, 0.0126287297692257, 0.16301424707176, -1.29417442621218, 1.19337016344622, -1.12258759550962], a = 0.2, v = 0.2, t = 0.2)
movej(p[0.534089679105119, 0.0130187666019909, 0.163418849766572, -1.30239261263089, 1.18649675686032, -1.13212956411945], a = 0.2, v = 0.2, t = 0.2)
movej(p[0.533477999911672, 0.0131777780923938, 0.163642212722822, -1.30224817057618, 1.18826456349949, -1.13201534205344], a = 0.2, v = 0.2, t = 0.2)
movej(p[0.532449999825701, 0.0134802523978014, 0.163969320438735, -1.29916697537504, 1.19308119907362, -1.12653429791583], a = 0.2, v = 0.2, t = 0.2)
movej(p[0.530950878297585, 0.0139962293518205, 0.164384474141432, -1.30134516458979, 1.19520187396656, -1.12281955682498], a = 0.2, v = 0.2, t = 0.2)
movej(p[0.527540186513093, 0.0149849489581527, 0.165496280217712, -1.29270507387682, 1.20733228984942, -1.10841145725246], a = 0.2, v = 0.2, t = 0.2)
movej(p[0.526078278912919, 0.0152663381504721, 0.166105657285707, -1.27944110969591, 1.21753756417089, -1.09699911934581], a = 0.2, v = 0.2, t = 0.2)
movej(p[0.526901416186069, 0.0152342071027853, 0.165644874250727, -1.24260949592314, 1.23172193583979, -1.1037218508593], a = 0.2, v = 0.2, t = 0.2)
movej(p[0.528881027359629, 0.0147030905096357, 0.164933742352976, -1.23643588953418, 1.22893409371502, -1.11540539828719], a = 0.2, v = 0.2, t = 0.2)
movej(p[0.530717149525628, 0.0141800229177817, 0.164338872866552, -1.26597657066235, 1.20840988042949, -1.12418345632878], a = 0.2, v = 0.2, t = 0.2)
movej(p[0.532479427265579, 0.013742914895467, 0.163716642584339, -1.28076809528212, 1.19567835305287, -1.13253786912185], a = 0.2, v = 0.2, t = 0.2)
movej(p[0.533355281198626, 0.0136192934296216, 0.163313385344916, -1.28820864342033, 1.19092482435606, -1.13404252400985], a = 0.2, v = 0.2, t = 0.2)
movej(p[0.534808128041536, 0.0128679791079373, 0.163090883522276, -1.2715280593444, 1.20346571405065, -1.11791489651336], a = 0.2, v = 0.2, t = 0.2)
movej(p[0.535296425466277, 0.0128806476465642, 0.162831103032015, -1.29099397521507, 1.19119931276089, -1.11960950435315], a = 0.2, v = 0.2, t = 0.2)
movej(p[0.535550056696912, 0.0127762139667715, 0.162762228324235, -1.28308816153776, 1.19519927069073, -1.12008306141181], a = 0.2, v = 0.2, t = 0.2)
movej(p[0.535619820151778, 0.0129111806934906, 0.162627212128748, -1.27873427206835, 1.19737777857397, -1.1175458151159], a = 0.2, v = 0.2, t = 0.2)
movej(p[0.535830292397286, 0.0126673040254125, 0.162678905596789, -1.27091951327092, 1.20165633670796, -1.11697433390054], a = 0.2, v = 0.2, t = 0.2)
movej(p[0.535971106473497, 0.0126168964772597, 0.162636845936425, -1.27730351484836, 1.19761291491104, -1.11909052859746], a = 0.2, v = 0.2, t = 0.2)
movej(p[0.536093392220893, 0.0125749067921714, 0.162598868017446, -1.28251890920731, 1.19426062953303, -1.12049146135181], a = 0.2, v = 0.2, t = 0.2)
movej(p[0.536079608163386, 0.0127550453017526, 0.162489677646422, -1.27997144889723, 1.19564755145384, -1.11651564284297], a = 0.2, v = 0.2, t = 0.2)
movej(p[0.536078960079093, 0.0127632774705331, 0.16248113590281, -1.27206143852412, 1.19990130894458, -1.1171859016141], a = 0.2, v = 0.2, t = 0.2)
movej(p[0.536079551934935, 0.0127542219514436, 0.162486083354749, -1.27264818137103, 1.19950720573573, -1.11869554712373], a = 0.2, v = 0.2, t = 0.2)
movej(p[0.536076477433594, 0.012795999135356, 0.162463874699998, -1.27738778105128, 1.19698910518179, -1.11675609701799], a = 0.2, v = 0.2, t = 0.2)
movej(p[0.53621027429056, 0.0126502169911586, 0.162485004477544, -1.27582401121803, 1.1977683653942, -1.11733012564115], a = 0.2, v = 0.2, t = 0.2)
movej(p[0.536226880820434, 0.0126295028240476, 0.162489166982373, -1.27545075726036, 1.19795260027275, -1.11763315754387], a = 0.2, v = 0.2, t = 0.2)
movej(p[0.535759633019189, 0.0128800059219887, 0.16257694528353, -1.27910110796761, 1.19658826328812, -1.11567957240269], a = 0.2, v = 0.2, t = 0.2)
movej(p[0.53436324245265, 0.0133194829900274, 0.163019155722516, -1.27968863296689, 1.19852022105548, -1.12276960195535], a = 0.2, v = 0.2, t = 0.2)
movej(p[0.53343422574431, 0.0134555314156947, 0.163405563333076, -1.27979010668558, 1.19712797778902, -1.13169370363878], a = 0.2, v = 0.2, t = 0.2)
movej(p[0.532344275532741, 0.0137501991888419, 0.163780945058483, -1.27412257646075, 1.20162613357183, -1.12840066780124], a = 0.2, v = 0.2, t = 0.2)
movej(p[0.530727295759612, 0.0142889657284097, 0.164266795075601, -1.27371100729339, 1.2056792443967, -1.12822138122082], a = 0.2, v = 0.2, t = 0.2)
movej(p[0.528955402444226, 0.0148239939073098, 0.164834605199386, -1.26555721852297, 1.21542310250266, -1.11770598261768], a = 0.2, v = 0.2, t = 0.2)
movej(p[0.527823229903294, 0.0151219533023597, 0.165236201808512, -1.26839062015857, 1.21792180444787, -1.10707728073739], a = 0.2, v = 0.2, t = 0.2)
movej(p[0.52857149089194, 0.0149039127335238, 0.16499997451709, -1.27185598918875, 1.21065234260517, -1.11807601437635], a = 0.2, v = 0.2, t = 0.2)
movej(p[0.530549952713274, 0.0143668160550932, 0.164366851962174, -1.25930194717069, 1.21282776371114, -1.12572207139248], a = 0.2, v = 0.2, t = 0.2)
movej(p[0.532836381260021, 0.0137750398424535, 0.163583497837417, -1.26988040020729, 1.20015676726259, -1.13940216814716], a = 0.2, v = 0.2, t = 0.2)
movej(p[0.533511274770067, 0.0136653632483718, 0.163307135747384, -1.28918991165602, 1.19224214137983, -1.13241827075246], a = 0.2, v = 0.2, t = 0.2)
movej(p[0.534593050153463, 0.0130667468485074, 0.163127274006892, -1.28249805409624, 1.19587821292594, -1.12238298081574], a = 0.2, v = 0.2, t = 0.2)
movej(p[0.535026724476762, 0.0130383615462659, 0.162929690212192, -1.26873781409064, 1.20342192939397, -1.12044563018677], a = 0.2, v = 0.2, t = 0.2)
movej(p[0.53542485649157, 0.0129782517131153, 0.162767072664729, -1.26894196968753, 1.20259946737096, -1.11810103239852], a = 0.2, v = 0.2, t = 0.2)
movej(p[0.535819499822441, 0.0128591924211643, 0.162637477539822, -1.27750167013228, 1.19695116584041, -1.12295214211109], a = 0.2, v = 0.2, t = 0.2)
movej(p[0.535904455944536, 0.012738671457496, 0.162651448031401, -1.26785081992668, 1.20222797895178, -1.1210349688448], a = 0.2, v = 0.2, t = 0.2)
movej(p[0.536097855650965, 0.0125651443407765, 0.162635121877031, -1.28398936332184, 1.19230213922032, -1.12143100942236], a = 0.2, v = 0.2, t = 0.2)
movej(p[0.536054748492814, 0.0125387507550511, 0.162665769088139, -1.28489658325724, 1.19265967658401, -1.12331862365174], a = 0.2, v = 0.2, t = 0.2)
movej(p[0.536016202165379, 0.0125186138359538, 0.162690538123861, -1.28059753890228, 1.19583815273035, -1.12281771449779], a = 0.2, v = 0.2, t = 0.2)
movej(p[0.536063339288221, 0.0125309201066641, 0.162658970619186, -1.2767627866573, 1.1973987856504, -1.11821134336411], a = 0.2, v = 0.2, t = 0.2)
movej(p[0.536274729399476, 0.0124900849544412, 0.162596286640317, -1.28002361839251, 1.1952619667534, -1.12154985555971], a = 0.2, v = 0.2, t = 0.2)
movej(p[0.536274332249107, 0.0124965542127362, 0.162592651950688, -1.27879805687518, 1.19596537975209, -1.12010861021411], a = 0.2, v = 0.2, t = 0.2)
movej(p[0.536274537597448, 0.0124926719046797, 0.162595073833471, -1.27950231140209, 1.19560782763297, -1.12097308962347], a = 0.2, v = 0.2, t = 0.2)
movej(p[0.536274593402406, 0.0124906778328249, 0.162596286501292, -1.27987909879569, 1.1954182827166, -1.12143287367304], a = 0.2, v = 0.2, t = 0.2)
movej(p[0.536388979857262, 0.0124718207587345, 0.162551875582564, -1.2800051555245, 1.19514787380183, -1.12155079637316], a = 0.2, v = 0.2, t = 0.2)
movej(p[0.536369409422184, 0.0124731687748803, 0.162557136848887, -1.28020495683157, 1.19500403185318, -1.1216469091542], a = 0.2, v = 0.2, t = 0.2)
movej(p[0.536274749438092, 0.012487659717369, 0.162592000870421, -1.28018087582732, 1.19516401219499, -1.12155651174392], a = 0.2, v = 0.2, t = 0.2)
movej(p[0.536225138490752, 0.0125153800769878, 0.162604555772516, -1.27892486348246, 1.19602058202871, -1.12116381147785], a = 0.2, v = 0.2, t = 0.2)
movej(p[0.535653683353746, 0.0128171198962916, 0.162757335377949, -1.27129710018282, 1.20186901648326, -1.12034853859742], a = 0.2, v = 0.2, t = 0.2)
movej(p[0.534505403294873, 0.0133600285318497, 0.163055965014505, -1.29380270296883, 1.18980405643668, -1.12830894097387], a = 0.2, v = 0.2, t = 0.2)
movej(p[0.533708491477812, 0.0135714573970224, 0.163338471051256, -1.28428466489178, 1.19503666300146, -1.13551433055776], a = 0.2, v = 0.2, t = 0.2)
movej(p[0.532502495345621, 0.0137880452384956, 0.163785792463741, -1.26895490365929, 1.20637436365365, -1.13081988058155], a = 0.2, v = 0.2, t = 0.2)
movej(p[0.531086758154576, 0.0142707510433502, 0.164231368082297, -1.28121454193737, 1.20426625608508, -1.12573719432648], a = 0.2, v = 0.2, t = 0.2)
movej(p[0.529699555673821, 0.0146877487254745, 0.164694476040001, -1.27334259707853, 1.2133813027338, -1.11759757667802], a = 0.2, v = 0.2, t = 0.2)
movej(p[0.529668408711215, 0.014740548149344, 0.164691114855766, -1.2776205944001, 1.2085467442369, -1.12076074137972], a = 0.2, v = 0.2, t = 0.2)
movej(p[0.531447533047807, 0.0141515562502532, 0.164142575415298, -1.2796781565976, 1.20121453420452, -1.12932448620173], a = 0.2, v = 0.2, t = 0.2)
movej(p[0.533034732852083, 0.0137027881681316, 0.163643263559064, -1.27953963267365, 1.19712343736278, -1.14111355791287], a = 0.2, v = 0.2, t = 0.2)
movej(p[0.533530585646938, 0.0136531099442558, 0.16344422059911, -1.29179714795938, 1.18989515742943, -1.14152311464992], a = 0.2, v = 0.2, t = 0.2)
movej(p[0.533816505543706, 0.0137108000628176, 0.163292853915681, -1.29616077857322, 1.18742061513894, -1.13479846185962], a = 0.2, v = 0.2, t = 0.2)
movej(p[0.534787363202948, 0.0131859387736956, 0.163057579431998, -1.28228070157595, 1.19815060571715, -1.1269305063637], a = 0.2, v = 0.2, t = 0.2)
movej(p[0.535351511578471, 0.0129995569201469, 0.162882806851017, -1.28027671747707, 1.19838037678905, -1.12435716689551], a = 0.2, v = 0.2, t = 0.2)
movej(p[0.535943788755511, 0.0128474845045171, 0.162678467853362, -1.26504302529081, 1.20638640528551, -1.12607740547004], a = 0.2, v = 0.2, t = 0.2)
movej(p[0.535815469391625, 0.0129097118832557, 0.162709578369064, -1.27081659597969, 1.20325702196213, -1.12684881865295], a = 0.2, v = 0.2, t = 0.2)
movej(p[0.536006372541365, 0.0127380186284995, 0.162670101746988, -1.27620317506704, 1.19955849418154, -1.12752395856282], a = 0.2, v = 0.2, t = 0.2)
movej(p[0.536010589746949, 0.0126862110769713, 0.162676539353819, -1.27922537867703, 1.19739867657524, -1.12676869668814], a = 0.2, v = 0.2, t = 0.2)
movej(p[0.536122359319655, 0.0127741733643591, 0.162608957635768, -1.28159800469932, 1.19574724550343, -1.12568386027504], a = 0.2, v = 0.2, t = 0.2)
movej(p[0.536267775908547, 0.0126841901589825, 0.162570638861975, -1.28269192646584, 1.19463805430408, -1.1237632427676], a = 0.2, v = 0.2, t = 0.2)
movej(p[0.536278371340488, 0.0125327180472221, 0.162603089997253, -1.2708133111477, 1.20197547474246, -1.12682599593602], a = 0.2, v = 0.2, t = 0.2)
movej(p[0.536272860548433, 0.0126179427098361, 0.162583753812178, -1.27229372161497, 1.20186382123031, -1.12877808359034], a = 0.2, v = 0.2, t = 0.2)
movej(p[0.536272517211079, 0.0126367194156446, 0.16257653110919, -1.26733466750284, 1.20369285410821, -1.12356427744683], a = 0.2, v = 0.2, t = 0.2)
movej(p[0.536240628231513, 0.0125326105520522, 0.162597484092361, -1.27226318394534, 1.20053277765692, -1.12386161908001], a = 0.2, v = 0.2, t = 0.2)
movej(p[0.536016141354038, 0.0126525164134125, 0.162663304577417, -1.27703790367863, 1.19874304134674, -1.12465818857675], a = 0.2, v = 0.2, t = 0.2)
movej(p[0.535182618660041, 0.0131111056759929, 0.162910053633825, -1.28089406505639, 1.19918651390076, -1.12761561004673], a = 0.2, v = 0.2, t = 0.2)
movej(p[0.533978054847499, 0.0135150684924192, 0.163327028098823, -1.27768981871064, 1.20266391319262, -1.13514367856676], a = 0.2, v = 0.2, t = 0.2)
movej(p[0.532665997379651, 0.0138888843786964, 0.163782548596968, -1.27614487759205, 1.20671545774259, -1.13049826358672], a = 0.2, v = 0.2, t = 0.2)
movej(p[0.530984665482658, 0.0144067702291123, 0.164354649416834, -1.27636702997796, 1.21213559438138, -1.12688577261967], a = 0.2, v = 0.2, t = 0.2)
movej(p[0.529820543549021, 0.0146751538711178, 0.164757678205297, -1.26700373237866, 1.2206854261782, -1.1197237873312], a = 0.2, v = 0.2, t = 0.2)
movej(p[0.529533731760738, 0.0147484046815266, 0.164861146687822, -1.25802985947069, 1.22645155539355, -1.11856395597769], a = 0.2, v = 0.2, t = 0.2)
movej(p[0.529656469707975, 0.0146732255526015, 0.164831788300913, -1.27135098622755, 1.21738329005356, -1.12007706602237], a = 0.2, v = 0.2, t = 0.2)
movej(p[0.531884276693824, 0.0141682070620982, 0.16411416735079, -1.26996475333366, 1.20924829348422, -1.13419242369266], a = 0.2, v = 0.2, t = 0.2)
movej(p[0.533369096910246, 0.0136877649284577, 0.163646960703657, -1.28724044889053, 1.19679683735679, -1.14449129390646], a = 0.2, v = 0.2, t = 0.2)
movej(p[0.534534736805349, 0.0133529857280903, 0.163309174659026, -1.28882223712615, 1.19376788499983, -1.14692091678429], a = 0.2, v = 0.2, t = 0.2)
movej(p[0.53526670689758, 0.0130282571116343, 0.163090763854043, -1.28198502798487, 1.19951634139221, -1.12823316221602], a = 0.2, v = 0.2, t = 0.2)
movej(p[0.5355610424266, 0.0129312653789883, 0.162996744812595, -1.28185055076106, 1.1990963446405, -1.12829982429069], a = 0.2, v = 0.2, t = 0.2)
movej(p[0.535894496679893, 0.0127175036083149, 0.162899393560114, -1.28131037095444, 1.19901177621311, -1.12783439069875], a = 0.2, v = 0.2, t = 0.2)
movej(p[0.53600932063369, 0.0128077036590869, 0.162841412007228, -1.28550144138472, 1.19625326116971, -1.12872231383358], a = 0.2, v = 0.2, t = 0.2)
movej(p[0.536242260460311, 0.0126960765786815, 0.162766484962084, -1.26932605096068, 1.20635825878039, -1.13058491291796], a = 0.2, v = 0.2, t = 0.2)
movej(p[0.536484843283944, 0.0127065814590689, 0.162677029435893, -1.26433142958778, 1.20799496778799, -1.12790257824693], a = 0.2, v = 0.2, t = 0.2)
movej(p[0.536268267818035, 0.0127876686552575, 0.162737985683975, -1.26961000016076, 1.20530577275232, -1.12825608915531], a = 0.2, v = 0.2, t = 0.2)
movej(p[0.536404788561723, 0.012599285284719, 0.162703105141443, -1.27652284074349, 1.20112931154226, -1.12991664865323], a = 0.2, v = 0.2, t = 0.2)
movej(p[0.536542672390907, 0.0125197513656677, 0.162661831719367, -1.27879312885248, 1.19942537636502, -1.13020657862796], a = 0.2, v = 0.2, t = 0.2)
movej(p[0.53653474063516, 0.0126384788958557, 0.162659542434278, -1.27437613782859, 1.20204717676583, -1.12924176308372], a = 0.2, v = 0.2, t = 0.2)
movej(p[0.536113705483966, 0.0127329322494335, 0.162795476298555, -1.27314474594673, 1.20356556628591, -1.12834299594453], a = 0.2, v = 0.2, t = 0.2)
movej(p[0.535042559818607, 0.0131389415630094, 0.163132227201852, -1.27371492175432, 1.20414853341113, -1.13040675440153], a = 0.2, v = 0.2, t = 0.2)
movej(p[0.533824377571488, 0.0136198391032821, 0.163513250637569, -1.27533217445936, 1.2035698996033, -1.13786845388939], a = 0.2, v = 0.2, t = 0.2)
movej(p[0.531987518498909, 0.0140985046985225, 0.164073832375957, -1.28309152997812, 1.20754644707354, -1.13090578889985], a = 0.2, v = 0.2, t = 0.2)
movej(p[0.530247591672959, 0.0146332182274519, 0.164613604052059, -1.26406023746318, 1.22305736606233, -1.1217734923369], a = 0.2, v = 0.2, t = 0.2)
movej(p[0.529152959742361, 0.0148910986665745, 0.164962263435459, -1.26518004856166, 1.22403576881834, -1.11952309229704], a = 0.2, v = 0.2, t = 0.2)
movej(p[0.528788111416545, 0.0150341081074778, 0.165073820322121, -1.26528961518709, 1.22465666715588, -1.1193204523616], a = 0.2, v = 0.2, t = 0.2)
movej(p[0.52836297247499, 0.015090885977504, 0.165217836688722, -1.27015083755809, 1.22224746475853, -1.12112621586883], a = 0.2, v = 0.2, t = 0.2)
movej(p[0.526875461764007, 0.0154058763122246, 0.165707372094737, -1.266416187351, 1.22459272857909, -1.11152870973246], a = 0.2, v = 0.2, t = 0.2)
movej(p[0.528105233396745, 0.0151692033614138, 0.165321726317284, -1.26425575364792, 1.2213042359472, -1.11856503466209], a = 0.2, v = 0.2, t = 0.2)
movej(p[0.529566186784418, 0.0147498484957107, 0.164877101525287, -1.25698877682934, 1.22075986117637, -1.1216883911403], a = 0.2, v = 0.2, t = 0.2)
movej(p[0.530925626462784, 0.0142712569707418, 0.164471549934105, -1.27529880934583, 1.20938241729585, -1.13684083938409], a = 0.2, v = 0.2, t = 0.2)
movej(p[0.531264201306008, 0.0142382825730637, 0.164363698904282, -1.28702466753152, 1.20251133342306, -1.14153335746545], a = 0.2, v = 0.2, t = 0.2)
movej(p[0.532595549325469, 0.013766064123022, 0.163949815289582, -1.2837958695317, 1.2020342101213, -1.14435381007303], a = 0.2, v = 0.2, t = 0.2)
movej(p[0.533354776620071, 0.0135851143281218, 0.163705910458024, -1.28649420161429, 1.19901606377788, -1.14529725149644], a = 0.2, v = 0.2, t = 0.2)
movej(p[0.534498207211148, 0.013324777790292, 0.163338242699771, -1.28878213989169, 1.19544620433216, -1.14461811382285], a = 0.2, v = 0.2, t = 0.2)
movej(p[0.534923498585568, 0.0130413724470092, 0.163170773931809, -1.27677625636404, 1.20560982974261, -1.1296999516187], a = 0.2, v = 0.2, t = 0.2)
movej(p[0.534973967098992, 0.0130516285172549, 0.163149428389512, -1.28220336313481, 1.20238442537709, -1.1310761870199], a = 0.2, v = 0.2, t = 0.2)
movej(p[0.534986346540415, 0.0128687121113486, 0.163144027659897, -1.27850163806104, 1.2032626316689, -1.12752904163116], a = 0.2, v = 0.2, t = 0.2)
movej(p[0.534983172025365, 0.0129208106996905, 0.163142960164241, -1.28178920834311, 1.20158978840228, -1.12884686069565], a = 0.2, v = 0.2, t = 0.2)
movej(p[0.534979921933421, 0.0129742075892591, 0.163141985953405, -1.28468994817707, 1.20018312987856, -1.13020741184097], a = 0.2, v = 0.2, t = 0.2)
movej(p[0.534972307941531, 0.0130928916519246, 0.16314699099054, -1.26870584973998, 1.21186877279048, -1.13359629566407], a = 0.2, v = 0.2, t = 0.2)
movej(p[0.535396139163755, 0.013003194200122, 0.163006841276989, -1.26965218552482, 1.21001618998697, -1.13337938195605], a = 0.2, v = 0.2, t = 0.2)
movej(p[0.53446110364439, 0.013280251262389, 0.163317817870599, -1.27493582237404, 1.20787446351103, -1.13624887780296], a = 0.2, v = 0.2, t = 0.2)
movej(p[0.532083640526459, 0.0139632223681355, 0.164086179719988, -1.27068433713795, 1.21270584755519, -1.12723126767498], a = 0.2, v = 0.2, t = 0.2)
movej(p[0.529839481114465, 0.0147063287056897, 0.164811137239188, -1.26841167293666, 1.22111897451048, -1.12009335620922], a = 0.2, v = 0.2, t = 0.2)
movej(p[0.527410402106268, 0.0152329292547904, 0.165585878656451, -1.25819597378106, 1.23368553065419, -1.11505251100689], a = 0.2, v = 0.2, t = 0.2)
movej(p[0.525401038224168, 0.0156993197431052, 0.166236393661445, -1.26036941464437, 1.23601348943854, -1.11118149265352], a = 0.2, v = 0.2, t = 0.2)
movej(p[0.524439423383704, 0.0159243373565532, 0.166559206025268, -1.27728777202303, 1.22806629481186, -1.11525786095583], a = 0.2, v = 0.2, t = 0.2)
movej(p[0.525058526915328, 0.0158400390967898, 0.166380232170946, -1.26322966062491, 1.23189389893274, -1.10387071934705], a = 0.2, v = 0.2, t = 0.2)
movej(p[0.527434700393037, 0.0152481262574601, 0.165625285944735, -1.2618685576648, 1.22576653862851, -1.11823805726989], a = 0.2, v = 0.2, t = 0.2)
movej(p[0.529669508569124, 0.0146269106851612, 0.164886953608434, -1.26138069347784, 1.21863412757495, -1.12008868787141], a = 0.2, v = 0.2, t = 0.2)
movej(p[0.530708216309132, 0.014319638159692, 0.164552864973578, -1.27828144660508, 1.20710086869508, -1.12654599998106], a = 0.2, v = 0.2, t = 0.2)
movej(p[0.532305524526734, 0.0138905895940315, 0.164028812651492, -1.2832199880166, 1.20314467949299, -1.13858997672198], a = 0.2, v = 0.2, t = 0.2)
movej(p[0.533436493888475, 0.0134953564081958, 0.163642328354763, -1.28954626002273, 1.19631352952311, -1.14104318602429], a = 0.2, v = 0.2, t = 0.2)
movej(p[0.534403377336532, 0.0132560297787575, 0.163319361603663, -1.2848535734818, 1.19679659001017, -1.14599856263357], a = 0.2, v = 0.2, t = 0.2)
movej(p[0.53506992915006, 0.0129526443435853, 0.163033372936741, -1.27641705792482, 1.20745099138412, -1.13557978423715], a = 0.2, v = 0.2, t = 0.2)
movej(p[0.535259903849712, 0.0127693247394777, 0.162945381822179, -1.27641549351762, 1.2048544175803, -1.13244295129228], a = 0.2, v = 0.2, t = 0.2)
movej(p[0.535242491315989, 0.0130680859910924, 0.16299675047218, -1.27643129817187, 1.2079323750681, -1.13698296153857], a = 0.2, v = 0.2, t = 0.2)
movej(p[0.535513145220863, 0.0128459188939138, 0.162880171980563, -1.27106328904264, 1.20849680060439, -1.13381019938372], a = 0.2, v = 0.2, t = 0.2)
movej(p[0.535211550296534, 0.0130286552604652, 0.162998621513946, -1.26937888530713, 1.21127146302871, -1.13460848956339], a = 0.2, v = 0.2, t = 0.2)
movej(p[0.535198728704103, 0.0131050752397902, 0.163009071563108, -1.27949790860462, 1.20536696008066, -1.13596900379942], a = 0.2, v = 0.2, t = 0.2)
movej(p[0.534926213425437, 0.0131195460762577, 0.163086218486481, -1.27820794137098, 1.20590234643095, -1.13383712616663], a = 0.2, v = 0.2, t = 0.2)
movej(p[0.534811029817082, 0.0131530445632469, 0.163123348363071, -1.2771167666414, 1.20868789072782, -1.13651377421992], a = 0.2, v = 0.2, t = 0.2)
movej(p[0.534996768917629, 0.0129666618038349, 0.163035001186988, -1.27135550201842, 1.20929997892823, -1.13293989034487], a = 0.2, v = 0.2, t = 0.2)
movej(p[0.535438440494012, 0.0130479284592651, 0.162928569803786, -1.27107661674838, 1.21155129427889, -1.13827937685942], a = 0.2, v = 0.2, t = 0.2)
movej(p[0.535618822976631, 0.0128645998767764, 0.162834754662114, -1.27339819855643, 1.20805827489157, -1.13684917897322], a = 0.2, v = 0.2, t = 0.2)
movej(p[0.535738555608705, 0.0127348499650117, 0.162768543354818, -1.27661628469423, 1.20431744985288, -1.13552370386368], a = 0.2, v = 0.2, t = 0.2)
movej(p[0.535771729465206, 0.0129192483197536, 0.162799122465552, -1.27712099972821, 1.20560927480479, -1.1375402365529], a = 0.2, v = 0.2, t = 0.2)
movej(p[0.534606637091341, 0.0133014139435926, 0.163208297704681, -1.27268531833337, 1.20997205319998, -1.13306132151931], a = 0.2, v = 0.2, t = 0.2)
movej(p[0.533271114723485, 0.0136746917703299, 0.163679310102631, -1.2707928054752, 1.21281286592034, -1.13289988886164], a = 0.2, v = 0.2, t = 0.2)
movej(p[0.531180037544521, 0.0143506682229764, 0.164414390293551, -1.27121683947704, 1.21806289064377, -1.12640164671604], a = 0.2, v = 0.2, t = 0.2)
movej(p[0.528594136957333, 0.0149777843484884, 0.165266726499697, -1.26633531148892, 1.22668022544118, -1.11366178009008], a = 0.2, v = 0.2, t = 0.2)
movej(p[0.525480168121892, 0.0158144543334638, 0.166303832414318, -1.26114105457388, 1.23921560406146, -1.10321744791902], a = 0.2, v = 0.2, t = 0.2)
movej(p[0.523042215425365, 0.0162706789258887, 0.167095924404407, -1.27194818064149, 1.23691321146395, -1.10499221026898], a = 0.2, v = 0.2, t = 0.2)
movej(p[0.52127731522563, 0.016700795065048, 0.16765565119652, -1.25725448690694, 1.24237877408771, -1.07956896465375], a = 0.2, v = 0.2, t = 0.2)
movej(p[0.521156259427235, 0.0166990250474926, 0.167683190454187, -1.26071528709462, 1.23661648356548, -1.07633244153166], a = 0.2, v = 0.2, t = 0.2)
movej(p[0.522691084285421, 0.0165046867955249, 0.1672470732698, -1.25348738630963, 1.24093361751018, -1.08505607833784], a = 0.2, v = 0.2, t = 0.2)
movej(p[0.52487344434408, 0.0159105241448811, 0.166522283252659, -1.25396805923253, 1.2346713250225, -1.09893314524803], a = 0.2, v = 0.2, t = 0.2)
movej(p[0.527293199235631, 0.0153572755800741, 0.165740493139935, -1.26001361982089, 1.22472219952802, -1.10906845602448], a = 0.2, v = 0.2, t = 0.2)
movej(p[0.529559708419732, 0.0147740769756755, 0.164989172491864, -1.26575494241725, 1.217058895179, -1.11876895114228], a = 0.2, v = 0.2, t = 0.2)
movej(p[0.53075819774701, 0.0143920987410747, 0.164574323771617, -1.27383256259404, 1.20963708585299, -1.12715819734058], a = 0.2, v = 0.2, t = 0.2)
movej(p[0.532040447946212, 0.0139783194394088, 0.164120645056931, -1.28418882322946, 1.20230145729577, -1.13331373772042], a = 0.2, v = 0.2, t = 0.2)
movej(p[0.533183208934695, 0.0135593915439061, 0.163721876287377, -1.28380293678681, 1.20093095648661, -1.141190772064], a = 0.2, v = 0.2, t = 0.2)
movej(p[0.534668830461657, 0.0131691849802334, 0.163180891392678, -1.26809614065848, 1.21400186450681, -1.1340455106969], a = 0.2, v = 0.2, t = 0.2)
movej(p[0.534993929830221, 0.0132039139817878, 0.163091072870031, -1.26556180574866, 1.21417127293753, -1.13237348953481], a = 0.2, v = 0.2, t = 0.2)
movej(p[0.534993734499318, 0.0132132308121461, 0.163093315305741, -1.26428004687722, 1.2143092877075, -1.13153956924067], a = 0.2, v = 0.2, t = 0.2)
movej(p[0.535417605903533, 0.012990606344547, 0.162917064804707, -1.27497619196526, 1.20886997383895, -1.13689035683123], a = 0.2, v = 0.2, t = 0.2)
movej(p[0.535522073727594, 0.0129729002417731, 0.16288193806759, -1.27266174106531, 1.20848412643271, -1.13466520120573], a = 0.2, v = 0.2, t = 0.2)
movej(p[0.535731640885306, 0.0130181109566554, 0.1628383222715, -1.26822340771998, 1.20902557945329, -1.13181152955299], a = 0.2, v = 0.2, t = 0.2)
movej(p[0.534535529833909, 0.0133241941320994, 0.163253325262378, -1.27135197501391, 1.21342952449234, -1.13553762568925], a = 0.2, v = 0.2, t = 0.2)
movej(p[0.532947490751285, 0.01385540374588, 0.163838531352816, -1.27998043804471, 1.2091483518457, -1.13413171376001], a = 0.2, v = 0.2, t = 0.2)
movej(p[0.53120978292601, 0.0142877821361637, 0.164420963144182, -1.27584967846785, 1.2190289808469, -1.1284183570472], a = 0.2, v = 0.2, t = 0.2)
movej(p[0.52928192288487, 0.0149685530090846, 0.165123356801867, -1.27316595987941, 1.22574792631047, -1.12259506298442], a = 0.2, v = 0.2, t = 0.2)
movej(p[0.527660787010025, 0.0153571394507851, 0.16565728430876, -1.26489646645697, 1.23322420857084, -1.11247423387151], a = 0.2, v = 0.2, t = 0.2)
movej(p[0.524868216938159, 0.0159360334423898, 0.166556974605586, -1.25828503950241, 1.24349433897032, -1.10172530466401], a = 0.2, v = 0.2, t = 0.2)
movej(p[0.522458319943837, 0.0165706547086795, 0.16736372859853, -1.25956295038725, 1.24461604584615, -1.08889994708719], a = 0.2, v = 0.2, t = 0.2)
movej(p[0.521906799165282, 0.016605225947495, 0.16752017303042, -1.25776090605925, 1.24006670157406, -1.08261946013539], a = 0.2, v = 0.2, t = 0.2)
movej(p[0.523645881482458, 0.0163460802301168, 0.167002335757475, -1.25219608301155, 1.24013332523606, -1.09113483271789], a = 0.2, v = 0.2, t = 0.2)
movej(p[0.526345254694933, 0.0156970517323403, 0.166126145384985, -1.25974906871114, 1.22819078030532, -1.10507697943088], a = 0.2, v = 0.2, t = 0.2)
movej(p[0.527325331362757, 0.0154948594056064, 0.165816745597982, -1.26937676432995, 1.22100380516456, -1.1127073206579], a = 0.2, v = 0.2, t = 0.2)
movej(p[0.529221597933813, 0.014785640351842, 0.16511656636002, -1.26787679928654, 1.21742140423144, -1.12050054240866], a = 0.2, v = 0.2, t = 0.2)
movej(p[0.531059908608818, 0.0142516626134857, 0.164478389263045, -1.27408668789574, 1.21458711314279, -1.12941487317961], a = 0.2, v = 0.2, t = 0.2)
movej(p[0.532846739037329, 0.0137041912017042, 0.163847803279194, -1.29511081077643, 1.19782184406863, -1.14070602925822], a = 0.2, v = 0.2, t = 0.2)
movej(p[0.534189174503234, 0.0133446378806142, 0.163353785294529, -1.26562004191009, 1.21667494474016, -1.13239610229068], a = 0.2, v = 0.2, t = 0.2)
movej(p[0.534682518790398, 0.0131327814892043, 0.163149130796065, -1.26717513854322, 1.21308317811767, -1.13209646697639], a = 0.2, v = 0.2, t = 0.2)
movej(p[0.534973901454949, 0.0129833223284462, 0.163017542490867, -1.2724201617472, 1.20805916951277, -1.13215716487589], a = 0.2, v = 0.2, t = 0.2)
movej(p[0.535405413730986, 0.0128301268268939, 0.162868603631152, -1.27044122898831, 1.20666407350281, -1.13534189031812], a = 0.2, v = 0.2, t = 0.2)
movej(p[0.535533120934314, 0.0129957965988697, 0.162898967044523, -1.26655955401014, 1.20722407669312, -1.13399695051752], a = 0.2, v = 0.2, t = 0.2)
movej(p[0.536029314981826, 0.0129004455514094, 0.162737045597637, -1.26121398342599, 1.20716814384638, -1.13184367738534], a = 0.2, v = 0.2, t = 0.2)
movej(p[0.53534278677591, 0.0132090666937905, 0.163029280953056, -1.26366778188197, 1.21179451278439, -1.13534200003496], a = 0.2, v = 0.2, t = 0.2)
movej(p[0.534192016663177, 0.0135742956103633, 0.163444259706898, -1.27314537051499, 1.20862335172263, -1.13367043490877], a = 0.2, v = 0.2, t = 0.2)
movej(p[0.532610228975422, 0.0140307294042323, 0.164006889774241, -1.27798157131795, 1.21303498664229, -1.1329955241054], a = 0.2, v = 0.2, t = 0.2)
movej(p[0.531010697600448, 0.0144780792213257, 0.164550789306894, -1.27797804649484, 1.22065709497983, -1.12869377892033], a = 0.2, v = 0.2, t = 0.2)
movej(p[0.529594096742532, 0.0149075199067501, 0.165051881960058, -1.27372106106321, 1.22780548292656, -1.12098412364004], a = 0.2, v = 0.2, t = 0.2)
movej(p[0.527363275541037, 0.0153951724111265, 0.165798322990505, -1.27216193909972, 1.23561176621457, -1.11555801231288], a = 0.2, v = 0.2, t = 0.2)
movej(p[0.524592534623879, 0.0161077615790795, 0.166743177851161, -1.26130819269505, 1.24567494548754, -1.10176495274565], a = 0.2, v = 0.2, t = 0.2)
movej(p[0.52286745062349, 0.0164298828425041, 0.167283384472047, -1.26182992452971, 1.24367259991597, -1.09283082300167], a = 0.2, v = 0.2, t = 0.2)
movej(p[0.523736859788341, 0.0162593221796798, 0.167004093182585, -1.26498503885797, 1.23669553851119, -1.09456114591203], a = 0.2, v = 0.2, t = 0.2)
movej(p[0.526373213998578, 0.0157178480809571, 0.166178813679279, -1.26157753066465, 1.2311801369064, -1.1040030770946], a = 0.2, v = 0.2, t = 0.2)
movej(p[0.528114899332293, 0.0152520890135861, 0.165584791382152, -1.26749457403279, 1.2241947555271, -1.11396004784976], a = 0.2, v = 0.2, t = 0.2)
movej(p[0.529840216299628, 0.0146748857430473, 0.164941790863718, -1.27825922542169, 1.21200976887625, -1.12317639407476], a = 0.2, v = 0.2, t = 0.2)
movej(p[0.531099163759106, 0.0142769773189795, 0.164478074840348, -1.2914538011239, 1.20186453317805, -1.13181703844078], a = 0.2, v = 0.2, t = 0.2)
movej(p[0.532793931852671, 0.013793183378032, 0.163870533079038, -1.28248519599586, 1.20505911001043, -1.13594546957963], a = 0.2, v = 0.2, t = 0.2)
movej(p[0.534109294939846, 0.0131841918039087, 0.163270173502163, -1.27317235075682, 1.20793230890619, -1.135139334207], a = 0.2, v = 0.2, t = 0.2)
movej(p[0.534430671262427, 0.0132229655962916, 0.163211949260578, -1.27213645349962, 1.20751536466826, -1.13489587248365], a = 0.2, v = 0.2, t = 0.2)
movej(p[0.534765072185284, 0.0130479970473875, 0.163049273971468, -1.26787295959481, 1.2073001770718, -1.1336754243623], a = 0.2, v = 0.2, t = 0.2)
movej(p[0.535246647456021, 0.0131253007535197, 0.162969223077454, -1.26322283977982, 1.20714825370651, -1.13146277139892], a = 0.2, v = 0.2, t = 0.2)
movej(p[0.535545099271197, 0.0129385312887013, 0.162824280809534, -1.26470911975242, 1.20989130073308, -1.13737336830154], a = 0.2, v = 0.2, t = 0.2)
movej(p[0.535768551887192, 0.0131875166964008, 0.162890205730146, -1.26382549853624, 1.20996539546844, -1.13622226928612], a = 0.2, v = 0.2, t = 0.2)
movej(p[0.535809737284141, 0.012943760588467, 0.162754830204577, -1.27198514752995, 1.2024721573969, -1.13651220689987], a = 0.2, v = 0.2, t = 0.2)
movej(p[0.53529928614798, 0.0132150874805246, 0.162997288211741, -1.27120116287296, 1.20338265582408, -1.1335115785075], a = 0.2, v = 0.2, t = 0.2)
movej(p[0.534326144548676, 0.0134829411047604, 0.163349953213813, -1.27334049672202, 1.20529608667003, -1.13245497931585], a = 0.2, v = 0.2, t = 0.2)
movej(p[0.532868699757581, 0.0139354439933877, 0.163906697532773, -1.28125698840974, 1.20934386800269, -1.13442998793486], a = 0.2, v = 0.2, t = 0.2)
movej(p[0.531658063697873, 0.0142826096481018, 0.164338046288564, -1.27818650511011, 1.21469837786265, -1.12917902725719], a = 0.2, v = 0.2, t = 0.2)
movej(p[0.529968956375606, 0.0147767770335906, 0.164948053271297, -1.27293555850165, 1.22341414624024, -1.12311281477766], a = 0.2, v = 0.2, t = 0.2)
movej(p[0.527894513499779, 0.0152327970010865, 0.165613636019103, -1.27053209685641, 1.23169534731751, -1.11404666296454], a = 0.2, v = 0.2, t = 0.2)
movej(p[0.526024518796142, 0.0157345153694438, 0.166273765231623, -1.25868456174439, 1.23867609416693, -1.10450853225655], a = 0.2, v = 0.2, t = 0.2)
movej(p[0.525555981978381, 0.0157704380143135, 0.166398876997608, -1.26202303507621, 1.23647307531668, -1.10177136094556], a = 0.2, v = 0.2, t = 0.2)
movej(p[0.527506472328185, 0.0153543580805355, 0.165781939444828, -1.26733685274457, 1.22514265526294, -1.10992982567173], a = 0.2, v = 0.2, t = 0.2)
movej(p[0.529563610362501, 0.0147510507579355, 0.16504384230199, -1.2747325649605, 1.21627464578398, -1.12105419969984], a = 0.2, v = 0.2, t = 0.2)
movej(p[0.531056732404553, 0.0141959728499498, 0.164440248445489, -1.27560245170619, 1.21015108736248, -1.12751198623878], a = 0.2, v = 0.2, t = 0.2)
movej(p[0.532729653364666, 0.0137358301091688, 0.163857388934696, -1.27824662117646, 1.20812820131061, -1.1379116034141], a = 0.2, v = 0.2, t = 0.2)
movej(p[0.533788828082762, 0.0131282882156606, 0.163259558779738, -1.26932473321769, 1.20728916057818, -1.13233396894266], a = 0.2, v = 0.2, t = 0.2)
movej(p[0.534878920066341, 0.0132031782953457, 0.163053800588402, -1.26857159201582, 1.20524304170669, -1.13330399835137], a = 0.2, v = 0.2, t = 0.2)
movej(p[0.535297858841763, 0.0130678571987177, 0.162885494934144, -1.26765046959924, 1.20518457172568, -1.13488734771963], a = 0.2, v = 0.2, t = 0.2)
movej(p[0.535297462115113, 0.0130749034987191, 0.162896662846404, -1.26894356892565, 1.20723329153261, -1.1376102668359], a = 0.2, v = 0.2, t = 0.2)
movej(p[0.535423489723463, 0.0131072522463843, 0.162892979036137, -1.26806912330417, 1.20840999607304, -1.13818071067421], a = 0.2, v = 0.2, t = 0.2)
movej(p[0.535668769188683, 0.0130287092870431, 0.162794355066031, -1.26960155321207, 1.20491164077927, -1.13739582326075], a = 0.2, v = 0.2, t = 0.2)
movej(p[0.535981157216928, 0.012836695077006, 0.162615029013955, -1.27300291173368, 1.19993580449016, -1.1377263447721], a = 0.2, v = 0.2, t = 0.2)
movej(p[0.536246791229091, 0.0128065128551205, 0.162544293060835, -1.2724645179838, 1.20095753782582, -1.13929002878747], a = 0.2, v = 0.2, t = 0.2)
movej(p[0.536076633932123, 0.0129605867357099, 0.162673528789674, -1.27381240809756, 1.20399984818384, -1.14116910512082], a = 0.2, v = 0.2, t = 0.2)
movej(p[0.535739657046108, 0.013101058436077, 0.162821009939952, -1.27186012823412, 1.20504262402278, -1.1388273051758], a = 0.2, v = 0.2, t = 0.2)
movej(p[0.535076381050638, 0.0133560272158494, 0.163102035090384, -1.27007869548107, 1.2068470654032, -1.13544339026993], a = 0.2, v = 0.2, t = 0.2)
movej(p[0.53378466567157, 0.0137220665254102, 0.163578928100751, -1.26799758697822, 1.21005300299557, -1.13026816946916], a = 0.2, v = 0.2, t = 0.2)
movej(p[0.532686549834297, 0.0142180213494693, 0.164092720792818, -1.28273391887655, 1.21142171277413, -1.13310244407052], a = 0.2, v = 0.2, t = 0.2)
movej(p[0.530783813528705, 0.0145643775086609, 0.164694345719473, -1.27681215112006, 1.2237033834604, -1.1278508581699], a = 0.2, v = 0.2, t = 0.2)
movej(p[0.52891292768131, 0.0150074918591495, 0.165326692474354, -1.26818876312407, 1.23213895760081, -1.11846914037842], a = 0.2, v = 0.2, t = 0.2)
movej(p[0.526481205914842, 0.0157080036900127, 0.16622836813406, -1.26266828858628, 1.24103646023499, -1.10937461797064], a = 0.2, v = 0.2, t = 0.2)
movej(p[0.525832300486068, 0.0157961264775111, 0.166410582345447, -1.25376789330934, 1.24275014969842, -1.10329659328325], a = 0.2, v = 0.2, t = 0.2)
movej(p[0.527472494212029, 0.0154170535129409, 0.165866031182698, -1.25710683244598, 1.23402109124226, -1.10881380763067], a = 0.2, v = 0.2, t = 0.2)
movej(p[0.529170840300502, 0.0149522605056361, 0.165248750197951, -1.27102842849416, 1.22024042036967, -1.11674589508029], a = 0.2, v = 0.2, t = 0.2)
movej(p[0.530585783284802, 0.0143892870893636, 0.164652684015595, -1.28327902045208, 1.21015059213776, -1.12795768583755], a = 0.2, v = 0.2, t = 0.2)
movej(p[0.531968831972032, 0.0139633459388505, 0.164135734341978, -1.28509046372955, 1.20533498280378, -1.13440412060342], a = 0.2, v = 0.2, t = 0.2)
movej(p[0.533028623703703, 0.0136373469326262, 0.163730530981402, -1.29133828068896, 1.19766443290936, -1.13899507480466], a = 0.2, v = 0.2, t = 0.2)
movej(p[0.53375728003568, 0.0133247030504411, 0.163407386427367, -1.28156485350687, 1.20174928945536, -1.14002817635458], a = 0.2, v = 0.2, t = 0.2)
movej(p[0.534535925137683, 0.0131364563737178, 0.16311364592313, -1.26744114632561, 1.21031042119358, -1.13579672793618], a = 0.2, v = 0.2, t = 0.2)
movej(p[0.535064526907327, 0.0130555059802074, 0.162955185792754, -1.2656283092212, 1.2091479668361, -1.13595285167621], a = 0.2, v = 0.2, t = 0.2)
movej(p[0.535313392090892, 0.0130337223902252, 0.162883578421506, -1.27511012018059, 1.20208900080941, -1.13736595495607], a = 0.2, v = 0.2, t = 0.2)
movej(p[0.535417906667262, 0.0129740937757913, 0.162839035165375, -1.2765140023235, 1.20543665825507, -1.1413618785058], a = 0.2, v = 0.2, t = 0.2)
movej(p[0.535733848814747, 0.0128898116239221, 0.162721990907424, -1.27424535283518, 1.20492698608297, -1.14113769473268], a = 0.2, v = 0.2, t = 0.2)
movej(p[0.536032146018819, 0.0129425598785289, 0.162691452739854, -1.27268111679057, 1.20448096136257, -1.14049785357151], a = 0.2, v = 0.2, t = 0.2)
movej(p[0.535899602952956, 0.0129528295382442, 0.162721143475463, -1.27024242555471, 1.20501077435276, -1.13898390024836], a = 0.2, v = 0.2, t = 0.2)
movej(p[0.535833368808848, 0.0129701778964085, 0.162743556922837, -1.2682965979751, 1.20576714623871, -1.13808958263676], a = 0.2, v = 0.2, t = 0.2)
movej(p[0.535803512199885, 0.0130144974519848, 0.162790439114496, -1.27019569598356, 1.20967489632924, -1.14164434926892], a = 0.2, v = 0.2, t = 0.2)
movej(p[0.535552936166377, 0.013219036038615, 0.162963881519954, -1.26955040035628, 1.21004220263975, -1.13950100364495], a = 0.2, v = 0.2, t = 0.2)
movej(p[0.535032076942447, 0.0134179897382216, 0.163184530980092, -1.27647078847085, 1.20676562378152, -1.13842660789285], a = 0.2, v = 0.2, t = 0.2)
movej(p[0.534049623331125, 0.0137152891344774, 0.163567176691667, -1.26987140985985, 1.21377827766168, -1.13465690673437], a = 0.2, v = 0.2, t = 0.2)
movej(p[0.53236786472773, 0.0141761919016388, 0.164167995557157, -1.27848868226412, 1.2152287482235, -1.13032836182016], a = 0.2, v = 0.2, t = 0.2)
movej(p[0.530518682763606, 0.0146505676439378, 0.164818604755276, -1.27661218339044, 1.22598349800578, -1.12546541084042], a = 0.2, v = 0.2, t = 0.2)
movej(p[0.52877810937486, 0.0150156428641791, 0.165380274517641, -1.27037076976417, 1.23374604765559, -1.11731895641817], a = 0.2, v = 0.2, t = 0.2)
movej(p[0.527525543629682, 0.0152559292237476, 0.165782064387364, -1.27184603132745, 1.23346235844724, -1.11437654369399], a = 0.2, v = 0.2, t = 0.2)
movej(p[0.528402374688587, 0.0151435163770224, 0.165540373456565, -1.2705992741194, 1.22396747864383, -1.11374552643735], a = 0.2, v = 0.2, t = 0.2)
movej(p[0.529511006717124, 0.0147891961307454, 0.165112237089995, -1.27552130776646, 1.21744062292738, -1.11965794730563], a = 0.2, v = 0.2, t = 0.2)
movej(p[0.530885366645689, 0.0143630636317352, 0.164582335240552, -1.27923622198333, 1.20983969934839, -1.12546018332714], a = 0.2, v = 0.2, t = 0.2)
movej(p[0.531974870593102, 0.0139264691190833, 0.164101898189427, -1.27692316541206, 1.21161965691353, -1.13040099210074], a = 0.2, v = 0.2, t = 0.2)
movej(p[0.532927426139237, 0.0136165656377284, 0.16374341821262, -1.29144917225898, 1.19817040668015, -1.14021605421294], a = 0.2, v = 0.2, t = 0.2)
movej(p[0.534165775134788, 0.0132767408173912, 0.163264192893278, -1.27772268713498, 1.20263187261108, -1.13864507158249], a = 0.2, v = 0.2, t = 0.2)
movej(p[0.534917349644462, 0.0132116581284131, 0.16306243018611, -1.27626941016876, 1.20660186886424, -1.13895668319756], a = 0.2, v = 0.2, t = 0.2)
movej(p[0.535255758918824, 0.0131037000563854, 0.162928089136129, -1.27540240169545, 1.20721703302045, -1.14040520312789], a = 0.2, v = 0.2, t = 0.2)
movej(p[0.535324728993734, 0.0130756422329883, 0.162894965318216, -1.27339942027974, 1.20718181722951, -1.13954203798282], a = 0.2, v = 0.2, t = 0.2)
movej(p[0.535589974631507, 0.0129031114609507, 0.162733881817066, -1.27047942388439, 1.20700397271767, -1.13944991994763], a = 0.2, v = 0.2, t = 0.2)
movej(p[0.535663771290458, 0.0129335509261294, 0.162739431779881, -1.26931265488928, 1.20763341624348, -1.1391939170773], a = 0.2, v = 0.2, t = 0.2)
movej(p[0.536102941772144, 0.0129439703289692, 0.162678581767058, -1.27383088134012, 1.20914791514748, -1.14383416253053], a = 0.2, v = 0.2, t = 0.2)
movej(p[0.536113131391341, 0.0127302072225854, 0.162525491512601, -1.27888815080121, 1.20362079120085, -1.14439105516401], a = 0.2, v = 0.2, t = 0.2)
movej(p[0.536113001450838, 0.0127526136902971, 0.162539747154297, -1.27687315411488, 1.20387777277521, -1.14322523179375], a = 0.2, v = 0.2, t = 0.2)
movej(p[0.535965107763571, 0.0128821886716851, 0.162649896877241, -1.27552343151584, 1.20425140554424, -1.14157416865996], a = 0.2, v = 0.2, t = 0.2)
movej(p[0.535303980634822, 0.0132380773147548, 0.163009798979718, -1.27433353498034, 1.2058743345589, -1.13772710352737], a = 0.2, v = 0.2, t = 0.2)
movej(p[0.534725241708998, 0.0135891458310233, 0.163353134839512, -1.27383363983156, 1.20724506623922, -1.13435125507907], a = 0.2, v = 0.2, t = 0.2)
movej(p[0.533379102609508, 0.0140380332765222, 0.16390436993101, -1.27948004414795, 1.21013336101922, -1.13208524943365], a = 0.2, v = 0.2, t = 0.2)
movej(p[0.531627453048755, 0.0144639631420349, 0.164507260083506, -1.28109096958506, 1.21967336476526, -1.12857893447922], a = 0.2, v = 0.2, t = 0.2)
movej(p[0.530674135708968, 0.0146638422253737, 0.164811896755143, -1.27835731148795, 1.22724092997071, -1.12567789941075], a = 0.2, v = 0.2, t = 0.2)
movej(p[0.529054150449112, 0.0150472826299763, 0.16536413448834, -1.26816753576287, 1.23222215160791, -1.11611262303065], a = 0.2, v = 0.2, t = 0.2)
movej(p[0.527186664881078, 0.0155335190722964, 0.166023297158204, -1.26068022578012, 1.23663773617852, -1.10646006781287], a = 0.2, v = 0.2, t = 0.2)
movej(p[0.528538221882676, 0.0153066161737088, 0.165637648048206, -1.2729340039772, 1.22280010809749, -1.11310082592429], a = 0.2, v = 0.2, t = 0.2)
movej(p[0.529419961956269, 0.014878268626625, 0.165191201588338, -1.27194207772985, 1.21778654563926, -1.11620313022639], a = 0.2, v = 0.2, t = 0.2)
movej(p[0.530107889657933, 0.0146569055066113, 0.16492103383234, -1.27070311354937, 1.21739891588259, -1.11932904082067], a = 0.2, v = 0.2, t = 0.2)
movej(p[0.531696625747688, 0.0140914799100307, 0.164258809103234, -1.27586103416867, 1.21095446206031, -1.12823185639807], a = 0.2, v = 0.2, t = 0.2)
movej(p[0.533199269903764, 0.0135990263505639, 0.163681418687674, -1.28527227473374, 1.19790912665046, -1.13855994184281], a = 0.2, v = 0.2, t = 0.2)
