def moving():
set_payload_mass(0)
set_tcp(p[0,0,0,0,0,0])
movej(p[-0.3309, 0.0795, 0.528, -1.536, -1.028, 1.828], a = 0.2, v = 0.2, t = 0.2)
movej(p[-0.330962747658748, 0.0795575713697226, 0.528015756544988, -1.53550341907189, -1.0269589313043, 1.82963252241974], a = 0.2, v = 0.2, t = 0.2)
movej(p[-0.3309, 0.0795, 0.528, -1.536, -1.028, 1.828], a = 0.2, v = 0.2, t = 0.2)
movej(p[-0.330962747658748, 0.0795575713697226, 0.528015756544988, -1.53550341907189, -1.0269589313043, 1.82963252241974], a = 0.2, v = 0.2, t = 0.2)
movej(p[-0.3309, 0.0795, 0.528, -1.536, -1.028, 1.828], a = 0.2, v = 0.2, t = 0.2)
movej(p[-0.3309, 0.0795, 0.528, -1.536, -1.028, 1.828], a = 0.2, v = 0.2, t = 0.2)
movej(p[-0.330222766879224, 0.0796129334484026, 0.52824072913483, -1.52654107886744, -1.02127328033365, 1.82328854148108], a = 0.2, v = 0.2, t = 0.2)
movej(p[-0.329545457057947, 0.0797259677048628, 0.528481395382709, -1.51703170508678, -1.01461655638039, 1.81859828122046], a = 0.2, v = 0.2, t = 0.2)
movej(p[-0.328532299790425, 0.0799419748021938, 0.528874719047354, -1.50819419269153, -1.00967576706575, 1.8150737380751], a = 0.2, v = 0.2, t = 0.2)
movej(p[-0.326771394301323, 0.0803872157454371, 0.529607720207592, -1.50182730810326, -1.00790778087875, 1.81297771332168], a = 0.2, v = 0.2, t = 0.2)
movej(p[-0.324547671933301, 0.0806725437273457, 0.53027294532941, -1.4949666225022, -1.00532874505371, 1.81520498923469], a = 0.2, v = 0.2, t = 0.2)
movej(p[-0.322028013060267, 0.0808555889527003, 0.530894879312257, -1.48793771268735, -1.00212986139543, 1.82001633025651], a = 0.2, v = 0.2, t = 0.2)
movej(p[-0.319608926011353, 0.0812484241491904, 0.531669223452916, -1.48092663376678, -1.00341416850463, 1.82308813152117], a = 0.2, v = 0.2, t = 0.2)
movej(p[-0.317293110989987, 0.0816525617992958, 0.532433046525742, -1.47341692351421, -1.00349554958009, 1.82667688766707], a = 0.2, v = 0.2, t = 0.2)
movej(p[-0.315091877755648, 0.0818197260187615, 0.532980651266199, -1.46438290901528, -0.995435022493511, 1.83333251578771], a = 0.2, v = 0.2, t = 0.2)
movej(p[-0.313174540968183, 0.081911805979008, 0.533453294540093, -1.45151175176249, -0.983953172079171, 1.84649169495201], a = 0.2, v = 0.2, t = 0.2)
movej(p[-0.313174540968183, 0.081911805979008, 0.533453294540093, -1.45375667595704, -0.981454208747979, 1.85737140433986], a = 0.2, v = 0.2, t = 0.2)
movej(p[-0.313577047950075, 0.0819153256663574, 0.533393382677079, -1.45545705147491, -0.983401076482146, 1.8572274938713], a = 0.2, v = 0.2, t = 0.2)
movej(p[-0.314484181705692, 0.0816699557979417, 0.533076737122725, -1.46062241215476, -0.984082310240936, 1.85838835215449], a = 0.2, v = 0.2, t = 0.2)
movej(p[-0.316299068063916, 0.0813257975399935, 0.532514989127428, -1.47538405543716, -0.992246687604516, 1.84569260564665], a = 0.2, v = 0.2, t = 0.2)
movej(p[-0.31829213466452, 0.0811180662248146, 0.531988167633702, -1.49021030221261, -0.993154659179418, 1.82987544985675], a = 0.2, v = 0.2, t = 0.2)
movej(p[-0.320690648273183, 0.0809866149548764, 0.5313805925744, -1.49703554917886, -1.00530008274613, 1.81303871842102], a = 0.2, v = 0.2, t = 0.2)
movej(p[-0.322804538958165, 0.0806269460550692, 0.530761163624108, -1.5028499735309, -1.00232739236198, 1.80183462570019], a = 0.2, v = 0.2, t = 0.2)
movej(p[-0.324867363209529, 0.0805246930261584, 0.530297194825522, -1.50216443706131, -1.00359949229827, 1.79313224275695], a = 0.2, v = 0.2, t = 0.2)
movej(p[-0.326728657650654, 0.0807940453053095, 0.529894578130445, -1.50861814573428, -1.00420141074944, 1.78653339330099], a = 0.2, v = 0.2, t = 0.2)
movej(p[-0.327523400650014, 0.0807546911501343, 0.529708141960567, -1.51388538870881, -1.01208658016272, 1.78429966661491], a = 0.2, v = 0.2, t = 0.2)
movej(p[-0.327874955087824, 0.0806672146624515, 0.529639403751697, -1.51444089928897, -1.01176605436947, 1.78359541679493], a = 0.2, v = 0.2, t = 0.2)
movej(p[-0.328253421409776, 0.0807887914490401, 0.529522803459626, -1.51410179336083, -1.01209135757122, 1.78260135088215], a = 0.2, v = 0.2, t = 0.2)
movej(p[-0.328254743114935, 0.0807993247667209, 0.529538076387116, -1.51772029458224, -1.01094235820218, 1.77640289070155], a = 0.2, v = 0.2, t = 0.2)
movej(p[-0.327609647529972, 0.0810249203760136, 0.529685658829598, -1.51848656371858, -1.01224520811922, 1.77608447895503], a = 0.2, v = 0.2, t = 0.2)
movej(p[-0.325793367108346, 0.0812499097247679, 0.530168594594443, -1.52007286359224, -1.01107896922722, 1.77675537822087], a = 0.2, v = 0.2, t = 0.2)
movej(p[-0.324175545356971, 0.0814551156477504, 0.530585281191237, -1.51812165858507, -1.00809407789679, 1.77768771732421], a = 0.2, v = 0.2, t = 0.2)
movej(p[-0.322863982968234, 0.0819434188929415, 0.530932450099965, -1.51510886434473, -1.00927355431437, 1.77570402672056], a = 0.2, v = 0.2, t = 0.2)
movej(p[-0.321203684171145, 0.0821557364110675, 0.53133999198233, -1.50845228535864, -1.01186660391946, 1.77882807603286], a = 0.2, v = 0.2, t = 0.2)
movej(p[-0.319314761708063, 0.0820669127475355, 0.531839096455624, -1.49592651629045, -1.0071803804604, 1.78112648732129], a = 0.2, v = 0.2, t = 0.2)
movej(p[-0.317476172352281, 0.0821513553296587, 0.532338933340145, -1.49193717667214, -1.0023815165332, 1.78318098167704], a = 0.2, v = 0.2, t = 0.2)
movej(p[-0.316136228219446, 0.0825460639845817, 0.532651783605624, -1.48518874693733, -0.998204651558366, 1.78863168152123], a = 0.2, v = 0.2, t = 0.2)
movej(p[-0.314373980191077, 0.0826146457537209, 0.533121974978846, -1.47724584731442, -0.999525671043566, 1.79504095962972], a = 0.2, v = 0.2, t = 0.2)
movej(p[-0.312556030444743, 0.0827312347739363, 0.533616366402889, -1.46398907171336, -0.992476903782213, 1.80648760629639], a = 0.2, v = 0.2, t = 0.2)
movej(p[-0.310763445685061, 0.0827015941175023, 0.534145476685196, -1.45239054494634, -0.986864446383566, 1.82128312002878], a = 0.2, v = 0.2, t = 0.2)
movej(p[-0.309776628268395, 0.0827913435007614, 0.534411936596569, -1.44533388167098, -0.978562193811997, 1.82658984347525], a = 0.2, v = 0.2, t = 0.2)
movej(p[-0.309041647248902, 0.0829614676871148, 0.534576570135689, -1.43655920775298, -0.974348650634201, 1.83558477690354], a = 0.2, v = 0.2, t = 0.2)
movej(p[-0.30813772651079, 0.0829572610569791, 0.534844147289935, -1.43866297142138, -0.972398452127944, 1.84115143171577], a = 0.2, v = 0.2, t = 0.2)
movej(p[-0.308128909313821, 0.0829235648649668, 0.534868149658182, -1.44080613391143, -0.975998167932785, 1.84038720539829], a = 0.2, v = 0.2, t = 0.2)
movej(p[-0.308283461826471, 0.082848872125166, 0.534820065196505, -1.44419775747399, -0.982682234261285, 1.83942144203992], a = 0.2, v = 0.2, t = 0.2)
movej(p[-0.309030642003131, 0.0825792801611611, 0.534705317444674, -1.45089878146723, -0.986714403041435, 1.84060585568451], a = 0.2, v = 0.2, t = 0.2)
movej(p[-0.310184374836486, 0.0822216535063619, 0.534515873772264, -1.46371181381408, -0.994820727998383, 1.8452455852662], a = 0.2, v = 0.2, t = 0.2)
movej(p[-0.311718055174709, 0.0817333439797127, 0.534305979903059, -1.47066422859196, -0.997156539752047, 1.84734740292335], a = 0.2, v = 0.2, t = 0.2)
movej(p[-0.313567732392797, 0.0815044734222664, 0.533854007506977, -1.4744396673432, -0.999644692465448, 1.84790494296083], a = 0.2, v = 0.2, t = 0.2)
movej(p[-0.314878086541243, 0.0813876712931643, 0.533499412233054, -1.48288810041976, -1.00918876989502, 1.84986151008114], a = 0.2, v = 0.2, t = 0.2)
movej(p[-0.316337800411059, 0.0810553152183325, 0.533263990488544, -1.48689077801456, -1.01174082661604, 1.85271826015661], a = 0.2, v = 0.2, t = 0.2)
movej(p[-0.317977224872826, 0.0807670251036139, 0.532944263677163, -1.48773700936441, -1.01163767648961, 1.85317408416547], a = 0.2, v = 0.2, t = 0.2)
movej(p[-0.320425472746657, 0.0806685650923799, 0.532183097798743, -1.49779416474925, -1.01202799774411, 1.84280420972602], a = 0.2, v = 0.2, t = 0.2)
movej(p[-0.322896238382736, 0.0808032990828255, 0.531180239661522, -1.5025618775814, -1.00999369117437, 1.83274951296921], a = 0.2, v = 0.2, t = 0.2)
movej(p[-0.323994954220339, 0.0807723909459754, 0.530807859633491, -1.50329383388435, -1.01249019268661, 1.83110890155521], a = 0.2, v = 0.2, t = 0.2)
movej(p[-0.325539289022743, 0.0806277443220051, 0.530371476599611, -1.50216004331419, -1.01344643076239, 1.82885276136957], a = 0.2, v = 0.2, t = 0.2)
movej(p[-0.326864032334376, 0.0807742365648016, 0.529708368010402, -1.49939867652595, -1.00873904911272, 1.82337634960146], a = 0.2, v = 0.2, t = 0.2)
movej(p[-0.32686676295566, 0.0807846720285217, 0.529700934652859, -1.49681926375025, -1.00876534749268, 1.82127084137235], a = 0.2, v = 0.2, t = 0.2)
movej(p[-0.326300394445206, 0.0809448083784866, 0.529717691436132, -1.49656103662029, -1.00876611717148, 1.8210326539704], a = 0.2, v = 0.2, t = 0.2)
movej(p[-0.32570414343162, 0.0810061487511471, 0.52987044737703, -1.49624428110568, -1.00880293028696, 1.82086578670453], a = 0.2, v = 0.2, t = 0.2)
movej(p[-0.324330030920691, 0.0811427955354189, 0.530239525774742, -1.49589397528442, -1.00899353808564, 1.82074435032541], a = 0.2, v = 0.2, t = 0.2)
movej(p[-0.322368470893233, 0.0812821031417243, 0.530862325348844, -1.49471965735889, -1.00983483021568, 1.82016074421544], a = 0.2, v = 0.2, t = 0.2)
movej(p[-0.320224794363136, 0.0814505380900035, 0.531608913684216, -1.49383793782652, -1.01037818363642, 1.82077251600805], a = 0.2, v = 0.2, t = 0.2)
movej(p[-0.318265571423332, 0.081612152940628, 0.532281159035409, -1.48558828472275, -1.00463706791117, 1.82740926876385], a = 0.2, v = 0.2, t = 0.2)
movej(p[-0.316457581832092, 0.0818202804388098, 0.532748579320024, -1.47672717832534, -0.995481230918846, 1.83375714759942], a = 0.2, v = 0.2, t = 0.2)
movej(p[-0.315183715890764, 0.081894611101656, 0.533264732278057, -1.47514870276143, -0.995601261497109, 1.8442760923041], a = 0.2, v = 0.2, t = 0.2)
movej(p[-0.315183715890764, 0.081894611101656, 0.533264732278057, -1.47993297428222, -1.00203413321068, 1.84873947645187], a = 0.2, v = 0.2, t = 0.2)
movej(p[-0.316574013660084, 0.0815518060374883, 0.53315955865681, -1.48695439110084, -1.01284056509653, 1.84677720694625], a = 0.2, v = 0.2, t = 0.2)
movej(p[-0.319216249303659, 0.08143952773344, 0.532146958194505, -1.49622356798078, -1.00659750129918, 1.85357690828987], a = 0.2, v = 0.2, t = 0.2)
movej(p[-0.321412972484996, 0.0812092244811296, 0.531678241044665, -1.50166090867895, -1.003448156544, 1.84680098324541], a = 0.2, v = 0.2, t = 0.2)
movej(p[-0.323778623658914, 0.0811382375125331, 0.530555389837413, -1.49593738986949, -1.00403581532477, 1.83493738265143], a = 0.2, v = 0.2, t = 0.2)
movej(p[-0.325599627424112, 0.080983196562975, 0.529909448546664, -1.49593738986949, -1.00403581532477, 1.83493738265143], a = 0.2, v = 0.2, t = 0.2)
movej(p[-0.327008078045594, 0.0809280345629164, 0.529225210532082, -1.49593738986949, -1.00403581532477, 1.83493738265143], a = 0.2, v = 0.2, t = 0.2)
movej(p[-0.327425548664935, 0.0808258448170508, 0.529177477966404, -1.49352118272943, -1.00185729976885, 1.83453627539299], a = 0.2, v = 0.2, t = 0.2)
movej(p[-0.327425548664935, 0.0808258448170508, 0.529177477966404, -1.48665895748458, -0.996247772382274, 1.83149565538766], a = 0.2, v = 0.2, t = 0.2)
movej(p[-0.319489179539515, 0.0821915824316004, 0.529852194183255, -1.48619478245427, -0.995330294507732, 1.82892154542224], a = 0.2, v = 0.2, t = 0.2)
movej(p[-0.315927749648716, 0.0827775748691649, 0.530166666687677, -1.48643665119634, -0.995193652135737, 1.82861606466152], a = 0.2, v = 0.2, t = 0.2)
movej(p[-0.315927749648716, 0.0827775748691649, 0.530166666687677, -1.48734759078561, -0.996062309869862, 1.82861258858087], a = 0.2, v = 0.2, t = 0.2)
movej(p[-0.316785197101245, 0.0826108073531774, 0.530102135673717, -1.48836755109667, -0.996976297095348, 1.82949447915173], a = 0.2, v = 0.2, t = 0.2)
movej(p[-0.317642644553774, 0.0824440398371898, 0.530037604659756, -1.48938892204548, -0.997892777358446, 1.83037737489516], a = 0.2, v = 0.2, t = 0.2)
movej(p[-0.318499980722869, 0.0822772704399433, 0.529973206357732, -1.49040797493162, -0.998811697234603, 1.83126221053282], a = 0.2, v = 0.2, t = 0.2)
movej(p[-0.319357428175398, 0.0821105029239558, 0.529908675343772, -1.49142596677498, -0.999732594481873, 1.83214451751086], a = 0.2, v = 0.2, t = 0.2)
movej(p[-0.320214875627927, 0.0819437354079683, 0.529844144329812, -1.49244301007444, -1.00065490349595, 1.83302990975665], a = 0.2, v = 0.2, t = 0.2)
movej(p[-0.321072225535518, 0.0817769890400099, 0.529779607172087, -1.49345899020912, -1.00157918756461, 1.83391276990643], a = 0.2, v = 0.2, t = 0.2)
movej(p[-0.321929672988047, 0.0816102215240224, 0.529715076158127, -1.49447401553999, -1.00250489038905, 1.83479871427377], a = 0.2, v = 0.2, t = 0.2)
movej(p[-0.322787120440576, 0.0814434540080349, 0.529650545144166, -1.49548797558057, -1.0034325659483, 1.83568212310761], a = 0.2, v = 0.2, t = 0.2)
movej(p[-0.323644470348166, 0.0812767076400765, 0.529586007986442, -1.49650229779326, -1.00436090748969, 1.83656695868123], a = 0.2, v = 0.2, t = 0.2)
movej(p[-0.324501917800695, 0.081109940124089, 0.529521476972481, -1.49751428080406, -1.00529170919308, 1.83745372349248], a = 0.2, v = 0.2, t = 0.2)
movej(p[-0.324501917800695, 0.081109940124089, 0.529521476972481, -1.49759258083116, -1.00515828756088, 1.83841939943487], a = 0.2, v = 0.2, t = 0.2)
movej(p[-0.323900472404033, 0.0811063655597508, 0.52973345764925, -1.49852519532938, -1.00622448014585, 1.83833794761297], a = 0.2, v = 0.2, t = 0.2)
movej(p[-0.321803063792123, 0.081308802575489, 0.530466353316686, -1.50123611838192, -1.0044668484709, 1.83743221960377], a = 0.2, v = 0.2, t = 0.2)
movej(p[-0.319525759081951, 0.0815380725489525, 0.531198503189522, -1.50889947228343, -1.00632192595383, 1.83505478457537], a = 0.2, v = 0.2, t = 0.2)
movej(p[-0.318010266770971, 0.0816830130776191, 0.531676029805022, -1.50909914299214, -1.00620523610984, 1.83480461463653], a = 0.2, v = 0.2, t = 0.2)
movej(p[-0.317351042796478, 0.0817324984879013, 0.531977226427884, -1.50391310059358, -1.00374745199005, 1.83345437644162], a = 0.2, v = 0.2, t = 0.2)
movej(p[-0.315430067588262, 0.0819551563083928, 0.532310927827931, -1.49230633955847, -1.00032977719358, 1.82978344321968], a = 0.2, v = 0.2, t = 0.2)
movej(p[-0.312813519546322, 0.0822688065461739, 0.532461340867788, -1.48841954115645, -0.999924323189474, 1.82807034572103], a = 0.2, v = 0.2, t = 0.2)
movej(p[-0.311940022197164, 0.0822777525367406, 0.533251481133985, -1.48731995741281, -1.00047660668251, 1.82735509795221], a = 0.2, v = 0.2, t = 0.2)
movej(p[-0.311347229197383, 0.0823309805386545, 0.533283973274922, -1.48800682060924, -1.00023464662662, 1.827720110255], a = 0.2, v = 0.2, t = 0.2)
movej(p[-0.311336090102438, 0.0823167357355264, 0.533411796027777, -1.48790179341454, -1.0001341063975, 1.8277946634627], a = 0.2, v = 0.2, t = 0.2)
movej(p[-0.311481724695617, 0.0822851617279725, 0.533420968667335, -1.48797891358622, -0.999958792189259, 1.82918906070773], a = 0.2, v = 0.2, t = 0.2)
movej(p[-0.312126903031578, 0.0822102311850622, 0.533211241467035, -1.48719234186709, -0.999546096883701, 1.84004603097269], a = 0.2, v = 0.2, t = 0.2)
movej(p[-0.313069180403301, 0.0820995007016518, 0.532870063031634, -1.48635232756804, -0.998685039384953, 1.85944555578437], a = 0.2, v = 0.2, t = 0.2)
movej(p[-0.313855738322274, 0.0820471837353132, 0.532744546398736, -1.48650759023268, -0.998957277996002, 1.85938851127638], a = 0.2, v = 0.2, t = 0.2)
movej(p[-0.31472108001001, 0.0818625387858448, 0.532703109505729, -1.4900361020738, -1.00034530331751, 1.85615474733583], a = 0.2, v = 0.2, t = 0.2)
movej(p[-0.316315969193572, 0.0817611077913234, 0.532413639895051, -1.49325033171254, -0.998822754652031, 1.84820067875746], a = 0.2, v = 0.2, t = 0.2)
movej(p[-0.317519210472925, 0.081601740138461, 0.531785294078734, -1.49325033171254, -0.998822754652031, 1.84820067875746], a = 0.2, v = 0.2, t = 0.2)
movej(p[-0.318959755068132, 0.0814195615014334, 0.531178084375724, -1.49436461159245, -0.997939098763878, 1.84961788490775], a = 0.2, v = 0.2, t = 0.2)
movej(p[-0.320461121315528, 0.0812512492738863, 0.530846015926096, -1.49309839410031, -0.994075523778405, 1.85087959792875], a = 0.2, v = 0.2, t = 0.2)
movej(p[-0.321868466387241, 0.0810695856006672, 0.53035263480672, -1.49671386299073, -0.991361486171724, 1.8538823216752], a = 0.2, v = 0.2, t = 0.2)
movej(p[-0.321868466387241, 0.0810695856006672, 0.53035263480672, -1.50049361024518, -0.994198434904843, 1.85091362013549], a = 0.2, v = 0.2, t = 0.2)
movej(p[-0.321974049809486, 0.0810411169788897, 0.530306867476438, -1.50067900592189, -0.994872818549361, 1.85006568921772], a = 0.2, v = 0.2, t = 0.2)
movej(p[-0.322524906109079, 0.0809056100285492, 0.529636439893765, -1.49686178571641, -0.999184286270787, 1.84618594632358], a = 0.2, v = 0.2, t = 0.2)
movej(p[-0.322541652281842, 0.080909666491133, 0.529623789960599, -1.49686178571641, -0.999184286270787, 1.84618594632358], a = 0.2, v = 0.2, t = 0.2)
movej(p[-0.322537829285199, 0.080879199152895, 0.529579613428398, -1.49659792794009, -0.998519065222572, 1.84712012713708], a = 0.2, v = 0.2, t = 0.2)
movej(p[-0.322680076329943, 0.0808339229438033, 0.529424499750239, -1.49622844690985, -0.997428624908745, 1.8486462711321], a = 0.2, v = 0.2, t = 0.2)
movej(p[-0.322691373442932, 0.0807945930737783, 0.52937343570651, -1.49603120351866, -0.996989148428831, 1.84897695018471], a = 0.2, v = 0.2, t = 0.2)
movej(p[-0.322694065483406, 0.0807724437203496, 0.529332579629107, -1.49599152623189, -0.996906108087743, 1.84899822597354], a = 0.2, v = 0.2, t = 0.2)
movej(p[-0.323205951405953, 0.0807038938095557, 0.5292590780507, -1.4976409748801, -0.995943613671576, 1.84703256375303], a = 0.2, v = 0.2, t = 0.2)
movej(p[-0.32383705374692, 0.0806368659685052, 0.529169825634767, -1.49957718346121, -0.994821709002166, 1.84459536102721], a = 0.2, v = 0.2, t = 0.2)
movej(p[-0.324817187463154, 0.0805929809647508, 0.529115272039584, -1.49987977035012, -0.995110220410946, 1.84387848635524], a = 0.2, v = 0.2, t = 0.2)
movej(p[-0.324820143534908, 0.0806165393526821, 0.529149430845153, -1.50144069355629, -0.996909507663153, 1.84287859258737], a = 0.2, v = 0.2, t = 0.2)
movej(p[-0.324680195573841, 0.0807999430199164, 0.530139026380227, -1.50391989568397, -0.995466902108512, 1.83975355750423], a = 0.2, v = 0.2, t = 0.2)
movej(p[-0.322765285120287, 0.0809032129630304, 0.530268227013805, -1.50292802153837, -0.992996827505071, 1.83917309335897], a = 0.2, v = 0.2, t = 0.2)
movej(p[-0.320141471585497, 0.0811570498712313, 0.530922204000165, -1.49301666650859, -0.987294363674207, 1.83730042666389], a = 0.2, v = 0.2, t = 0.2)
movej(p[-0.317685859788475, 0.0814703195817184, 0.531764934734633, -1.49005975771406, -0.989532343543944, 1.83485018611075], a = 0.2, v = 0.2, t = 0.2)
movej(p[-0.31574159189055, 0.0815995177169719, 0.531980727280723, -1.48924316305927, -0.990265853789683, 1.83303020567867], a = 0.2, v = 0.2, t = 0.2)
movej(p[-0.313395408925215, 0.0818748759082999, 0.532750866917178, -1.48782119246004, -0.991339589223592, 1.83185079141565], a = 0.2, v = 0.2, t = 0.2)
movej(p[-0.311271800974859, 0.0821148980084459, 0.533355252327844, -1.4829576672178, -0.984545826118932, 1.83449620105147], a = 0.2, v = 0.2, t = 0.2)
movej(p[-0.30972346353746, 0.0823395238758769, 0.533985627216009, -1.45856771136311, -0.984813229255174, 1.85786321653409], a = 0.2, v = 0.2, t = 0.2)
movej(p[-0.308431093007713, 0.0825647822455744, 0.534602183199455, -1.45535309727947, -0.986671490454225, 1.86081180394399], a = 0.2, v = 0.2, t = 0.2)
movej(p[-0.307395712596985, 0.0826157798758402, 0.534829180505139, -1.454080899773, -0.988324195199006, 1.85950464947356], a = 0.2, v = 0.2, t = 0.2)
movej(p[-0.306850677690861, 0.0827457625813241, 0.534956834245317, -1.45556475578256, -0.991223221262125, 1.8588035541051], a = 0.2, v = 0.2, t = 0.2)
movej(p[-0.306028886556312, 0.0829481574589019, 0.535520302908783, -1.46770216229553, -0.993987763647079, 1.84695533622027], a = 0.2, v = 0.2, t = 0.2)
movej(p[-0.306028886556312, 0.0829481574589019, 0.535520302908783, -1.47272010965283, -0.990274735546501, 1.85108240066544], a = 0.2, v = 0.2, t = 0.2)
movej(p[-0.306522072699021, 0.0829063449997724, 0.535422307108353, -1.46832262874197, -0.991683553184677, 1.86876304692786], a = 0.2, v = 0.2, t = 0.2)
movej(p[-0.306907923230912, 0.0827778652556272, 0.535126908424565, -1.46953917466195, -0.994044181291716, 1.88094196356436], a = 0.2, v = 0.2, t = 0.2)
movej(p[-0.307257044984734, 0.0826197288056167, 0.534764047109203, -1.47569647208623, -1.00258567241202, 1.88998339037869], a = 0.2, v = 0.2, t = 0.2)
movej(p[-0.307606180477052, 0.0824616153848945, 0.53440104693814, -1.48176454102807, -1.01126961386788, 1.89903049285595], a = 0.2, v = 0.2, t = 0.2)
movej(p[-0.308106418518895, 0.0823360382674824, 0.53412248845402, -1.48701211860322, -1.01742473398502, 1.90689291611811], a = 0.2, v = 0.2, t = 0.2)
movej(p[-0.309337290333569, 0.0822864453004646, 0.533986723313192, -1.4886775684499, -1.01716557838343, 1.91645423872322], a = 0.2, v = 0.2, t = 0.2)
movej(p[-0.311525487378649, 0.0821504240181695, 0.533588900698618, -1.49015078238606, -1.01578281843318, 1.92297410692799], a = 0.2, v = 0.2, t = 0.2)
movej(p[-0.313137734518722, 0.0819024211612036, 0.53303853453663, -1.49146374002062, -1.01356863839095, 1.92541467054661], a = 0.2, v = 0.2, t = 0.2)
movej(p[-0.314575650221234, 0.0816937577129481, 0.532554430738017, -1.49485936529912, -1.01044996033813, 1.93021243567256], a = 0.2, v = 0.2, t = 0.2)
movej(p[-0.316674635207844, 0.0814385893178652, 0.53199586922293, -1.49485936529912, -1.01044996033813, 1.93021243567256], a = 0.2, v = 0.2, t = 0.2)
movej(p[-0.31853049628795, 0.0811064220591057, 0.531350574605289, -1.49685914571253, -1.01606947074274, 1.92617741993253], a = 0.2, v = 0.2, t = 0.2)
movej(p[-0.319808104909842, 0.0807447082737104, 0.530750976676071, -1.5028914575664, -1.01466243331696, 1.9165087456101], a = 0.2, v = 0.2, t = 0.2)
movej(p[-0.321242968430606, 0.0805230564412937, 0.530283645356805, -1.50976539196463, -1.01123071739889, 1.90498724145333], a = 0.2, v = 0.2, t = 0.2)
movej(p[-0.322645368947051, 0.0804015375882547, 0.529921171082087, -1.51255867321367, -1.01487476365833, 1.88990326409391], a = 0.2, v = 0.2, t = 0.2)
movej(p[-0.323856703625493, 0.0802287160279768, 0.529536325223196, -1.51466043556377, -1.01729174733905, 1.88695558152565], a = 0.2, v = 0.2, t = 0.2)
movej(p[-0.323856703625493, 0.0802287160279768, 0.529536325223196, -1.5140418286659, -1.01782356833791, 1.88526550204254], a = 0.2, v = 0.2, t = 0.2)
movej(p[-0.321694257875724, 0.0810837078554327, 0.530475005458574, -1.49077732073733, -0.991826530560023, 1.86484838491292], a = 0.2, v = 0.2, t = 0.2)
movej(p[-0.31857207992873, 0.0826629448230193, 0.531909045791868, -1.49421387841964, -0.9899987123486, 1.85856675881139], a = 0.2, v = 0.2, t = 0.2)
movej(p[-0.31857207992873, 0.0826629448230193, 0.531909045791868, -1.49819697340176, -0.990007923128701, 1.85437460465279], a = 0.2, v = 0.2, t = 0.2)
movej(p[-0.319996709572516, 0.0824607539936659, 0.531371696281239, -1.49856450135901, -0.990815349483715, 1.8480644525366], a = 0.2, v = 0.2, t = 0.2)
movej(p[-0.321894404473912, 0.0822627023913837, 0.530826601524296, -1.49562717692579, -0.993431121973394, 1.84088108147851], a = 0.2, v = 0.2, t = 0.2)
movej(p[-0.323516957560309, 0.0820901305214293, 0.530341329629866, -1.49306936505653, -0.99597630419927, 1.83842732103579], a = 0.2, v = 0.2, t = 0.2)
movej(p[-0.324432650609962, 0.0820619463529721, 0.530235976976999, -1.49298662920207, -0.9961014408869, 1.83832781480216], a = 0.2, v = 0.2, t = 0.2)
movej(p[-0.325028953256531, 0.0818955235270664, 0.529818347037085, -1.49330503677707, -0.995985748495025, 1.83779320711584], a = 0.2, v = 0.2, t = 0.2)
movej(p[-0.325420959745558, 0.0818843880437926, 0.529775418566653, -1.49370756072836, -0.995798271402465, 1.83725092075531], a = 0.2, v = 0.2, t = 0.2)
movej(p[-0.32582276576768, 0.0818318614267503, 0.529634628953798, -1.49388151581442, -0.995717342571246, 1.83701757978694], a = 0.2, v = 0.2, t = 0.2)
movej(p[-0.326115190322685, 0.0817699313837949, 0.529476056196333, -1.49388151581442, -0.995717342571246, 1.83701757978694], a = 0.2, v = 0.2, t = 0.2)
movej(p[-0.326115190322685, 0.0817699313837949, 0.529476056196333, -1.49388151581442, -0.995717342571246, 1.83701757978694], a = 0.2, v = 0.2, t = 0.2)
movej(p[-0.326115190322685, 0.0817699313837949, 0.529476056196333, -1.49388151581442, -0.995717342571246, 1.83701757978694], a = 0.2, v = 0.2, t = 0.2)
movej(p[-0.325383614569303, 0.0818763580478679, 0.529758004865842, -1.50275989438049, -0.997926236241494, 1.82629928411968], a = 0.2, v = 0.2, t = 0.2)
movej(p[-0.324186943597322, 0.0820451820679911, 0.530199019803286, -1.51320347859566, -1.00050415192328, 1.81361694096352], a = 0.2, v = 0.2, t = 0.2)
movej(p[-0.322824935260146, 0.0822220596643035, 0.530641359723917, -1.5130683807414, -1.00060781988846, 1.81350268935116], a = 0.2, v = 0.2, t = 0.2)
movej(p[-0.321228718149542, 0.0823602405951402, 0.530957966003341, -1.51072902621635, -0.999547232693351, 1.81293924991916], a = 0.2, v = 0.2, t = 0.2)
movej(p[-0.319647509123862, 0.0825359946031999, 0.531447208116979, -1.50526136386414, -0.994481525083744, 1.8085873153032], a = 0.2, v = 0.2, t = 0.2)
movej(p[-0.318578858592544, 0.0826932002803281, 0.531773724666318, -1.50209873533497, -0.995384471771662, 1.80668748100182], a = 0.2, v = 0.2, t = 0.2)
movej(p[-0.317244570347796, 0.0827105934969653, 0.531949658676513, -1.4956463286503, -0.996131224155539, 1.81379827436551], a = 0.2, v = 0.2, t = 0.2)
movej(p[-0.316651072487847, 0.0827134597283414, 0.53210645626882, -1.49668713666164, -0.993367458618043, 1.836998948948], a = 0.2, v = 0.2, t = 0.2)
movej(p[-0.316655193934042, 0.0827463055576686, 0.532154081526584, -1.49958164579774, -0.991176022364823, 1.83940986736843], a = 0.2, v = 0.2, t = 0.2)
movej(p[-0.317318012625546, 0.0827428470051405, 0.532099107072453, -1.49709096621633, -0.992047091647107, 1.84298684784264], a = 0.2, v = 0.2, t = 0.2)
movej(p[-0.317321227355197, 0.0827467800517191, 0.532081136912246, -1.4941240983998, -0.993512033187013, 1.84664072448254], a = 0.2, v = 0.2, t = 0.2)
movej(p[-0.317327266104568, 0.0827332206903966, 0.532059032676757, -1.49399944155187, -0.993285631358624, 1.84669109716628], a = 0.2, v = 0.2, t = 0.2)
movej(p[-0.317322525520286, 0.0826887832615673, 0.531981336976878, -1.49629769843529, -0.991968755073281, 1.84369120994941], a = 0.2, v = 0.2, t = 0.2)
movej(p[-0.317296578566645, 0.0826944086373271, 0.531979702735671, -1.49789740137522, -0.992436946758452, 1.84045787059708], a = 0.2, v = 0.2, t = 0.2)
movej(p[-0.316396108690972, 0.0828149289545471, 0.532335355369771, -1.49791213683279, -0.995848872913505, 1.83698167600533], a = 0.2, v = 0.2, t = 0.2)
movej(p[-0.314965471235262, 0.0829701876479099, 0.532772360768429, -1.49739522199946, -0.996239155638211, 1.83654998379597], a = 0.2, v = 0.2, t = 0.2)
movej(p[-0.313131240056417, 0.0830789640470209, 0.533226540652998, -1.49113935375196, -0.994562904516985, 1.83798705517439], a = 0.2, v = 0.2, t = 0.2)
movej(p[-0.312163226875128, 0.0832087203218191, 0.533612114666648, -1.47540272965317, -0.980784149692315, 1.84031836490567], a = 0.2, v = 0.2, t = 0.2)
movej(p[-0.311692213002417, 0.0834590001655625, 0.534093569474008, -1.47540272965317, -0.980784149692315, 1.84031836490567], a = 0.2, v = 0.2, t = 0.2)
movej(p[-0.311692213002417, 0.0834590001655625, 0.534093569474008, -1.47718258718383, -0.982548671948374, 1.84759959137881], a = 0.2, v = 0.2, t = 0.2)
movej(p[-0.311810886537505, 0.0833796688289601, 0.53396763623335, -1.48426628195578, -0.987875888250964, 1.87276544079626], a = 0.2, v = 0.2, t = 0.2)
movej(p[-0.313062912499769, 0.0832422374958972, 0.533585916272504, -1.48890151575802, -0.992883859424867, 1.87261061354851], a = 0.2, v = 0.2, t = 0.2)
movej(p[-0.314782153854192, 0.0831186531292128, 0.533091617011374, -1.49371570100695, -0.99479574079355, 1.86838459214743], a = 0.2, v = 0.2, t = 0.2)
movej(p[-0.316606895922833, 0.0828518529654359, 0.532382499513675, -1.49683843171345, -0.995098725522273, 1.86521382971589], a = 0.2, v = 0.2, t = 0.2)
movej(p[-0.318923861762525, 0.0825845471904331, 0.531584734378844, -1.500525028793, -0.993281210773369, 1.85720632304407], a = 0.2, v = 0.2, t = 0.2)
movej(p[-0.321316305495285, 0.0824255685977074, 0.530991798073132, -1.50072717895144, -0.994153665199223, 1.84612846082894], a = 0.2, v = 0.2, t = 0.2)
movej(p[-0.323252130698569, 0.0823880603637692, 0.530585992177764, -1.49940763269642, -1.00022715125211, 1.84257063042859], a = 0.2, v = 0.2, t = 0.2)
movej(p[-0.324659770659302, 0.0822716082259491, 0.530146377857542, -1.49901735019176, -1.00048406689291, 1.84268324472118], a = 0.2, v = 0.2, t = 0.2)
movej(p[-0.325761509540563, 0.082109604394425, 0.529688171259936, -1.4979483516374, -1.00066538433658, 1.84209005756569], a = 0.2, v = 0.2, t = 0.2)
movej(p[-0.326425050357458, 0.0820732223644701, 0.529524679235022, -1.49813175633346, -1.00059558284162, 1.84142550339558], a = 0.2, v = 0.2, t = 0.2)
movej(p[-0.326425050357458, 0.0820732223644701, 0.529524679235022, -1.50671265449229, -1.00084904363537, 1.82886115891963], a = 0.2, v = 0.2, t = 0.2)
movej(p[-0.326007804095749, 0.0822651285802921, 0.529905341515027, -1.51145847288777, -0.998497863984712, 1.81798142097867], a = 0.2, v = 0.2, t = 0.2)
movej(p[-0.324194398395125, 0.0823905937115159, 0.530393948796787, -1.50920938073999, -0.999541830251264, 1.81641899669538], a = 0.2, v = 0.2, t = 0.2)
movej(p[-0.321893862185937, 0.082628143780644, 0.531108393374674, -1.49663385123038, -0.989311819837001, 1.81752208977225], a = 0.2, v = 0.2, t = 0.2)
movej(p[-0.319573223105217, 0.0829395794098083, 0.531971519991066, -1.48799788074888, -0.988733304806372, 1.81552983923607], a = 0.2, v = 0.2, t = 0.2)
movej(p[-0.317515792068639, 0.0830848495318052, 0.532488167560867, -1.48089878746039, -0.982359530581373, 1.82066590040996], a = 0.2, v = 0.2, t = 0.2)
movej(p[-0.315491334235394, 0.0831074417808612, 0.532867966720547, -1.47712268317046, -0.980102270088395, 1.82988579587519], a = 0.2, v = 0.2, t = 0.2)
movej(p[-0.313317888545114, 0.0832515633807737, 0.533459869994606, -1.47140341741138, -0.975189706132514, 1.83726624386754], a = 0.2, v = 0.2, t = 0.2)
movej(p[-0.313062703696473, 0.0833885939761258, 0.533720283221923, -1.46714603757463, -0.976719553166348, 1.85170542142949], a = 0.2, v = 0.2, t = 0.2)
movej(p[-0.313062703696473, 0.0833885939761258, 0.533720283221923, -1.470703504339, -0.978859750642683, 1.86396300154729], a = 0.2, v = 0.2, t = 0.2)
movej(p[-0.313541144585154, 0.0833097897945356, 0.533533746075484, -1.47910751451311, -0.973366822707727, 1.87625086035437], a = 0.2, v = 0.2, t = 0.2)
movej(p[-0.316735952247933, 0.0829079879914866, 0.532531976915987, -1.47996361045041, -0.974956405408667, 1.87591752555064], a = 0.2, v = 0.2, t = 0.2)
movej(p[-0.321162628802962, 0.0825955035126942, 0.531278946482331, -1.48291182462802, -0.979406871659992, 1.85903720413511], a = 0.2, v = 0.2, t = 0.2)
movej(p[-0.32342364535293, 0.0823399806801439, 0.530482281004971, -1.49222661604254, -0.988262576021255, 1.84070622269765], a = 0.2, v = 0.2, t = 0.2)
movej(p[-0.324656606335501, 0.0822909407900181, 0.530150855470902, -1.49635576801712, -0.996801346935111, 1.83787387028553], a = 0.2, v = 0.2, t = 0.2)
movej(p[-0.325262495660762, 0.0821999700673245, 0.529930259679584, -1.49723735229831, -0.996301598648384, 1.83667049167287], a = 0.2, v = 0.2, t = 0.2)
movej(p[-0.325786018001911, 0.0821399391421336, 0.529722489599113, -1.49633851352056, -0.995999006305541, 1.83636504175294], a = 0.2, v = 0.2, t = 0.2)
movej(p[-0.32598698094593, 0.0819447579224571, 0.529416387971191, -1.49644575162944, -0.994893550898508, 1.83585286199343], a = 0.2, v = 0.2, t = 0.2)
movej(p[-0.326171386083727, 0.0818260565445513, 0.529209985505029, -1.49640249892449, -0.994211259538747, 1.83565141837671], a = 0.2, v = 0.2, t = 0.2)
movej(p[-0.326407939867826, 0.0817666770323456, 0.529074826669732, -1.49626923753623, -0.993945562202686, 1.83570757298459], a = 0.2, v = 0.2, t = 0.2)
movej(p[-0.326407939867826, 0.0817666770323456, 0.529074826669732, -1.496219738181, -0.993982980657568, 1.83566631297501], a = 0.2, v = 0.2, t = 0.2)
movej(p[-0.325937910616049, 0.0821185436998034, 0.529654318499533, -1.49800622013414, -0.993199095029806, 1.833278347369], a = 0.2, v = 0.2, t = 0.2)
movej(p[-0.324193160295356, 0.082174584058807, 0.53007209266892, -1.50081485893974, -0.992696666761506, 1.82790289955388], a = 0.2, v = 0.2, t = 0.2)
movej(p[-0.322376564834007, 0.0822060216594194, 0.530401619628473, -1.50004412908954, -0.995289726789062, 1.82002875439106], a = 0.2, v = 0.2, t = 0.2)
movej(p[-0.320292034554498, 0.0823740877455732, 0.531029841097779, -1.50006593436809, -0.995328231682331, 1.8200199339072], a = 0.2, v = 0.2, t = 0.2)
movej(p[-0.318608987068211, 0.082529359678312, 0.531525703070313, -1.50026605050182, -0.996730021654606, 1.82680381173296], a = 0.2, v = 0.2, t = 0.2)
movej(p[-0.316697123139252, 0.0825690260111966, 0.531997972865218, -1.49954891234394, -0.997121275895003, 1.82796447900317], a = 0.2, v = 0.2, t = 0.2)
movej(p[-0.315590400000294, 0.0825323242473432, 0.532160588252635, -1.49311110718834, -0.995048535190758, 1.83539839664477], a = 0.2, v = 0.2, t = 0.2)
movej(p[-0.315117834267274, 0.0825576697588909, 0.532317235381623, -1.49208956068418, -0.995156726670393, 1.83661925996476], a = 0.2, v = 0.2, t = 0.2)
movej(p[-0.314645247689817, 0.0825829356104102, 0.532473939253798, -1.49106810208712, -0.995261577552853, 1.83784152406301], a = 0.2, v = 0.2, t = 0.2)
movej(p[-0.314172681956798, 0.0826082811219579, 0.532630586382785, -1.49004735037918, -0.995368102828869, 1.8390604015134], a = 0.2, v = 0.2, t = 0.2)
movej(p[-0.313229552443628, 0.0831192290626441, 0.533324469213887, -1.48199885476038, -0.992861155708851, 1.84951215489919], a = 0.2, v = 0.2, t = 0.2)
movej(p[-0.312166761656674, 0.0830606001354596, 0.533508391594421, -1.48528089908795, -0.990380939034601, 1.85258960589998], a = 0.2, v = 0.2, t = 0.2)
movej(p[-0.312163755843328, 0.0830366453323467, 0.533473658001259, -1.48555464625421, -0.989586546748378, 1.86858445741977], a = 0.2, v = 0.2, t = 0.2)
movej(p[-0.312607610837651, 0.0829488481963451, 0.533398371170247, -1.49151547156239, -0.993861347665797, 1.88165694682081], a = 0.2, v = 0.2, t = 0.2)
movej(p[-0.315434769702202, 0.0827675224978045, 0.532607370932801, -1.49437514403659, -0.997513494200952, 1.88248039869349], a = 0.2, v = 0.2, t = 0.2)
movej(p[-0.317639295724018, 0.0824469012593529, 0.531806418524357, -1.49487419320787, -0.998459822448619, 1.88227672049709], a = 0.2, v = 0.2, t = 0.2)
movej(p[-0.320686813983909, 0.0823234352249616, 0.53099078749014, -1.4965193744626, -0.997832056670229, 1.87579657855301], a = 0.2, v = 0.2, t = 0.2)
movej(p[-0.3239009169379, 0.0820706349662911, 0.530086504337381, -1.49731279669781, -0.999123437667507, 1.86223220101437], a = 0.2, v = 0.2, t = 0.2)
movej(p[-0.325015071872987, 0.0819305825554051, 0.529614154305278, -1.49820153496188, -0.999459701348751, 1.85044951390778], a = 0.2, v = 0.2, t = 0.2)
movej(p[-0.32605074942464, 0.0820234119256999, 0.529372943076243, -1.49506314794527, -0.99726531925892, 1.84627291549648], a = 0.2, v = 0.2, t = 0.2)
movej(p[-0.326062683491654, 0.0820673638038159, 0.529429160693185, -1.4951941755755, -0.997186131415125, 1.84609225037067], a = 0.2, v = 0.2, t = 0.2)
movej(p[-0.326065746152534, 0.0820917716528505, 0.529464551186454, -1.49761205816653, -0.994873076609109, 1.84213550457344], a = 0.2, v = 0.2, t = 0.2)
movej(p[-0.324490146034439, 0.0822866009605343, 0.530002018533113, -1.49929543701188, -0.992615143788754, 1.83863730248931], a = 0.2, v = 0.2, t = 0.2)
movej(p[-0.322314115356579, 0.0824752699037903, 0.530674367764437, -1.49632184924184, -0.990746975416496, 1.83618033139843], a = 0.2, v = 0.2, t = 0.2)
movej(p[-0.320083143532932, 0.0828126079761926, 0.531435146462222, -1.48383324539711, -0.986160532049449, 1.83261976572796], a = 0.2, v = 0.2, t = 0.2)
movej(p[-0.318003864344177, 0.0829577887769183, 0.531933773758215, -1.47765447477019, -0.98267844713215, 1.83153362564238], a = 0.2, v = 0.2, t = 0.2)
movej(p[-0.316397540955642, 0.0829143037955418, 0.532321011047019, -1.47597245657945, -0.980318597413722, 1.83243667680169], a = 0.2, v = 0.2, t = 0.2)
movej(p[-0.314281221949922, 0.0829436087560401, 0.532829811425673, -1.47067005658728, -0.979247778892998, 1.8403534534467], a = 0.2, v = 0.2, t = 0.2)
movej(p[-0.312208650829683, 0.0832553398715378, 0.533595029821416, -1.46672945375929, -0.981171257894923, 1.8482184565062], a = 0.2, v = 0.2, t = 0.2)
movej(p[-0.312208650829683, 0.0832553398715378, 0.533595029821416, -1.47571712820864, -0.982817810756911, 1.86920847644552], a = 0.2, v = 0.2, t = 0.2)
movej(p[-0.313797622857553, 0.0828116390729627, 0.533051458127901, -1.48220894683164, -0.986251613427546, 1.87395792934993], a = 0.2, v = 0.2, t = 0.2)
movej(p[-0.316553812014209, 0.0825717605086276, 0.532230257849586, -1.48335516989385, -0.988388740817716, 1.87349790475495], a = 0.2, v = 0.2, t = 0.2)
movej(p[-0.319661221647231, 0.0823528644595167, 0.531255073640173, -1.48987963102866, -0.989165062277746, 1.85129599970281], a = 0.2, v = 0.2, t = 0.2)
movej(p[-0.321623363644141, 0.0822909667648461, 0.530622556716007, -1.49806093653698, -0.995782241928953, 1.84373336946009], a = 0.2, v = 0.2, t = 0.2)
movej(p[-0.322206767945205, 0.0820232891957131, 0.530297187816936, -1.49842703145508, -0.996446158972624, 1.84358491897176], a = 0.2, v = 0.2, t = 0.2)
movej(p[-0.32260786612535, 0.0820024639832194, 0.53020839704935, -1.49974249542771, -0.997878824689914, 1.84441870457753], a = 0.2, v = 0.2, t = 0.2)
movej(p[-0.323965735543536, 0.0820409481841265, 0.52995620248272, -1.49887654261944, -0.998380584256107, 1.84550644148627], a = 0.2, v = 0.2, t = 0.2)
movej(p[-0.32513646249773, 0.0818994166524092, 0.529482290767047, -1.4935643328691, -0.995776252798786, 1.84642627871833], a = 0.2, v = 0.2, t = 0.2)
movej(p[-0.325790536656308, 0.08192203168533, 0.529292934501329, -1.48949429788799, -0.994908802589887, 1.84493328806645], a = 0.2, v = 0.2, t = 0.2)
movej(p[-0.326210043842365, 0.0817930474219687, 0.529076688297544, -1.49043019957533, -0.994023048949335, 1.84347857315551], a = 0.2, v = 0.2, t = 0.2)
movej(p[-0.326210043842365, 0.0817930474219687, 0.529076688297544, -1.49443443519378, -0.99176736049875, 1.83795996422506], a = 0.2, v = 0.2, t = 0.2)
movej(p[-0.325498412454228, 0.0819484222558716, 0.529412298768786, -1.50338122889158, -0.999487061366848, 1.83129978556842], a = 0.2, v = 0.2, t = 0.2)
movej(p[-0.324158380626174, 0.0820535759181612, 0.529833394858899, -1.50552458047068, -0.998655681537882, 1.82376994391759], a = 0.2, v = 0.2, t = 0.2)
movej(p[-0.322283280231264, 0.0821765724838233, 0.530394563500081, -1.5029582534787, -0.994362350611258, 1.82420768092165], a = 0.2, v = 0.2, t = 0.2)
movej(p[-0.320744523589761, 0.0827176909808215, 0.531179344909415, -1.49547793541536, -0.9948887142545, 1.80497322198228], a = 0.2, v = 0.2, t = 0.2)
movej(p[-0.319014733962815, 0.0826253069437979, 0.531488354579508, -1.49258564527713, -0.996375770721859, 1.80087396003824], a = 0.2, v = 0.2, t = 0.2)
movej(p[-0.317225085293063, 0.0824649089374637, 0.53181048084112, -1.49020268029425, -0.99226085713615, 1.80184241349591], a = 0.2, v = 0.2, t = 0.2)
movej(p[-0.315254330024483, 0.0824358850483906, 0.532333515816269, -1.48023768918565, -0.987014684332412, 1.81360723457431], a = 0.2, v = 0.2, t = 0.2)
movej(p[-0.314500499330822, 0.0825542195504662, 0.532588231031584, -1.4774879734607, -0.987104463029146, 1.83247632415202], a = 0.2, v = 0.2, t = 0.2)
movej(p[-0.314500499330822, 0.0825542195504662, 0.532588231031584, -1.48033519773241, -0.98832139324415, 1.84770611699306], a = 0.2, v = 0.2, t = 0.2)
movej(p[-0.317145530789621, 0.0823176894349646, 0.531875056371053, -1.48589601620267, -0.98913991964617, 1.84990581028546], a = 0.2, v = 0.2, t = 0.2)
movej(p[-0.320131197888628, 0.0817691035407543, 0.530804340745603, -1.48691673906796, -0.989379446985557, 1.84891392398062], a = 0.2, v = 0.2, t = 0.2)
movej(p[-0.322270750182737, 0.081615075704295, 0.530263974586068, -1.49253400876211, -0.990144030621398, 1.83704522774866], a = 0.2, v = 0.2, t = 0.2)
movej(p[-0.323503987848006, 0.0816658532574828, 0.529809489832689, -1.49662623824255, -1.0009725974487, 1.83368937595565], a = 0.2, v = 0.2, t = 0.2)
movej(p[-0.324219617306885, 0.0813796733272008, 0.529487509188724, -1.50054675860843, -1.01101340625208, 1.83127549551503], a = 0.2, v = 0.2, t = 0.2)
movej(p[-0.324482854042851, 0.0815105787535502, 0.529333040453408, -1.49967014556847, -1.01398557114247, 1.82938213275508], a = 0.2, v = 0.2, t = 0.2)
movej(p[-0.325097588802892, 0.0813406560754103, 0.529103898492494, -1.49917439575493, -1.014269981441, 1.82999888833032], a = 0.2, v = 0.2, t = 0.2)
movej(p[-0.325494759402777, 0.0812187474137031, 0.529033890972987, -1.49731208144654, -1.01404545056374, 1.84089565984588], a = 0.2, v = 0.2, t = 0.2)
movej(p[-0.325560729142491, 0.0811596421307144, 0.528972857629928, -1.49721880163416, -1.01228283164918, 1.84172395753441], a = 0.2, v = 0.2, t = 0.2)
movej(p[-0.325659226971125, 0.0811066209230192, 0.528885084289506, -1.49741826251351, -1.0121345538245, 1.84189229527271], a = 0.2, v = 0.2, t = 0.2)
movej(p[-0.32608200782769, 0.0810807602746837, 0.528854641323328, -1.49869935781143, -1.01135882754738, 1.84077749031627], a = 0.2, v = 0.2, t = 0.2)
movej(p[-0.326225190157315, 0.0810796015281574, 0.52884304961122, -1.49293663639992, -1.00078847958089, 1.84314291148237], a = 0.2, v = 0.2, t = 0.2)
movej(p[-0.326718453712578, 0.0815117446544849, 0.528693892233201, -1.48834698483411, -0.992442839403283, 1.84500796727981], a = 0.2, v = 0.2, t = 0.2)
movej(p[-0.326976518720451, 0.0814717894438872, 0.52869911553266, -1.48842010227878, -0.992388003069633, 1.84506857941935], a = 0.2, v = 0.2, t = 0.2)
movej(p[-0.3272103900356, 0.081481189378672, 0.528672393646933, -1.48917180530317, -0.992959198479004, 1.84511327347214], a = 0.2, v = 0.2, t = 0.2)
movej(p[-0.327252028608076, 0.0816620692745365, 0.528633919076706, -1.49034279343743, -0.994227121205824, 1.84499472802519], a = 0.2, v = 0.2, t = 0.2)
movej(p[-0.327210940252859, 0.0817554421207088, 0.528749908682547, -1.49207140626853, -0.994364007119828, 1.84322166165307], a = 0.2, v = 0.2, t = 0.2)
movej(p[-0.326716909626831, 0.0818019810234879, 0.528936177738147, -1.49445075736265, -0.993422408520525, 1.84025826938847], a = 0.2, v = 0.2, t = 0.2)
movej(p[-0.325624572058101, 0.0819239355073054, 0.529333507122685, -1.49917612139068, -0.995274476536946, 1.83480599471855], a = 0.2, v = 0.2, t = 0.2)
movej(p[-0.324378000566054, 0.0820963777881297, 0.529768672591214, -1.5026311701687, -0.995359082386764, 1.82964966694982], a = 0.2, v = 0.2, t = 0.2)
movej(p[-0.322441839199323, 0.0823345718238015, 0.530338368284851, -1.50245340691603, -0.995872303989162, 1.82512872993386], a = 0.2, v = 0.2, t = 0.2)
movej(p[-0.320510790125629, 0.0823235033454577, 0.530895028121534, -1.49830742689549, -0.996796226140241, 1.82274863569912], a = 0.2, v = 0.2, t = 0.2)
movej(p[-0.318315529436527, 0.0823300927957858, 0.531545431170439, -1.48711891459468, -0.983221676791232, 1.82956120760479], a = 0.2, v = 0.2, t = 0.2)
movej(p[-0.316276138676943, 0.0826381673771116, 0.532293737339106, -1.480996433741, -0.983393911122329, 1.83408828982873], a = 0.2, v = 0.2, t = 0.2)
movej(p[-0.314094984640789, 0.0827399684611494, 0.533069064753725, -1.47965367926813, -0.981006243462715, 1.83462215404622], a = 0.2, v = 0.2, t = 0.2)
movej(p[-0.311958757884157, 0.0828353355727636, 0.533699774868017, -1.47577714950941, -0.97584886809483, 1.83680602487144], a = 0.2, v = 0.2, t = 0.2)
movej(p[-0.310825002059924, 0.083060949518255, 0.534009590230155, -1.46370612996321, -0.97093712645347, 1.85256744240406], a = 0.2, v = 0.2, t = 0.2)
movej(p[-0.310833422600858, 0.083128056945415, 0.534106893558517, -1.46146893656065, -0.967669619538373, 1.86267664754375], a = 0.2, v = 0.2, t = 0.2)
movej(p[-0.311109902823473, 0.0831344484020197, 0.534078559201544, -1.46074754908315, -0.967042036305017, 1.87496601184683], a = 0.2, v = 0.2, t = 0.2)
movej(p[-0.312253405425657, 0.0828990816517731, 0.533699242234252, -1.46862169159178, -0.973033029032777, 1.87584448814246], a = 0.2, v = 0.2, t = 0.2)
movej(p[-0.313463661404712, 0.082630970620309, 0.533298125754946, -1.47279111837621, -0.977222302498426, 1.87293227087764], a = 0.2, v = 0.2, t = 0.2)
movej(p[-0.315078532105233, 0.082607790428435, 0.5327866024326, -1.48074742671022, -0.979213445149738, 1.8528559341211], a = 0.2, v = 0.2, t = 0.2)
movej(p[-0.319016681690066, 0.0820551473678336, 0.531392689725488, -1.48429415310612, -0.981533687038803, 1.8387764421307], a = 0.2, v = 0.2, t = 0.2)
movej(p[-0.321533528871086, 0.0819935883962179, 0.530603669433985, -1.48417498358695, -0.982267860827415, 1.83160568122739], a = 0.2, v = 0.2, t = 0.2)
movej(p[-0.323047588473102, 0.0818429331388, 0.530067367490154, -1.4862047594105, -0.981729875817943, 1.82243567802279], a = 0.2, v = 0.2, t = 0.2)
movej(p[-0.324431726754913, 0.0820889809281712, 0.529661710994865, -1.490044437955, -0.988478228057902, 1.82090652092498], a = 0.2, v = 0.2, t = 0.2)
movej(p[-0.324896392828334, 0.0819397415504473, 0.529485606854233, -1.49654117436542, -0.993183274249023, 1.82183863550962], a = 0.2, v = 0.2, t = 0.2)
movej(p[-0.325321440684026, 0.0817697566951026, 0.529336494415701, -1.49678120634969, -0.993000583482702, 1.82203897443326], a = 0.2, v = 0.2, t = 0.2)
movej(p[-0.32569190212147, 0.081853104483918, 0.529238183889984, -1.49873145669327, -0.994661778524794, 1.82114860330645], a = 0.2, v = 0.2, t = 0.2)
movej(p[-0.326172520988077, 0.0819710244770833, 0.529096875998225, -1.500931719943, -0.993230574477412, 1.82021512753381], a = 0.2, v = 0.2, t = 0.2)
movej(p[-0.32634692501121, 0.0818979404205396, 0.529030497557492, -1.50132245154006, -0.993445594131863, 1.81988168236851], a = 0.2, v = 0.2, t = 0.2)
movej(p[-0.326668054851862, 0.0818042449965854, 0.528902552518616, -1.50141596404218, -0.993610582140776, 1.81984405179216], a = 0.2, v = 0.2, t = 0.2)
movej(p[-0.326675725604781, 0.0818335598870358, 0.528881671025673, -1.50474504704327, -0.99127453818892, 1.82024208654166], a = 0.2, v = 0.2, t = 0.2)
movej(p[-0.326045195861384, 0.0822545438734415, 0.529241054408541, -1.50754900127161, -0.987920676154118, 1.81600882278166], a = 0.2, v = 0.2, t = 0.2)
movej(p[-0.324464978921939, 0.0825260928940831, 0.529730150476488, -1.50467870671809, -0.983423741204228, 1.813229839788], a = 0.2, v = 0.2, t = 0.2)
movej(p[-0.322087046300827, 0.0827265517572709, 0.5305170624116, -1.50004675067412, -0.983299089696913, 1.81118115675214], a = 0.2, v = 0.2, t = 0.2)
movej(p[-0.319663934071964, 0.0828980252609328, 0.531312773322594, -1.49165371768959, -0.971048485993416, 1.81484261124332], a = 0.2, v = 0.2, t = 0.2)
movej(p[-0.31752638213516, 0.0830856242352295, 0.532041108727686, -1.48471868080681, -0.967311468896728, 1.81478921900964], a = 0.2, v = 0.2, t = 0.2)
movej(p[-0.315270198035499, 0.0830251160635225, 0.53271979864922, -1.47814238787253, -0.969387717375733, 1.81225436916697], a = 0.2, v = 0.2, t = 0.2)
movej(p[-0.312858032336114, 0.0830380778443377, 0.533474819669424, -1.4737177285642, -0.965552500115941, 1.81547992347086], a = 0.2, v = 0.2, t = 0.2)
movej(p[-0.310770906628472, 0.0832888316176297, 0.534210768666078, -1.46498582399569, -0.958814352105073, 1.82851066342603], a = 0.2, v = 0.2, t = 0.2)
movej(p[-0.31046970194813, 0.0833874184413206, 0.534322411797237, -1.46416535825226, -0.957402698070854, 1.83355302141092], a = 0.2, v = 0.2, t = 0.2)
movej(p[-0.310459759151548, 0.0833494206077749, 0.534349478297601, -1.463957104934, -0.957064445516652, 1.83836200705967], a = 0.2, v = 0.2, t = 0.2)
movej(p[-0.310783807293604, 0.0832193077209916, 0.53428585488742, -1.47104007756865, -0.956967453067392, 1.85378749393109], a = 0.2, v = 0.2, t = 0.2)
movej(p[-0.312799626200709, 0.0826740573379652, 0.533650429704124, -1.47307511604831, -0.960619489098649, 1.85301970544446], a = 0.2, v = 0.2, t = 0.2)
movej(p[-0.317155146562754, 0.0824857028970502, 0.532204688762461, -1.48220615903727, -0.962338315134001, 1.8377154315556], a = 0.2, v = 0.2, t = 0.2)
movej(p[-0.321657240133858, 0.0820030340283864, 0.530610562437404, -1.48741320805402, -0.971293868953887, 1.83341079425049], a = 0.2, v = 0.2, t = 0.2)
movej(p[-0.323431378720546, 0.0818278150733593, 0.530028870995982, -1.48890644264562, -0.974351690231939, 1.83263650499898], a = 0.2, v = 0.2, t = 0.2)
movej(p[-0.324152051646177, 0.0818715013706644, 0.529738476192842, -1.49329720868396, -0.982338696851852, 1.83099868248083], a = 0.2, v = 0.2, t = 0.2)
movej(p[-0.32488379040058, 0.0818138027934135, 0.529514245085524, -1.49681567582139, -0.988576433127769, 1.82962614379751], a = 0.2, v = 0.2, t = 0.2)
movej(p[-0.325118751587143, 0.0816939876642095, 0.529432352560698, -1.4967582312074, -0.989936115412915, 1.83485296073096], a = 0.2, v = 0.2, t = 0.2)
movej(p[-0.325284869593111, 0.0816253469880417, 0.52938749639425, -1.50031040950797, -0.99010412150148, 1.83661773087597], a = 0.2, v = 0.2, t = 0.2)
movej(p[-0.325553426309013, 0.081556070550681, 0.529388894811519, -1.50056978292514, -0.990569591259974, 1.8365141581672], a = 0.2, v = 0.2, t = 0.2)
movej(p[-0.326032399611514, 0.0815252420139442, 0.529222321984163, -1.50415085653468, -0.994163613636635, 1.83404621939449], a = 0.2, v = 0.2, t = 0.2)
movej(p[-0.326224300197092, 0.0814811483610052, 0.529098387424715, -1.51034963638754, -1.0011841522149, 1.83354386697858], a = 0.2, v = 0.2, t = 0.2)
movej(p[-0.32654757638829, 0.0813840114651351, 0.529080774427651, -1.50987129065184, -1.00252421817097, 1.84276933260988], a = 0.2, v = 0.2, t = 0.2)
movej(p[-0.326778298133773, 0.081491627108211, 0.52898476167055, -1.51063706679488, -1.00194562636058, 1.84341445476109], a = 0.2, v = 0.2, t = 0.2)
movej(p[-0.327260852460848, 0.0816403030161035, 0.528840464179809, -1.511403969957, -1.00135496357367, 1.84419614711692], a = 0.2, v = 0.2, t = 0.2)
movej(p[-0.327391757745309, 0.0815416514002024, 0.528750057846069, -1.5141118048104, -1.00297454794714, 1.84420642150148], a = 0.2, v = 0.2, t = 0.2)
movej(p[-0.327377229172525, 0.0814861283604091, 0.528789607847649, -1.51566436422413, -1.0018099352672, 1.845375352663], a = 0.2, v = 0.2, t = 0.2)
movej(p[-0.326550882785455, 0.0817494992008247, 0.529103044649884, -1.51783913227242, -0.988060904578306, 1.84388502074012], a = 0.2, v = 0.2, t = 0.2)
movej(p[-0.325685278378928, 0.0821374809706157, 0.529448171579738, -1.52075204017321, -0.986306039020326, 1.84016895203088], a = 0.2, v = 0.2, t = 0.2)
movej(p[-0.32463515206046, 0.0823865089001779, 0.529772233033105, -1.51916705151115, -0.986357030946577, 1.83569848731985], a = 0.2, v = 0.2, t = 0.2)
movej(p[-0.323736711912324, 0.0823168154924343, 0.530090345967666, -1.52000834434156, -0.982660824823783, 1.8320198128486], a = 0.2, v = 0.2, t = 0.2)
movej(p[-0.320713443726352, 0.0823377069059318, 0.531159124253622, -1.51888099106806, -0.983204451962537, 1.83123569262514], a = 0.2, v = 0.2, t = 0.2)
movej(p[-0.318009227531127, 0.0827522613314434, 0.532034745711659, -1.51219068855389, -0.981244802069484, 1.83132407316436], a = 0.2, v = 0.2, t = 0.2)
movej(p[-0.315433658975766, 0.0828933399625569, 0.53286765716342, -1.5043812109709, -0.981746579494975, 1.83361272364376], a = 0.2, v = 0.2, t = 0.2)
movej(p[-0.312941398697418, 0.0828709700093471, 0.533750551624931, -1.50003265515265, -0.977706072935034, 1.83670456175542], a = 0.2, v = 0.2, t = 0.2)
movej(p[-0.311257357843742, 0.0831945910979804, 0.534202002845042, -1.48951559575203, -0.970893718338431, 1.84744250739757], a = 0.2, v = 0.2, t = 0.2)
movej(p[-0.310891037169194, 0.0832404583762522, 0.534487288905309, -1.47994732811605, -0.965381730742239, 1.86637932231808], a = 0.2, v = 0.2, t = 0.2)
movej(p[-0.310891037169194, 0.0832404583762522, 0.534487288905309, -1.47925684457905, -0.965743264671177, 1.86764593545537], a = 0.2, v = 0.2, t = 0.2)
movej(p[-0.310896676661371, 0.0831584357414491, 0.534374211482682, -1.48091937161858, -0.963740404944874, 1.88050914118419], a = 0.2, v = 0.2, t = 0.2)
movej(p[-0.312164611490348, 0.0826558847119611, 0.534107503848316, -1.48978426433475, -0.965967534641495, 1.88363293065263], a = 0.2, v = 0.2, t = 0.2)
movej(p[-0.314403757574975, 0.0824384951887184, 0.533354752417309, -1.50227254775426, -0.983404757807611, 1.8767028771465], a = 0.2, v = 0.2, t = 0.2)
movej(p[-0.316049308683815, 0.0820480765141247, 0.532792919758305, -1.50669364907141, -0.981507278341328, 1.86917606750832], a = 0.2, v = 0.2, t = 0.2)
movej(p[-0.318135100815764, 0.0817210254406229, 0.532157323905879, -1.50775541982816, -0.981142639519282, 1.86445389226492], a = 0.2, v = 0.2, t = 0.2)
movej(p[-0.320399564993344, 0.0816131780927067, 0.531322692587268, -1.50983476223004, -0.980430183072441, 1.85529890125496], a = 0.2, v = 0.2, t = 0.2)
movej(p[-0.322503484743139, 0.0818221437304992, 0.53053530699644, -1.50917408069053, -0.98633797252787, 1.85219516690094], a = 0.2, v = 0.2, t = 0.2)
movej(p[-0.323757082784875, 0.0816151692256142, 0.530091076589914, -1.51014390590918, -0.991866342294164, 1.84957840136028], a = 0.2, v = 0.2, t = 0.2)
movej(p[-0.324991652960172, 0.0814335163895771, 0.529665006948392, -1.50956947996466, -0.992348677233036, 1.84852721224414], a = 0.2, v = 0.2, t = 0.2)
movej(p[-0.325734320011369, 0.0814280383279425, 0.529407955724104, -1.51069756412404, -0.994405928597461, 1.84807700331262], a = 0.2, v = 0.2, t = 0.2)
movej(p[-0.326516830809897, 0.0817437535157118, 0.529083526963977, -1.51231817512722, -0.996111407113615, 1.84668295523998], a = 0.2, v = 0.2, t = 0.2)
movej(p[-0.326619782708624, 0.0817185828465478, 0.52908600969683, -1.5144683512873, -0.998184910297357, 1.84825787074867], a = 0.2, v = 0.2, t = 0.2)
movej(p[-0.3267465139816, 0.0814780736991977, 0.529035830572777, -1.51614048421957, -0.998488784207122, 1.84735841157384], a = 0.2, v = 0.2, t = 0.2)
movej(p[-0.326741553005528, 0.081459114612439, 0.529049335451366, -1.52176047311694, -0.995135529095013, 1.84026438725534], a = 0.2, v = 0.2, t = 0.2)
movej(p[-0.324923909294302, 0.0821595791681241, 0.529610129928219, -1.52148761167378, -0.986826902625426, 1.83261129690392], a = 0.2, v = 0.2, t = 0.2)
movej(p[-0.322479372879065, 0.0823276616923894, 0.530454362952698, -1.52055430963293, -0.986018863387174, 1.82882346928673], a = 0.2, v = 0.2, t = 0.2)
movej(p[-0.320179509524473, 0.0822886192071695, 0.531317735621105, -1.5178254608883, -0.98179971880698, 1.82957678330583], a = 0.2, v = 0.2, t = 0.2)
movej(p[-0.318009051851359, 0.0822656350787728, 0.532102448587139, -1.5107771328992, -0.975792466974448, 1.83312166593757], a = 0.2, v = 0.2, t = 0.2)
movej(p[-0.316042072213642, 0.0825572295689475, 0.53274953669405, -1.50932128247086, -0.97682070924258, 1.83305373331216], a = 0.2, v = 0.2, t = 0.2)
movej(p[-0.314341365559809, 0.0825991683619111, 0.533329352065743, -1.50639734250163, -0.979368879334411, 1.83712560528269], a = 0.2, v = 0.2, t = 0.2)
movej(p[-0.312867328321129, 0.0825555411520469, 0.533866847047621, -1.50427941380588, -0.98039698590031, 1.84232826912376], a = 0.2, v = 0.2, t = 0.2)
movej(p[-0.311518582637758, 0.0826770318794467, 0.534357198599822, -1.50026142156218, -0.977355946081178, 1.85177798155902], a = 0.2, v = 0.2, t = 0.2)
movej(p[-0.311380773836636, 0.0827026070067502, 0.534435882379577, -1.49640201083901, -0.979294524587098, 1.86046807911638], a = 0.2, v = 0.2, t = 0.2)
movej(p[-0.311380773836636, 0.0827026070067502, 0.534435882379577, -1.49893405134163, -0.978598207806863, 1.87571966611283], a = 0.2, v = 0.2, t = 0.2)
movej(p[-0.312293938451928, 0.0823045790347338, 0.534212551305003, -1.50375779658583, -0.978898023504428, 1.88137547481866], a = 0.2, v = 0.2, t = 0.2)
movej(p[-0.31390232396171, 0.0818572322650041, 0.53376651070199, -1.50792315817204, -0.97907989852808, 1.88768249106716], a = 0.2, v = 0.2, t = 0.2)
movej(p[-0.316035120477513, 0.0820069686336075, 0.533032941521821, -1.50919802802365, -0.981495106691016, 1.88719052286105], a = 0.2, v = 0.2, t = 0.2)
movej(p[-0.318205202199143, 0.0816583320368667, 0.532296672186004, -1.51778081376117, -0.986992101866861, 1.87112197276849], a = 0.2, v = 0.2, t = 0.2)
movej(p[-0.320012667715035, 0.0814637991507548, 0.53168742030453, -1.52244631493276, -0.990551244409384, 1.8652787992314], a = 0.2, v = 0.2, t = 0.2)
movej(p[-0.321848208103285, 0.0813914196540055, 0.531025227219733, -1.52157986311242, -0.991389938777157, 1.86216624361501], a = 0.2, v = 0.2, t = 0.2)
movej(p[-0.323502247033336, 0.0814318510611529, 0.530384238866335, -1.52023684919784, -0.996211140616254, 1.85835998478484], a = 0.2, v = 0.2, t = 0.2)
movej(p[-0.324610117017659, 0.0814814871033729, 0.529917520898875, -1.52086432383199, -0.997281362209369, 1.85788575492438], a = 0.2, v = 0.2, t = 0.2)
movej(p[-0.325109746683919, 0.0814044194962201, 0.529745611124516, -1.52129554930002, -0.998236828802746, 1.85763834881829], a = 0.2, v = 0.2, t = 0.2)
movej(p[-0.325841919217718, 0.0813668264883157, 0.529503944481167, -1.51996510762683, -0.999036530061296, 1.85930775191254], a = 0.2, v = 0.2, t = 0.2)
movej(p[-0.326816237309996, 0.0815450393846319, 0.529078969354075, -1.51665352923233, -1.00150053000715, 1.85705023502636], a = 0.2, v = 0.2, t = 0.2)
movej(p[-0.327238525886138, 0.0815013297606808, 0.529016062381221, -1.51906651679574, -1.00534575276594, 1.85585500259051], a = 0.2, v = 0.2, t = 0.2)
movej(p[-0.327413615737029, 0.0814627374229711, 0.529024968872395, -1.52441542625357, -1.00160406850382, 1.8562726043145], a = 0.2, v = 0.2, t = 0.2)
movej(p[-0.327413469825968, 0.0814621798027723, 0.529025366074706, -1.52769645008919, -0.999288674076856, 1.85389983220481], a = 0.2, v = 0.2, t = 0.2)
movej(p[-0.326492502737686, 0.0817273646034816, 0.529345009522589, -1.52784648752309, -0.993157296281169, 1.85157498322833], a = 0.2, v = 0.2, t = 0.2)
movej(p[-0.325244846693992, 0.0821965099442848, 0.529654922374591, -1.52923783941256, -0.987631409028878, 1.84471509093893], a = 0.2, v = 0.2, t = 0.2)
movej(p[-0.323280595580235, 0.0822741836512938, 0.530389878983747, -1.53048005401373, -0.986957217844333, 1.84197241708599], a = 0.2, v = 0.2, t = 0.2)
movej(p[-0.321044149290116, 0.0821377850202999, 0.531260591734819, -1.52940037344789, -0.987062532480966, 1.84141221505621], a = 0.2, v = 0.2, t = 0.2)
movej(p[-0.318857772879045, 0.0824000162418467, 0.531912574154488, -1.52235075542609, -0.982675403996727, 1.84254502675392], a = 0.2, v = 0.2, t = 0.2)
movej(p[-0.317028399613327, 0.0827383279855563, 0.532479120876959, -1.51601896372357, -0.980210928691286, 1.84479016148186], a = 0.2, v = 0.2, t = 0.2)
movej(p[-0.31517939270433, 0.0827771414842027, 0.533073560094042, -1.50957597796769, -0.97713106637075, 1.84839565776095], a = 0.2, v = 0.2, t = 0.2)
movej(p[-0.313403088503408, 0.0828077395470673, 0.53373057960238, -1.50294758453192, -0.97461583760995, 1.85448425253199], a = 0.2, v = 0.2, t = 0.2)
movej(p[-0.311696637609875, 0.0831430747997897, 0.53416310389793, -1.49590677186464, -0.971201336306325, 1.86068520348413], a = 0.2, v = 0.2, t = 0.2)
movej(p[-0.311494294083397, 0.0831471236383011, 0.534277563341398, -1.49256456500914, -0.972732785002535, 1.86663986054102], a = 0.2, v = 0.2, t = 0.2)
movej(p[-0.311473574712741, 0.0830679415700737, 0.53433396606962, -1.49449372857719, -0.970158549554824, 1.88190182564054], a = 0.2, v = 0.2, t = 0.2)
movej(p[-0.312400917573992, 0.0826431639816829, 0.534078290360786, -1.50164724737003, -0.975439628988986, 1.88960313321617], a = 0.2, v = 0.2, t = 0.2)
movej(p[-0.313384313690516, 0.0823087453129095, 0.53391754045571, -1.50645898290146, -0.979105656991782, 1.89023543259482], a = 0.2, v = 0.2, t = 0.2)
movej(p[-0.315656272139485, 0.0820053083845393, 0.533242849788324, -1.51356992620902, -0.98262237946632, 1.88399816122981], a = 0.2, v = 0.2, t = 0.2)
movej(p[-0.318902461238077, 0.0816865449524035, 0.532178268790692, -1.51812016976372, -0.98702316002672, 1.8723612808301], a = 0.2, v = 0.2, t = 0.2)
movej(p[-0.321438211181983, 0.0814480950858038, 0.531338015630569, -1.52361182794907, -0.984233358636696, 1.8583580447183], a = 0.2, v = 0.2, t = 0.2)
movej(p[-0.323060015206969, 0.0814220274755063, 0.530737398078182, -1.51889785378099, -0.98741551123321, 1.84893011592482], a = 0.2, v = 0.2, t = 0.2)
movej(p[-0.324832649066605, 0.0817339166762196, 0.529968224823221, -1.51597627107342, -0.989653579248748, 1.84648644005187], a = 0.2, v = 0.2, t = 0.2)
movej(p[-0.325414629667501, 0.0816448108990402, 0.529744636561779, -1.51723300763036, -0.996097071343206, 1.84747962593788], a = 0.2, v = 0.2, t = 0.2)
movej(p[-0.325951531432383, 0.0815688492018052, 0.52955607303026, -1.51794658355315, -0.995418610768352, 1.84980283415404], a = 0.2, v = 0.2, t = 0.2)
movej(p[-0.326388154404965, 0.0816188275722804, 0.529365079856826, -1.51720545012462, -0.994062170073307, 1.85009786964656], a = 0.2, v = 0.2, t = 0.2)
movej(p[-0.326430010035022, 0.0817787849093032, 0.529251139536635, -1.5196184569453, -0.992750038583968, 1.84539909765247], a = 0.2, v = 0.2, t = 0.2)
movej(p[-0.326424951277442, 0.0818207179359419, 0.529308149713347, -1.52369819103233, -0.992474757303631, 1.83626349761429], a = 0.2, v = 0.2, t = 0.2)
movej(p[-0.32459081274243, 0.0821005469055662, 0.52990204652437, -1.52836710441604, -0.989966114045864, 1.82665229073266], a = 0.2, v = 0.2, t = 0.2)
movej(p[-0.322401025969387, 0.0824025575401592, 0.530652326948744, -1.52628363819625, -0.980511588342534, 1.82246748905501], a = 0.2, v = 0.2, t = 0.2)
movej(p[-0.320459809769132, 0.0828354620009906, 0.531248197993234, -1.52125125764369, -0.98395891497768, 1.818484106512], a = 0.2, v = 0.2, t = 0.2)
movej(p[-0.318176005704531, 0.0828104661691859, 0.532041671586304, -1.5201374713301, -0.982835594529911, 1.81923500855164], a = 0.2, v = 0.2, t = 0.2)
movej(p[-0.316020632794027, 0.0826322433028944, 0.532894024586297, -1.51512222995448, -0.976761064624213, 1.82682896448762], a = 0.2, v = 0.2, t = 0.2)
movej(p[-0.314260076423496, 0.0828823437642317, 0.533475507660361, -1.50949152005116, -0.971206176613514, 1.83466960987715], a = 0.2, v = 0.2, t = 0.2)
movej(p[-0.314019130069117, 0.0828330101694524, 0.533537324654285, -1.51591697556367, -0.96584697252866, 1.84409338681868], a = 0.2, v = 0.2, t = 0.2)
movej(p[-0.313870971959914, 0.0824527375601008, 0.533812409672514, -1.51985386265638, -0.966130718026564, 1.84627380576841], a = 0.2, v = 0.2, t = 0.2)
movej(p[-0.313914284489267, 0.0824210094860873, 0.533783778323952, -1.52062253438519, -0.980955192017363, 1.8510564606648], a = 0.2, v = 0.2, t = 0.2)
movej(p[-0.31408332051634, 0.0824011454986626, 0.533679820382674, -1.51876789662742, -0.987418822874005, 1.85536852266538], a = 0.2, v = 0.2, t = 0.2)
movej(p[-0.315465725542245, 0.0824542966561089, 0.533122739895838, -1.51942423739669, -0.986916603000044, 1.85591674782411], a = 0.2, v = 0.2, t = 0.2)
movej(p[-0.317807773517079, 0.0820351120341349, 0.532429377597843, -1.53011158606977, -0.979064442387503, 1.85226090856913], a = 0.2, v = 0.2, t = 0.2)
movej(p[-0.319959811804773, 0.0816580841981367, 0.53180047353586, -1.53132301831217, -0.97832304875243, 1.85070694830599], a = 0.2, v = 0.2, t = 0.2)
movej(p[-0.322499618028034, 0.0816709181436206, 0.530777675580187, -1.52793911727853, -0.98442488283849, 1.84622123563392], a = 0.2, v = 0.2, t = 0.2)
movej(p[-0.324199856583774, 0.0819376002340159, 0.530048502914601, -1.5310837772799, -0.983852048902393, 1.84233402964066], a = 0.2, v = 0.2, t = 0.2)
movej(p[-0.325070506293406, 0.0817864475468277, 0.529761373748068, -1.53311827470079, -0.988450576426644, 1.84102162531368], a = 0.2, v = 0.2, t = 0.2)
movej(p[-0.325447950772921, 0.081808550207186, 0.529596919051302, -1.53305015376945, -0.988726251914261, 1.84085820357678], a = 0.2, v = 0.2, t = 0.2)
movej(p[-0.325577100976942, 0.0817762239992257, 0.529549458846073, -1.53272500337553, -0.988979440264204, 1.84057302089184], a = 0.2, v = 0.2, t = 0.2)
movej(p[-0.326226865613555, 0.0816501748262431, 0.529380679069451, -1.53272367862051, -0.989555881999435, 1.84029779863258], a = 0.2, v = 0.2, t = 0.2)
movej(p[-0.326739372063944, 0.0817490924899046, 0.529123426908865, -1.53194107091198, -0.990047468439074, 1.8413006200625], a = 0.2, v = 0.2, t = 0.2)
movej(p[-0.327260958116757, 0.0817884668172687, 0.528880027254274, -1.53449574988309, -0.998427790962245, 1.84268776101752], a = 0.2, v = 0.2, t = 0.2)
movej(p[-0.327594926398772, 0.081620003877239, 0.528733606475541, -1.53449574988309, -0.998427790962245, 1.84268776101752], a = 0.2, v = 0.2, t = 0.2)
movej(p[-0.327638970694743, 0.0817883255172435, 0.528613708120679, -1.53903150594073, -0.994923905332579, 1.83304399673185], a = 0.2, v = 0.2, t = 0.2)
movej(p[-0.327129644042953, 0.0820381275362217, 0.528777297952549, -1.54120396189287, -0.99298197122883, 1.82799397168439], a = 0.2, v = 0.2, t = 0.2)
movej(p[-0.32492746254559, 0.0822673451478292, 0.529538909158612, -1.54398806757256, -0.99003032218353, 1.82389601750459], a = 0.2, v = 0.2, t = 0.2)
movej(p[-0.322643599173072, 0.0822600925709912, 0.530444857786182, -1.53803952724127, -0.983466853736557, 1.82425681596994], a = 0.2, v = 0.2, t = 0.2)
movej(p[-0.320306401519052, 0.082783295225954, 0.531101866498368, -1.52638261756898, -0.981991337776328, 1.8245439052015], a = 0.2, v = 0.2, t = 0.2)
movej(p[-0.318346667399415, 0.0829305865605403, 0.531785008894274, -1.52203310981626, -0.98295137691451, 1.82371835741529], a = 0.2, v = 0.2, t = 0.2)
movej(p[-0.316038295338613, 0.0828961188333787, 0.532708072713678, -1.51253098068335, -0.97492962037754, 1.82668965872904], a = 0.2, v = 0.2, t = 0.2)
movej(p[-0.313749690425624, 0.083096418036967, 0.533523168954182, -1.50614629126854, -0.974065250100313, 1.83315271521483], a = 0.2, v = 0.2, t = 0.2)
movej(p[-0.313546306440052, 0.0827505102173434, 0.533779332719644, -1.50555972794307, -0.972559831468709, 1.85543986794412], a = 0.2, v = 0.2, t = 0.2)
movej(p[-0.313544714709107, 0.0827378249315342, 0.533760939516646, -1.51377379270979, -0.980088960463198, 1.8683912853181], a = 0.2, v = 0.2, t = 0.2)
movej(p[-0.316332105161572, 0.0820578479943451, 0.532980310180532, -1.52244284330612, -0.977859250311919, 1.87354329550524], a = 0.2, v = 0.2, t = 0.2)
movej(p[-0.319595697924009, 0.0816497402835686, 0.531901553063583, -1.53186373432575, -0.97300581990016, 1.86182914044323], a = 0.2, v = 0.2, t = 0.2)
movej(p[-0.322148473652474, 0.0816033666735895, 0.53089873753296, -1.52749911806646, -0.980133372563721, 1.84710573085841], a = 0.2, v = 0.2, t = 0.2)
movej(p[-0.323775075282642, 0.0818598776125173, 0.530110612336723, -1.52936340426778, -0.984372291483604, 1.84590727868252], a = 0.2, v = 0.2, t = 0.2)
movej(p[-0.324488160137467, 0.0817349955338948, 0.529852004068761, -1.53149815735328, -0.988022529510488, 1.84499982124613], a = 0.2, v = 0.2, t = 0.2)
movej(p[-0.325283466562931, 0.0815843467279611, 0.5295990578751, -1.53519545672661, -0.989518498542469, 1.84108828024873], a = 0.2, v = 0.2, t = 0.2)
movej(p[-0.325886278996372, 0.081673156485721, 0.529321841755412, -1.53499418287363, -0.990213327384279, 1.84066183209555], a = 0.2, v = 0.2, t = 0.2)
movej(p[-0.326713047992615, 0.0817868354329877, 0.528919312422568, -1.53437669120239, -0.995319740720948, 1.84316119401753], a = 0.2, v = 0.2, t = 0.2)
movej(p[-0.327026312567602, 0.0816394567172593, 0.528827488731678, -1.53841994595472, -0.997981630773951, 1.84382276550062], a = 0.2, v = 0.2, t = 0.2)
movej(p[-0.327348986042083, 0.0815263370339401, 0.5287872165811, -1.5402798890799, -0.997719406248418, 1.84311949173454], a = 0.2, v = 0.2, t = 0.2)
movej(p[-0.327599172705289, 0.0815320795726761, 0.528669536392443, -1.54066955220819, -0.997479587821404, 1.84262606655177], a = 0.2, v = 0.2, t = 0.2)
movej(p[-0.327658537662661, 0.0817589513335531, 0.528507931794882, -1.54240743873692, -0.99603308914937, 1.83771205467586], a = 0.2, v = 0.2, t = 0.2)
movej(p[-0.327284696389661, 0.0819218482798338, 0.528599288390125, -1.54402708150423, -0.992744373585791, 1.83431395591098], a = 0.2, v = 0.2, t = 0.2)
movej(p[-0.326324270555222, 0.0821340667426684, 0.528876428139301, -1.54465512128757, -0.991503366521822, 1.83312400654171], a = 0.2, v = 0.2, t = 0.2)
movej(p[-0.32333928522499, 0.0822078123883143, 0.53007435592429, -1.5383276972057, -0.985244378534816, 1.82406535555685], a = 0.2, v = 0.2, t = 0.2)
movej(p[-0.320511377461904, 0.0826578735042484, 0.530965665306829, -1.53259941167313, -0.984549549941853, 1.82172586227108], a = 0.2, v = 0.2, t = 0.2)
movej(p[-0.31837698917606, 0.0826680398946356, 0.531804527810316, -1.51886906877373, -0.979773055940194, 1.83241244076255], a = 0.2, v = 0.2, t = 0.2)
movej(p[-0.316329401427973, 0.0826581054446806, 0.532620269914532, -1.51516595800752, -0.975788136457698, 1.83470689866667], a = 0.2, v = 0.2, t = 0.2)
movej(p[-0.313956292918336, 0.0827951695185948, 0.533470458611899, -1.49831967382414, -0.964098993427252, 1.84815665658174], a = 0.2, v = 0.2, t = 0.2)
movej(p[-0.312891126972051, 0.0830030799813097, 0.533686684897, -1.4923132942261, -0.967479202409281, 1.85727196667973], a = 0.2, v = 0.2, t = 0.2)
movej(p[-0.312865217336513, 0.0829040625660112, 0.533757216678871, -1.49705127602016, -0.977517814967225, 1.88409634940733], a = 0.2, v = 0.2, t = 0.2)
movej(p[-0.315642149090827, 0.0817991244639659, 0.53322612524368, -1.51274248075729, -0.980847900281151, 1.89007664628242], a = 0.2, v = 0.2, t = 0.2)
movej(p[-0.319498193152721, 0.0814376651708831, 0.53190743321285, -1.52495341074102, -0.97836417804932, 1.87636480118733], a = 0.2, v = 0.2, t = 0.2)
movej(p[-0.322344857724158, 0.0815932873562663, 0.530750712657513, -1.52566422353104, -0.983427370482147, 1.85465528871703], a = 0.2, v = 0.2, t = 0.2)
movej(p[-0.324147422783774, 0.0817261390394412, 0.52999196823669, -1.52511110186955, -0.98879963512237, 1.85186391915436], a = 0.2, v = 0.2, t = 0.2)
movej(p[-0.324867318806283, 0.0817653035975503, 0.529647886002096, -1.52779472984338, -0.99691934294934, 1.8504931175485], a = 0.2, v = 0.2, t = 0.2)
movej(p[-0.32543346996099, 0.0816034230737392, 0.529526033402474, -1.52730646557707, -1.00278779134857, 1.85306019277806], a = 0.2, v = 0.2, t = 0.2)
movej(p[-0.325977368023008, 0.0818413666484706, 0.529183822117772, -1.52626195478666, -1.00425762974024, 1.85184985397665], a = 0.2, v = 0.2, t = 0.2)
movej(p[-0.326366639607049, 0.0819074457686663, 0.5290073782351, -1.53004737175969, -1.00394524847328, 1.8477914621681], a = 0.2, v = 0.2, t = 0.2)
movej(p[-0.326705794938059, 0.0817659717841792, 0.528933354906607, -1.53389858699488, -1.00255090058973, 1.85032098126893], a = 0.2, v = 0.2, t = 0.2)
movej(p[-0.327014369188072, 0.0816417698358514, 0.528868820743095, -1.53427683210923, -1.00223937352455, 1.85094285307846], a = 0.2, v = 0.2, t = 0.2)
movej(p[-0.327228710867062, 0.0817130948989365, 0.528776115133643, -1.53427683210923, -1.00223937352455, 1.85094285307846], a = 0.2, v = 0.2, t = 0.2)
movej(p[-0.327228710867062, 0.0817130948989365, 0.528776115133643, -1.54342349681895, -0.996722970243266, 1.83605741484626], a = 0.2, v = 0.2, t = 0.2)
movej(p[-0.325801615840747, 0.0820769733199646, 0.529140909103685, -1.54139417853448, -0.996985093945407, 1.83303626634165], a = 0.2, v = 0.2, t = 0.2)
movej(p[-0.324159788488071, 0.0822088831846368, 0.529714105249524, -1.54583047929008, -0.992871113929124, 1.82514845040436], a = 0.2, v = 0.2, t = 0.2)
movej(p[-0.322550284827622, 0.0824140119209945, 0.530244236958181, -1.5336692585308, -0.987905388378956, 1.82014613525325], a = 0.2, v = 0.2, t = 0.2)
movej(p[-0.321140537514391, 0.082669644808654, 0.530651128687742, -1.53181865747718, -0.987233689611871, 1.81960777125006], a = 0.2, v = 0.2, t = 0.2)
movej(p[-0.319479066736627, 0.0825617109396097, 0.531327501716882, -1.52906877221657, -0.985753340237725, 1.82195328433645], a = 0.2, v = 0.2, t = 0.2)
movej(p[-0.318886357944786, 0.0825410823079707, 0.531566685344312, -1.52817845004258, -0.984572279736912, 1.82244655514964], a = 0.2, v = 0.2, t = 0.2)
movej(p[-0.318425650211972, 0.0825549838390763, 0.531739819836423, -1.52750384731564, -0.983419666432364, 1.82274273573624], a = 0.2, v = 0.2, t = 0.2)
movej(p[-0.317032806778721, 0.0828009601135837, 0.532154344302324, -1.51946336390324, -0.978186532732063, 1.82943438202537], a = 0.2, v = 0.2, t = 0.2)
movej(p[-0.316996141413547, 0.082660838123632, 0.532254155568865, -1.51315293486504, -0.981243578642178, 1.84588663706191], a = 0.2, v = 0.2, t = 0.2)
movej(p[-0.317792055735936, 0.082334534737587, 0.532088444912386, -1.52622903727967, -0.976556952244248, 1.85422107847488], a = 0.2, v = 0.2, t = 0.2)
movej(p[-0.322763451818069, 0.0814159596778079, 0.530644610588749, -1.52819566551923, -0.979992812861074, 1.8534182559881], a = 0.2, v = 0.2, t = 0.2)
movej(p[-0.325099980216931, 0.0818352575237783, 0.529490725777482, -1.5302159269707, -0.989439881420428, 1.84993618092044], a = 0.2, v = 0.2, t = 0.2)
movej(p[-0.325963585937787, 0.081710014402977, 0.529197906567735, -1.53250491601185, -0.993642881959554, 1.84903514225139], a = 0.2, v = 0.2, t = 0.2)
movej(p[-0.326396044683407, 0.0816171185043304, 0.529082549446794, -1.53731454012722, -0.99736409547267, 1.84532784148117], a = 0.2, v = 0.2, t = 0.2)
movej(p[-0.326773272438868, 0.0817138932093931, 0.528877453037831, -1.53680613162647, -0.997782825842852, 1.84488341246835], a = 0.2, v = 0.2, t = 0.2)
movej(p[-0.326974242133236, 0.08163780461632, 0.528844460190879, -1.53603357457477, -0.998783491768865, 1.84600871848548], a = 0.2, v = 0.2, t = 0.2)
movej(p[-0.327081642686221, 0.0817065301531329, 0.528747944327891, -1.53487287643869, -1.00011602208007, 1.84481167511178], a = 0.2, v = 0.2, t = 0.2)
movej(p[-0.327272032213628, 0.0816523237235137, 0.528707595463698, -1.53504597278585, -1.00032347212312, 1.84470413537919], a = 0.2, v = 0.2, t = 0.2)
movej(p[-0.32757755996008, 0.0817213230886058, 0.528594719275932, -1.5408553575086, -1.00457235347517, 1.84382790133645], a = 0.2, v = 0.2, t = 0.2)
movej(p[-0.32757755996008, 0.0817213230886058, 0.528594719275932, -1.54485903308509, -1.00210530633141, 1.83878011757063], a = 0.2, v = 0.2, t = 0.2)
movej(p[-0.326540101254778, 0.0819249498209678, 0.528877143812153, -1.5453186675245, -0.996049281621828, 1.83314147683056], a = 0.2, v = 0.2, t = 0.2)
movej(p[-0.325177434325356, 0.0820764359075174, 0.529332059403272, -1.54570000007452, -0.990408764525714, 1.82799038342164], a = 0.2, v = 0.2, t = 0.2)
movej(p[-0.323602661146759, 0.0823302269503534, 0.529826598787495, -1.54442716094224, -0.989385722804813, 1.81514643358993], a = 0.2, v = 0.2, t = 0.2)
movej(p[-0.322399270482612, 0.0825531636634118, 0.530158535440206, -1.54399883656109, -0.98972393950106, 1.81478203158362], a = 0.2, v = 0.2, t = 0.2)
movej(p[-0.320863848329724, 0.0826282722786437, 0.530668167433255, -1.54302281853212, -0.992329919435397, 1.81679436163119], a = 0.2, v = 0.2, t = 0.2)
movej(p[-0.320419440802135, 0.0825974311766611, 0.53086307668355, -1.54254477490757, -0.992622901241512, 1.81740769460722], a = 0.2, v = 0.2, t = 0.2)
movej(p[-0.318779128831918, 0.0826750701249804, 0.531469551970818, -1.53360950547548, -0.989121884524269, 1.8152715216327], a = 0.2, v = 0.2, t = 0.2)
movej(p[-0.317223292123923, 0.0830674155153709, 0.53185715276119, -1.52914811939541, -0.988870364208717, 1.81684622561104], a = 0.2, v = 0.2, t = 0.2)
movej(p[-0.315587307616431, 0.0830740197918143, 0.532498726174588, -1.52169410643283, -0.986655435856037, 1.8238897354222], a = 0.2, v = 0.2, t = 0.2)
movej(p[-0.31422178526195, 0.0829516031559711, 0.533062049169575, -1.51843988544275, -0.983962379392767, 1.84110446371161], a = 0.2, v = 0.2, t = 0.2)
movej(p[-0.31422178526195, 0.0829516031559711, 0.533062049169575, -1.51745966329786, -0.983843726327475, 1.85104988958622], a = 0.2, v = 0.2, t = 0.2)
movej(p[-0.315271511762158, 0.0826339438514096, 0.532831998803378, -1.51944644165111, -0.983601798722333, 1.85605974567301], a = 0.2, v = 0.2, t = 0.2)
movej(p[-0.315672466571193, 0.0826335497093474, 0.532674205059003, -1.52562115874796, -0.984884387279993, 1.85866100378777], a = 0.2, v = 0.2, t = 0.2)
movej(p[-0.317882477370333, 0.0819947093879079, 0.532119889939791, -1.53292954610867, -0.98683604067642, 1.86096769236284], a = 0.2, v = 0.2, t = 0.2)
movej(p[-0.321123463452281, 0.0816606698256223, 0.531016972165228, -1.53632246115966, -0.986801712833454, 1.85739467012471], a = 0.2, v = 0.2, t = 0.2)
movej(p[-0.323622915523763, 0.0816781291205036, 0.53000787269769, -1.53827118508257, -0.9928798713803, 1.84178194800498], a = 0.2, v = 0.2, t = 0.2)
movej(p[-0.325224658248519, 0.0818013984679007, 0.52927786551164, -1.53862270001872, -0.995129824503476, 1.83913449095821], a = 0.2, v = 0.2, t = 0.2)
movej(p[-0.325968810409953, 0.0817078738965003, 0.529040854910238, -1.53890396656665, -0.995616323581537, 1.83854365027586], a = 0.2, v = 0.2, t = 0.2)
movej(p[-0.326494497931949, 0.081687896199012, 0.528842174436056, -1.54098141655471, -0.997279960147292, 1.83591752921972], a = 0.2, v = 0.2, t = 0.2)
movej(p[-0.327169656821562, 0.0818668707157367, 0.528477027909112, -1.54295849848208, -1.00086002453377, 1.83513632398879], a = 0.2, v = 0.2, t = 0.2)
movej(p[-0.327429413874467, 0.0818110749425624, 0.528408998539263, -1.54272775572745, -1.00322296613842, 1.83867950134632], a = 0.2, v = 0.2, t = 0.2)
movej(p[-0.327653868637191, 0.0817113380636578, 0.52835143375422, -1.54332679426919, -1.00373492512316, 1.83872058066294], a = 0.2, v = 0.2, t = 0.2)
movej(p[-0.327654014548252, 0.0817118956838566, 0.528351036551909, -1.54950320461575, -0.999916452399254, 1.83090236666723], a = 0.2, v = 0.2, t = 0.2)
movej(p[-0.327024139785184, 0.0819600269920455, 0.528467997941893, -1.55050623747476, -0.999521889770453, 1.82332072712608], a = 0.2, v = 0.2, t = 0.2)
movej(p[-0.325249568815861, 0.0823263132775309, 0.528936220540558, -1.54932269036318, -0.996453944157243, 1.81744053214205], a = 0.2, v = 0.2, t = 0.2)
movej(p[-0.323033483999893, 0.0824820772510103, 0.529721074611708, -1.54441057740962, -0.990189257294711, 1.81570450017917], a = 0.2, v = 0.2, t = 0.2)
movej(p[-0.320693782579651, 0.0826395047204316, 0.530537400224431, -1.53771878554737, -0.987340048057917, 1.81396073169526], a = 0.2, v = 0.2, t = 0.2)
movej(p[-0.318782489374713, 0.0830314465081443, 0.531041289130642, -1.52909631493696, -0.98177063265298, 1.81523521869124], a = 0.2, v = 0.2, t = 0.2)
movej(p[-0.316934951933679, 0.0831956621445652, 0.531664809690636, -1.52090250151076, -0.976937905678548, 1.8195773618493], a = 0.2, v = 0.2, t = 0.2)
movej(p[-0.314126273228295, 0.0832571810597523, 0.532716835038712, -1.5134466652955, -0.972315073474937, 1.82571364443329], a = 0.2, v = 0.2, t = 0.2)
movej(p[-0.312131240696181, 0.0835087676441488, 0.533333051109875, -1.50404448792237, -0.968963507883517, 1.83448685809064], a = 0.2, v = 0.2, t = 0.2)
movej(p[-0.312103392527976, 0.0834023418462093, 0.533408860008169, -1.50610999001399, -0.966597814210001, 1.8448528548178], a = 0.2, v = 0.2, t = 0.2)
movej(p[-0.312811253159498, 0.0832228754778232, 0.533243882679548, -1.51500665230883, -0.967333806984455, 1.84861414422249], a = 0.2, v = 0.2, t = 0.2)
movej(p[-0.314240637204423, 0.0826738966553117, 0.532998267951677, -1.52317704109763, -0.971778357072579, 1.84716504577925], a = 0.2, v = 0.2, t = 0.2)
movej(p[-0.316570055243747, 0.0824566264459922, 0.532223860575539, -1.52743144159656, -0.973651210038941, 1.8433663998493], a = 0.2, v = 0.2, t = 0.2)
movej(p[-0.319602906161081, 0.0823445122068882, 0.531105612628698, -1.53689044009214, -0.974487981997926, 1.82627857010843], a = 0.2, v = 0.2, t = 0.2)
movej(p[-0.322095014304625, 0.0820368959014976, 0.530314889833061, -1.53940306968662, -0.979251779800722, 1.82208786563353], a = 0.2, v = 0.2, t = 0.2)
movej(p[-0.323805319740113, 0.0819231697234941, 0.529701792863752, -1.542235132393, -0.978092859425491, 1.81730839339067], a = 0.2, v = 0.2, t = 0.2)
movej(p[-0.324954668350275, 0.081970489394973, 0.52921798168053, -1.54228164401075, -0.979151241214135, 1.81639246511426], a = 0.2, v = 0.2, t = 0.2)
movej(p[-0.32574801699794, 0.0821372054368999, 0.528776651356836, -1.54520391988764, -0.986456364924904, 1.8142388172365], a = 0.2, v = 0.2, t = 0.2)
movej(p[-0.325974348496247, 0.0820655639382794, 0.528724147942186, -1.54285685682464, -0.98807735374077, 1.81733434738212], a = 0.2, v = 0.2, t = 0.2)
movej(p[-0.326190930177996, 0.0819586991544413, 0.528682410272081, -1.54407488355669, -0.988866822443344, 1.8200509269251], a = 0.2, v = 0.2, t = 0.2)
movej(p[-0.326310872693451, 0.0819111064716128, 0.528630930960436, -1.54583117795157, -0.991361262508992, 1.81967144269136], a = 0.2, v = 0.2, t = 0.2)
movej(p[-0.326307475050175, 0.081898121886984, 0.528640180099973, -1.55768405213662, -0.99298222175006, 1.8106298444628], a = 0.2, v = 0.2, t = 0.2)
movej(p[-0.324841944064629, 0.0822857359750633, 0.528935179047645, -1.55647035107496, -0.993958083834523, 1.8094569926912], a = 0.2, v = 0.2, t = 0.2)
movej(p[-0.322662826247347, 0.0823654333924901, 0.529735560837831, -1.54767048121655, -0.988885074028948, 1.80351527112161], a = 0.2, v = 0.2, t = 0.2)
movej(p[-0.320370376344753, 0.0826378678041284, 0.530454718619859, -1.53810950062081, -0.979416392045584, 1.80370407233166], a = 0.2, v = 0.2, t = 0.2)
movej(p[-0.318667137999461, 0.0830538744249029, 0.530817688261285, -1.5314886163992, -0.978388213768359, 1.80808829650155], a = 0.2, v = 0.2, t = 0.2)
movej(p[-0.316573089159615, 0.0831006924521589, 0.531614264163923, -1.52775144783109, -0.975768507297609, 1.8110312642381], a = 0.2, v = 0.2, t = 0.2)
movej(p[-0.314638923377123, 0.0831249253093624, 0.532351688244401, -1.52166062058101, -0.978807250704306, 1.82318188853905], a = 0.2, v = 0.2, t = 0.2)
movej(p[-0.314538015456253, 0.0827392911118886, 0.532626382014342, -1.51548684232925, -0.981128598599024, 1.84733220183289], a = 0.2, v = 0.2, t = 0.2)
movej(p[-0.315113159773095, 0.0825524711550604, 0.532575388695803, -1.52478243203325, -0.974496924792838, 1.85829326357653], a = 0.2, v = 0.2, t = 0.2)
movej(p[-0.319162223759246, 0.0817308549185629, 0.531569285318425, -1.52667147397063, -0.977958315394708, 1.85758050635591], a = 0.2, v = 0.2, t = 0.2)
movej(p[-0.321080712620707, 0.0815406791648096, 0.53093926104815, -1.53366628181357, -0.981423429980862, 1.84735296033307], a = 0.2, v = 0.2, t = 0.2)
movej(p[-0.322338982261238, 0.0815290091874274, 0.530435558146287, -1.53709765276969, -0.983414668604474, 1.83627605309128], a = 0.2, v = 0.2, t = 0.2)
movej(p[-0.324171469383146, 0.0816457724912374, 0.529616755551685, -1.53775970548317, -0.991992878984985, 1.83062138259189], a = 0.2, v = 0.2, t = 0.2)
movej(p[-0.325000208643786, 0.0817501502292637, 0.529186736301328, -1.54008323951129, -0.9961629696995, 1.82971197324843], a = 0.2, v = 0.2, t = 0.2)
movej(p[-0.3255546617279, 0.081640799993555, 0.529039166509475, -1.54153224925447, -0.99883372955577, 1.83268553733125], a = 0.2, v = 0.2, t = 0.2)
movej(p[-0.325870747437395, 0.0815973744734568, 0.528947866572689, -1.54101309115125, -0.999179297872937, 1.83382556034759], a = 0.2, v = 0.2, t = 0.2)
movej(p[-0.326452231055954, 0.0817339641352879, 0.528582914129721, -1.54391708629608, -1.00443180699508, 1.83267064382653], a = 0.2, v = 0.2, t = 0.2)
movej(p[-0.326707984829009, 0.0816425079132902, 0.528548471902355, -1.54773294056542, -1.0086571708945, 1.83794237442702], a = 0.2, v = 0.2, t = 0.2)
movej(p[-0.327011299187607, 0.0815380063641787, 0.528513186974952, -1.54773294056542, -1.0086571708945, 1.83794237442702], a = 0.2, v = 0.2, t = 0.2)
movej(p[-0.327029954958972, 0.0816093020895947, 0.528462401822277, -1.55031019591467, -1.00474612649582, 1.83207985203531], a = 0.2, v = 0.2, t = 0.2)
movej(p[-0.326696486937864, 0.0817122552265382, 0.528484436124902, -1.54864793594625, -1.00305463588255, 1.82718194243119], a = 0.2, v = 0.2, t = 0.2)
movej(p[-0.324802064524787, 0.081976457134349, 0.529084828240721, -1.54981644325758, -1.00033551314211, 1.82396275882542], a = 0.2, v = 0.2, t = 0.2)
movej(p[-0.32285335354539, 0.0819946112666534, 0.52987763486674, -1.55067649129699, -0.997441354409876, 1.82195972506258], a = 0.2, v = 0.2, t = 0.2)
movej(p[-0.321063754618192, 0.0821469924972699, 0.53050247658296, -1.54022803078737, -0.988758342130847, 1.81989009520553], a = 0.2, v = 0.2, t = 0.2)
movej(p[-0.31969184572927, 0.0824987354350658, 0.530792435332106, -1.53459891022109, -0.985645887929846, 1.81876356544763], a = 0.2, v = 0.2, t = 0.2)
movej(p[-0.318379803632906, 0.0825539013188228, 0.531301848673745, -1.52973533800205, -0.987942104774188, 1.81829268605863], a = 0.2, v = 0.2, t = 0.2)
movej(p[-0.316834728623496, 0.0826631949638777, 0.531839888871541, -1.52504355607051, -0.977799414621048, 1.82139339980744], a = 0.2, v = 0.2, t = 0.2)
movej(p[-0.315657506270284, 0.0827506146396815, 0.532300654605272, -1.5097584777396, -0.979145224778896, 1.83813037588856], a = 0.2, v = 0.2, t = 0.2)
movej(p[-0.315646208585278, 0.0827074389042899, 0.532331409412813, -1.51112146158106, -0.976075817971958, 1.86373294459696], a = 0.2, v = 0.2, t = 0.2)
movej(p[-0.318077217624296, 0.0818617264627023, 0.532037163311127, -1.52779336500937, -0.983939247997722, 1.86800620555685], a = 0.2, v = 0.2, t = 0.2)
movej(p[-0.320831148169913, 0.0814540746607391, 0.531304222080007, -1.52958933776331, -0.984995942429816, 1.8664987386481], a = 0.2, v = 0.2, t = 0.2)
movej(p[-0.321763682482925, 0.0813329487328266, 0.5310347493455, -1.52637649393968, -0.988071128747364, 1.86150017009044], a = 0.2, v = 0.2, t = 0.2)
movej(p[-0.323938412805364, 0.0813816228640966, 0.530102979559766, -1.52883396401551, -0.990553649631295, 1.84990122650635], a = 0.2, v = 0.2, t = 0.2)
movej(p[-0.325518525156805, 0.0815443820535249, 0.529337988244076, -1.53256337348307, -1.00111326654436, 1.84392143196341], a = 0.2, v = 0.2, t = 0.2)
movej(p[-0.326121331966168, 0.0815647299843799, 0.529048192846777, -1.53510148886768, -1.00575493825241, 1.84290187446173], a = 0.2, v = 0.2, t = 0.2)
movej(p[-0.326428022826745, 0.0814849360484071, 0.529019932382868, -1.54064184590609, -1.00407821651475, 1.84720610776906], a = 0.2, v = 0.2, t = 0.2)
movej(p[-0.326688948687089, 0.0816083459250635, 0.528825894763455, -1.54264440065248, -1.00776326336397, 1.84640180591763], a = 0.2, v = 0.2, t = 0.2)
movej(p[-0.326779406288507, 0.0815786175659749, 0.528804348139319, -1.54136167416932, -1.00881502586511, 1.84436740752743], a = 0.2, v = 0.2, t = 0.2)
movej(p[-0.3267871187303, 0.0816080917764821, 0.528783353160001, -1.54109508883486, -1.00488054349489, 1.84278200835527], a = 0.2, v = 0.2, t = 0.2)
movej(p[-0.326511324317998, 0.0817059288644553, 0.528819391422438, -1.54633067222151, -1.00155143039487, 1.82984282620254], a = 0.2, v = 0.2, t = 0.2)
movej(p[-0.324915768675692, 0.0819801450160733, 0.529238923846094, -1.54856957811544, -0.999900014819331, 1.82679299301604], a = 0.2, v = 0.2, t = 0.2)
movej(p[-0.323370775628747, 0.0822138895622667, 0.529639246555938, -1.54389971904905, -0.995947820945612, 1.81564796117105], a = 0.2, v = 0.2, t = 0.2)
movej(p[-0.321862121722018, 0.0821970822223592, 0.530273403478975, -1.54249537191654, -0.99205078023555, 1.81354906951735], a = 0.2, v = 0.2, t = 0.2)
movej(p[-0.320598456936848, 0.0824225919989456, 0.53062875422315, -1.54030461523015, -0.991362734872279, 1.81285925808591], a = 0.2, v = 0.2, t = 0.2)
movej(p[-0.320133748317946, 0.0824357889295715, 0.530734400001769, -1.53579614918525, -0.989647899005225, 1.81459388658381], a = 0.2, v = 0.2, t = 0.2)
movej(p[-0.319886452545152, 0.0825690981005404, 0.530830705327135, -1.5277349809284, -0.99175208637514, 1.82388935425562], a = 0.2, v = 0.2, t = 0.2)
movej(p[-0.319776664894001, 0.0821495287309692, 0.531129571694885, -1.53100967797744, -0.986568256548716, 1.85748781254367], a = 0.2, v = 0.2, t = 0.2)
movej(p[-0.321400127221424, 0.0816516054649097, 0.531026926370799, -1.5325184562457, -0.985388325297639, 1.85896329110598], a = 0.2, v = 0.2, t = 0.2)
movej(p[-0.322446002677442, 0.0814893677198018, 0.530740316139718, -1.5325184562457, -0.985388325297639, 1.85896329110598], a = 0.2, v = 0.2, t = 0.2)
movej(p[-0.323986276580286, 0.0815145180165487, 0.530082080576418, -1.53903192946827, -0.997054007402313, 1.85313468476671], a = 0.2, v = 0.2, t = 0.2)
movej(p[-0.325310361549034, 0.0814331137845063, 0.529632954284002, -1.53980792618758, -0.996931056577847, 1.84731908481655], a = 0.2, v = 0.2, t = 0.2)
movej(p[-0.325953968999674, 0.0815647721572993, 0.529233144964007, -1.53712058614304, -0.999012640043908, 1.84492971353508], a = 0.2, v = 0.2, t = 0.2)
movej(p[-0.32620370265171, 0.0816500532625967, 0.529074166455647, -1.53791827728522, -1.00047178901208, 1.84461310225926], a = 0.2, v = 0.2, t = 0.2)
movej(p[-0.32672236749862, 0.0817515544909775, 0.528754072833066, -1.53982392403869, -1.0043393963618, 1.84808174999261], a = 0.2, v = 0.2, t = 0.2)
movej(p[-0.327207829474936, 0.0816206170401888, 0.528691663590707, -1.53939892214658, -1.00460062183098, 1.84861557770737], a = 0.2, v = 0.2, t = 0.2)
movej(p[-0.327356966366352, 0.0816518359181696, 0.528623735987507, -1.53906047975727, -1.00486028744821, 1.84832660833069], a = 0.2, v = 0.2, t = 0.2)
movej(p[-0.327356966366352, 0.0816518359181696, 0.528623735987507, -1.54640298017253, -1.00500544952229, 1.8352864027444], a = 0.2, v = 0.2, t = 0.2)
movej(p[-0.326302510751208, 0.0818993815881193, 0.52877053706714, -1.54872012313822, -1.00358048235622, 1.83224597157539], a = 0.2, v = 0.2, t = 0.2)
movej(p[-0.324553011259764, 0.0819412163622158, 0.529411763416499, -1.54635626819161, -0.999011329882098, 1.82917327439358], a = 0.2, v = 0.2, t = 0.2)
movej(p[-0.322443047896474, 0.0823084657375872, 0.529928197160424, -1.53980821908046, -0.99472303051173, 1.82395343061943], a = 0.2, v = 0.2, t = 0.2)
movej(p[-0.320761726790304, 0.0825262410656959, 0.530385552442904, -1.53872883390573, -0.993015080069051, 1.82427113839331], a = 0.2, v = 0.2, t = 0.2)
movej(p[-0.318614451000879, 0.0826498375551026, 0.531082146099177, -1.53323855454172, -0.993976355389318, 1.82675979508261], a = 0.2, v = 0.2, t = 0.2)
movej(p[-0.316809895837149, 0.0828395883841408, 0.531591293026825, -1.52547780611651, -0.988359697411028, 1.82709031918572], a = 0.2, v = 0.2, t = 0.2)
movej(p[-0.315096856571778, 0.0831564135606991, 0.532001227049315, -1.51686052552775, -0.97792835590874, 1.832271780797], a = 0.2, v = 0.2, t = 0.2)
movej(p[-0.313510756374674, 0.0834711190066212, 0.53232211277205, -1.51263826894199, -0.972699048865106, 1.83711248446462], a = 0.2, v = 0.2, t = 0.2)
movej(p[-0.31190006723569, 0.083381168250711, 0.532963786481243, -1.50590078171165, -0.968854082404463, 1.85321689302796], a = 0.2, v = 0.2, t = 0.2)
movej(p[-0.311831614103664, 0.0831195647174526, 0.533150131108486, -1.50816512432473, -0.966673918432598, 1.86028165174979], a = 0.2, v = 0.2, t = 0.2)
movej(p[-0.312656331988394, 0.0828718886038743, 0.533105383780421, -1.51755474862724, -0.974666775417697, 1.86098829075001], a = 0.2, v = 0.2, t = 0.2)
movej(p[-0.314216446698787, 0.0827371387053746, 0.532618550579753, -1.51924097746463, -0.974773629684444, 1.85985332052767], a = 0.2, v = 0.2, t = 0.2)
movej(p[-0.316122242770413, 0.0825040088784193, 0.532089396625635, -1.5331207237837, -0.977906497426735, 1.84671882576106], a = 0.2, v = 0.2, t = 0.2)
movej(p[-0.31850600648527, 0.0822622945518515, 0.531396683390552, -1.53956781850573, -0.974412897027905, 1.83857868007043], a = 0.2, v = 0.2, t = 0.2)
movej(p[-0.320138623457487, 0.0822324414612254, 0.530787145618949, -1.54106031106457, -0.977575577808458, 1.82013851662779], a = 0.2, v = 0.2, t = 0.2)
movej(p[-0.320804757522133, 0.0823172459886505, 0.530436455427974, -1.53871901135825, -0.979503860014207, 1.81813235342533], a = 0.2, v = 0.2, t = 0.2)
movej(p[-0.323765855353814, 0.0822157648523087, 0.529356298055096, -1.53687087699009, -0.980633349637889, 1.82052695094131], a = 0.2, v = 0.2, t = 0.2)
movej(p[-0.325460624003529, 0.0822009218162508, 0.528731273281009, -1.53632089557282, -0.995285432708435, 1.83724926086523], a = 0.2, v = 0.2, t = 0.2)
movej(p[-0.32660889509312, 0.0823269216247826, 0.528084538603525, -1.53700293843438, -0.995202036657155, 1.83761418438759], a = 0.2, v = 0.2, t = 0.2)
movej(p[-0.326938333871205, 0.0822586840701685, 0.527977409626894, -1.53741383955599, -0.994950654294732, 1.83709204830368], a = 0.2, v = 0.2, t = 0.2)
movej(p[-0.326938333871205, 0.0822586840701685, 0.527977409626894, -1.53730442637732, -0.99378149091926, 1.83369957778568], a = 0.2, v = 0.2, t = 0.2)
movej(p[-0.325509607454128, 0.0824574007220338, 0.528330205739994, -1.53808736991434, -0.988515066945041, 1.80296484606675], a = 0.2, v = 0.2, t = 0.2)
movej(p[-0.323260102783451, 0.0826973976851551, 0.52901272830687, -1.54155535149708, -0.984557473227002, 1.79649530047743], a = 0.2, v = 0.2, t = 0.2)
movej(p[-0.321181378483089, 0.0828480346182267, 0.529632008007392, -1.54100113450858, -0.983603485657981, 1.79670721904755], a = 0.2, v = 0.2, t = 0.2)
movej(p[-0.318481285188627, 0.083018187042952, 0.530517267084477, -1.53297907357422, -0.977594137857294, 1.79943607300383], a = 0.2, v = 0.2, t = 0.2)
movej(p[-0.315938679704027, 0.0832010285073543, 0.531331919518695, -1.52746561516535, -0.969943993616674, 1.80192116139717], a = 0.2, v = 0.2, t = 0.2)
movej(p[-0.313720402961643, 0.0835230332613052, 0.531835101993183, -1.51881075275099, -0.963983535707752, 1.80453552038456], a = 0.2, v = 0.2, t = 0.2)
movej(p[-0.311549778270403, 0.0835673749621473, 0.532605182296361, -1.51347201775806, -0.962180865475942, 1.80952906106332], a = 0.2, v = 0.2, t = 0.2)
movej(p[-0.310462905732564, 0.0835737055856607, 0.533001160249913, -1.50236696699314, -0.964664042258655, 1.82631775829152], a = 0.2, v = 0.2, t = 0.2)
movej(p[-0.310279066101661, 0.0832700464592384, 0.533367520912443, -1.51075016930398, -0.957469481501413, 1.84023481447434], a = 0.2, v = 0.2, t = 0.2)
movej(p[-0.310266455217107, 0.0832218521420577, 0.533401850540787, -1.51184776432338, -0.959138153211375, 1.84761929694291], a = 0.2, v = 0.2, t = 0.2)
movej(p[-0.310989697764295, 0.0830849741090453, 0.533368751869881, -1.5194691704341, -0.965352271061019, 1.8539882254563], a = 0.2, v = 0.2, t = 0.2)
movej(p[-0.312297493353088, 0.0826685499413699, 0.533221384436206, -1.5238467121483, -0.969953407310614, 1.85390855073106], a = 0.2, v = 0.2, t = 0.2)
movej(p[-0.314065415417882, 0.0823731700361995, 0.532840746124369, -1.53089686357772, -0.968948068093752, 1.84604644392992], a = 0.2, v = 0.2, t = 0.2)
movej(p[-0.315346224368382, 0.0823827697972419, 0.53233235838169, -1.53601324601094, -0.974325007439547, 1.83896922551032], a = 0.2, v = 0.2, t = 0.2)
movej(p[-0.315882107658689, 0.0823787267777253, 0.532112915625686, -1.53812556689199, -0.974750029238954, 1.83604115056054], a = 0.2, v = 0.2, t = 0.2)
movej(p[-0.320134491002402, 0.0820967318577582, 0.530735566395015, -1.54307585772803, -0.982553855244065, 1.83022631622409], a = 0.2, v = 0.2, t = 0.2)
movej(p[-0.323084003349288, 0.0818270894505478, 0.529916458430337, -1.54380386461227, -0.983854233364598, 1.829949974841], a = 0.2, v = 0.2, t = 0.2)
movej(p[-0.325253112377086, 0.0820485205107555, 0.528776639865346, -1.53522553887733, -0.992220720062851, 1.84300131582316], a = 0.2, v = 0.2, t = 0.2)
movej(p[-0.32585004965324, 0.0819722022804531, 0.528620027394381, -1.53555933899296, -0.992634451282085, 1.84297912766934], a = 0.2, v = 0.2, t = 0.2)
movej(p[-0.326383596960576, 0.0819140871366474, 0.528472909105596, -1.53592342777813, -0.993019594803034, 1.84448808268218], a = 0.2, v = 0.2, t = 0.2)
movej(p[-0.326647886315512, 0.081942491905007, 0.528346051366368, -1.53598201361158, -0.993095682969884, 1.84492305092454], a = 0.2, v = 0.2, t = 0.2)
movej(p[-0.326647886315512, 0.081942491905007, 0.528346051366368, -1.53598201361158, -0.993095682969884, 1.84492305092454], a = 0.2, v = 0.2, t = 0.2)
movej(p[-0.326352791892576, 0.0818584985709837, 0.528573708853378, -1.5425459829689, -0.991285161673253, 1.83331887603653], a = 0.2, v = 0.2, t = 0.2)
movej(p[-0.324793920557993, 0.0818697122876737, 0.529170599701669, -1.54871752515118, -0.987876656465777, 1.82026205051299], a = 0.2, v = 0.2, t = 0.2)
movej(p[-0.323038004839128, 0.081905262888535, 0.529804171562644, -1.54239029329841, -0.98866231795797, 1.81641056070905], a = 0.2, v = 0.2, t = 0.2)
movej(p[-0.321184719561644, 0.0823194733579761, 0.529997592650609, -1.52884956131016, -0.986982332635486, 1.81093021742046], a = 0.2, v = 0.2, t = 0.2)
movej(p[-0.318844969655098, 0.0824864568362226, 0.53070271938589, -1.51732932099931, -0.979826569764632, 1.82039650096411], a = 0.2, v = 0.2, t = 0.2)
movej(p[-0.316299576590154, 0.0826223100355899, 0.531541494679492, -1.51176590759534, -0.973562517533814, 1.82603655498151], a = 0.2, v = 0.2, t = 0.2)
movej(p[-0.31385192601929, 0.0828425716830609, 0.532217631359167, -1.51386613509503, -0.968757362358727, 1.83361592465221], a = 0.2, v = 0.2, t = 0.2)
movej(p[-0.312270572295928, 0.0827625273401393, 0.532982678916366, -1.50638599629916, -0.968830299406568, 1.84922686112726], a = 0.2, v = 0.2, t = 0.2)
movej(p[-0.312270509762616, 0.0827622883600541, 0.532982849145928, -1.4990654000773, -0.972932771919685, 1.8611131263708], a = 0.2, v = 0.2, t = 0.2)
movej(p[-0.314810045543583, 0.0820489660166281, 0.53291379973203, -1.51100585866782, -0.970308212515288, 1.8679081946454], a = 0.2, v = 0.2, t = 0.2)
movej(p[-0.318307507919835, 0.0815982664822749, 0.532127448019098, -1.51903871891513, -0.977844724680937, 1.86346324776555], a = 0.2, v = 0.2, t = 0.2)
movej(p[-0.320984019684854, 0.0816630448072901, 0.530997808001072, -1.52491998920586, -0.981114848074149, 1.86119132436012], a = 0.2, v = 0.2, t = 0.2)
movej(p[-0.321810057066189, 0.0816696813613946, 0.530656744193571, -1.53110038534989, -0.981199208346682, 1.86409515856071], a = 0.2, v = 0.2, t = 0.2)
movej(p[-0.324281151906776, 0.0813842923989253, 0.530103629134183, -1.53137186551887, -0.981411905980536, 1.86388677745063], a = 0.2, v = 0.2, t = 0.2)
movej(p[-0.325016493779927, 0.0814817420144976, 0.529760515287164, -1.5313306725165, -0.989663893579732, 1.84723328800653], a = 0.2, v = 0.2, t = 0.2)
movej(p[-0.326110934888716, 0.0817668976076661, 0.528945589470248, -1.53221615829038, -0.990234437260851, 1.84651007962683], a = 0.2, v = 0.2, t = 0.2)
movej(p[-0.326409785335319, 0.0817702236809061, 0.528816839643831, -1.53313960105119, -0.990659430565436, 1.84583103343222], a = 0.2, v = 0.2, t = 0.2)
movej(p[-0.32650259340694, 0.0817665489552339, 0.52875325145127, -1.53346883474813, -0.990804468209767, 1.84556167107443], a = 0.2, v = 0.2, t = 0.2)
movej(p[-0.32688603214871, 0.0817096872901339, 0.528731274591815, -1.53391958853971, -0.990896838896128, 1.84512187004779], a = 0.2, v = 0.2, t = 0.2)
movej(p[-0.327111612248578, 0.0817742737806682, 0.528511813037588, -1.53379318949769, -0.991057716542628, 1.84419597260293], a = 0.2, v = 0.2, t = 0.2)
movej(p[-0.327111612248578, 0.0817742737806682, 0.528511813037588, -1.53368067899558, -0.991118536512268, 1.84364693072977], a = 0.2, v = 0.2, t = 0.2)
movej(p[-0.326210403997061, 0.0818072536609339, 0.528815497059056, -1.53515747540823, -0.990123175113583, 1.84161106327871], a = 0.2, v = 0.2, t = 0.2)
movej(p[-0.324345214668277, 0.0818444812433033, 0.529521427236128, -1.53795276942263, -0.988498833245321, 1.8369117389788], a = 0.2, v = 0.2, t = 0.2)
movej(p[-0.322569343540691, 0.081844353429155, 0.530233456043036, -1.54488666946773, -0.991149436557475, 1.8306007858732], a = 0.2, v = 0.2, t = 0.2)
movej(p[-0.320960567712051, 0.082139508903478, 0.530446663428373, -1.54620460519514, -0.990334410810926, 1.82891311525886], a = 0.2, v = 0.2, t = 0.2)
movej(p[-0.31907651336143, 0.0820891415101351, 0.531297085858459, -1.54078783727015, -0.983158710875369, 1.82978885439553], a = 0.2, v = 0.2, t = 0.2)
movej(p[-0.316929881177169, 0.082306791103389, 0.531903548668573, -1.5188995208353, -0.983649505903288, 1.82650693628186], a = 0.2, v = 0.2, t = 0.2)
movej(p[-0.315588754786098, 0.0825968636412819, 0.531931960214328, -1.50849273889312, -0.985913330630777, 1.83836640475454], a = 0.2, v = 0.2, t = 0.2)
