def moving():
set_payload_mass(0.62)
set_tcp(p[0,0.0005,0.0058,0,0,0])
movej(p[0.3936, -0.1083, 0.3808, -1.173, 1.099, -1.197], a = 0.2, v = 0.2, t = 0.2)
movej(p[0.394817768458778, -0.10947339194209, 0.38215192134795, -1.173, 1.099, -1.197], a = 0.2, v = 0.2, t = 0.2)
movej(p[0.396035536917556, -0.110646783884181, 0.3835038426959, -1.173, 1.099, -1.197], a = 0.2, v = 0.2, t = 0.2)
movej(p[0.397253305376334, -0.111820175826271, 0.38485576404385, -1.173, 1.099, -1.197], a = 0.2, v = 0.2, t = 0.2)
movej(p[0.398471073835112, -0.112993567768361, 0.386207685391801, -1.173, 1.099, -1.197], a = 0.2, v = 0.2, t = 0.2)
movej(p[0.397253305376334, -0.111820175826271, 0.38485576404385, -1.173, 1.099, -1.197], a = 0.2, v = 0.2, t = 0.2)
movej(p[0.396035536917556, -0.110646783884181, 0.3835038426959, -1.173, 1.099, -1.197], a = 0.2, v = 0.2, t = 0.2)
movej(p[0.394817768458778, -0.10947339194209, 0.38215192134795, -1.173, 1.099, -1.197], a = 0.2, v = 0.2, t = 0.2)
movej(p[0.390768507622429, -0.10770910728812, 0.381098335295945, -1.17333130233782, 1.09848650763021, -1.19651692836948], a = 0.2, v = 0.2, t = 0.2)
movej(p[0.390768507622429, -0.10770910728812, 0.381098335295945, -1.19896196886561, 1.07972760431889, -1.20022438564671], a = 0.2, v = 0.2, t = 0.2)
movej(p[0.391542162477898, -0.107871471717133, 0.380917001082954, -1.19896196886561, 1.07972760431889, -1.20022438564671], a = 0.2, v = 0.2, t = 0.2)
movej(p[0.392691309457914, -0.108043194450729, 0.380895721724742, -1.1900366169166, 1.08429919030932, -1.20205826807738], a = 0.2, v = 0.2, t = 0.2)
movej(p[0.392917232701678, -0.108071256107889, 0.380915101903393, -1.18738396770066, 1.0870827624958, -1.20195576169605], a = 0.2, v = 0.2, t = 0.2)
movej(p[0.392951217147579, -0.108072582734567, 0.380978665631245, -1.18172668615905, 1.08848637149992, -1.20094925399261], a = 0.2, v = 0.2, t = 0.2)
movej(p[0.392948938144216, -0.108069258149502, 0.381002281161682, -1.17863086928825, 1.09126588213028, -1.20082216087173], a = 0.2, v = 0.2, t = 0.2)
movej(p[0.392729611119584, -0.108049010921228, 0.381161386177359, -1.17622147304138, 1.09340090201357, -1.19941574737182], a = 0.2, v = 0.2, t = 0.2)
movej(p[0.391480198707106, -0.107600665840702, 0.381804603724005, -1.15963648321746, 1.11365138082134, -1.18284353226445], a = 0.2, v = 0.2, t = 0.2)
movej(p[0.38938210273767, -0.107246367632191, 0.382063938898024, -1.16721589749916, 1.12066515639342, -1.17851909959701], a = 0.2, v = 0.2, t = 0.2)
movej(p[0.387110887024496, -0.106770235349997, 0.382491019691412, -1.17733564967986, 1.12360021450261, -1.17167220122418], a = 0.2, v = 0.2, t = 0.2)
movej(p[0.385155138028462, -0.106376011299558, 0.382621743838262, -1.18791891724612, 1.1252853278103, -1.16337490621497], a = 0.2, v = 0.2, t = 0.2)
movej(p[0.383239023673254, -0.105978548027899, 0.383058262446627, -1.1929315442741, 1.12987808716143, -1.1604932283097], a = 0.2, v = 0.2, t = 0.2)
movej(p[0.38185600129061, -0.105725610734096, 0.383541460392099, -1.18983863750289, 1.13172584895167, -1.15619335905895], a = 0.2, v = 0.2, t = 0.2)
movej(p[0.38185600129061, -0.105725610734096, 0.383541460392099, -1.189373597062, 1.1313014889152, -1.15646218216116], a = 0.2, v = 0.2, t = 0.2)
movej(p[0.383218203284856, -0.106112690476506, 0.383104088148023, -1.19806889010518, 1.10902533954499, -1.16937543966572], a = 0.2, v = 0.2, t = 0.2)
movej(p[0.385544215416884, -0.106471885084482, 0.38242411496086, -1.19927018519772, 1.10013464751885, -1.17936693782966], a = 0.2, v = 0.2, t = 0.2)
movej(p[0.387695435156559, -0.106946927354156, 0.381945186716073, -1.19072300493035, 1.09801762765724, -1.18616544932917], a = 0.2, v = 0.2, t = 0.2)
movej(p[0.389662692023983, -0.107287055412051, 0.381654939146219, -1.1780377821503, 1.09744956277385, -1.19515400096051], a = 0.2, v = 0.2, t = 0.2)
movej(p[0.390648237914694, -0.107407515874536, 0.381459743592272, -1.17344246761474, 1.10048108913884, -1.1945540110923], a = 0.2, v = 0.2, t = 0.2)
movej(p[0.391491945333652, -0.10756261444886, 0.381512589343633, -1.15705120927757, 1.11033768174053, -1.19678410799727], a = 0.2, v = 0.2, t = 0.2)
movej(p[0.391995345884656, -0.107659772699348, 0.381455148856069, -1.15129367715859, 1.11368522482269, -1.1968103288526], a = 0.2, v = 0.2, t = 0.2)
movej(p[0.392552849643888, -0.107696738612739, 0.381503201948471, -1.14000361763488, 1.1198681837499, -1.1937540996285], a = 0.2, v = 0.2, t = 0.2)
movej(p[0.392943695379923, -0.107747327734673, 0.381557794268125, -1.13594123788501, 1.12369321940134, -1.19276382482113], a = 0.2, v = 0.2, t = 0.2)
movej(p[0.392941321075094, -0.107747522279274, 0.381585190888883, -1.13446518185996, 1.12493643962356, -1.19083055627102], a = 0.2, v = 0.2, t = 0.2)
movej(p[0.392508338689743, -0.107724939295039, 0.381713449817614, -1.13662041911433, 1.12652947275726, -1.18943226280531], a = 0.2, v = 0.2, t = 0.2)
movej(p[0.391025152161932, -0.107461286477108, 0.381853284775032, -1.15270009873141, 1.12391463444327, -1.18326727421892], a = 0.2, v = 0.2, t = 0.2)
movej(p[0.390191238188742, -0.107352334281382, 0.38194841439379, -1.15884931567632, 1.12222500380742, -1.17851777968476], a = 0.2, v = 0.2, t = 0.2)
movej(p[0.388935989972685, -0.107169509005181, 0.382094781925937, -1.17228262734956, 1.11655889978711, -1.18310518300182], a = 0.2, v = 0.2, t = 0.2)
movej(p[0.385984178501616, -0.106725117845188, 0.38244960501733, -1.19533888754971, 1.11188964098651, -1.16998134475202], a = 0.2, v = 0.2, t = 0.2)
movej(p[0.383673516468489, -0.106197191293761, 0.382722968630426, -1.20488521664601, 1.10882515764097, -1.1630736720928], a = 0.2, v = 0.2, t = 0.2)
movej(p[0.382177243888278, -0.105917808574616, 0.382888983454926, -1.2231836887605, 1.10105056492336, -1.15951540551926], a = 0.2, v = 0.2, t = 0.2)
movej(p[0.381798465376855, -0.105799437044227, 0.38303898162184, -1.2231836887605, 1.10105056492336, -1.15951540551926], a = 0.2, v = 0.2, t = 0.2)
movej(p[0.381798465376855, -0.105799437044227, 0.38303898162184, -1.200056807818, 1.11246702942256, -1.16052256794358], a = 0.2, v = 0.2, t = 0.2)
movej(p[0.383573027321074, -0.106015975659799, 0.382800365498965, -1.19058738576298, 1.11189140485167, -1.16865994360496], a = 0.2, v = 0.2, t = 0.2)
movej(p[0.385670553014362, -0.1063037578543, 0.382536032859046, -1.18480964760534, 1.10878037762063, -1.1807735761743], a = 0.2, v = 0.2, t = 0.2)
movej(p[0.387554087146638, -0.106706929784721, 0.382197228273671, -1.18712064780885, 1.10444610962913, -1.18634064445509], a = 0.2, v = 0.2, t = 0.2)
movej(p[0.389630326385148, -0.107277928375352, 0.381836993705689, -1.18984081425079, 1.09904849927892, -1.19087857790052], a = 0.2, v = 0.2, t = 0.2)
movej(p[0.390691554448821, -0.107521394897891, 0.381692653415832, -1.1895535930453, 1.09605748700996, -1.19324788973581], a = 0.2, v = 0.2, t = 0.2)
movej(p[0.391536065416329, -0.107957512348246, 0.381404799745968, -1.18951587562937, 1.09521992472539, -1.19297713416572], a = 0.2, v = 0.2, t = 0.2)
movej(p[0.392092327452931, -0.107920436381386, 0.381407097422363, -1.18665695245493, 1.09358344383164, -1.19347870903675], a = 0.2, v = 0.2, t = 0.2)
movej(p[0.39252287992431, -0.107805395978779, 0.381445227792905, -1.16439381172636, 1.10535892194638, -1.18296636067909], a = 0.2, v = 0.2, t = 0.2)
movej(p[0.392739251387271, -0.1077109917315, 0.381517649047462, -1.14848526448924, 1.11359202565118, -1.17555613653752], a = 0.2, v = 0.2, t = 0.2)
movej(p[0.392739251387271, -0.1077109917315, 0.381517649047462, -1.14581374764886, 1.11596164219435, -1.17581977727465], a = 0.2, v = 0.2, t = 0.2)
movej(p[0.392663528441504, -0.107782734520496, 0.381553639014278, -1.14581374764886, 1.11596164219435, -1.17581977727465], a = 0.2, v = 0.2, t = 0.2)
movej(p[0.39228000546397, -0.107808319530154, 0.381569003030178, -1.15412583731364, 1.11301526109367, -1.17942385596715], a = 0.2, v = 0.2, t = 0.2)
movej(p[0.390783380800484, -0.107374897742997, 0.381794601170826, -1.16213002327754, 1.1133359169058, -1.17980761934569], a = 0.2, v = 0.2, t = 0.2)
movej(p[0.390010786775197, -0.107223267719942, 0.38181032847826, -1.1827116965473, 1.10969634134562, -1.18537267125827], a = 0.2, v = 0.2, t = 0.2)
movej(p[0.388680457748917, -0.106950267018198, 0.382055623481639, -1.18649822953888, 1.11148958542033, -1.18263793264357], a = 0.2, v = 0.2, t = 0.2)
movej(p[0.385249930088806, -0.106185237478486, 0.382737813965727, -1.1878480151921, 1.12062653596666, -1.17270903778322], a = 0.2, v = 0.2, t = 0.2)
movej(p[0.381895054070425, -0.10541896318209, 0.383412115236655, -1.18161591074615, 1.13018265629141, -1.15787749804228], a = 0.2, v = 0.2, t = 0.2)
movej(p[0.380638066517883, -0.10517818923275, 0.383606924651404, -1.18371847381832, 1.12734085107037, -1.15280460442708], a = 0.2, v = 0.2, t = 0.2)
movej(p[0.380631737916285, -0.105178707782541, 0.383679949098735, -1.1827272085469, 1.12800670556056, -1.15164613277833], a = 0.2, v = 0.2, t = 0.2)
movej(p[0.381079044142738, -0.105204164907773, 0.383718533740122, -1.17425729125035, 1.12699226758083, -1.15878864525179], a = 0.2, v = 0.2, t = 0.2)
movej(p[0.382705769561453, -0.105568741190574, 0.383386956922285, -1.17363834685216, 1.12392812763577, -1.16188311933272], a = 0.2, v = 0.2, t = 0.2)
movej(p[0.384627713019575, -0.106020900148898, 0.382921847171595, -1.1860852043264, 1.11106282878483, -1.17205500232247], a = 0.2, v = 0.2, t = 0.2)
movej(p[0.387046611595888, -0.106615824547599, 0.382382253734513, -1.19424511427355, 1.099482690591, -1.18245084504754], a = 0.2, v = 0.2, t = 0.2)
movej(p[0.388291026555265, -0.106940935726278, 0.382122518118208, -1.19735366807466, 1.09511807962278, -1.18834872936165], a = 0.2, v = 0.2, t = 0.2)
movej(p[0.389374863964313, -0.107349608991159, 0.381784834326297, -1.19509422995108, 1.09385084654654, -1.18988927041737], a = 0.2, v = 0.2, t = 0.2)
movej(p[0.390448921674179, -0.107470905143196, 0.38175670286033, -1.17040557124175, 1.10492560328676, -1.18451903090065], a = 0.2, v = 0.2, t = 0.2)
movej(p[0.391465814085129, -0.107776911110977, 0.381500471651779, -1.16717224753753, 1.10330611140137, -1.18641137663363], a = 0.2, v = 0.2, t = 0.2)
movej(p[0.392150217405528, -0.107742392089538, 0.381483040582217, -1.16708293588203, 1.10335478478509, -1.18632313889069], a = 0.2, v = 0.2, t = 0.2)
movej(p[0.392305183388779, -0.107774013408553, 0.38145127698326, -1.1664948227561, 1.10136561303437, -1.18612751204365], a = 0.2, v = 0.2, t = 0.2)
movej(p[0.392591754074632, -0.107897351348408, 0.381318447150006, -1.16927351898571, 1.09856403720963, -1.18659893831099], a = 0.2, v = 0.2, t = 0.2)
movej(p[0.392604900047232, -0.10796654346879, 0.381252745674517, -1.17170631997749, 1.09755774754909, -1.18865877881071], a = 0.2, v = 0.2, t = 0.2)
movej(p[0.392594537395946, -0.107897166140468, 0.381318689679349, -1.17351594769384, 1.09819837708595, -1.18935790885387], a = 0.2, v = 0.2, t = 0.2)
movej(p[0.392401213358697, -0.107703489740569, 0.381466022393787, -1.17524011184293, 1.0987618067332, -1.18948572380572], a = 0.2, v = 0.2, t = 0.2)
movej(p[0.391334162658343, -0.10766405693527, 0.38153051639925, -1.17569357882225, 1.0984236455792, -1.18904694194665], a = 0.2, v = 0.2, t = 0.2)
movej(p[0.390206025437909, -0.107322237148167, 0.38176150136633, -1.18989708084585, 1.10096659779264, -1.18735079212546], a = 0.2, v = 0.2, t = 0.2)
movej(p[0.388487036313315, -0.106926428859856, 0.382093635327903, -1.19644319043239, 1.10704864380095, -1.18371118183956], a = 0.2, v = 0.2, t = 0.2)
movej(p[0.386327274652097, -0.106279912913684, 0.382677031863786, -1.19855108723222, 1.11463907356995, -1.1782709899913], a = 0.2, v = 0.2, t = 0.2)
movej(p[0.384176732483876, -0.105811325437421, 0.383145031863566, -1.19153442368167, 1.12434119953003, -1.16872465643203], a = 0.2, v = 0.2, t = 0.2)
movej(p[0.382441915242642, -0.105488517275407, 0.38346634213426, -1.1857724634093, 1.12821838730124, -1.16201000812677], a = 0.2, v = 0.2, t = 0.2)
movej(p[0.382441915242642, -0.105488517275407, 0.38346634213426, -1.1864239161059, 1.12270371159461, -1.15956861854158], a = 0.2, v = 0.2, t = 0.2)
movej(p[0.384375182053875, -0.105934180647342, 0.383055660584273, -1.18785033028937, 1.11148812933372, -1.16435748780726], a = 0.2, v = 0.2, t = 0.2)
movej(p[0.386879301340895, -0.106592828725283, 0.382402948920672, -1.19324234807046, 1.09972656121768, -1.17920275439909], a = 0.2, v = 0.2, t = 0.2)
movej(p[0.388237436306947, -0.107044382914561, 0.382011843349079, -1.19451996915214, 1.09618109412572, -1.1841866372493], a = 0.2, v = 0.2, t = 0.2)
movej(p[0.389330720238985, -0.107219933211775, 0.381917639649064, -1.18930524197785, 1.10070322456433, -1.19044065269031], a = 0.2, v = 0.2, t = 0.2)
movej(p[0.39060977020054, -0.10765919723811, 0.381509227894807, -1.18042003906016, 1.10144329910813, -1.19096545867965], a = 0.2, v = 0.2, t = 0.2)
movej(p[0.391519983070331, -0.107805601831257, 0.381371761692522, -1.17791280922784, 1.09910842733872, -1.19235712834733], a = 0.2, v = 0.2, t = 0.2)
movej(p[0.392267951350663, -0.107971801274743, 0.38120413413929, -1.17994338304702, 1.09692876172956, -1.19414674207172], a = 0.2, v = 0.2, t = 0.2)
movej(p[0.392429855852068, -0.107979735125584, 0.381192412516715, -1.180542371914, 1.09589479665209, -1.19498986486004], a = 0.2, v = 0.2, t = 0.2)
movej(p[0.392435173409273, -0.108009107727175, 0.381163053465962, -1.18062604108092, 1.09537065095507, -1.19556342125151], a = 0.2, v = 0.2, t = 0.2)
movej(p[0.392753479867582, -0.108163091834249, 0.381021915613606, -1.18094425736491, 1.09497383306199, -1.1954467530991], a = 0.2, v = 0.2, t = 0.2)
movej(p[0.393072278196202, -0.108141878203202, 0.381049594261099, -1.18308794708773, 1.09309526231868, -1.19677379654958], a = 0.2, v = 0.2, t = 0.2)
movej(p[0.393069976957191, -0.108107354845761, 0.381049639978048, -1.18707404710695, 1.090204415887, -1.1995790525128], a = 0.2, v = 0.2, t = 0.2)
movej(p[0.39298583328563, -0.107983135104917, 0.381170006412409, -1.18798561090937, 1.09105749627471, -1.1990810257872], a = 0.2, v = 0.2, t = 0.2)
movej(p[0.392190895814367, -0.107713778518247, 0.381449228001833, -1.18707622108164, 1.09545579904528, -1.19508456355486], a = 0.2, v = 0.2, t = 0.2)
movej(p[0.390746908392642, -0.107315129284522, 0.381823483602124, -1.19072697387052, 1.09886459115432, -1.19307204175965], a = 0.2, v = 0.2, t = 0.2)
movej(p[0.389370603924436, -0.10692685579088, 0.38216317951751, -1.19785937363148, 1.10330956244788, -1.18827288990128], a = 0.2, v = 0.2, t = 0.2)
movej(p[0.387914724265998, -0.10664158269075, 0.382411834134378, -1.20058905785998, 1.10808187605172, -1.18439674745727], a = 0.2, v = 0.2, t = 0.2)
movej(p[0.385887717938048, -0.106210278567177, 0.382817100428857, -1.19729885383683, 1.11827148657561, -1.17311727716435], a = 0.2, v = 0.2, t = 0.2)
movej(p[0.383684555262687, -0.105692292729531, 0.383293638819644, -1.19647829297396, 1.12533671550227, -1.16508789544031], a = 0.2, v = 0.2, t = 0.2)
movej(p[0.382825097081549, -0.105447442901383, 0.383543506077463, -1.19311391680455, 1.1271807685717, -1.15985781067677], a = 0.2, v = 0.2, t = 0.2)
movej(p[0.382825097081549, -0.105447442901383, 0.383543506077463, -1.19001534038943, 1.12175637282576, -1.16075367820256], a = 0.2, v = 0.2, t = 0.2)
movej(p[0.384323024808263, -0.105920184523205, 0.383105543950632, -1.18785438788155, 1.11364845683163, -1.1663555866572], a = 0.2, v = 0.2, t = 0.2)
movej(p[0.386236044275714, -0.106419713022325, 0.382618546326694, -1.19334008429509, 1.1019766277755, -1.17728041558858], a = 0.2, v = 0.2, t = 0.2)
movej(p[0.386821484074004, -0.106587508437859, 0.382437825821208, -1.19568543700753, 1.0987250907454, -1.18171098772546], a = 0.2, v = 0.2, t = 0.2)
movej(p[0.389810829858093, -0.107448021088497, 0.381625981537343, -1.18476016932299, 1.10425718146415, -1.19350076081875], a = 0.2, v = 0.2, t = 0.2)
movej(p[0.391583605824326, -0.107793883030179, 0.381325363256391, -1.18513878929051, 1.10313701540704, -1.19704558615624], a = 0.2, v = 0.2, t = 0.2)
movej(p[0.391862202094805, -0.107875337229038, 0.381252065019282, -1.1833178161505, 1.10083691564381, -1.19867397403092], a = 0.2, v = 0.2, t = 0.2)
movej(p[0.392319104347284, -0.107965451959171, 0.381179101418134, -1.18515533391052, 1.09823599788275, -1.20108669733389], a = 0.2, v = 0.2, t = 0.2)
movej(p[0.392732032239431, -0.10803174378012, 0.381110024284708, -1.18721385649505, 1.0959960464727, -1.20373420458231], a = 0.2, v = 0.2, t = 0.2)
movej(p[0.39305880152935, -0.108117691922865, 0.381027619200371, -1.18708889898074, 1.09412847256803, -1.20474964182891], a = 0.2, v = 0.2, t = 0.2)
movej(p[0.39315852520231, -0.108112156276031, 0.381034594561681, -1.18708889898074, 1.09412847256803, -1.20474964182891], a = 0.2, v = 0.2, t = 0.2)
movej(p[0.393158757986603, -0.108115648523171, 0.381034589937134, -1.18732856787611, 1.09706786415662, -1.20502854333156], a = 0.2, v = 0.2, t = 0.2)
movej(p[0.393156471686953, -0.108115800658264, 0.381034390716602, -1.18820095916198, 1.09815549350324, -1.20427384826385], a = 0.2, v = 0.2, t = 0.2)
movej(p[0.392609513899811, -0.107962833322027, 0.381180799811708, -1.18888398986795, 1.09715040659046, -1.20326475111346], a = 0.2, v = 0.2, t = 0.2)
movej(p[0.392015945912172, -0.107617307046877, 0.381605392648708, -1.19177648865959, 1.09503516252387, -1.19972977406228], a = 0.2, v = 0.2, t = 0.2)
movej(p[0.390810337231406, -0.107391347296551, 0.381799129196868, -1.18840559412426, 1.09760522881853, -1.19563782198882], a = 0.2, v = 0.2, t = 0.2)
movej(p[0.388567738395233, -0.10691926609808, 0.382184896759066, -1.19638613101882, 1.10856177901414, -1.18643913355789], a = 0.2, v = 0.2, t = 0.2)
movej(p[0.386873233963489, -0.106612974813537, 0.382401376642231, -1.19534335241418, 1.11505361411633, -1.17856045946974], a = 0.2, v = 0.2, t = 0.2)
movej(p[0.384894495142779, -0.106127915557142, 0.382862801671028, -1.19069064631836, 1.11827786757919, -1.16883815663681], a = 0.2, v = 0.2, t = 0.2)
movej(p[0.384065045687998, -0.10593202810422, 0.383074670611062, -1.18870463876886, 1.11921044377871, -1.16524393958384], a = 0.2, v = 0.2, t = 0.2)
movej(p[0.384065045687998, -0.10593202810422, 0.383074670611062, -1.18639377382299, 1.11675365833494, -1.16643805223967], a = 0.2, v = 0.2, t = 0.2)
movej(p[0.386097323151515, -0.106498714812581, 0.382467542827274, -1.18990940638547, 1.10536071493029, -1.17649527951599], a = 0.2, v = 0.2, t = 0.2)
movej(p[0.387941512993897, -0.107030276767553, 0.381893247778294, -1.18897625821337, 1.09805755394303, -1.18382763319607], a = 0.2, v = 0.2, t = 0.2)
movej(p[0.389843944380502, -0.107514887695819, 0.381414773570564, -1.18901437736465, 1.1014370407152, -1.1941105938987], a = 0.2, v = 0.2, t = 0.2)
movej(p[0.391229169030503, -0.107882253715932, 0.381023702584303, -1.19047964748184, 1.10408943403441, -1.19859695647276], a = 0.2, v = 0.2, t = 0.2)
movej(p[0.391659469294539, -0.108110290362258, 0.380683662497397, -1.19198696041713, 1.10342660694989, -1.20145791475343], a = 0.2, v = 0.2, t = 0.2)
movej(p[0.392178534543095, -0.108279665449692, 0.380473890937125, -1.19201150959358, 1.10260130740762, -1.20259330753497], a = 0.2, v = 0.2, t = 0.2)
movej(p[0.392544496738945, -0.108286753075936, 0.380482971507739, -1.19385319850265, 1.10134106697317, -1.20476478748144], a = 0.2, v = 0.2, t = 0.2)
movej(p[0.392866431506805, -0.108351155587915, 0.38046153061938, -1.19481878379221, 1.10300906987446, -1.20532372379968], a = 0.2, v = 0.2, t = 0.2)
movej(p[0.392995072691343, -0.108348772557561, 0.380444991973514, -1.19513578485579, 1.10307024182536, -1.20539601569712], a = 0.2, v = 0.2, t = 0.2)
movej(p[0.393133480924466, -0.108363899291854, 0.380444031289769, -1.19684113465534, 1.10212709281556, -1.20685981746171], a = 0.2, v = 0.2, t = 0.2)
movej(p[0.393136363650113, -0.108363707469346, 0.380444282480874, -1.19850814241947, 1.10370900480085, -1.20593492370096], a = 0.2, v = 0.2, t = 0.2)
movej(p[0.393124493600243, -0.108321462087945, 0.380564408080421, -1.19851034110094, 1.10437612937477, -1.20574918037684], a = 0.2, v = 0.2, t = 0.2)
movej(p[0.393122975318372, -0.10830011727293, 0.380565532221052, -1.19834353664611, 1.10449175805149, -1.20555722376119], a = 0.2, v = 0.2, t = 0.2)
movej(p[0.392730694200935, -0.108095729184653, 0.380848673624369, -1.19922543172944, 1.10197689556974, -1.20290916982714], a = 0.2, v = 0.2, t = 0.2)
movej(p[0.39164797140526, -0.107819905579181, 0.381133013291654, -1.19635077779258, 1.1036243723634, -1.19856190461196], a = 0.2, v = 0.2, t = 0.2)
movej(p[0.389781194666267, -0.107264618146689, 0.381801781214083, -1.1975458856551, 1.10158849136184, -1.19264192104278], a = 0.2, v = 0.2, t = 0.2)
movej(p[0.388183168781351, -0.10692298762324, 0.382060499683822, -1.19549231322403, 1.10884955117484, -1.18371003055068], a = 0.2, v = 0.2, t = 0.2)
movej(p[0.386635707534948, -0.106503812230815, 0.382538657326517, -1.193434302121, 1.11328328025566, -1.1775219083641], a = 0.2, v = 0.2, t = 0.2)
movej(p[0.384429207558692, -0.106017703429777, 0.382927753353658, -1.19177018520019, 1.12008218493345, -1.16554611589523], a = 0.2, v = 0.2, t = 0.2)
movej(p[0.382159070702757, -0.105544613519851, 0.383284742278488, -1.18801547415828, 1.12411158241065, -1.15704945918967], a = 0.2, v = 0.2, t = 0.2)
movej(p[0.382158846223028, -0.105544631913159, 0.38328733250445, -1.18935030627292, 1.12209476637715, -1.15518665285666], a = 0.2, v = 0.2, t = 0.2)
movej(p[0.382602569600656, -0.105607709903778, 0.383325339493884, -1.18666922852899, 1.11052143837794, -1.16282523777446], a = 0.2, v = 0.2, t = 0.2)
movej(p[0.385538769891878, -0.106363790313781, 0.382562228706752, -1.18713439556651, 1.09394080203389, -1.18004725381836], a = 0.2, v = 0.2, t = 0.2)
movej(p[0.386960862613085, -0.106804407297987, 0.38182361615235, -1.19381075044477, 1.08900139579472, -1.18800271856763], a = 0.2, v = 0.2, t = 0.2)
movej(p[0.388935156872546, -0.107281937483578, 0.381280453378489, -1.19999992983443, 1.08461221984551, -1.19525369448921], a = 0.2, v = 0.2, t = 0.2)
movej(p[0.390391403299722, -0.107603915068821, 0.380992121611355, -1.2025696575062, 1.08949207181601, -1.19855977684569], a = 0.2, v = 0.2, t = 0.2)
movej(p[0.391653600389638, -0.107839165560373, 0.380748316868926, -1.20898515355321, 1.09847394734344, -1.19841354571705], a = 0.2, v = 0.2, t = 0.2)
movej(p[0.392301298932912, -0.10796824348202, 0.380650155943988, -1.21083401153772, 1.0999972019089, -1.19766767620743], a = 0.2, v = 0.2, t = 0.2)
movej(p[0.392371022803593, -0.108013873144535, 0.380548671483326, -1.21079637623792, 1.10005747715223, -1.19772226336085], a = 0.2, v = 0.2, t = 0.2)
movej(p[0.392705472578327, -0.108049345497257, 0.380577404397776, -1.20939665205784, 1.09982550211663, -1.1979482961212], a = 0.2, v = 0.2, t = 0.2)
movej(p[0.393112838808689, -0.108070044225274, 0.380839815767612, -1.20169178024538, 1.10295297307274, -1.19794937554649], a = 0.2, v = 0.2, t = 0.2)
movej(p[0.393568894959234, -0.108078867668889, 0.381245553754979, -1.19127790993942, 1.1080559482713, -1.19781400459706], a = 0.2, v = 0.2, t = 0.2)
movej(p[0.393568894959234, -0.108078867668889, 0.381245553754979, -1.19031488457852, 1.10871890596353, -1.19670643741427], a = 0.2, v = 0.2, t = 0.2)
movej(p[0.393448362979504, -0.108083079715082, 0.381235078043581, -1.19043347596575, 1.10889721989356, -1.19587483986332], a = 0.2, v = 0.2, t = 0.2)
movej(p[0.392949927727017, -0.107974909411376, 0.381249061765336, -1.19014307517527, 1.10909697513508, -1.19554070729236], a = 0.2, v = 0.2, t = 0.2)
movej(p[0.392273361904002, -0.10780516654159, 0.381578186263491, -1.18498776159301, 1.11105408623292, -1.19295546338179], a = 0.2, v = 0.2, t = 0.2)
movej(p[0.391281220626924, -0.107562540704428, 0.381975135063034, -1.1812213940837, 1.11362788962061, -1.18863062320251], a = 0.2, v = 0.2, t = 0.2)
movej(p[0.389186327901733, -0.107114336077896, 0.382169868272063, -1.18579478899013, 1.11197794073202, -1.18398765302649], a = 0.2, v = 0.2, t = 0.2)
movej(p[0.388098695843607, -0.106878672226171, 0.382260672430148, -1.18998303525989, 1.11136308033429, -1.18005791986376], a = 0.2, v = 0.2, t = 0.2)
movej(p[0.386599369466033, -0.106515242690711, 0.382454121302633, -1.19426277163187, 1.11342630109483, -1.17302023160955], a = 0.2, v = 0.2, t = 0.2)
movej(p[0.383291939793141, -0.105746712809314, 0.383207933872356, -1.18911082626792, 1.11755845330731, -1.16255468726223], a = 0.2, v = 0.2, t = 0.2)
movej(p[0.383273370257535, -0.105468131266036, 0.383208302779063, -1.18911082626792, 1.11755845330731, -1.16255468726223], a = 0.2, v = 0.2, t = 0.2)
movej(p[0.384832827744911, -0.10536118159814, 0.380942683357447, -1.18728969517206, 1.11528652280999, -1.17652319610148], a = 0.2, v = 0.2, t = 0.2)
movej(p[0.392435329031258, -0.107778543353823, 0.381584381871748, -1.19170351533083, 1.10955551016469, -1.19843975487142], a = 0.2, v = 0.2, t = 0.2)
movej(p[0.392428525568694, -0.107779100812534, 0.381662885643231, -1.19297623495439, 1.10868020245968, -1.19990341739003], a = 0.2, v = 0.2, t = 0.2)
movej(p[0.390753381126733, -0.107463884134916, 0.381790064472907, -1.20049736965169, 1.11261320713679, -1.19458727781469], a = 0.2, v = 0.2, t = 0.2)
movej(p[0.388783049617093, -0.107036539726666, 0.3820593849119, -1.20463340873072, 1.116206250662, -1.18602611542375], a = 0.2, v = 0.2, t = 0.2)
movej(p[0.387090054652272, -0.106653369497701, 0.382345300012457, -1.20346967911318, 1.12078935467383, -1.17821060529732], a = 0.2, v = 0.2, t = 0.2)
movej(p[0.385581070224912, -0.106231743171056, 0.382833735656798, -1.20047156241645, 1.12321050436206, -1.17088510819298], a = 0.2, v = 0.2, t = 0.2)
movej(p[0.38397725114931, -0.105921494089819, 0.382961238677651, -1.20143138926998, 1.12075240793854, -1.16634230018309], a = 0.2, v = 0.2, t = 0.2)
movej(p[0.38397725114931, -0.105921494089819, 0.382961238677651, -1.20143138926998, 1.12075240793854, -1.16634230018309], a = 0.2, v = 0.2, t = 0.2)
movej(p[0.384644905345416, -0.106108211054578, 0.382816618279738, -1.19612888093491, 1.11571314884459, -1.17124815241266], a = 0.2, v = 0.2, t = 0.2)
movej(p[0.386414364238545, -0.106593662265252, 0.382333941703154, -1.19589407724703, 1.10723027050772, -1.18069630297166], a = 0.2, v = 0.2, t = 0.2)
movej(p[0.388763824748951, -0.107159694570877, 0.381834909971667, -1.19903910935755, 1.10276573625776, -1.19022320351092], a = 0.2, v = 0.2, t = 0.2)
movej(p[0.390586035398339, -0.107570271401238, 0.381503586556214, -1.19814551343591, 1.10367093805031, -1.19595004517681], a = 0.2, v = 0.2, t = 0.2)
movej(p[0.391676800824444, -0.107779087356902, 0.381427899688965, -1.19880665624667, 1.10407502454217, -1.1992537548921], a = 0.2, v = 0.2, t = 0.2)
movej(p[0.39230187784995, -0.107952014221689, 0.381214140895884, -1.20092726946878, 1.10649653623408, -1.20201928332652], a = 0.2, v = 0.2, t = 0.2)
movej(p[0.392963612226553, -0.108072744473842, 0.381270632231831, -1.20233879145511, 1.10976914280701, -1.2045079652139], a = 0.2, v = 0.2, t = 0.2)
movej(p[0.393513003323417, -0.108100792357648, 0.381365724812512, -1.20195393814454, 1.11082402102672, -1.20635294854949], a = 0.2, v = 0.2, t = 0.2)
movej(p[0.393673115720972, -0.108194568492701, 0.38137893490879, -1.20179571344515, 1.10978557395295, -1.20736795739764], a = 0.2, v = 0.2, t = 0.2)
movej(p[0.393732351284122, -0.10821142403056, 0.381195741298362, -1.20230774853176, 1.10915360207845, -1.20714972404818], a = 0.2, v = 0.2, t = 0.2)
movej(p[0.393694145769206, -0.108213913268549, 0.381152362013856, -1.20294323949362, 1.10905412640583, -1.20659329328476], a = 0.2, v = 0.2, t = 0.2)
movej(p[0.393730355086385, -0.108220763107574, 0.381109177467375, -1.20421100777604, 1.11026161926198, -1.20588410535903], a = 0.2, v = 0.2, t = 0.2)
movej(p[0.393730355086385, -0.108220763107574, 0.381109177467375, -1.20401083379659, 1.11181709988619, -1.20568917128891], a = 0.2, v = 0.2, t = 0.2)
movej(p[0.393695071746377, -0.108124333916408, 0.381440458702897, -1.20266712387829, 1.11273922159983, -1.20413824757841], a = 0.2, v = 0.2, t = 0.2)
movej(p[0.39256411937793, -0.107829168538522, 0.381719752168632, -1.19883357859321, 1.11328360966888, -1.2015582046638], a = 0.2, v = 0.2, t = 0.2)
movej(p[0.391105948553419, -0.107549217518303, 0.381785182534857, -1.1994299836309, 1.11107685905472, -1.19699255739359], a = 0.2, v = 0.2, t = 0.2)
movej(p[0.389492821362208, -0.107258567612253, 0.381864763104648, -1.20045350481126, 1.10878176858396, -1.19181090655487], a = 0.2, v = 0.2, t = 0.2)
movej(p[0.387640838041872, -0.106829100147712, 0.382098482718921, -1.20041878672731, 1.11461146053408, -1.18187962410277], a = 0.2, v = 0.2, t = 0.2)
movej(p[0.386464014916436, -0.106483264765666, 0.382522618734798, -1.19843435304901, 1.11531189866928, -1.17640226901487], a = 0.2, v = 0.2, t = 0.2)
movej(p[0.385987268757746, -0.106378871494756, 0.382620764723832, -1.198080129207, 1.11523865451017, -1.1750421114256], a = 0.2, v = 0.2, t = 0.2)
movej(p[0.385510529250036, -0.106274578002336, 0.382718910580736, -1.19791010146481, 1.11533325561507, -1.17357731203338], a = 0.2, v = 0.2, t = 0.2)
movej(p[0.384481669682411, -0.106072885406308, 0.382813462824562, -1.19660306271301, 1.11582282846494, -1.17082766554124], a = 0.2, v = 0.2, t = 0.2)
movej(p[0.384481669682411, -0.106072885406308, 0.382813462824562, -1.19566022939301, 1.11477524435852, -1.17129782466281], a = 0.2, v = 0.2, t = 0.2)
movej(p[0.386682689424034, -0.106670756703257, 0.38223549297304, -1.19694004943918, 1.10534056104308, -1.18193091351267], a = 0.2, v = 0.2, t = 0.2)
movej(p[0.389348441459331, -0.107295151422043, 0.381637785509925, -1.19807513134918, 1.10692935763253, -1.19032522201635], a = 0.2, v = 0.2, t = 0.2)
movej(p[0.391434755984699, -0.107824110742789, 0.381068632851815, -1.20262751105444, 1.10630795805918, -1.19720047720549], a = 0.2, v = 0.2, t = 0.2)
movej(p[0.392529289828288, -0.108091380089307, 0.380822316385354, -1.20632555977125, 1.10489011405041, -1.20153153986436], a = 0.2, v = 0.2, t = 0.2)
movej(p[0.392777913789595, -0.108187384388234, 0.38084318143871, -1.20825425191573, 1.10487278805685, -1.20251344164877], a = 0.2, v = 0.2, t = 0.2)
movej(p[0.393572014977844, -0.108232461095832, 0.38098877125035, -1.20657538655231, 1.10754708224257, -1.20493293663924], a = 0.2, v = 0.2, t = 0.2)
movej(p[0.393646589632334, -0.10825881463651, 0.381030480263782, -1.20324831325078, 1.10939594895532, -1.20654763465894], a = 0.2, v = 0.2, t = 0.2)
movej(p[0.394297804852123, -0.108312954923329, 0.38120648374914, -1.20251881684161, 1.10870682993157, -1.20694940006428], a = 0.2, v = 0.2, t = 0.2)
movej(p[0.394295749999217, -0.108313123292839, 0.381230194279106, -1.20311268809889, 1.10765775492366, -1.20578419502747], a = 0.2, v = 0.2, t = 0.2)
movej(p[0.394036305544648, -0.10825101218258, 0.381208150799894, -1.20346334051051, 1.10879294744766, -1.20475192719588], a = 0.2, v = 0.2, t = 0.2)
movej(p[0.393343755135719, -0.108184748106941, 0.381148602052025, -1.20369557729682, 1.11001101853189, -1.20357949720892], a = 0.2, v = 0.2, t = 0.2)
movej(p[0.392859388415744, -0.108044977067027, 0.381166338088279, -1.20375399697909, 1.11007212773908, -1.20059513274861], a = 0.2, v = 0.2, t = 0.2)
movej(p[0.39134126914199, -0.107646459282211, 0.381616778734583, -1.20372947359066, 1.11102979928426, -1.19440962424149], a = 0.2, v = 0.2, t = 0.2)
movej(p[0.388452029701114, -0.10695352005151, 0.382095829510429, -1.20462770478717, 1.12106836224131, -1.1807530529823], a = 0.2, v = 0.2, t = 0.2)
movej(p[0.38541441334776, -0.106224772598851, 0.382652514834537, -1.1999306768746, 1.12216588411355, -1.16902378172886], a = 0.2, v = 0.2, t = 0.2)
movej(p[0.382746887624945, -0.105655931171523, 0.383032457525845, -1.20139562564424, 1.11709024690085, -1.16049134804453], a = 0.2, v = 0.2, t = 0.2)
movej(p[0.382746887624945, -0.105655931171523, 0.383032457525845, -1.18750078908382, 1.10386262130383, -1.16808820628159], a = 0.2, v = 0.2, t = 0.2)
movej(p[0.383228935944519, -0.105859035753906, 0.382817230863439, -1.18907580453977, 1.102764850977, -1.1699224700838], a = 0.2, v = 0.2, t = 0.2)
movej(p[0.385420919659389, -0.106355761493088, 0.382449285930354, -1.19162430250356, 1.10334478633653, -1.1777091332508], a = 0.2, v = 0.2, t = 0.2)
movej(p[0.387899790274425, -0.106974535015128, 0.381822674541749, -1.19910800552179, 1.10232374014161, -1.18646460998721], a = 0.2, v = 0.2, t = 0.2)
movej(p[0.389052965986265, -0.107529702594535, 0.381168250247885, -1.20670697294338, 1.10212636217234, -1.19089202937751], a = 0.2, v = 0.2, t = 0.2)
movej(p[0.391182977517834, -0.107673419801004, 0.381066452556622, -1.20518529673301, 1.10655420470791, -1.19776759197103], a = 0.2, v = 0.2, t = 0.2)
movej(p[0.392354124964307, -0.107951860435887, 0.38115472957212, -1.20456477605039, 1.10803260116226, -1.19952556292284], a = 0.2, v = 0.2, t = 0.2)
movej(p[0.392973488117424, -0.108101579145859, 0.38098882151793, -1.2058905829499, 1.1071426716772, -1.20113356928553], a = 0.2, v = 0.2, t = 0.2)
movej(p[0.39300338044701, -0.108146265545722, 0.380894632164502, -1.20722382677925, 1.10747730885532, -1.20156765326577], a = 0.2, v = 0.2, t = 0.2)
movej(p[0.393399696965866, -0.108204699583892, 0.380867032344479, -1.20721708838302, 1.10748801821686, -1.20157734258639], a = 0.2, v = 0.2, t = 0.2)
movej(p[0.393459713071103, -0.108200787469491, 0.380933792680557, -1.20393898000805, 1.10960650463525, -1.20297725450333], a = 0.2, v = 0.2, t = 0.2)
movej(p[0.393543702030423, -0.108200629348248, 0.3808795413238, -1.20392851805671, 1.10962201622759, -1.20298922495313], a = 0.2, v = 0.2, t = 0.2)
movej(p[0.393697743777003, -0.108253472371356, 0.380933469936053, -1.20370786730517, 1.10979297136649, -1.20278887710062], a = 0.2, v = 0.2, t = 0.2)
movej(p[0.393697743777003, -0.108253472371356, 0.380933469936053, -1.20329413108476, 1.10970266196951, -1.20281689297204], a = 0.2, v = 0.2, t = 0.2)
movej(p[0.39365013845012, -0.108215727741493, 0.381064218304184, -1.2022651943877, 1.10973091509307, -1.20329023732465], a = 0.2, v = 0.2, t = 0.2)
movej(p[0.393380539241168, -0.108133255102379, 0.381199734429904, -1.20069473473722, 1.11081176207969, -1.20147718186177], a = 0.2, v = 0.2, t = 0.2)
movej(p[0.392492509099981, -0.107909848820462, 0.381446370987498, -1.19905999789371, 1.11165861763173, -1.19764519163356], a = 0.2, v = 0.2, t = 0.2)
movej(p[0.390605767446995, -0.107487690014032, 0.381665483006895, -1.20150896181672, 1.11396434926726, -1.19098849333837], a = 0.2, v = 0.2, t = 0.2)
movej(p[0.388741692750117, -0.107036440711706, 0.381946289776063, -1.20702512768109, 1.11954584337958, -1.17994960681421], a = 0.2, v = 0.2, t = 0.2)
movej(p[0.386493196989374, -0.106503323838934, 0.382261916317858, -1.20989249978507, 1.12320627670167, -1.16942752935723], a = 0.2, v = 0.2, t = 0.2)
movej(p[0.384665319759203, -0.106064771485683, 0.3826761601167, -1.20754956593921, 1.12550054114477, -1.16420278662705], a = 0.2, v = 0.2, t = 0.2)
movej(p[0.38442614305192, -0.1059811910815, 0.382825362156666, -1.20576170070634, 1.12658496833204, -1.16152413652705], a = 0.2, v = 0.2, t = 0.2)
movej(p[0.384186957710802, -0.105897611384753, 0.382974663820707, -1.20394492475208, 1.12764104658447, -1.15886423741542], a = 0.2, v = 0.2, t = 0.2)
movej(p[0.383097037977008, -0.105658080553182, 0.383208836779467, -1.20287124552744, 1.12562382178165, -1.15720504032761], a = 0.2, v = 0.2, t = 0.2)
movej(p[0.383097037977008, -0.105658080553182, 0.383208836779467, -1.20186373553752, 1.12470397094853, -1.15778058536832], a = 0.2, v = 0.2, t = 0.2)
movej(p[0.385823367323075, -0.106390768742651, 0.382446574755104, -1.20131896486783, 1.11430733903297, -1.17284786523176], a = 0.2, v = 0.2, t = 0.2)
movej(p[0.389485456477852, -0.10740881624714, 0.38127896215194, -1.20728479849744, 1.10090825749577, -1.19166337108862], a = 0.2, v = 0.2, t = 0.2)
movej(p[0.389584761406162, -0.107402208292451, 0.381287615252438, -1.20402677772035, 1.10556438336503, -1.1961852543497], a = 0.2, v = 0.2, t = 0.2)
movej(p[0.38951082270106, -0.107221665019948, 0.381998280296353, -1.20235862467586, 1.10499544147086, -1.19606280666742], a = 0.2, v = 0.2, t = 0.2)
movej(p[0.388313537882366, -0.106924787296843, 0.382337885567881, -1.20235862467586, 1.10499544147086, -1.19606280666742], a = 0.2, v = 0.2, t = 0.2)
movej(p[0.388313537882366, -0.106924787296843, 0.382337885567881, -1.20201724182731, 1.10621940270264, -1.19694978314791], a = 0.2, v = 0.2, t = 0.2)
movej(p[0.392844897931044, -0.10802263444855, 0.381198967725922, -1.20478268223208, 1.10959714296705, -1.20035396537795], a = 0.2, v = 0.2, t = 0.2)
movej(p[0.39349911943659, -0.108164319418305, 0.381110617677663, -1.20497479268649, 1.10960709836997, -1.20099019337689], a = 0.2, v = 0.2, t = 0.2)
movej(p[0.39349911943659, -0.108164319418305, 0.381110617677663, -1.2041224076287, 1.10973738969655, -1.20179125416293], a = 0.2, v = 0.2, t = 0.2)
movej(p[0.392952361288362, -0.107975014387695, 0.381602198660547, -1.20353395536819, 1.11031404217519, -1.20160754951271], a = 0.2, v = 0.2, t = 0.2)
movej(p[0.392952361288362, -0.107975014387695, 0.381602198660547, -1.20355620883352, 1.11107577424638, -1.20088672568246], a = 0.2, v = 0.2, t = 0.2)
movej(p[0.392971020836456, -0.108006592210921, 0.381412171945727, -1.20374208200911, 1.11163780655211, -1.20037733411099], a = 0.2, v = 0.2, t = 0.2)
movej(p[0.392951438182925, -0.108007895281065, 0.381410465578562, -1.20139736321093, 1.11317866402601, -1.19746259390088], a = 0.2, v = 0.2, t = 0.2)
movej(p[0.391611475769124, -0.107698870647569, 0.381667226801285, -1.19894278703261, 1.11428652952443, -1.19293948247206], a = 0.2, v = 0.2, t = 0.2)
movej(p[0.389652250244091, -0.107263496338196, 0.381805269413536, -1.20181600280171, 1.11856935191853, -1.18892260684577], a = 0.2, v = 0.2, t = 0.2)
movej(p[0.387681638027957, -0.106740417896085, 0.382195196261829, -1.20546153498987, 1.1194359970415, -1.17723194513363], a = 0.2, v = 0.2, t = 0.2)
movej(p[0.385824130953626, -0.106395807533132, 0.382278874613605, -1.20576493545804, 1.11694557485461, -1.17080260268392], a = 0.2, v = 0.2, t = 0.2)
movej(p[0.384495879741851, -0.105989550552107, 0.382809564583161, -1.20213654156487, 1.11548355533358, -1.16682783175305], a = 0.2, v = 0.2, t = 0.2)
movej(p[0.384450750174832, -0.10599255356655, 0.382805632143095, -1.20224313226317, 1.11489008305142, -1.16652981544469], a = 0.2, v = 0.2, t = 0.2)
movej(p[0.384453437082935, -0.106018016212336, 0.382794241173233, -1.20329850406485, 1.11400132822847, -1.16728196257283], a = 0.2, v = 0.2, t = 0.2)
movej(p[0.384602347744335, -0.106047880662091, 0.382795993189855, -1.20350460778221, 1.11399048966924, -1.16738235229138], a = 0.2, v = 0.2, t = 0.2)
movej(p[0.384751366443904, -0.106077737789842, 0.382797654244165, -1.20355083398704, 1.11422854023797, -1.1677117764483], a = 0.2, v = 0.2, t = 0.2)
movej(p[0.384900277105304, -0.106107602239596, 0.382799406260787, -1.203597046479, 1.11446666479395, -1.16804116953584], a = 0.2, v = 0.2, t = 0.2)
movej(p[0.385049187766704, -0.106137466689351, 0.38280115827741, -1.20364410211786, 1.11470353491811, -1.16836932089148], a = 0.2, v = 0.2, t = 0.2)
movej(p[0.385198197832437, -0.106167324524536, 0.382802918955795, -1.20369028724979, 1.11494180730472, -1.16869865192401], a = 0.2, v = 0.2, t = 0.2)
movej(p[0.393682526688254, -0.108193258522185, 0.381014787785127, -1.2051578379343, 1.11347239410062, -1.19340250935372], a = 0.2, v = 0.2, t = 0.2)
movej(p[0.393683706428699, -0.108202491938459, 0.381008299932139, -1.20498344636592, 1.11350720688471, -1.19337360757012], a = 0.2, v = 0.2, t = 0.2)
movej(p[0.393683907456204, -0.108202577320595, 0.381007212596941, -1.20492673872001, 1.11356420290123, -1.19336044901988], a = 0.2, v = 0.2, t = 0.2)
movej(p[0.393686690777518, -0.108202392112656, 0.381007455126284, -1.20504037059095, 1.11463241108541, -1.19227824556603], a = 0.2, v = 0.2, t = 0.2)
movej(p[0.393686184849401, -0.108197016100605, 0.381009155870582, -1.20518116240743, 1.11415985855183, -1.19134264420376], a = 0.2, v = 0.2, t = 0.2)
movej(p[0.393179415442563, -0.108082798672182, 0.381032196863113, -1.20490118925582, 1.11322211536766, -1.19124480079781], a = 0.2, v = 0.2, t = 0.2)
movej(p[0.392159541868937, -0.10784270751595, 0.381341805035679, -1.20473930003043, 1.11283900266939, -1.18960723754654], a = 0.2, v = 0.2, t = 0.2)
movej(p[0.390808485776819, -0.107511065848097, 0.381519270356501, -1.20377252038334, 1.11285164081835, -1.18513220060667], a = 0.2, v = 0.2, t = 0.2)
movej(p[0.389272827377786, -0.107131941030152, 0.381957212526082, -1.2027750440615, 1.11874511418572, -1.17809914902416], a = 0.2, v = 0.2, t = 0.2)
movej(p[0.388052352167846, -0.106817037016491, 0.382199376796986, -1.20243133607032, 1.11943414181435, -1.17504835496959], a = 0.2, v = 0.2, t = 0.2)
movej(p[0.386008264051198, -0.10629276675678, 0.382456067420421, -1.20982094023225, 1.1200438202805, -1.16370341870955], a = 0.2, v = 0.2, t = 0.2)
movej(p[0.384773053363472, -0.106069615105085, 0.382599137848086, -1.21146230835198, 1.11749918558555, -1.16140212694836], a = 0.2, v = 0.2, t = 0.2)
movej(p[0.384773053363472, -0.106069615105085, 0.382599137848086, -1.2115273683063, 1.1163034031857, -1.16273331985952], a = 0.2, v = 0.2, t = 0.2)
movej(p[0.386248081544287, -0.106470634070283, 0.382246827991069, -1.20921239187887, 1.11071510220751, -1.17257222399822], a = 0.2, v = 0.2, t = 0.2)
movej(p[0.388614167854796, -0.107007079204495, 0.381811480418199, -1.20636820122585, 1.10609836449082, -1.18351493599198], a = 0.2, v = 0.2, t = 0.2)
movej(p[0.390235344211322, -0.107398748928888, 0.381377246923368, -1.21174765587995, 1.10234140877427, -1.18980465533099], a = 0.2, v = 0.2, t = 0.2)
movej(p[0.391029270576791, -0.10759372489114, 0.380808074233969, -1.21656475634035, 1.10125497118246, -1.19153467307282], a = 0.2, v = 0.2, t = 0.2)
movej(p[0.392269541112365, -0.107863956778705, 0.38090149663776, -1.21656475634035, 1.10125497118246, -1.19153467307282], a = 0.2, v = 0.2, t = 0.2)
movej(p[0.392785360492535, -0.108001396039158, 0.380933178442123, -1.21428933156341, 1.10065722119971, -1.19322174574059], a = 0.2, v = 0.2, t = 0.2)
movej(p[0.393421125851464, -0.10815468545743, 0.380959283089822, -1.20519427608432, 1.10956545796227, -1.19066260465691], a = 0.2, v = 0.2, t = 0.2)
movej(p[0.393421424064462, -0.108154665613722, 0.380959309075109, -1.20519427608432, 1.10956545796227, -1.19066260465691], a = 0.2, v = 0.2, t = 0.2)
movej(p[0.393426891713453, -0.108151714112996, 0.380897770684994, -1.21015107033797, 1.10657406233133, -1.19185350558633], a = 0.2, v = 0.2, t = 0.2)
movej(p[0.39351029469431, -0.108135722973286, 0.380891260213812, -1.21019900076107, 1.10661904964567, -1.19182686655459], a = 0.2, v = 0.2, t = 0.2)
movej(p[0.393523810937779, -0.108145264907969, 0.380906215903197, -1.2042627162168, 1.11220966599229, -1.18925069469939], a = 0.2, v = 0.2, t = 0.2)
movej(p[0.393803384259788, -0.108224028941463, 0.380969735385631, -1.19967185656386, 1.1144551337884, -1.19041726479737], a = 0.2, v = 0.2, t = 0.2)
movej(p[0.393799162314111, -0.108224374877136, 0.381018451558543, -1.19902574441588, 1.1140256577493, -1.19059339136932], a = 0.2, v = 0.2, t = 0.2)
movej(p[0.393138062706361, -0.108057197779655, 0.381112007673849, -1.19844194498301, 1.11429509128461, -1.18953152819132], a = 0.2, v = 0.2, t = 0.2)
movej(p[0.391862260758552, -0.107777512127112, 0.381475702842541, -1.2030608085502, 1.11446793554752, -1.18550425812775], a = 0.2, v = 0.2, t = 0.2)
movej(p[0.390150252397183, -0.107354324914172, 0.381615610574294, -1.20663085223713, 1.11160262131231, -1.18136763424374], a = 0.2, v = 0.2, t = 0.2)
movej(p[0.388747766417677, -0.107020746599376, 0.381980052113075, -1.20668049240905, 1.11181703832457, -1.18075183347995], a = 0.2, v = 0.2, t = 0.2)
movej(p[0.387286235954771, -0.106666765697247, 0.381977861924628, -1.20970367421264, 1.11024886482136, -1.17098198518012], a = 0.2, v = 0.2, t = 0.2)
movej(p[0.385886409801972, -0.10630139357112, 0.382307125787491, -1.21323456549918, 1.11187343660479, -1.16884385328732], a = 0.2, v = 0.2, t = 0.2)
movej(p[0.385886409801972, -0.10630139357112, 0.382307125787491, -1.21323456549918, 1.11187343660479, -1.16884385328732], a = 0.2, v = 0.2, t = 0.2)
movej(p[0.386830639251187, -0.106578389605583, 0.382067187453485, -1.20752263107043, 1.10631268447806, -1.17565527847132], a = 0.2, v = 0.2, t = 0.2)
movej(p[0.388893953259555, -0.107058780865071, 0.381656789353241, -1.2097342300385, 1.10164897010319, -1.18543160839315], a = 0.2, v = 0.2, t = 0.2)
movej(p[0.390522944939399, -0.107404219505465, 0.381291516916941, -1.21162874888101, 1.10031858966624, -1.18764946590497], a = 0.2, v = 0.2, t = 0.2)
movej(p[0.391700106553366, -0.107682179252345, 0.380940966929469, -1.21558778360644, 1.10042611744865, -1.18847861583713], a = 0.2, v = 0.2, t = 0.2)
movej(p[0.392364965002741, -0.107841527842588, 0.380876801213685, -1.21558778360644, 1.10042611744865, -1.18847861583713], a = 0.2, v = 0.2, t = 0.2)
movej(p[0.39275875319897, -0.107941097272651, 0.380831124139486, -1.2137393012008, 1.10194755153092, -1.18848053924759], a = 0.2, v = 0.2, t = 0.2)
movej(p[0.393277412567095, -0.108075356873263, 0.380875119929057, -1.21157824370478, 1.10368200473191, -1.18890431605358], a = 0.2, v = 0.2, t = 0.2)
movej(p[0.393624716516747, -0.108180771156495, 0.380935587155278, -1.2047563849243, 1.11068603125397, -1.18784464650342], a = 0.2, v = 0.2, t = 0.2)
movej(p[0.393681503715334, -0.108180399935237, 0.380940511205587, -1.20429165329158, 1.11025118816566, -1.18810471976604], a = 0.2, v = 0.2, t = 0.2)
movej(p[0.393704084804532, -0.108180880092298, 0.380699049709982, -1.20990258725841, 1.10426696476635, -1.18904729726042], a = 0.2, v = 0.2, t = 0.2)
movej(p[0.393704084804532, -0.108180880092298, 0.380699049709982, -1.20902253832424, 1.10344412581606, -1.18953454617619], a = 0.2, v = 0.2, t = 0.2)
movej(p[0.393810107385499, -0.108228146675334, 0.380784891846798, -1.20369387261838, 1.10647884814711, -1.18974222996301], a = 0.2, v = 0.2, t = 0.2)
movej(p[0.393802241302595, -0.108235813844305, 0.380881019830547, -1.19830645551065, 1.11141644104372, -1.18911803913399], a = 0.2, v = 0.2, t = 0.2)
movej(p[0.393792766989024, -0.108236550356166, 0.380960294636965, -1.19647627633254, 1.11267423023922, -1.18699563848017], a = 0.2, v = 0.2, t = 0.2)
movej(p[0.393349840278176, -0.108176502157158, 0.381282589459468, -1.19281403216173, 1.11435073469858, -1.18337733018947], a = 0.2, v = 0.2, t = 0.2)
movej(p[0.392040286306412, -0.107838369273046, 0.381447536868422, -1.19454521155678, 1.11597935281231, -1.18237583481268], a = 0.2, v = 0.2, t = 0.2)
movej(p[0.390604340085212, -0.10750914151488, 0.381596649252459, -1.19392660027322, 1.11653939385867, -1.18142363491045], a = 0.2, v = 0.2, t = 0.2)
movej(p[0.38941601998476, -0.107198655537163, 0.381949976376387, -1.1961343203743, 1.11743886798308, -1.17976247217278], a = 0.2, v = 0.2, t = 0.2)
movej(p[0.387342526424513, -0.10666521956543, 0.38220578972568, -1.20503018114782, 1.11648849604238, -1.16997044170945], a = 0.2, v = 0.2, t = 0.2)
movej(p[0.385536095226738, -0.106210205793725, 0.382621105623838, -1.20528343538745, 1.11657647712024, -1.16541041826348], a = 0.2, v = 0.2, t = 0.2)
movej(p[0.383974574094575, -0.105818354947824, 0.382969769255977, -1.20249958676805, 1.11826904024501, -1.16147863613085], a = 0.2, v = 0.2, t = 0.2)
movej(p[0.383974574094575, -0.105818354947824, 0.382969769255977, -1.20195057567882, 1.11776728216792, -1.1617891602263], a = 0.2, v = 0.2, t = 0.2)
movej(p[0.386392490823747, -0.106486277432668, 0.382408292368624, -1.19968569867113, 1.11009752248811, -1.17293868327735], a = 0.2, v = 0.2, t = 0.2)
movej(p[0.388657766927225, -0.106996298316477, 0.381768158099045, -1.21184986854731, 1.10079319309865, -1.18805050170105], a = 0.2, v = 0.2, t = 0.2)
movej(p[0.39044314361686, -0.107342081535832, 0.381058490584415, -1.21786523105038, 1.09481735991558, -1.19005396493619], a = 0.2, v = 0.2, t = 0.2)
movej(p[0.391380326953326, -0.10756764349413, 0.381054093219465, -1.22221345304289, 1.09742122363547, -1.18868969473691], a = 0.2, v = 0.2, t = 0.2)
movej(p[0.392650693906784, -0.107963424463808, 0.380824110160082, -1.22222948175099, 1.09743619043659, -1.18868093086841], a = 0.2, v = 0.2, t = 0.2)
movej(p[0.393232755923395, -0.108143296386594, 0.380813753026726, -1.22181648926364, 1.09810270436575, -1.18927968667532], a = 0.2, v = 0.2, t = 0.2)
movej(p[0.393747558043155, -0.10839865705645, 0.380839791570878, -1.22201010975395, 1.09812682795219, -1.18937725343598], a = 0.2, v = 0.2, t = 0.2)
movej(p[0.393812820853571, -0.108396619418849, 0.38084546198617, -1.2222300615797, 1.09848981071474, -1.1893125087011], a = 0.2, v = 0.2, t = 0.2)
movej(p[0.393878482558354, -0.108427527966611, 0.380850933019002, -1.22114458001643, 1.09927286234178, -1.18808032142499], a = 0.2, v = 0.2, t = 0.2)
movej(p[0.393879061200821, -0.108457176296587, 0.380866933384702, -1.2160889179635, 1.10238642818739, -1.18737391713298], a = 0.2, v = 0.2, t = 0.2)
movej(p[0.393879307287074, -0.108460868100706, 0.380866928495895, -1.21525661052731, 1.10291853762921, -1.18731276289548], a = 0.2, v = 0.2, t = 0.2)
movej(p[0.393958021286306, -0.10848284045856, 0.380835852270013, -1.21498934766817, 1.10311115596434, -1.18701453958039], a = 0.2, v = 0.2, t = 0.2)
movej(p[0.393958021286306, -0.10848284045856, 0.380835852270013, -1.21433469897866, 1.10407758734368, -1.18753151648577], a = 0.2, v = 0.2, t = 0.2)
movej(p[0.393097502755501, -0.108343581739027, 0.3812270121442, -1.2144644262828, 1.1043355065927, -1.18731529558683], a = 0.2, v = 0.2, t = 0.2)
movej(p[0.391068085284035, -0.107600663760857, 0.381417366824264, -1.21520827111517, 1.10526292909541, -1.18546548111493], a = 0.2, v = 0.2, t = 0.2)
movej(p[0.39009347535839, -0.107346082957636, 0.381464298023531, -1.21427167850188, 1.10591710794984, -1.18436573942007], a = 0.2, v = 0.2, t = 0.2)
movej(p[0.388636476519706, -0.107015008343654, 0.381883621614628, -1.21087067780825, 1.10831787707641, -1.1804656502167], a = 0.2, v = 0.2, t = 0.2)
movej(p[0.386375516397148, -0.106373940754032, 0.382319889204231, -1.20341657972226, 1.11785441044571, -1.16698661767863], a = 0.2, v = 0.2, t = 0.2)
movej(p[0.383892661296257, -0.105698471048211, 0.382843871860908, -1.20094776438477, 1.12344127638772, -1.15475092677738], a = 0.2, v = 0.2, t = 0.2)
movej(p[0.382378013410928, -0.105383869281813, 0.383340492170651, -1.19565709523092, 1.1270261798477, -1.14851014776657], a = 0.2, v = 0.2, t = 0.2)
movej(p[0.382378013410928, -0.105383869281813, 0.383340492170651, -1.19193906239153, 1.12606685485938, -1.15145244931104], a = 0.2, v = 0.2, t = 0.2)
movej(p[0.385022647920401, -0.106109231384375, 0.382772458728439, -1.19506048166659, 1.11647033506074, -1.16892499446423], a = 0.2, v = 0.2, t = 0.2)
movej(p[0.386691589028337, -0.106471863847548, 0.382265481120556, -1.19803444227944, 1.11166731605777, -1.1756309162173], a = 0.2, v = 0.2, t = 0.2)
movej(p[0.388664947289174, -0.106897068215135, 0.381667702390447, -1.20480632338926, 1.10691576598141, -1.18334520603555], a = 0.2, v = 0.2, t = 0.2)
movej(p[0.390416335158814, -0.107285497959851, 0.381178627903789, -1.21695474337212, 1.09574125414856, -1.18811581434344], a = 0.2, v = 0.2, t = 0.2)
movej(p[0.391570574226094, -0.10760599616702, 0.38099432284481, -1.22179353574982, 1.10024997871011, -1.18546613906183], a = 0.2, v = 0.2, t = 0.2)
movej(p[0.392915772926759, -0.108017467673813, 0.38078918302706, -1.22146335749026, 1.10112026896591, -1.18444229183402], a = 0.2, v = 0.2, t = 0.2)
movej(p[0.393083580289438, -0.108090769834729, 0.380789654446218, -1.22147270991282, 1.10112897759828, -1.18443715022369], a = 0.2, v = 0.2, t = 0.2)
movej(p[0.39331385055642, -0.108133389834166, 0.380744865722282, -1.22685132687717, 1.09838153675385, -1.1860515851353], a = 0.2, v = 0.2, t = 0.2)
movej(p[0.393588775652101, -0.108247350199134, 0.380739676600867, -1.22705444548111, 1.0985709181903, -1.18594049743304], a = 0.2, v = 0.2, t = 0.2)
movej(p[0.393660202087449, -0.108274868518048, 0.380745671303331, -1.22518981370843, 1.1000150362035, -1.18409488918966], a = 0.2, v = 0.2, t = 0.2)
movej(p[0.393659585148296, -0.10835899012326, 0.38081699104059, -1.22265440580517, 1.10272362550563, -1.18377346582453], a = 0.2, v = 0.2, t = 0.2)
movej(p[0.393648505455882, -0.108359807673534, 0.38087665293821, -1.22279064805118, 1.10285051664657, -1.18369840945089], a = 0.2, v = 0.2, t = 0.2)
movej(p[0.393082610455773, -0.108294007188297, 0.381109535451495, -1.22348117651772, 1.10224502833436, -1.18416663143344], a = 0.2, v = 0.2, t = 0.2)
movej(p[0.391289368325873, -0.107640225711105, 0.381259799830615, -1.22325276516897, 1.10203222672495, -1.18429232692628], a = 0.2, v = 0.2, t = 0.2)
movej(p[0.390177960028887, -0.107430953749225, 0.381617066178544, -1.2127088792525, 1.10683956122376, -1.17833748430306], a = 0.2, v = 0.2, t = 0.2)
movej(p[0.388563836892128, -0.106998514655769, 0.381968084226269, -1.20992648172785, 1.10877700827894, -1.17506473249631], a = 0.2, v = 0.2, t = 0.2)
movej(p[0.386350776136101, -0.106397812573888, 0.382451177839307, -1.20379458247449, 1.1163149353899, -1.16369491219114], a = 0.2, v = 0.2, t = 0.2)
movej(p[0.384443387378727, -0.105862685013463, 0.38282789889303, -1.20058539620598, 1.12119438208126, -1.15698501871468], a = 0.2, v = 0.2, t = 0.2)
movej(p[0.383415864859747, -0.105642203318807, 0.383105186442897, -1.19287003427507, 1.12745292377051, -1.15104227530224], a = 0.2, v = 0.2, t = 0.2)
movej(p[0.383415864859747, -0.105642203318807, 0.383105186442897, -1.19161144269559, 1.12653950049168, -1.1518413025665], a = 0.2, v = 0.2, t = 0.2)
movej(p[0.385983399662519, -0.106353134346896, 0.382592406139203, -1.19459592986024, 1.11601795905308, -1.16661099748023], a = 0.2, v = 0.2, t = 0.2)
movej(p[0.387650975545029, -0.106675877161652, 0.382091415359253, -1.19716004634061, 1.11174316533564, -1.17347410395954], a = 0.2, v = 0.2, t = 0.2)
movej(p[0.38951656440537, -0.107088466115765, 0.381603233242502, -1.20766135957102, 1.10445918713741, -1.18574196173071], a = 0.2, v = 0.2, t = 0.2)
movej(p[0.390950534605624, -0.107337564369655, 0.381163926203301, -1.21914540298429, 1.09624537911024, -1.18502454879536], a = 0.2, v = 0.2, t = 0.2)
movej(p[0.392320557511949, -0.107828301764438, 0.381065771093873, -1.22356487630693, 1.09841612034966, -1.1819209715185], a = 0.2, v = 0.2, t = 0.2)
movej(p[0.393038207603159, -0.108107536065791, 0.381025304298405, -1.22251615505308, 1.09931554242159, -1.18004994258496], a = 0.2, v = 0.2, t = 0.2)
movej(p[0.393245711720926, -0.108150853119739, 0.380966391957194, -1.22014520365856, 1.10099082679247, -1.17724510842372], a = 0.2, v = 0.2, t = 0.2)
movej(p[0.393405840816329, -0.1081422612342, 0.380873528927369, -1.22014520365856, 1.10099082679247, -1.17724510842372], a = 0.2, v = 0.2, t = 0.2)
movej(p[0.393518762704858, -0.108213007996437, 0.380873879247384, -1.22551273707849, 1.09681596784248, -1.1798301189206], a = 0.2, v = 0.2, t = 0.2)
movej(p[0.393760392969212, -0.108271104834573, 0.380903340964009, -1.22551273707849, 1.09681596784248, -1.1798301189206], a = 0.2, v = 0.2, t = 0.2)
movej(p[0.393755886106955, -0.108271474115597, 0.380955344731412, -1.21999879369282, 1.09996186172066, -1.17817280254794], a = 0.2, v = 0.2, t = 0.2)
movej(p[0.393309922729629, -0.108197381697394, 0.380963495783383, -1.21960905624391, 1.10024487442397, -1.178171498122], a = 0.2, v = 0.2, t = 0.2)
movej(p[0.391864287875164, -0.107755283539365, 0.381214954897803, -1.21913096589708, 1.10055242273071, -1.17782411520518], a = 0.2, v = 0.2, t = 0.2)
movej(p[0.39055550653803, -0.107449164668538, 0.381527095873156, -1.21635089034518, 1.1005150562166, -1.18024885773881], a = 0.2, v = 0.2, t = 0.2)
movej(p[0.389130939999257, -0.106935912317017, 0.381706406135731, -1.21205278847521, 1.10313898641537, -1.1756089600138], a = 0.2, v = 0.2, t = 0.2)
movej(p[0.388871309404817, -0.106948803141007, 0.381853451642592, -1.21065700923762, 1.10412491417485, -1.17398728083456], a = 0.2, v = 0.2, t = 0.2)
movej(p[0.387293787858815, -0.106535277182992, 0.382208711961155, -1.20376478957281, 1.11394162588039, -1.16640100857609], a = 0.2, v = 0.2, t = 0.2)
movej(p[0.384561330207094, -0.105842687775418, 0.382821398915535, -1.19470202965101, 1.12129293870612, -1.15492425998813], a = 0.2, v = 0.2, t = 0.2)
movej(p[0.384561330207094, -0.105842687775418, 0.382821398915535, -1.1939207204854, 1.12194529761565, -1.15437636168712], a = 0.2, v = 0.2, t = 0.2)
movej(p[0.38538523041803, -0.106123334608207, 0.382687143011889, -1.18561197163301, 1.11951897748729, -1.1608644050502], a = 0.2, v = 0.2, t = 0.2)
movej(p[0.387779132001125, -0.106672594889865, 0.382128241836858, -1.19017872798689, 1.11325019582576, -1.16959948461323], a = 0.2, v = 0.2, t = 0.2)
movej(p[0.389365091103879, -0.107048584603461, 0.381779098542979, -1.20976097691812, 1.09633117184104, -1.18266525792642], a = 0.2, v = 0.2, t = 0.2)
movej(p[0.390690389736712, -0.107224464888961, 0.381352273872906, -1.21273862719664, 1.09642111685665, -1.18007952367341], a = 0.2, v = 0.2, t = 0.2)
movej(p[0.392083647443503, -0.1078351751584, 0.381293825354794, -1.21321270976433, 1.09827968412974, -1.1740622345702], a = 0.2, v = 0.2, t = 0.2)
movej(p[0.392966144646326, -0.108027411482102, 0.38107072005934, -1.21506138789888, 1.09741955695975, -1.17213462841099], a = 0.2, v = 0.2, t = 0.2)
movej(p[0.39344687229603, -0.108176750413858, 0.380980830903865, -1.22241102731809, 1.09233346711586, -1.17415641220486], a = 0.2, v = 0.2, t = 0.2)
movej(p[0.39351209557971, -0.108172367255452, 0.380953992290108, -1.22241102731809, 1.09233346711586, -1.17415641220486], a = 0.2, v = 0.2, t = 0.2)
movej(p[0.393514933962771, -0.108065896738385, 0.38084357547718, -1.21769423899348, 1.09387462655054, -1.17463411878362], a = 0.2, v = 0.2, t = 0.2)
movej(p[0.39351522331149, -0.108065874560248, 0.380841392409282, -1.21751322445858, 1.0940036793937, -1.17441995584407], a = 0.2, v = 0.2, t = 0.2)
movej(p[0.393594554651441, -0.108116118156343, 0.380847910810392, -1.21895670488767, 1.09327787107863, -1.17289520331541], a = 0.2, v = 0.2, t = 0.2)
movej(p[0.393785175650143, -0.108142427408885, 0.380794280985813, -1.22549257461723, 1.08923049205548, -1.17539313569791], a = 0.2, v = 0.2, t = 0.2)
movej(p[0.393785454991295, -0.108146618105453, 0.380794275436357, -1.2255342312512, 1.08926876020718, -1.17537065136561], a = 0.2, v = 0.2, t = 0.2)
movej(p[0.393609715628374, -0.10815852630185, 0.380940668473003, -1.22488627899818, 1.09046848683754, -1.17624032725002], a = 0.2, v = 0.2, t = 0.2)
movej(p[0.392838042177402, -0.108140950078963, 0.381197131904033, -1.22488627899818, 1.09046848683754, -1.17624032725002], a = 0.2, v = 0.2, t = 0.2)
movej(p[0.39144538868001, -0.107714065510671, 0.381451368155489, -1.23120038704366, 1.08591690866858, -1.18374276467137], a = 0.2, v = 0.2, t = 0.2)
movej(p[0.391001286113275, -0.107649044090591, 0.381591712642914, -1.23124978073073, 1.08604931729995, -1.1837477950118], a = 0.2, v = 0.2, t = 0.2)
movej(p[0.389754115311043, -0.107275562377168, 0.38181611970563, -1.22954625357361, 1.09053035116696, -1.18000464562521], a = 0.2, v = 0.2, t = 0.2)
movej(p[0.387633281002901, -0.106649346795858, 0.382206106478655, -1.22662568043386, 1.09649137477611, -1.17312579095826], a = 0.2, v = 0.2, t = 0.2)
movej(p[0.384626428890261, -0.105867358807094, 0.382856276008962, -1.21613969174322, 1.1105576264827, -1.15620951430658], a = 0.2, v = 0.2, t = 0.2)
movej(p[0.384620502867258, -0.10577845617276, 0.382856393736711, -1.21347838698847, 1.11272645247839, -1.1539983041452], a = 0.2, v = 0.2, t = 0.2)
movej(p[0.384649502216545, -0.105776401416963, 0.382764466451754, -1.20443049217306, 1.10960382080539, -1.16082841125406], a = 0.2, v = 0.2, t = 0.2)
movej(p[0.386698405612582, -0.106274483452355, 0.382273194989393, -1.20638752634333, 1.10315399339333, -1.17136906896785], a = 0.2, v = 0.2, t = 0.2)
movej(p[0.388542786691098, -0.106738416833951, 0.381875960493593, -1.21167545725688, 1.09255274373065, -1.18448705234924], a = 0.2, v = 0.2, t = 0.2)
movej(p[0.390226161903598, -0.107111254168506, 0.381476661700829, -1.21256239697125, 1.09192115094689, -1.18552762828954], a = 0.2, v = 0.2, t = 0.2)
movej(p[0.391029421442108, -0.107153525358789, 0.381175582939931, -1.21465764029455, 1.09141486301183, -1.1835023011189], a = 0.2, v = 0.2, t = 0.2)
movej(p[0.392714872852904, -0.107957895792781, 0.381166276664391, -1.21126705804693, 1.09508086394937, -1.17809482295895], a = 0.2, v = 0.2, t = 0.2)
movej(p[0.39301994710647, -0.108015954562017, 0.380954810593529, -1.21362996656709, 1.09241292450019, -1.17281013788341], a = 0.2, v = 0.2, t = 0.2)
movej(p[0.393244766653995, -0.107948279389888, 0.380899893454784, -1.2133854838303, 1.09258743663552, -1.17252132896045], a = 0.2, v = 0.2, t = 0.2)
movej(p[0.393356988622576, -0.10799335937742, 0.380857504252243, -1.20843784060362, 1.09538630143944, -1.1702290790797], a = 0.2, v = 0.2, t = 0.2)
movej(p[0.393524225125139, -0.108131303693636, 0.380828458119386, -1.20822013231524, 1.09518735478467, -1.17034812656374], a = 0.2, v = 0.2, t = 0.2)
movej(p[0.393710219716023, -0.108200601943855, 0.380839969621393, -1.2092721181305, 1.09421670965706, -1.1709176253503], a = 0.2, v = 0.2, t = 0.2)
movej(p[0.393789943657623, -0.108195261724151, 0.380820316754191, -1.21057023047372, 1.093369266964, -1.16947234154345], a = 0.2, v = 0.2, t = 0.2)
movej(p[0.393789791549058, -0.108043992539853, 0.38071116341826, -1.21039258771028, 1.0934958449433, -1.16926256188974], a = 0.2, v = 0.2, t = 0.2)
movej(p[0.393789607509371, -0.108036282713618, 0.380707387877395, -1.20334094633272, 1.09663197890911, -1.1708142966923], a = 0.2, v = 0.2, t = 0.2)
movej(p[0.393789607509371, -0.108036282713618, 0.380707387877395, -1.20332580095002, 1.09665584056964, -1.17083623104203], a = 0.2, v = 0.2, t = 0.2)
movej(p[0.393789607509371, -0.108036282713618, 0.380707387877395, -1.20332580095002, 1.09665584056964, -1.17083623104203], a = 0.2, v = 0.2, t = 0.2)
movej(p[0.393886687094984, -0.10810498491073, 0.380712502774178, -1.2080764316852, 1.09422813155194, -1.16941066774847], a = 0.2, v = 0.2, t = 0.2)
movej(p[0.393885046666193, -0.108105119323364, 0.38073143134852, -1.21009101010274, 1.09366388980327, -1.16843650996747], a = 0.2, v = 0.2, t = 0.2)
movej(p[0.393354412299552, -0.107900340908688, 0.380794101515437, -1.2106736223721, 1.09338206288755, -1.16898304708772], a = 0.2, v = 0.2, t = 0.2)
movej(p[0.391716727339774, -0.107400267955357, 0.381106418251886, -1.21066150205597, 1.09535785610062, -1.17486190070077], a = 0.2, v = 0.2, t = 0.2)
movej(p[0.390824395117027, -0.107310168936646, 0.381372613839894, -1.20426617049648, 1.09854856333792, -1.18163385047676], a = 0.2, v = 0.2, t = 0.2)
movej(p[0.38973773317531, -0.107034259998463, 0.381621279905639, -1.20284012952827, 1.10026966200906, -1.18211008381244], a = 0.2, v = 0.2, t = 0.2)
movej(p[0.387963047531025, -0.106491329164333, 0.381952643019638, -1.20537116162635, 1.10366185475073, -1.1795994799932], a = 0.2, v = 0.2, t = 0.2)
movej(p[0.386159926805473, -0.105978793116578, 0.382311439199717, -1.19864297849418, 1.11172904994283, -1.16644068378679], a = 0.2, v = 0.2, t = 0.2)
movej(p[0.386159382873822, -0.105978837684977, 0.382317715516472, -1.19876535397303, 1.11153984177751, -1.1662670650875], a = 0.2, v = 0.2, t = 0.2)
movej(p[0.386275744948204, -0.106051371781376, 0.382327284868859, -1.19946331410332, 1.1107431392886, -1.16742469764659], a = 0.2, v = 0.2, t = 0.2)
movej(p[0.388502116055687, -0.106601214143893, 0.381873108957845, -1.19513894835114, 1.10480533367902, -1.1771835156071], a = 0.2, v = 0.2, t = 0.2)
movej(p[0.39053938074991, -0.107053896647568, 0.381402230463391, -1.20685604626488, 1.09659605243971, -1.19083656221929], a = 0.2, v = 0.2, t = 0.2)
movej(p[0.391196485483434, -0.107112057010855, 0.381201999643277, -1.21585089995994, 1.09101101229187, -1.18090444137173], a = 0.2, v = 0.2, t = 0.2)
movej(p[0.392441303808249, -0.107791141410659, 0.381181393669683, -1.2089102324646, 1.09595226616842, -1.17272813175794], a = 0.2, v = 0.2, t = 0.2)
movej(p[0.392756396864907, -0.107868332751008, 0.381012718115377, -1.20071290911392, 1.09945399971567, -1.17205156796198], a = 0.2, v = 0.2, t = 0.2)
movej(p[0.393193226314289, -0.107848985328528, 0.380898340148109, -1.20058469964154, 1.09936173056655, -1.17213126934151], a = 0.2, v = 0.2, t = 0.2)
movej(p[0.393512512573766, -0.10795050789896, 0.380847898972445, -1.20090978745663, 1.09848281261721, -1.17320315199214], a = 0.2, v = 0.2, t = 0.2)
movej(p[0.393670883326614, -0.108131476209775, 0.380848394071294, -1.20093697619662, 1.0984461213658, -1.17318205747537], a = 0.2, v = 0.2, t = 0.2)
movej(p[0.393737019676808, -0.108235931249095, 0.380865328885838, -1.21269554165468, 1.09233625601834, -1.17693911101498], a = 0.2, v = 0.2, t = 0.2)
movej(p[0.39373702662764, -0.108267030950415, 0.380888998455532, -1.21303012152821, 1.09180111219648, -1.17645134661572], a = 0.2, v = 0.2, t = 0.2)
movej(p[0.393737585309943, -0.108275412343551, 0.38088898735662, -1.21252821438217, 1.09170586023832, -1.17556064773055], a = 0.2, v = 0.2, t = 0.2)
movej(p[0.393800639582335, -0.108277498209041, 0.380870045395309, -1.21075806158575, 1.0924830503916, -1.17383827950654], a = 0.2, v = 0.2, t = 0.2)
movej(p[0.393972392373226, -0.108301887552487, 0.380838683814555, -1.20994132023705, 1.09301389027431, -1.17282855304019], a = 0.2, v = 0.2, t = 0.2)
movej(p[0.393972660395274, -0.108305778206151, 0.380838579037413, -1.20994132023705, 1.09301389027431, -1.17282855304019], a = 0.2, v = 0.2, t = 0.2)
movej(p[0.393972660395274, -0.108305778206151, 0.380838579037413, -1.21057016537576, 1.09263082252208, -1.1735783659935], a = 0.2, v = 0.2, t = 0.2)
movej(p[0.393972746858012, -0.108307075326517, 0.380838577319724, -1.21091036983551, 1.09239701038779, -1.17397008964066], a = 0.2, v = 0.2, t = 0.2)
movej(p[0.394005286109212, -0.108314412755121, 0.380827493129504, -1.21110131836744, 1.09223423081151, -1.17408020810562], a = 0.2, v = 0.2, t = 0.2)
movej(p[0.394005286109212, -0.108314412755121, 0.380827493129504, -1.2111925698961, 1.0921470192985, -1.17411279682263], a = 0.2, v = 0.2, t = 0.2)
movej(p[0.393973255222636, -0.108310143699476, 0.380835086381055, -1.21119391337766, 1.09214825063276, -1.17411206598666], a = 0.2, v = 0.2, t = 0.2)
movej(p[0.393833810290271, -0.108237585113714, 0.380856039005464, -1.2111987791957, 1.09215061217732, -1.17410865635141], a = 0.2, v = 0.2, t = 0.2)
movej(p[0.393133845834967, -0.107893214330495, 0.380960132737151, -1.21411172283153, 1.09184224791711, -1.1756407366401], a = 0.2, v = 0.2, t = 0.2)
movej(p[0.391971077643039, -0.107374428338444, 0.381132459131801, -1.21440361917702, 1.09163372401551, -1.17598520677687], a = 0.2, v = 0.2, t = 0.2)
movej(p[0.391284713048428, -0.107303685458512, 0.381332150689465, -1.20673008136759, 1.0976726991835, -1.18490899446301], a = 0.2, v = 0.2, t = 0.2)
movej(p[0.38978801656584, -0.106946667737495, 0.381656172117597, -1.20111308288971, 1.10161999027406, -1.17834422790754], a = 0.2, v = 0.2, t = 0.2)
movej(p[0.388338634701634, -0.10649856081357, 0.381949507653191, -1.20698340617802, 1.10663249088891, -1.17310766031122], a = 0.2, v = 0.2, t = 0.2)
movej(p[0.387351742571495, -0.106198605490897, 0.382154694343476, -1.2070945411303, 1.10645811533649, -1.17294880387224], a = 0.2, v = 0.2, t = 0.2)
movej(p[0.387351742571495, -0.106198605490897, 0.382154694343476, -1.20678094261964, 1.10635778656551, -1.17331468473314], a = 0.2, v = 0.2, t = 0.2)
movej(p[0.389308336777667, -0.106791290875744, 0.381780222879994, -1.20841096231693, 1.098147494336, -1.18360320427184], a = 0.2, v = 0.2, t = 0.2)
movej(p[0.390756251275303, -0.107157923606956, 0.381493461746052, -1.21590951964424, 1.09252453459326, -1.19271166031116], a = 0.2, v = 0.2, t = 0.2)
movej(p[0.391188422791465, -0.107128941651369, 0.381361684369889, -1.2193985242939, 1.08937192433508, -1.19487419495968], a = 0.2, v = 0.2, t = 0.2)
movej(p[0.391494389618854, -0.107141565612213, 0.381244972990194, -1.22189682767886, 1.08882352136284, -1.19247908320575], a = 0.2, v = 0.2, t = 0.2)
movej(p[0.392524478524761, -0.107655226503758, 0.381119403310632, -1.21183731273111, 1.09599405937544, -1.18065141254148], a = 0.2, v = 0.2, t = 0.2)
movej(p[0.393159016350842, -0.107844377050794, 0.380994179399866, -1.20790199982104, 1.09800378453208, -1.17891372611173], a = 0.2, v = 0.2, t = 0.2)
movej(p[0.393564499707279, -0.107930869646722, 0.380895505348048, -1.20324933379081, 1.0993795821429, -1.17915176155285], a = 0.2, v = 0.2, t = 0.2)
movej(p[0.393586949123087, -0.107931675849653, 0.380893630843651, -1.20324933379081, 1.0993795821429, -1.17915176155285], a = 0.2, v = 0.2, t = 0.2)
movej(p[0.393696915308789, -0.10807797795075, 0.38088746697988, -1.20729371900436, 1.09643665146817, -1.17941300941178], a = 0.2, v = 0.2, t = 0.2)
movej(p[0.393697826985011, -0.108077913962893, 0.380885037010328, -1.20930683421763, 1.09475466334906, -1.17757399711152], a = 0.2, v = 0.2, t = 0.2)
movej(p[0.393862457750093, -0.108076283636636, 0.380826642976173, -1.21043548954059, 1.0938168828985, -1.17624358121156], a = 0.2, v = 0.2, t = 0.2)
movej(p[0.393968389380892, -0.108151115333211, 0.380835292067682, -1.20982274620932, 1.09425250932148, -1.17552245276322], a = 0.2, v = 0.2, t = 0.2)
movej(p[0.393971041965779, -0.108173978503035, 0.380826927902511, -1.20422436531919, 1.0983869144809, -1.18081277870974], a = 0.2, v = 0.2, t = 0.2)
movej(p[0.393971919174384, -0.108184142679847, 0.380826931748785, -1.20093630783571, 1.10025900652248, -1.17743359790227], a = 0.2, v = 0.2, t = 0.2)
movej(p[0.393971919174384, -0.108184142679847, 0.380826931748785, -1.20140250875803, 1.09952576684446, -1.1767601263601], a = 0.2, v = 0.2, t = 0.2)
movej(p[0.393872392531664, -0.108190805530218, 0.380848573001378, -1.2043964992294, 1.09722569202566, -1.17578495331903], a = 0.2, v = 0.2, t = 0.2)
movej(p[0.393706848056422, -0.108145454432383, 0.380878112037283, -1.20804379951373, 1.09623330526837, -1.17838585881722], a = 0.2, v = 0.2, t = 0.2)
movej(p[0.392664370652701, -0.107602034658048, 0.38106655901018, -1.20961974632832, 1.09534363937568, -1.18079498789565], a = 0.2, v = 0.2, t = 0.2)
movej(p[0.391399088552979, -0.107245597955114, 0.381368673913689, -1.20804619861698, 1.10148738075121, -1.18437529125207], a = 0.2, v = 0.2, t = 0.2)
movej(p[0.389943632747684, -0.106800731965408, 0.381684546831231, -1.20725568812791, 1.10537471956826, -1.18260981444944], a = 0.2, v = 0.2, t = 0.2)
movej(p[0.388197255587226, -0.106358805244618, 0.382063719241728, -1.205971810705, 1.11094506268208, -1.17659005518143], a = 0.2, v = 0.2, t = 0.2)
movej(p[0.387202272448124, -0.106158042922182, 0.382295505636485, -1.19536341559677, 1.12045296747899, -1.17086175486792], a = 0.2, v = 0.2, t = 0.2)
movej(p[0.387200545450533, -0.1061581813673, 0.382313121774321, -1.19535807658239, 1.12044804287448, -1.17086479077451], a = 0.2, v = 0.2, t = 0.2)
movej(p[0.387204755520747, -0.106221341151288, 0.382313038136088, -1.20458508315733, 1.11152587794735, -1.17437175808632], a = 0.2, v = 0.2, t = 0.2)
movej(p[0.389756181126085, -0.106766472465433, 0.381797328905256, -1.20654768138204, 1.10235505894478, -1.18488039698653], a = 0.2, v = 0.2, t = 0.2)
movej(p[0.391128356304821, -0.107179271437471, 0.381530677564465, -1.21581252586123, 1.09497947508673, -1.19660094443557], a = 0.2, v = 0.2, t = 0.2)
movej(p[0.392314620394458, -0.107515153658994, 0.381331171517182, -1.21681616940907, 1.09335751925895, -1.19513522750331], a = 0.2, v = 0.2, t = 0.2)
movej(p[0.392956250897551, -0.107784918392604, 0.381211510596241, -1.21237988702977, 1.09647486023509, -1.18096988288381], a = 0.2, v = 0.2, t = 0.2)
movej(p[0.393284176082499, -0.107946686071693, 0.381150649926849, -1.21240457984446, 1.09638669354594, -1.18077224572199], a = 0.2, v = 0.2, t = 0.2)
movej(p[0.393596663125929, -0.107988214086095, 0.381089706660541, -1.21239994821362, 1.09638997407973, -1.1807668009767], a = 0.2, v = 0.2, t = 0.2)
movej(p[0.393697876508092, -0.108082339272801, 0.381050632493901, -1.210882922318, 1.0965334292386, -1.1801094068171], a = 0.2, v = 0.2, t = 0.2)
movej(p[0.393966371541, -0.108079003915158, 0.380997337159272, -1.1986422928609, 1.10395511507925, -1.18104426573556], a = 0.2, v = 0.2, t = 0.2)
movej(p[0.393967312629096, -0.108078926804752, 0.380986478135045, -1.1986422928609, 1.10395511507925, -1.18104426573556], a = 0.2, v = 0.2, t = 0.2)
movej(p[0.394122115101498, -0.108068564253387, 0.380953392457368, -1.20204855702705, 1.10162902658158, -1.18037665256908], a = 0.2, v = 0.2, t = 0.2)
movej(p[0.394132457375089, -0.108223719804891, 0.38095318699536, -1.20777589980609, 1.09789852299294, -1.1820834964557], a = 0.2, v = 0.2, t = 0.2)
movej(p[0.394226132689045, -0.108217453757615, 0.380936656955832, -1.20777589980609, 1.09789852299294, -1.1820834964557], a = 0.2, v = 0.2, t = 0.2)
movej(p[0.394220678885608, -0.108135635396051, 0.380936765302357, -1.20460657116108, 1.09999129292282, -1.18078237243113], a = 0.2, v = 0.2, t = 0.2)
movej(p[0.393615961467365, -0.108016647737567, 0.381055041382786, -1.20442064799355, 1.10025152679178, -1.18103907576799], a = 0.2, v = 0.2, t = 0.2)
movej(p[0.392428181678852, -0.107515851336674, 0.381292626375691, -1.20690392561708, 1.09977562305893, -1.18770081724385], a = 0.2, v = 0.2, t = 0.2)
movej(p[0.391077287549973, -0.107134394476497, 0.381550259460494, -1.20619638180318, 1.10189115439435, -1.18907619385203], a = 0.2, v = 0.2, t = 0.2)
movej(p[0.389226054114496, -0.10666242857905, 0.381894158659415, -1.20028980233529, 1.11356474495571, -1.17812309410946], a = 0.2, v = 0.2, t = 0.2)
movej(p[0.387456327018447, -0.106136510156783, 0.382228942393532, -1.19717828807537, 1.12043996479018, -1.17128106124205], a = 0.2, v = 0.2, t = 0.2)
movej(p[0.386546759058514, -0.105957050046771, 0.382412270528791, -1.1975922267521, 1.121748659996, -1.17057841328612], a = 0.2, v = 0.2, t = 0.2)
movej(p[0.386170476929872, -0.105817661102768, 0.382482934677793, -1.1975922267521, 1.121748659996, -1.17057841328612], a = 0.2, v = 0.2, t = 0.2)
movej(p[0.385676441096376, -0.105840923884049, 0.382598751249274, -1.19992401064156, 1.12056990460312, -1.16787348599952], a = 0.2, v = 0.2, t = 0.2)
movej(p[0.385676441096376, -0.105840923884049, 0.382598751249274, -1.19989052324529, 1.12042658325989, -1.16733453315037], a = 0.2, v = 0.2, t = 0.2)
movej(p[0.385954465802128, -0.105828352803938, 0.382559496810841, -1.19598450758798, 1.11683382233268, -1.16954836935123], a = 0.2, v = 0.2, t = 0.2)
movej(p[0.387334292304389, -0.106207384269487, 0.382305090989796, -1.19592062698246, 1.11392470220569, -1.17583273715132], a = 0.2, v = 0.2, t = 0.2)
movej(p[0.388513567218259, -0.106633922144771, 0.382098011709172, -1.20764431010074, 1.10582114834572, -1.18950173217826], a = 0.2, v = 0.2, t = 0.2)
movej(p[0.388951443477909, -0.106657431978864, 0.382007811825933, -1.21376564236421, 1.10113928965808, -1.19546631159861], a = 0.2, v = 0.2, t = 0.2)
movej(p[0.39032194735879, -0.107108329267146, 0.381743254539303, -1.21354684840208, 1.09892737901576, -1.19572302971884], a = 0.2, v = 0.2, t = 0.2)
movej(p[0.391068048950934, -0.107286703642814, 0.381593647432834, -1.21416307275148, 1.09793759503229, -1.19482816916003], a = 0.2, v = 0.2, t = 0.2)
movej(p[0.392189360581415, -0.107517725197716, 0.381357537715715, -1.21381918883541, 1.09775020127571, -1.19089138098988], a = 0.2, v = 0.2, t = 0.2)
movej(p[0.392614700614831, -0.107799017140145, 0.381250167286369, -1.20999132790072, 1.10173851711741, -1.18391903401871], a = 0.2, v = 0.2, t = 0.2)
movej(p[0.392616980739308, -0.10781609665921, 0.381245124364511, -1.21145740922244, 1.10033771835753, -1.18213249947329], a = 0.2, v = 0.2, t = 0.2)
movej(p[0.392623118613104, -0.107883430756809, 0.381239958533914, -1.21070152545465, 1.10015302878488, -1.18141170855821], a = 0.2, v = 0.2, t = 0.2)
movej(p[0.392623161782283, -0.107883427219635, 0.381239460413537, -1.21070152545465, 1.10015302878488, -1.18141170855821], a = 0.2, v = 0.2, t = 0.2)
movej(p[0.392618899784674, -0.107818967485541, 0.381239147273156, -1.2070553643803, 1.10227468755863, -1.18052265333503], a = 0.2, v = 0.2, t = 0.2)
movej(p[0.392827284702737, -0.107805028681103, 0.381202600102888, -1.20135214985859, 1.10704470720345, -1.18553112600018], a = 0.2, v = 0.2, t = 0.2)
movej(p[0.392821059385643, -0.107711636014732, 0.381202723776483, -1.20135214985859, 1.10704470720345, -1.18553112600018], a = 0.2, v = 0.2, t = 0.2)
movej(p[0.391746219947318, -0.107436212551663, 0.381429223815804, -1.20273009068143, 1.1075439493773, -1.1844886134615], a = 0.2, v = 0.2, t = 0.2)
movej(p[0.389226848800473, -0.106760047901558, 0.381936495833946, -1.2002525019167, 1.11248821682857, -1.1781551702742], a = 0.2, v = 0.2, t = 0.2)
movej(p[0.386930620654998, -0.106040093032918, 0.382404395428998, -1.19912587948569, 1.11924807920115, -1.1710494780683], a = 0.2, v = 0.2, t = 0.2)
movej(p[0.384498508542595, -0.105588987443956, 0.38288450699969, -1.19149379795456, 1.12796554328117, -1.16298210804103], a = 0.2, v = 0.2, t = 0.2)
movej(p[0.382413425693311, -0.105148150795684, 0.383309400281778, -1.19400340420233, 1.13026811925276, -1.16153704609853], a = 0.2, v = 0.2, t = 0.2)
movej(p[0.382413425693311, -0.105148150795684, 0.383309400281778, -1.19947596409224, 1.12880991687727, -1.16319568065514], a = 0.2, v = 0.2, t = 0.2)
movej(p[0.38277054824294, -0.105146046170206, 0.383273212506245, -1.2016004802365, 1.12737879172552, -1.16568972043611], a = 0.2, v = 0.2, t = 0.2)
movej(p[0.385230211455607, -0.105745937545515, 0.382784494736886, -1.19386185662964, 1.11860653930642, -1.17188544499596], a = 0.2, v = 0.2, t = 0.2)
movej(p[0.387311958949715, -0.106294212996584, 0.382343693624676, -1.1969566093382, 1.11405132370333, -1.17260887930457], a = 0.2, v = 0.2, t = 0.2)
movej(p[0.388441483641456, -0.106587943742522, 0.382120096420669, -1.20930273025817, 1.10372967715542, -1.18283361834223], a = 0.2, v = 0.2, t = 0.2)
movej(p[0.390103647518797, -0.107030510323028, 0.381769255150746, -1.21617977719102, 1.09767316956253, -1.19217866157835], a = 0.2, v = 0.2, t = 0.2)
movej(p[0.391165697293362, -0.107374825897504, 0.381534331840877, -1.21506358490856, 1.09745811030331, -1.19308538077927], a = 0.2, v = 0.2, t = 0.2)
movej(p[0.392180869954452, -0.10753356684734, 0.381313527133, -1.21249366689067, 1.09924906937465, -1.1906423149357], a = 0.2, v = 0.2, t = 0.2)
movej(p[0.392818456480037, -0.107954922643666, 0.381107821189246, -1.20807587920119, 1.1023509355258, -1.18547559055574], a = 0.2, v = 0.2, t = 0.2)
movej(p[0.392913823050307, -0.1079485623999, 0.381105290463241, -1.20642598637255, 1.10350524361002, -1.18354647728284], a = 0.2, v = 0.2, t = 0.2)
movej(p[0.392967980998283, -0.107968668208721, 0.381077519739039, -1.20316080791261, 1.10581010303518, -1.18627115583608], a = 0.2, v = 0.2, t = 0.2)
movej(p[0.392952497531753, -0.107778319087412, 0.381109851059472, -1.20251792617051, 1.10625699209058, -1.18552213425827], a = 0.2, v = 0.2, t = 0.2)
movej(p[0.392878920881553, -0.107727721805164, 0.381125916910662, -1.20282742205396, 1.10626136380179, -1.18525029774782], a = 0.2, v = 0.2, t = 0.2)
movej(p[0.392776982653363, -0.107720413692155, 0.381147247618987, -1.20785528648045, 1.10391138350325, -1.18643429680892], a = 0.2, v = 0.2, t = 0.2)
movej(p[0.39252949590475, -0.107688154067679, 0.381186254873308, -1.20785528648045, 1.10391138350325, -1.18643429680892], a = 0.2, v = 0.2, t = 0.2)
movej(p[0.39252949590475, -0.107688154067679, 0.381186254873308, -1.20570341591232, 1.10610326056617, -1.18735388631752], a = 0.2, v = 0.2, t = 0.2)
movej(p[0.39267613619714, -0.107852187876904, 0.381128337396856, -1.20506131929183, 1.1060232453157, -1.18783668981965], a = 0.2, v = 0.2, t = 0.2)
movej(p[0.393184660902564, -0.107833321341705, 0.381050483380751, -1.20326830467951, 1.10673507750313, -1.18967041450484], a = 0.2, v = 0.2, t = 0.2)
movej(p[0.393312147280426, -0.107961455122391, 0.380996782005474, -1.20400726116445, 1.10618508031894, -1.19056894294973], a = 0.2, v = 0.2, t = 0.2)
movej(p[0.393425502294095, -0.107953905599968, 0.381001640563628, -1.20563555921471, 1.10428476451246, -1.19020732843301], a = 0.2, v = 0.2, t = 0.2)
movej(p[0.393416789510555, -0.107823195778444, 0.381001813653809, -1.20622323182066, 1.1047241089651, -1.18984257053114], a = 0.2, v = 0.2, t = 0.2)
movej(p[0.392011239202696, -0.107455181967007, 0.381318554915202, -1.20287496233263, 1.10801512659864, -1.18492106662873], a = 0.2, v = 0.2, t = 0.2)
movej(p[0.390627728609603, -0.10709602462249, 0.381637344094252, -1.20183548444124, 1.10963572291461, -1.1835034598039], a = 0.2, v = 0.2, t = 0.2)
movej(p[0.388186514548624, -0.106365602891899, 0.382191022352771, -1.20290759972496, 1.11629728845663, -1.17684373673295], a = 0.2, v = 0.2, t = 0.2)
movej(p[0.385340077328393, -0.105726683390812, 0.382781204216619, -1.20216339806262, 1.12562967851806, -1.16640548115472], a = 0.2, v = 0.2, t = 0.2)
movej(p[0.382319959494932, -0.1050249416455, 0.383420921423592, -1.20490854487255, 1.12901476715809, -1.16298644015098], a = 0.2, v = 0.2, t = 0.2)
movej(p[0.379971120168347, -0.104593534005482, 0.383895562715542, -1.19467592939496, 1.13916759546503, -1.1439894977721], a = 0.2, v = 0.2, t = 0.2)
movej(p[0.378502161214553, -0.104291329629778, 0.384171711221556, -1.19264628245046, 1.1373343023052, -1.13174966544166], a = 0.2, v = 0.2, t = 0.2)
movej(p[0.378502161214553, -0.104291329629778, 0.384171711221556, -1.19204481331065, 1.13693696882137, -1.13194121452246], a = 0.2, v = 0.2, t = 0.2)
movej(p[0.380266742085773, -0.104557948963569, 0.383861911464014, -1.1851775010414, 1.13689391594362, -1.13815258678659], a = 0.2, v = 0.2, t = 0.2)
movej(p[0.382541266480832, -0.105076105318309, 0.38339777976037, -1.1881854550663, 1.12905709890989, -1.15028916783288], a = 0.2, v = 0.2, t = 0.2)
movej(p[0.385254204029011, -0.105697204435341, 0.382837911779056, -1.19509663541219, 1.11918626373892, -1.16409454888127], a = 0.2, v = 0.2, t = 0.2)
movej(p[0.387235860973235, -0.106163187415345, 0.382421944535448, -1.20061154911332, 1.11279480129289, -1.17262821407768], a = 0.2, v = 0.2, t = 0.2)
movej(p[0.38846605162006, -0.106530915536602, 0.382144412426854, -1.20589917160886, 1.10468613379034, -1.17870753012259], a = 0.2, v = 0.2, t = 0.2)
movej(p[0.389766116099741, -0.106930032617611, 0.381841696381161, -1.21305017068913, 1.09908434498739, -1.18770565416052], a = 0.2, v = 0.2, t = 0.2)
movej(p[0.390981113228969, -0.107325638301527, 0.381568170333368, -1.21003309582029, 1.10157977624995, -1.19124874727928], a = 0.2, v = 0.2, t = 0.2)
movej(p[0.392447408013057, -0.107619407988411, 0.381221486316975, -1.19820850450227, 1.11114180043222, -1.18467424638856], a = 0.2, v = 0.2, t = 0.2)
movej(p[0.392638229619663, -0.1076066511751, 0.381193446378196, -1.1972569586698, 1.111296067225, -1.18410135806317], a = 0.2, v = 0.2, t = 0.2)
movej(p[0.392643424546467, -0.107606305095194, 0.381193597917607, -1.19733700375011, 1.11117139061477, -1.18398721675479], a = 0.2, v = 0.2, t = 0.2)
movej(p[0.393165305730527, -0.107828986128766, 0.381040706200984, -1.20255701743033, 1.10644577246195, -1.18639905277099], a = 0.2, v = 0.2, t = 0.2)
movej(p[0.39321830504661, -0.107825453064752, 0.381040506317597, -1.20283106523426, 1.1060146401652, -1.1860056711986], a = 0.2, v = 0.2, t = 0.2)
movej(p[0.393216163431114, -0.107793324391065, 0.381040548863428, -1.20255103285771, 1.10622445799261, -1.18566335143215], a = 0.2, v = 0.2, t = 0.2)
movej(p[0.391896456480798, -0.107405874613609, 0.381369786171819, -1.20395725551525, 1.10835531078645, -1.18516679410447], a = 0.2, v = 0.2, t = 0.2)
movej(p[0.390206620640523, -0.106908696083889, 0.381772519709668, -1.20807825719553, 1.11232645695182, -1.18290701669003], a = 0.2, v = 0.2, t = 0.2)
movej(p[0.388362590000569, -0.106456271185486, 0.382174520966152, -1.20626993970415, 1.1177901372865, -1.17950577300774], a = 0.2, v = 0.2, t = 0.2)
movej(p[0.386500087248568, -0.105852800858696, 0.382622368265433, -1.20379331601417, 1.12405754424497, -1.17382290285709], a = 0.2, v = 0.2, t = 0.2)
movej(p[0.384557390988371, -0.105434613153216, 0.383023706194867, -1.19653242675063, 1.13228306442598, -1.16295145670812], a = 0.2, v = 0.2, t = 0.2)
movej(p[0.381699866715179, -0.104899638363123, 0.383596530227254, -1.19005479750748, 1.14163760702568, -1.14973432871211], a = 0.2, v = 0.2, t = 0.2)
movej(p[0.3793680678744, -0.104349855454103, 0.38408653796096, -1.19184694047679, 1.13739153644213, -1.139026123184], a = 0.2, v = 0.2, t = 0.2)
movej(p[0.3793680678744, -0.104349855454103, 0.38408653796096, -1.19184694047679, 1.13739153644213, -1.139026123184], a = 0.2, v = 0.2, t = 0.2)
movej(p[0.381393818279735, -0.104660129056945, 0.383722173203248, -1.18805301888437, 1.13385092050933, -1.14512577718904], a = 0.2, v = 0.2, t = 0.2)
movej(p[0.383846807507664, -0.1052379861716, 0.383211251621489, -1.19300457340552, 1.12484981802278, -1.15789367906344], a = 0.2, v = 0.2, t = 0.2)
movej(p[0.384857409634493, -0.105430337078895, 0.383014304218074, -1.19919462820982, 1.12045229267299, -1.1652372066214], a = 0.2, v = 0.2, t = 0.2)
movej(p[0.38699043700847, -0.106173721695959, 0.382488430447122, -1.20237298734129, 1.11275259501737, -1.17506034306864], a = 0.2, v = 0.2, t = 0.2)
movej(p[0.388845391567551, -0.106681922705653, 0.382070618327276, -1.2066930785378, 1.11060730079503, -1.18323579547183], a = 0.2, v = 0.2, t = 0.2)
movej(p[0.390685057274795, -0.10719573422184, 0.381638593071732, -1.20491127226913, 1.11007916111474, -1.18462472679132], a = 0.2, v = 0.2, t = 0.2)
movej(p[0.391955503234181, -0.107527655559423, 0.381323147323726, -1.19960831894737, 1.11062812234042, -1.18493986096684], a = 0.2, v = 0.2, t = 0.2)
movej(p[0.39237329239926, -0.107705896874178, 0.381197184086004, -1.19901119354507, 1.11007150009573, -1.18527437454581], a = 0.2, v = 0.2, t = 0.2)
movej(p[0.392678953040891, -0.107851859809062, 0.381098069133563, -1.20214895260998, 1.10644762671584, -1.1860754921959], a = 0.2, v = 0.2, t = 0.2)
movej(p[0.39313523417512, -0.107821413516306, 0.38107408893748, -1.20012460928447, 1.1039244355318, -1.18697633604478], a = 0.2, v = 0.2, t = 0.2)
movej(p[0.393208419155766, -0.107895516367748, 0.381003116576551, -1.1966085611961, 1.10474555334954, -1.18460753877626], a = 0.2, v = 0.2, t = 0.2)
movej(p[0.393192802193793, -0.107760857701896, 0.381079508030323, -1.195724204991, 1.10560067707203, -1.18430014345769], a = 0.2, v = 0.2, t = 0.2)
movej(p[0.392864734814366, -0.107547775005738, 0.381207873209225, -1.19508348774752, 1.10833291851609, -1.18582883854151], a = 0.2, v = 0.2, t = 0.2)
movej(p[0.391542229567623, -0.107183930727758, 0.381512208310252, -1.20173132407257, 1.11068247966342, -1.18619145636252], a = 0.2, v = 0.2, t = 0.2)
movej(p[0.389874524313574, -0.106725758789239, 0.381908954110948, -1.20564075291237, 1.11433267185182, -1.18399698175492], a = 0.2, v = 0.2, t = 0.2)
movej(p[0.388272134336678, -0.106332906500848, 0.382244446765785, -1.20780888527857, 1.1200962359496, -1.18023385555789], a = 0.2, v = 0.2, t = 0.2)
movej(p[0.386806020908302, -0.105941892373921, 0.382578286094923, -1.20526650331078, 1.12712972116122, -1.17175405269796], a = 0.2, v = 0.2, t = 0.2)
movej(p[0.384133710832278, -0.105346498637739, 0.38317642380189, -1.19874169747377, 1.13716002539386, -1.16168229606881], a = 0.2, v = 0.2, t = 0.2)
movej(p[0.381429237309737, -0.104736973688939, 0.383744973309553, -1.19394517054826, 1.14246985768088, -1.15366967722206], a = 0.2, v = 0.2, t = 0.2)
movej(p[0.381355203791249, -0.104738006962422, 0.383750294069477, -1.1984265411565, 1.13575974635102, -1.14755942417664], a = 0.2, v = 0.2, t = 0.2)
movej(p[0.381355203791249, -0.104738006962422, 0.383750294069477, -1.19719799517057, 1.13345155001637, -1.14896062699693], a = 0.2, v = 0.2, t = 0.2)
movej(p[0.383993712666051, -0.105250979854866, 0.383238144346052, -1.19593824530451, 1.12611983307826, -1.15652633516152], a = 0.2, v = 0.2, t = 0.2)
movej(p[0.385838804363072, -0.105773055705873, 0.382811348756359, -1.19936382881089, 1.11887758683874, -1.16587121812443], a = 0.2, v = 0.2, t = 0.2)
movej(p[0.387546357963298, -0.10624890059136, 0.382402573148828, -1.20821621908063, 1.11120450584139, -1.17719163620382], a = 0.2, v = 0.2, t = 0.2)
movej(p[0.388871081479256, -0.106687906873333, 0.382055135815405, -1.21390563077696, 1.10547346463386, -1.18575851656623], a = 0.2, v = 0.2, t = 0.2)
movej(p[0.390680516917486, -0.107196397354312, 0.381608081673684, -1.21043445500199, 1.10338085420901, -1.1880826038611], a = 0.2, v = 0.2, t = 0.2)
movej(p[0.391791625696737, -0.107608858203279, 0.381265105757998, -1.20357828329942, 1.10510667546501, -1.18669573794486], a = 0.2, v = 0.2, t = 0.2)
movej(p[0.392119906485854, -0.107606692538568, 0.381244687545704, -1.20247426422582, 1.10482610282338, -1.18651824333196], a = 0.2, v = 0.2, t = 0.2)
movej(p[0.392491789671259, -0.107725751652604, 0.381115467292733, -1.19826690569012, 1.10451038752399, -1.185084018366], a = 0.2, v = 0.2, t = 0.2)
movej(p[0.392970953526625, -0.107727750723686, 0.381088020190425, -1.19729639173594, 1.10406424391564, -1.18554636362482], a = 0.2, v = 0.2, t = 0.2)
movej(p[0.393238909977516, -0.107675886791264, 0.381067344288032, -1.19571151213617, 1.10654651297934, -1.18782599352551], a = 0.2, v = 0.2, t = 0.2)
movej(p[0.393441587853998, -0.107822963228837, 0.381014905562881, -1.19595943242183, 1.10645061032753, -1.188033227631], a = 0.2, v = 0.2, t = 0.2)
movej(p[0.393420931139564, -0.107602539660398, 0.381083639838358, -1.20193318825876, 1.10001445961976, -1.18664186461765], a = 0.2, v = 0.2, t = 0.2)
movej(p[0.392818113147737, -0.107562851862344, 0.381164478179606, -1.20244848640769, 1.10047461568211, -1.18637753982458], a = 0.2, v = 0.2, t = 0.2)
movej(p[0.391708287032636, -0.107269678645666, 0.38143836121899, -1.20630645092204, 1.10259213246951, -1.18597933353574], a = 0.2, v = 0.2, t = 0.2)
movej(p[0.390163681856087, -0.106826546987591, 0.381830812734709, -1.21027133236918, 1.10883337861066, -1.184669585922], a = 0.2, v = 0.2, t = 0.2)
movej(p[0.388985812668927, -0.106491419528423, 0.382114655286225, -1.20795631049429, 1.11398111758746, -1.1802441477315], a = 0.2, v = 0.2, t = 0.2)
movej(p[0.387037194599728, -0.106011346460014, 0.382559784356695, -1.20333878736742, 1.12205647532751, -1.17410855481098], a = 0.2, v = 0.2, t = 0.2)
movej(p[0.384909107395938, -0.105564168618339, 0.382994245541361, -1.20047926524027, 1.12953951612359, -1.16470514439146], a = 0.2, v = 0.2, t = 0.2)
movej(p[0.383078601873552, -0.105170070522233, 0.383394093816533, -1.19536684785714, 1.13290430746489, -1.15805961748876], a = 0.2, v = 0.2, t = 0.2)
movej(p[0.383078601873552, -0.105170070522233, 0.383394093816533, -1.19759910837839, 1.12953033476829, -1.15498006762626], a = 0.2, v = 0.2, t = 0.2)
movej(p[0.3852778704181, -0.105628719708829, 0.382944640801642, -1.19851263163914, 1.12196444271925, -1.16256148728893], a = 0.2, v = 0.2, t = 0.2)
movej(p[0.387310048272703, -0.106219812223963, 0.382447344646604, -1.20595257271972, 1.11365661197869, -1.17477639341125], a = 0.2, v = 0.2, t = 0.2)
movej(p[0.388885144656592, -0.106704683224968, 0.382035858858461, -1.20761596659633, 1.10701148587475, -1.18311660619381], a = 0.2, v = 0.2, t = 0.2)
movej(p[0.390546105338329, -0.107146984676648, 0.381651288787388, -1.20467104650258, 1.10509580608554, -1.18504241446573], a = 0.2, v = 0.2, t = 0.2)
movej(p[0.391616222008739, -0.107670188662917, 0.381211024513954, -1.20027103739612, 1.10397229526732, -1.18434521458792], a = 0.2, v = 0.2, t = 0.2)
movej(p[0.392646671197176, -0.107645062684951, 0.381108584456935, -1.1993228092799, 1.10309134803379, -1.18487118224507], a = 0.2, v = 0.2, t = 0.2)
movej(p[0.392962971401453, -0.107731619868741, 0.38103480360096, -1.1988458252668, 1.10358767364432, -1.18570713257269], a = 0.2, v = 0.2, t = 0.2)
movej(p[0.392963506929712, -0.107731579049641, 0.38103093558554, -1.19750926458218, 1.10514909213835, -1.18761859513573], a = 0.2, v = 0.2, t = 0.2)
movej(p[0.393137464511836, -0.107720003553439, 0.381046093669496, -1.1988508208317, 1.1040448282845, -1.18935620954568], a = 0.2, v = 0.2, t = 0.2)
movej(p[0.393382386447781, -0.107807381037274, 0.380950462186123, -1.20143679342662, 1.10085388431433, -1.18957041113894], a = 0.2, v = 0.2, t = 0.2)
movej(p[0.393771554008164, -0.107961647927161, 0.380805626463219, -1.20270485182626, 1.09977801997155, -1.1904896425771], a = 0.2, v = 0.2, t = 0.2)
movej(p[0.393780003376439, -0.107961085688774, 0.380806362713011, -1.2036087789789, 1.09969177244741, -1.19096670310256], a = 0.2, v = 0.2, t = 0.2)
movej(p[0.393763436282751, -0.107836135925958, 0.380901072312202, -1.20345239102677, 1.10150984446526, -1.19175140853118], a = 0.2, v = 0.2, t = 0.2)
movej(p[0.393320901096467, -0.107669979405751, 0.381036248159502, -1.20192557201658, 1.10270938439991, -1.18983698154383], a = 0.2, v = 0.2, t = 0.2)
movej(p[0.392526991460199, -0.107401789242696, 0.38126415734291, -1.20070774869506, 1.10436304696268, -1.18657822183031], a = 0.2, v = 0.2, t = 0.2)
movej(p[0.391179229099733, -0.107028355010371, 0.381607425989654, -1.20281645499572, 1.10636304912501, -1.18536787016945], a = 0.2, v = 0.2, t = 0.2)
movej(p[0.390004086910457, -0.106578211633579, 0.381982259706542, -1.20928982985373, 1.11338219311688, -1.18133495510624], a = 0.2, v = 0.2, t = 0.2)
movej(p[0.387912566675215, -0.106217162736705, 0.382394183995266, -1.20694628265296, 1.1226867366651, -1.17862029348888], a = 0.2, v = 0.2, t = 0.2)
movej(p[0.385963889907539, -0.105782972222835, 0.382821918016341, -1.1984264936293, 1.13136047867135, -1.16862122715289], a = 0.2, v = 0.2, t = 0.2)
movej(p[0.383491734196958, -0.105156506319379, 0.383426781822866, -1.18992823107824, 1.13701876802726, -1.15868224763463], a = 0.2, v = 0.2, t = 0.2)
movej(p[0.383491734196958, -0.105156506319379, 0.383426781822866, -1.19009783302777, 1.13590175406577, -1.15816729872927], a = 0.2, v = 0.2, t = 0.2)
movej(p[0.385211179253236, -0.105570433583478, 0.383025900607947, -1.19205504053148, 1.12914771337625, -1.16263679436049], a = 0.2, v = 0.2, t = 0.2)
movej(p[0.386856242993041, -0.106046806118294, 0.382594641474651, -1.20627178091131, 1.11505135027391, -1.17167066460872], a = 0.2, v = 0.2, t = 0.2)
movej(p[0.388299920228839, -0.10653243756604, 0.382196855293646, -1.21356984625057, 1.10727023548934, -1.18154129599227], a = 0.2, v = 0.2, t = 0.2)
movej(p[0.389773074973011, -0.106987742700056, 0.381800132689471, -1.21933877770553, 1.09922097103245, -1.18876435379789], a = 0.2, v = 0.2, t = 0.2)
movej(p[0.390739523685752, -0.107256554579512, 0.381569104121746, -1.21688186729678, 1.09692597644822, -1.19011037999058], a = 0.2, v = 0.2, t = 0.2)
movej(p[0.39154502751373, -0.107543883071137, 0.38131626685983, -1.20658757553576, 1.10287108865365, -1.18954800345737], a = 0.2, v = 0.2, t = 0.2)
movej(p[0.3922726379538, -0.107691290208794, 0.381145101287158, -1.19955734697461, 1.10657427259292, -1.18819753770197], a = 0.2, v = 0.2, t = 0.2)
movej(p[0.392772414277581, -0.10775817975285, 0.381055340521316, -1.19909477266556, 1.10614242441188, -1.18845521886233], a = 0.2, v = 0.2, t = 0.2)
movej(p[0.392980027232162, -0.107770561399496, 0.381026971243632, -1.20354386312924, 1.10254725039318, -1.19215035361352], a = 0.2, v = 0.2, t = 0.2)
movej(p[0.393133183357926, -0.10785859189558, 0.380967849480293, -1.2041254525652, 1.10225221586564, -1.19270972353923], a = 0.2, v = 0.2, t = 0.2)
movej(p[0.393491539119528, -0.107867698288168, 0.380907598407767, -1.2041254525652, 1.10225221586564, -1.19270972353923], a = 0.2, v = 0.2, t = 0.2)
movej(p[0.393543925202831, -0.107864212410168, 0.380912163156478, -1.20260500249348, 1.10185843854924, -1.19194706315381], a = 0.2, v = 0.2, t = 0.2)
movej(p[0.393541453152805, -0.107849266122157, 0.380929119200927, -1.20053269067111, 1.10295444804192, -1.18990815759417], a = 0.2, v = 0.2, t = 0.2)
movej(p[0.393513247111205, -0.107828719146853, 0.380946193480506, -1.19971682904554, 1.10391884029302, -1.19013315620352], a = 0.2, v = 0.2, t = 0.2)
movej(p[0.393434809232812, -0.107755657146505, 0.381008974156978, -1.19974665448612, 1.10735503370878, -1.19131508265282], a = 0.2, v = 0.2, t = 0.2)
movej(p[0.393139117880802, -0.107555273003646, 0.38115531235991, -1.2004630693775, 1.10805859713389, -1.19088109263214], a = 0.2, v = 0.2, t = 0.2)
movej(p[0.392539693076586, -0.107365041519278, 0.381323537169155, -1.20140828524333, 1.10949993724495, -1.1884063476492], a = 0.2, v = 0.2, t = 0.2)
movej(p[0.391369822576471, -0.107021607900799, 0.381640854916309, -1.20259748883417, 1.11017213963343, -1.18758824930708], a = 0.2, v = 0.2, t = 0.2)
movej(p[0.389602525000983, -0.106600638572108, 0.382034828473768, -1.20849731895036, 1.116407035847, -1.18336268601327], a = 0.2, v = 0.2, t = 0.2)
movej(p[0.38767646040172, -0.106137714373383, 0.382488214496603, -1.20589503201471, 1.1241702801695, -1.17386115222683], a = 0.2, v = 0.2, t = 0.2)
movej(p[0.385893198261044, -0.105807438614378, 0.382829871430738, -1.2037426030329, 1.12973138319586, -1.16696387228225], a = 0.2, v = 0.2, t = 0.2)
movej(p[0.385890536552035, -0.105781572610024, 0.382840665184667, -1.2037426030329, 1.12973138319586, -1.16696387228225], a = 0.2, v = 0.2, t = 0.2)
movej(p[0.386029106191739, -0.105772351900477, 0.382852739681258, -1.20218660725078, 1.12134156740127, -1.16659689453917], a = 0.2, v = 0.2, t = 0.2)
movej(p[0.387107813545929, -0.10613499421948, 0.382537623444792, -1.20777080220287, 1.11257615131276, -1.17195970662779], a = 0.2, v = 0.2, t = 0.2)
movej(p[0.388622208042192, -0.106573422012127, 0.382143089035239, -1.20976638791245, 1.10730223826399, -1.17837942632522], a = 0.2, v = 0.2, t = 0.2)
movej(p[0.38966412753859, -0.106974274308274, 0.381811765357093, -1.21238960987032, 1.10445431526452, -1.18263402239079], a = 0.2, v = 0.2, t = 0.2)
movej(p[0.390660873182228, -0.107251689479225, 0.381580189657125, -1.21306361325751, 1.1008118843416, -1.18706840515773], a = 0.2, v = 0.2, t = 0.2)
movej(p[0.392110606569206, -0.107625248017705, 0.381165856994873, -1.2091805230846, 1.10107447761514, -1.190583812544], a = 0.2, v = 0.2, t = 0.2)
movej(p[0.392642788868057, -0.107592671871223, 0.381159310585878, -1.20549778594853, 1.10402205319542, -1.19170301977512], a = 0.2, v = 0.2, t = 0.2)
movej(p[0.392967521704595, -0.107729613457096, 0.38103531257407, -1.20499945976553, 1.10444495047447, -1.19197916956623], a = 0.2, v = 0.2, t = 0.2)
movej(p[0.392990428951374, -0.107732598444737, 0.38103677472788, -1.20325127955426, 1.10481484868184, -1.19112061399083], a = 0.2, v = 0.2, t = 0.2)
movej(p[0.393271352921296, -0.107868846141406, 0.380908181966512, -1.20216607988452, 1.1044025063079, -1.1913412654082], a = 0.2, v = 0.2, t = 0.2)
movej(p[0.393429776322681, -0.107886160991015, 0.380918175057953, -1.20216607988452, 1.1044025063079, -1.1913412654082], a = 0.2, v = 0.2, t = 0.2)
movej(p[0.39379875980392, -0.107924324252873, 0.380857434165493, -1.20576124518267, 1.10318437501472, -1.19374460374324], a = 0.2, v = 0.2, t = 0.2)
movej(p[0.393815712085343, -0.108041440180526, 0.380769639236002, -1.20703870099486, 1.10210651859539, -1.19468700163006], a = 0.2, v = 0.2, t = 0.2)
movej(p[0.393815712085343, -0.108041440180526, 0.380769639236002, -1.20671694688461, 1.10161753306595, -1.19479874880663], a = 0.2, v = 0.2, t = 0.2)
movej(p[0.393596334049171, -0.107875529687819, 0.380895445140692, -1.20566376164626, 1.10209088055684, -1.19280238338899], a = 0.2, v = 0.2, t = 0.2)
movej(p[0.392809869377076, -0.107505924839387, 0.381202913635926, -1.20445443039472, 1.10362200042165, -1.18874312400629], a = 0.2, v = 0.2, t = 0.2)
movej(p[0.3921489165162, -0.107150682467921, 0.381494055634296, -1.20491542822736, 1.10490445049773, -1.18589328801891], a = 0.2, v = 0.2, t = 0.2)
movej(p[0.390623344426051, -0.106734147491589, 0.381889272677515, -1.20987826637887, 1.10994584941202, -1.18268590617436], a = 0.2, v = 0.2, t = 0.2)
movej(p[0.388851391093548, -0.106304090979946, 0.382300874820641, -1.20969738614843, 1.11982488737529, -1.18008361713059], a = 0.2, v = 0.2, t = 0.2)
movej(p[0.388036334611738, -0.106193630890644, 0.382433584504273, -1.20621969443042, 1.12490457906993, -1.17502429428886], a = 0.2, v = 0.2, t = 0.2)
