def moving():
set_payload_mass(0)
set_tcp(p[0,0,0,0,0,0])
movej(p[0.3823, 0.2128, 0.3124, -1.33, 0.73, -0.764], a = 0.2, v = 0.2, t = 0.2)
movej(p[0.382273318748272, 0.21276771813933, 0.31279780144831, -1.33, 0.73, -0.764], a = 0.2, v = 0.2, t = 0.2)
movej(p[0.3823, 0.2128, 0.3124, -1.33, 0.73, -0.764], a = 0.2, v = 0.2, t = 0.2)
movej(p[0.382273318748272, 0.21276771813933, 0.31279780144831, -1.33, 0.73, -0.764], a = 0.2, v = 0.2, t = 0.2)
movej(p[0.3823, 0.2128, 0.3124, -1.33, 0.73, -0.764], a = 0.2, v = 0.2, t = 0.2)
movej(p[0.382273318748272, 0.21276771813933, 0.31279780144831, -1.33, 0.73, -0.764], a = 0.2, v = 0.2, t = 0.2)
movej(p[0.3823, 0.2128, 0.3124, -1.33, 0.73, -0.764], a = 0.2, v = 0.2, t = 0.2)
movej(p[0.382273318748272, 0.21276771813933, 0.31279780144831, -1.33, 0.73, -0.764], a = 0.2, v = 0.2, t = 0.2)
movej(p[0.3823, 0.2128, 0.3124, -1.33, 0.73, -0.764], a = 0.2, v = 0.2, t = 0.2)
movej(p[0.382273318748272, 0.21276771813933, 0.31279780144831, -1.33, 0.73, -0.764], a = 0.2, v = 0.2, t = 0.2)
movej(p[0.3823, 0.2128, 0.3124, -1.33, 0.73, -0.764], a = 0.2, v = 0.2, t = 0.2)
movej(p[0.382344671085706, 0.212854047905227, 0.311733980925166, -1.33, 0.73, -0.764], a = 0.2, v = 0.2, t = 0.2)
movej(p[0.382389348841725, 0.212908103880919, 0.31106786239997, -1.33, 0.73, -0.764], a = 0.2, v = 0.2, t = 0.2)
movej(p[0.382456705661712, 0.212989599438181, 0.310063612643711, -1.33, 0.73, -0.764], a = 0.2, v = 0.2, t = 0.2)
movej(p[0.382574556750595, 0.213132188416761, 0.308306523646523, -1.33, 0.73, -0.764], a = 0.2, v = 0.2, t = 0.2)
movej(p[0.382720543219426, 0.213308818617418, 0.306129953022093, -1.33, 0.73, -0.764], a = 0.2, v = 0.2, t = 0.2)
movej(p[0.382884519522234, 0.213507214862632, 0.303685164771139, -1.33, 0.73, -0.764], a = 0.2, v = 0.2, t = 0.2)
movej(p[0.383044286857582, 0.213700518644325, 0.301303129698656, -1.33, 0.73, -0.764], a = 0.2, v = 0.2, t = 0.2)
movej(p[0.383197537297196, 0.21388593758155, 0.299018257629923, -1.33, 0.73, -0.764], a = 0.2, v = 0.2, t = 0.2)
movej(p[0.383340875651792, 0.214059363807535, 0.296881168799237, -1.33, 0.73, -0.764], a = 0.2, v = 0.2, t = 0.2)
movej(p[0.383464990164518, 0.214209530952908, 0.295030695912059, -1.33, 0.73, -0.764], a = 0.2, v = 0.2, t = 0.2)
movej(p[0.383458319851586, 0.21420146048774, 0.295130146274136, -1.33, 0.73, -0.764], a = 0.2, v = 0.2, t = 0.2)
movej(p[0.383439096009716, 0.214178201407127, 0.295416762217644, -1.33, 0.73, -0.764], a = 0.2, v = 0.2, t = 0.2)
movej(p[0.383377909229191, 0.214104171030145, 0.296329020388982, -1.33, 0.73, -0.764], a = 0.2, v = 0.2, t = 0.2)
movej(p[0.383257269949502, 0.213958208597125, 0.298127679637518, -1.33, 0.73, -0.764], a = 0.2, v = 0.2, t = 0.2)
movej(p[0.38312681863949, 0.213800374509843, 0.30007263036867, -1.33, 0.73, -0.764], a = 0.2, v = 0.2, t = 0.2)
movej(p[0.382971393677861, 0.213612324600974, 0.30238992325544, -1.33, 0.73, -0.764], a = 0.2, v = 0.2, t = 0.2)
movej(p[0.382831317106288, 0.213442844832456, 0.30447838085907, -1.33, 0.73, -0.764], a = 0.2, v = 0.2, t = 0.2)
movej(p[0.382697557321062, 0.213281007794451, 0.306472658969812, -1.33, 0.73, -0.764], a = 0.2, v = 0.2, t = 0.2)
movej(p[0.382581900765134, 0.213141073998911, 0.308197028797876, -1.33, 0.73, -0.764], a = 0.2, v = 0.2, t = 0.2)
movej(p[0.382530399278985, 0.213078761937352, 0.308964885043477, -1.33, 0.73, -0.764], a = 0.2, v = 0.2, t = 0.2)
movej(p[0.382506572921192, 0.213049934235774, 0.309320121736818, -1.33, 0.73, -0.764], a = 0.2, v = 0.2, t = 0.2)
movej(p[0.382484140658802, 0.213022793261415, 0.309654573304485, -1.33, 0.73, -0.764], a = 0.2, v = 0.2, t = 0.2)
movej(p[0.38247747034587, 0.213014722796248, 0.309754023666563, -1.33, 0.73, -0.764], a = 0.2, v = 0.2, t = 0.2)
movej(p[0.382528691678875, 0.213076695898269, 0.308990344336169, -1.33, 0.73, -0.764], a = 0.2, v = 0.2, t = 0.2)
movej(p[0.382648063599106, 0.213221124942908, 0.307210580656428, -1.33, 0.73, -0.764], a = 0.2, v = 0.2, t = 0.2)
movej(p[0.382754515123189, 0.213349921496517, 0.305623452328031, -1.33, 0.73, -0.764], a = 0.2, v = 0.2, t = 0.2)
movej(p[0.382845318093133, 0.213459784738842, 0.304269634549069, -1.33, 0.73, -0.764], a = 0.2, v = 0.2, t = 0.2)
movej(p[0.38295467120334, 0.213592091944799, 0.302639245313169, -1.33, 0.73, -0.764], a = 0.2, v = 0.2, t = 0.2)
movej(p[0.383074276584525, 0.213736803455718, 0.300856000870755, -1.33, 0.73, -0.764], a = 0.2, v = 0.2, t = 0.2)
movej(p[0.383193048176592, 0.213880506158492, 0.299085187723601, -1.33, 0.73, -0.764], a = 0.2, v = 0.2, t = 0.2)
movej(p[0.383284518177829, 0.213991176447334, 0.297721424908431, -1.33, 0.73, -0.764], a = 0.2, v = 0.2, t = 0.2)
movej(p[0.383398220332069, 0.21412874559658, 0.296026194036456, -1.33, 0.73, -0.764], a = 0.2, v = 0.2, t = 0.2)
movej(p[0.383516124783455, 0.214271399138882, 0.294268309436372, -1.33, 0.73, -0.764], a = 0.2, v = 0.2, t = 0.2)
movej(p[0.383630173793967, 0.214409387952317, 0.292567907145569, -1.33, 0.73, -0.764], a = 0.2, v = 0.2, t = 0.2)
movej(p[0.383694555654387, 0.214487284082114, 0.291608012250796, -1.33, 0.73, -0.764], a = 0.2, v = 0.2, t = 0.2)
movej(p[0.383744102738847, 0.214547231497378, 0.290869294961283, -1.33, 0.73, -0.764], a = 0.2, v = 0.2, t = 0.2)
movej(p[0.383801760923831, 0.214616992598287, 0.290009646031484, -1.33, 0.73, -0.764], a = 0.2, v = 0.2, t = 0.2)
movej(p[0.383795090610899, 0.214608922133119, 0.290109096393562, -1.33, 0.73, -0.764], a = 0.2, v = 0.2, t = 0.2)
movej(p[0.383790848291874, 0.214603789317272, 0.290172346823843, -1.33, 0.73, -0.764], a = 0.2, v = 0.2, t = 0.2)
movej(p[0.38373889989476, 0.214540936534548, 0.290946866243704, -1.33, 0.73, -0.764], a = 0.2, v = 0.2, t = 0.2)
movej(p[0.383659563192746, 0.214444946421845, 0.292129728850255, -1.33, 0.73, -0.764], a = 0.2, v = 0.2, t = 0.2)
movej(p[0.383553745348392, 0.214316916562427, 0.293707409394254, -1.33, 0.73, -0.764], a = 0.2, v = 0.2, t = 0.2)
movej(p[0.383432018807695, 0.214169638643584, 0.295522279051808, -1.33, 0.73, -0.764], a = 0.2, v = 0.2, t = 0.2)
movej(p[0.383346565428723, 0.214066247914323, 0.296796337640385, -1.33, 0.73, -0.764], a = 0.2, v = 0.2, t = 0.2)
movej(p[0.383247864808268, 0.213946829241239, 0.298267904648047, -1.33, 0.73, -0.764], a = 0.2, v = 0.2, t = 0.2)
movej(p[0.383138438324618, 0.213814433260165, 0.29989938783793, -1.33, 0.73, -0.764], a = 0.2, v = 0.2, t = 0.2)
movej(p[0.382980872192537, 0.213623792731977, 0.302248604290928, -1.33, 0.73, -0.764], a = 0.2, v = 0.2, t = 0.2)
movej(p[0.382826120932514, 0.21343655794009, 0.304555852691128, -1.33, 0.73, -0.764], a = 0.2, v = 0.2, t = 0.2)
movej(p[0.382755722449829, 0.213351382250712, 0.305605451812495, -1.33, 0.73, -0.764], a = 0.2, v = 0.2, t = 0.2)
movej(p[0.38265498738393, 0.213229502085752, 0.307107351180592, -1.33, 0.73, -0.764], a = 0.2, v = 0.2, t = 0.2)
movej(p[0.382573576214594, 0.213131002058382, 0.308321142849749, -1.33, 0.73, -0.764], a = 0.2, v = 0.2, t = 0.2)
movej(p[0.382566905901662, 0.213122931593214, 0.308420593211826, -1.33, 0.73, -0.764], a = 0.2, v = 0.2, t = 0.2)
movej(p[0.382612617556186, 0.213178238491007, 0.307739059880508, -1.33, 0.73, -0.764], a = 0.2, v = 0.2, t = 0.2)
movej(p[0.382651652227464, 0.213225466853168, 0.30715707636163, -1.33, 0.73, -0.764], a = 0.2, v = 0.2, t = 0.2)
movej(p[0.382741474661407, 0.213334143737114, 0.305817877785893, -1.33, 0.73, -0.764], a = 0.2, v = 0.2, t = 0.2)
movej(p[0.38286851744151, 0.213487853816695, 0.303923746189763, -1.33, 0.73, -0.764], a = 0.2, v = 0.2, t = 0.2)
movej(p[0.383007313313, 0.213655784055901, 0.301854383055652, -1.33, 0.73, -0.764], a = 0.2, v = 0.2, t = 0.2)
movej(p[0.383134316071226, 0.213809445712692, 0.299960848161694, -1.33, 0.73, -0.764], a = 0.2, v = 0.2, t = 0.2)
movej(p[0.383252974267974, 0.213953011217557, 0.298191725670696, -1.33, 0.73, -0.764], a = 0.2, v = 0.2, t = 0.2)
movej(p[0.383334792326398, 0.214052003543302, 0.296971867529452, -1.33, 0.73, -0.764], a = 0.2, v = 0.2, t = 0.2)
movej(p[0.383328122013466, 0.214043933078135, 0.297071317891529, -1.33, 0.73, -0.764], a = 0.2, v = 0.2, t = 0.2)
movej(p[0.383239927135879, 0.213937225387689, 0.298386250578919, -1.33, 0.73, -0.764], a = 0.2, v = 0.2, t = 0.2)
movej(p[0.383070574560847, 0.21373232434755, 0.300911195821708, -1.33, 0.73, -0.764], a = 0.2, v = 0.2, t = 0.2)
movej(p[0.382926315703066, 0.213557784397372, 0.303062008802361, -1.33, 0.73, -0.764], a = 0.2, v = 0.2, t = 0.2)
movej(p[0.38277599353083, 0.213375908394356, 0.305303222162142, -1.33, 0.73, -0.764], a = 0.2, v = 0.2, t = 0.2)
movej(p[0.382657969013811, 0.213233109583682, 0.307062896868743, -1.33, 0.73, -0.764], a = 0.2, v = 0.2, t = 0.2)
movej(p[0.382568353359569, 0.213124682884156, 0.308399012483256, -1.33, 0.73, -0.764], a = 0.2, v = 0.2, t = 0.2)
movej(p[0.382539944496791, 0.213090310773007, 0.308822571575344, -1.33, 0.73, -0.764], a = 0.2, v = 0.2, t = 0.2)
movej(p[0.382533274183859, 0.213082240307839, 0.308922021937422, -1.33, 0.73, -0.764], a = 0.2, v = 0.2, t = 0.2)
movej(p[0.383072829126618, 0.213735052164777, 0.300877581599326, -1.33, 0.73, -0.764], a = 0.2, v = 0.2, t = 0.2)
movej(p[0.383311532945204, 0.214023861831263, 0.297318650942016, -1.33, 0.73, -0.764], a = 0.2, v = 0.2, t = 0.2)
movej(p[0.383304862632272, 0.214015791366095, 0.297418101304094, -1.33, 0.73, -0.764], a = 0.2, v = 0.2, t = 0.2)
movej(p[0.383253654639893, 0.213953834405004, 0.298181581733764, -1.33, 0.73, -0.764], a = 0.2, v = 0.2, t = 0.2)
movej(p[0.383195776334582, 0.213883806978745, 0.299044512525511, -1.33, 0.73, -0.764], a = 0.2, v = 0.2, t = 0.2)
movej(p[0.383137904699583, 0.213813787622952, 0.299907343866897, -1.33, 0.73, -0.764], a = 0.2, v = 0.2, t = 0.2)
movej(p[0.383080026394272, 0.213743760196693, 0.300770274658644, -1.33, 0.73, -0.764], a = 0.2, v = 0.2, t = 0.2)
movej(p[0.383022148088961, 0.213673732770434, 0.301633205450391, -1.33, 0.73, -0.764], a = 0.2, v = 0.2, t = 0.2)
movej(p[0.382964276453962, 0.21360371341464, 0.302496036791777, -1.33, 0.73, -0.764], a = 0.2, v = 0.2, t = 0.2)
movej(p[0.382906398148651, 0.213533685988382, 0.303358967583524, -1.33, 0.73, -0.764], a = 0.2, v = 0.2, t = 0.2)
movej(p[0.38284851984334, 0.213463658562123, 0.304221898375272, -1.33, 0.73, -0.764], a = 0.2, v = 0.2, t = 0.2)
movej(p[0.382790648208342, 0.213393639206329, 0.305084729716657, -1.33, 0.73, -0.764], a = 0.2, v = 0.2, t = 0.2)
movej(p[0.38273276990303, 0.21332361178007, 0.305947660508405, -1.33, 0.73, -0.764], a = 0.2, v = 0.2, t = 0.2)
movej(p[0.382726099590098, 0.213315541314903, 0.306047110870482, -1.33, 0.73, -0.764], a = 0.2, v = 0.2, t = 0.2)
movej(p[0.382770984125818, 0.213369847475015, 0.305377909384062, -1.33, 0.73, -0.764], a = 0.2, v = 0.2, t = 0.2)
movej(p[0.38290730531121, 0.213534783571644, 0.303345442334282, -1.33, 0.73, -0.764], a = 0.2, v = 0.2, t = 0.2)
movej(p[0.383055713103635, 0.213714343351157, 0.301132771228417, -1.33, 0.73, -0.764], a = 0.2, v = 0.2, t = 0.2)
movej(p[0.383154407053777, 0.213833753953776, 0.299661303671117, -1.33, 0.73, -0.764], a = 0.2, v = 0.2, t = 0.2)
movej(p[0.383196763540896, 0.21388500140759, 0.299029793871924, -1.33, 0.73, -0.764], a = 0.2, v = 0.2, t = 0.2)
movej(p[0.383323526167856, 0.214038372527634, 0.297139839191001, -1.33, 0.73, -0.764], a = 0.2, v = 0.2, t = 0.2)
movej(p[0.383497581313504, 0.214248963245716, 0.294544781442948, -1.33, 0.73, -0.764], a = 0.2, v = 0.2, t = 0.2)
movej(p[0.383551304013859, 0.214313962772176, 0.293743808226774, -1.33, 0.73, -0.764], a = 0.2, v = 0.2, t = 0.2)
movej(p[0.383590492102335, 0.214361376755035, 0.293159537349568, -1.33, 0.73, -0.764], a = 0.2, v = 0.2, t = 0.2)
movej(p[0.383583821789403, 0.214353306289867, 0.293258987711646, -1.33, 0.73, -0.764], a = 0.2, v = 0.2, t = 0.2)
movej(p[0.383580533325127, 0.21434932755054, 0.29330801674015, -1.33, 0.73, -0.764], a = 0.2, v = 0.2, t = 0.2)
movej(p[0.383538356936458, 0.214298297999285, 0.293936841379567, -1.33, 0.73, -0.764], a = 0.2, v = 0.2, t = 0.2)
movej(p[0.383476883332476, 0.214223920592301, 0.294853375916474, -1.33, 0.73, -0.764], a = 0.2, v = 0.2, t = 0.2)
movej(p[0.383425481901022, 0.21416172958772, 0.295619740406644, -1.33, 0.73, -0.764], a = 0.2, v = 0.2, t = 0.2)
movej(p[0.383366743125343, 0.214090661071455, 0.2964955002951, -1.33, 0.73, -0.764], a = 0.2, v = 0.2, t = 0.2)
movej(p[0.38326272626548, 0.213964810237632, 0.298046329241338, -1.33, 0.73, -0.764], a = 0.2, v = 0.2, t = 0.2)
movej(p[0.383184763647931, 0.213870482640754, 0.299208705073301, -1.33, 0.73, -0.764], a = 0.2, v = 0.2, t = 0.2)
movej(p[0.383090952366855, 0.213756979618637, 0.300607374965561, -1.33, 0.73, -0.764], a = 0.2, v = 0.2, t = 0.2)
movej(p[0.382992251746399, 0.213637560945553, 0.302078941973223, -1.33, 0.73, -0.764], a = 0.2, v = 0.2, t = 0.2)
movej(p[0.382900141395121, 0.213526115892055, 0.303452252023153, -1.33, 0.73, -0.764], a = 0.2, v = 0.2, t = 0.2)
movej(p[0.382893471082189, 0.213518045426887, 0.303551702385231, -1.33, 0.73, -0.764], a = 0.2, v = 0.2, t = 0.2)
movej(p[0.382893057522787, 0.213517545058047, 0.303557868307679, -1.33, 0.73, -0.764], a = 0.2, v = 0.2, t = 0.2)
movej(p[0.38285805172052, 0.213475191256847, 0.304079783807863, -1.33, 0.73, -0.764], a = 0.2, v = 0.2, t = 0.2)
movej(p[0.382857071184519, 0.213474004898468, 0.304094403011088, -1.33, 0.73, -0.764], a = 0.2, v = 0.2, t = 0.2)
movej(p[0.382850400871587, 0.2134659344333, 0.304193853373166, -1.33, 0.73, -0.764], a = 0.2, v = 0.2, t = 0.2)
movej(p[0.382847812790169, 0.213462803092815, 0.304232440113652, -1.33, 0.73, -0.764], a = 0.2, v = 0.2, t = 0.2)
movej(p[0.382846732199474, 0.213461495677458, 0.304248551072308, -1.33, 0.73, -0.764], a = 0.2, v = 0.2, t = 0.2)
movej(p[0.382846412024453, 0.21346110829513, 0.304253324689688, -1.33, 0.73, -0.764], a = 0.2, v = 0.2, t = 0.2)
movej(p[0.382812440120691, 0.213420005416032, 0.304759825383749, -1.33, 0.73, -0.764], a = 0.2, v = 0.2, t = 0.2)
movej(p[0.382770797357056, 0.213369621501991, 0.3053806939942, -1.33, 0.73, -0.764], a = 0.2, v = 0.2, t = 0.2)
movej(p[0.38270662894665, 0.213291983627079, 0.306337406477387, -1.33, 0.73, -0.764], a = 0.2, v = 0.2, t = 0.2)
movej(p[0.382699958633718, 0.213283913161911, 0.306436856839464, -1.33, 0.73, -0.764], a = 0.2, v = 0.2, t = 0.2)
movej(p[0.382714266454957, 0.213301224309696, 0.306223535812808, -1.33, 0.73, -0.764], a = 0.2, v = 0.2, t = 0.2)
movej(p[0.382839788403712, 0.213453094323219, 0.304352078899231, -1.33, 0.73, -0.764], a = 0.2, v = 0.2, t = 0.2)
movej(p[0.38301140888514, 0.213660739321514, 0.301793320533336, -1.33, 0.73, -0.764], a = 0.2, v = 0.2, t = 0.2)
movej(p[0.383172150086176, 0.213855221391122, 0.29939676570799, -1.33, 0.73, -0.764], a = 0.2, v = 0.2, t = 0.2)
movej(p[0.383299593085056, 0.214009415698613, 0.297496667090135, -1.33, 0.73, -0.764], a = 0.2, v = 0.2, t = 0.2)
movej(p[0.383452976930928, 0.214194996045141, 0.295209806014161, -1.33, 0.73, -0.764], a = 0.2, v = 0.2, t = 0.2)
movej(p[0.383592059625874, 0.214363273314349, 0.29313616651448, -1.33, 0.73, -0.764], a = 0.2, v = 0.2, t = 0.2)
movej(p[0.383693388349624, 0.214485871750709, 0.291625416064159, -1.33, 0.73, -0.764], a = 0.2, v = 0.2, t = 0.2)
movej(p[0.383778128005113, 0.214588398940198, 0.290361998664325, -1.33, 0.73, -0.764], a = 0.2, v = 0.2, t = 0.2)
movej(p[0.383845284715713, 0.214669652383505, 0.289360732418928, -1.33, 0.73, -0.764], a = 0.2, v = 0.2, t = 0.2)
movej(p[0.383882058150907, 0.214714144857973, 0.288812462572794, -1.33, 0.73, -0.764], a = 0.2, v = 0.2, t = 0.2)
movej(p[0.38393607434503, 0.2147794994849, 0.288007113540689, -1.33, 0.73, -0.764], a = 0.2, v = 0.2, t = 0.2)
movej(p[0.383929404032098, 0.214771429019733, 0.288106563902767, -1.33, 0.73, -0.764], a = 0.2, v = 0.2, t = 0.2)
movej(p[0.383903796700752, 0.214740446503955, 0.288488353842783, -1.33, 0.73, -0.764], a = 0.2, v = 0.2, t = 0.2)
movej(p[0.383878089314712, 0.214709342931199, 0.28887163553823, -1.33, 0.73, -0.764], a = 0.2, v = 0.2, t = 0.2)
movej(p[0.38385462982413, 0.214680959105205, 0.289221402461657, -1.33, 0.73, -0.764], a = 0.2, v = 0.2, t = 0.2)
movej(p[0.383831170333548, 0.21465257527921, 0.289571169385084, -1.33, 0.73, -0.764], a = 0.2, v = 0.2, t = 0.2)
movej(p[0.383797992197024, 0.214612432785467, 0.290065835486058, -1.33, 0.73, -0.764], a = 0.2, v = 0.2, t = 0.2)
movej(p[0.383717761673078, 0.214515361230432, 0.291262024441128, -1.33, 0.73, -0.764], a = 0.2, v = 0.2, t = 0.2)
movej(p[0.383575097020088, 0.214342750121428, 0.293389068785244, -1.33, 0.73, -0.764], a = 0.2, v = 0.2, t = 0.2)
movej(p[0.3834689523304, 0.214214324809217, 0.294971622396985, -1.33, 0.73, -0.764], a = 0.2, v = 0.2, t = 0.2)
movej(p[0.383374433996153, 0.214099966317793, 0.296380834027624, -1.33, 0.73, -0.764], a = 0.2, v = 0.2, t = 0.2)
movej(p[0.383236551957535, 0.213933141732315, 0.298436572462131, -1.33, 0.73, -0.764], a = 0.2, v = 0.2, t = 0.2)
movej(p[0.383113758166769, 0.213784572539045, 0.300267354177618, -1.33, 0.73, -0.764], a = 0.2, v = 0.2, t = 0.2)
movej(p[0.383027984612776, 0.213680794427456, 0.301546186383574, -1.33, 0.73, -0.764], a = 0.2, v = 0.2, t = 0.2)
movej(p[0.382933412916026, 0.21356637137231, 0.30295619361711, -1.33, 0.73, -0.764], a = 0.2, v = 0.2, t = 0.2)
movej(p[0.382841936244476, 0.213455693013002, 0.304320055882642, -1.33, 0.73, -0.764], a = 0.2, v = 0.2, t = 0.2)
movej(p[0.382762259356503, 0.213359291306576, 0.305507990457659, -1.33, 0.73, -0.764], a = 0.2, v = 0.2, t = 0.2)
movej(p[0.382727446993311, 0.213317171548867, 0.306027021897342, -1.33, 0.73, -0.764], a = 0.2, v = 0.2, t = 0.2)
movej(p[0.382713952950249, 0.213300844997833, 0.306228209979825, -1.33, 0.73, -0.764], a = 0.2, v = 0.2, t = 0.2)
movej(p[0.382707282637317, 0.213292774532665, 0.306327660341903, -1.33, 0.73, -0.764], a = 0.2, v = 0.2, t = 0.2)
movej(p[0.382739767061296, 0.213332077698031, 0.305843337078585, -1.33, 0.73, -0.764], a = 0.2, v = 0.2, t = 0.2)
movej(p[0.382765581172343, 0.21336331039823, 0.305458464177345, -1.33, 0.73, -0.764], a = 0.2, v = 0.2, t = 0.2)
movej(p[0.38279139528339, 0.213394543098428, 0.305073591276104, -1.33, 0.73, -0.764], a = 0.2, v = 0.2, t = 0.2)
movej(p[0.382817209394437, 0.213425775798626, 0.304688718374864, -1.33, 0.73, -0.764], a = 0.2, v = 0.2, t = 0.2)
movej(p[0.382843023505484, 0.213457008498825, 0.304303845473624, -1.33, 0.73, -0.764], a = 0.2, v = 0.2, t = 0.2)
movej(p[0.382868837616531, 0.213488241199023, 0.303918972572383, -1.33, 0.73, -0.764], a = 0.2, v = 0.2, t = 0.2)
movej(p[0.382894651727578, 0.213519473899222, 0.303534099671143, -1.33, 0.73, -0.764], a = 0.2, v = 0.2, t = 0.2)
movej(p[0.382920465838625, 0.21355070659942, 0.303149226769903, -1.33, 0.73, -0.764], a = 0.2, v = 0.2, t = 0.2)
movej(p[0.382946279949672, 0.213581939299618, 0.302764353868662, -1.33, 0.73, -0.764], a = 0.2, v = 0.2, t = 0.2)
movej(p[0.382972094060719, 0.213613171999817, 0.302379480967422, -1.33, 0.73, -0.764], a = 0.2, v = 0.2, t = 0.2)
movej(p[0.382997908171766, 0.213644404700015, 0.301994608066181, -1.33, 0.73, -0.764], a = 0.2, v = 0.2, t = 0.2)
movej(p[0.383023722282813, 0.213675637400214, 0.301609735164941, -1.33, 0.73, -0.764], a = 0.2, v = 0.2, t = 0.2)
movej(p[0.38304953639386, 0.213706870100412, 0.301224862263701, -1.33, 0.73, -0.764], a = 0.2, v = 0.2, t = 0.2)
movej(p[0.383075350504907, 0.21373810280061, 0.30083998936246, -1.33, 0.73, -0.764], a = 0.2, v = 0.2, t = 0.2)
movej(p[0.383101164615954, 0.213769335500809, 0.30045511646122, -1.33, 0.73, -0.764], a = 0.2, v = 0.2, t = 0.2)
movej(p[0.383126978727001, 0.213800568201007, 0.30007024355998, -1.33, 0.73, -0.764], a = 0.2, v = 0.2, t = 0.2)
movej(p[0.383152792838048, 0.213831800901206, 0.299685370658739, -1.33, 0.73, -0.764], a = 0.2, v = 0.2, t = 0.2)
movej(p[0.383178606949095, 0.213863033601404, 0.299300497757499, -1.33, 0.73, -0.764], a = 0.2, v = 0.2, t = 0.2)
movej(p[0.383204421060142, 0.213894266301602, 0.298915624856259, -1.33, 0.73, -0.764], a = 0.2, v = 0.2, t = 0.2)
movej(p[0.383230235171188, 0.213925499001801, 0.298530751955018, -1.33, 0.73, -0.764], a = 0.2, v = 0.2, t = 0.2)
movej(p[0.383256049282235, 0.213956731701999, 0.298145879053778, -1.33, 0.73, -0.764], a = 0.2, v = 0.2, t = 0.2)
movej(p[0.383281863393282, 0.213987964402198, 0.297761006152538, -1.33, 0.73, -0.764], a = 0.2, v = 0.2, t = 0.2)
movej(p[0.38327519308035, 0.21397989393703, 0.297860456514615, -1.33, 0.73, -0.764], a = 0.2, v = 0.2, t = 0.2)
movej(p[0.383257603465149, 0.213958612120383, 0.298122707119414, -1.33, 0.73, -0.764], a = 0.2, v = 0.2, t = 0.2)
movej(p[0.383130720772556, 0.213805095731966, 0.300014451906854, -1.33, 0.73, -0.764], a = 0.2, v = 0.2, t = 0.2)
movej(p[0.383037376413385, 0.213692157642412, 0.301406160273768, -1.33, 0.73, -0.764], a = 0.2, v = 0.2, t = 0.2)
movej(p[0.382913341944413, 0.213542087342621, 0.303255439756601, -1.33, 0.73, -0.764], a = 0.2, v = 0.2, t = 0.2)
movej(p[0.382807323990672, 0.213413815369248, 0.304836103811463, -1.33, 0.73, -0.764], a = 0.2, v = 0.2, t = 0.2)
movej(p[0.382747778107127, 0.213341770326697, 0.30572389719373, -1.33, 0.73, -0.764], a = 0.2, v = 0.2, t = 0.2)
movej(p[0.382708343217073, 0.213294057736627, 0.306311847734333, -1.33, 0.73, -0.764], a = 0.2, v = 0.2, t = 0.2)
movej(p[0.38268285595136, 0.213263220489222, 0.306691847567831, -1.33, 0.73, -0.764], a = 0.2, v = 0.2, t = 0.2)
movej(p[0.382656548237156, 0.213231390574601, 0.307084079795865, -1.33, 0.73, -0.764], a = 0.2, v = 0.2, t = 0.2)
movej(p[0.382637297714034, 0.213208099212127, 0.307371093540821, -1.33, 0.73, -0.764], a = 0.2, v = 0.2, t = 0.2)
movej(p[0.382630627401102, 0.21320002874696, 0.307470543902899, -1.33, 0.73, -0.764], a = 0.2, v = 0.2, t = 0.2)
movej(p[0.382637297714034, 0.213208099212127, 0.307371093540821, -1.33, 0.73, -0.764], a = 0.2, v = 0.2, t = 0.2)
movej(p[0.38268524392339, 0.213266109715752, 0.306656244338207, -1.33, 0.73, -0.764], a = 0.2, v = 0.2, t = 0.2)
movej(p[0.382763680133157, 0.213361010315657, 0.305486807530537, -1.33, 0.73, -0.764], a = 0.2, v = 0.2, t = 0.2)
movej(p[0.382852982282691, 0.21346905770332, 0.304155366083042, -1.33, 0.73, -0.764], a = 0.2, v = 0.2, t = 0.2)
movej(p[0.382957492745711, 0.213595505751565, 0.30259717781001, -1.33, 0.73, -0.764], a = 0.2, v = 0.2, t = 0.2)
movej(p[0.383060849244592, 0.213720557609336, 0.301056194449617, -1.33, 0.73, -0.764], a = 0.2, v = 0.2, t = 0.2)
movej(p[0.383131261067903, 0.213805749439645, 0.300006396427526, -1.33, 0.73, -0.764], a = 0.2, v = 0.2, t = 0.2)
movej(p[0.383217601598495, 0.213910213540774, 0.298719110940793, -1.33, 0.73, -0.764], a = 0.2, v = 0.2, t = 0.2)
movej(p[0.383255615711895, 0.213956207121763, 0.298152343327313, -1.33, 0.73, -0.764], a = 0.2, v = 0.2, t = 0.2)
movej(p[0.383248945398963, 0.213948136656596, 0.298251793689391, -1.33, 0.73, -0.764], a = 0.2, v = 0.2, t = 0.2)
movej(p[0.383212665566926, 0.21390424139655, 0.298792704208731, -1.33, 0.73, -0.764], a = 0.2, v = 0.2, t = 0.2)
movej(p[0.38321258552317, 0.213904144550968, 0.298793897613076, -1.33, 0.73, -0.764], a = 0.2, v = 0.2, t = 0.2)
movej(p[0.383212091920013, 0.213903547336545, 0.298801256939869, -1.33, 0.73, -0.764], a = 0.2, v = 0.2, t = 0.2)
movej(p[0.383205421607081, 0.213895476871378, 0.298900707301947, -1.33, 0.73, -0.764], a = 0.2, v = 0.2, t = 0.2)
movej(p[0.383213866223253, 0.21390569408028, 0.298774803143557, -1.33, 0.73, -0.764], a = 0.2, v = 0.2, t = 0.2)
movej(p[0.383272698383314, 0.213976875583057, 0.297897650950032, -1.33, 0.73, -0.764], a = 0.2, v = 0.2, t = 0.2)
movej(p[0.383366182819056, 0.214089983152381, 0.296503854125514, -1.33, 0.73, -0.764], a = 0.2, v = 0.2, t = 0.2)
movej(p[0.383485201212703, 0.214233984462365, 0.294729361314964, -1.33, 0.73, -0.764], a = 0.2, v = 0.2, t = 0.2)
movej(p[0.383548435779298, 0.214310492472154, 0.293786571882468, -1.33, 0.73, -0.764], a = 0.2, v = 0.2, t = 0.2)
movej(p[0.383580640050134, 0.214349456677982, 0.293306425534357, -1.33, 0.73, -0.764], a = 0.2, v = 0.2, t = 0.2)
movej(p[0.383573969737202, 0.214341386212815, 0.293405875896435, -1.33, 0.73, -0.764], a = 0.2, v = 0.2, t = 0.2)
movej(p[0.383572315499595, 0.214339384737453, 0.29343053958623, -1.33, 0.73, -0.764], a = 0.2, v = 0.2, t = 0.2)
movej(p[0.383490477430232, 0.214240368200313, 0.29465069607856, -1.33, 0.73, -0.764], a = 0.2, v = 0.2, t = 0.2)
movej(p[0.383378896435505, 0.21410536545899, 0.296314301735394, -1.33, 0.73, -0.764], a = 0.2, v = 0.2, t = 0.2)
movej(p[0.383259311065259, 0.213960678159466, 0.298097247826722, -1.33, 0.73, -0.764], a = 0.2, v = 0.2, t = 0.2)
movej(p[0.383108055049212, 0.213777672291327, 0.300352384237194, -1.33, 0.73, -0.764], a = 0.2, v = 0.2, t = 0.2)
movej(p[0.38295257672508, 0.213589557818737, 0.302670472726861, -1.33, 0.73, -0.764], a = 0.2, v = 0.2, t = 0.2)
movej(p[0.382827755159183, 0.213438535204056, 0.304531487352419, -1.33, 0.73, -0.764], a = 0.2, v = 0.2, t = 0.2)
movej(p[0.382736325179823, 0.213327913338005, 0.305894653465417, -1.33, 0.73, -0.764], a = 0.2, v = 0.2, t = 0.2)
movej(p[0.382664232437654, 0.213240687750474, 0.306969512978752, -1.33, 0.73, -0.764], a = 0.2, v = 0.2, t = 0.2)
movej(p[0.382621215589555, 0.213188641320608, 0.30761086836379, -1.33, 0.73, -0.764], a = 0.2, v = 0.2, t = 0.2)
movej(p[0.382614545276623, 0.213180570855441, 0.307710318725868, -1.33, 0.73, -0.764], a = 0.2, v = 0.2, t = 0.2)
movej(p[0.382649511057013, 0.213222876233849, 0.307188999927857, -1.33, 0.73, -0.764], a = 0.2, v = 0.2, t = 0.2)
movej(p[0.382767268761515, 0.213365352225917, 0.305433303235739, -1.33, 0.73, -0.764], a = 0.2, v = 0.2, t = 0.2)
movej(p[0.382917377483737, 0.213546969974047, 0.303195272287545, -1.33, 0.73, -0.764], a = 0.2, v = 0.2, t = 0.2)
movej(p[0.383069227157635, 0.213730694113587, 0.300931284794848, -1.33, 0.73, -0.764], a = 0.2, v = 0.2, t = 0.2)
movej(p[0.383203026964739, 0.213892579574382, 0.298936409981933, -1.33, 0.73, -0.764], a = 0.2, v = 0.2, t = 0.2)
movej(p[0.383333511626315, 0.21405045401399, 0.296990961998971, -1.33, 0.73, -0.764], a = 0.2, v = 0.2, t = 0.2)
movej(p[0.383474535382324, 0.214221079788562, 0.294888382443926, -1.33, 0.73, -0.764], a = 0.2, v = 0.2, t = 0.2)
movej(p[0.383492004931893, 0.214242216336836, 0.294627921945644, -1.33, 0.73, -0.764], a = 0.2, v = 0.2, t = 0.2)
movej(p[0.383485334618961, 0.214234145871669, 0.294727372307722, -1.33, 0.73, -0.764], a = 0.2, v = 0.2, t = 0.2)
movej(p[0.383460527725167, 0.21420413181171, 0.295097228204289, -1.33, 0.73, -0.764], a = 0.2, v = 0.2, t = 0.2)
movej(p[0.383251093239727, 0.21395073534638, 0.298219770672802, -1.33, 0.73, -0.764], a = 0.2, v = 0.2, t = 0.2)
movej(p[0.382963796191431, 0.213603132341148, 0.302503197217846, -1.33, 0.73, -0.764], a = 0.2, v = 0.2, t = 0.2)
movej(p[0.382816342253756, 0.213424726638155, 0.304701646921934, -1.33, 0.73, -0.764], a = 0.2, v = 0.2, t = 0.2)
movej(p[0.382736785431415, 0.213328470200101, 0.305887791390434, -1.33, 0.73, -0.764], a = 0.2, v = 0.2, t = 0.2)
movej(p[0.38269698367415, 0.213280313734447, 0.306481211700951, -1.33, 0.73, -0.764], a = 0.2, v = 0.2, t = 0.2)
movej(p[0.382662925056319, 0.213239105939301, 0.306989005249719, -1.33, 0.73, -0.764], a = 0.2, v = 0.2, t = 0.2)
movej(p[0.382648350422563, 0.21322147197291, 0.307206304290859, -1.33, 0.73, -0.764], a = 0.2, v = 0.2, t = 0.2)
movej(p[0.382635523410794, 0.213205952468393, 0.307397547337134, -1.33, 0.73, -0.764], a = 0.2, v = 0.2, t = 0.2)
movej(p[0.382619848175404, 0.213186986875249, 0.307631255688016, -1.33, 0.73, -0.764], a = 0.2, v = 0.2, t = 0.2)
movej(p[0.382613177862472, 0.213178916410081, 0.307730706050094, -1.33, 0.73, -0.764], a = 0.2, v = 0.2, t = 0.2)
movej(p[0.382653019641615, 0.213227121298527, 0.307136689037404, -1.33, 0.73, -0.764], a = 0.2, v = 0.2, t = 0.2)
movej(p[0.382765621194221, 0.213363358821021, 0.305457867475172, -1.33, 0.73, -0.764], a = 0.2, v = 0.2, t = 0.2)
movej(p[0.382882911976818, 0.213505269880527, 0.3037091323084, -1.33, 0.73, -0.764], a = 0.2, v = 0.2, t = 0.2)
movej(p[0.383018339340277, 0.213669124534823, 0.301689991607138, -1.33, 0.73, -0.764], a = 0.2, v = 0.2, t = 0.2)
movej(p[0.383128005955192, 0.213801811052643, 0.30005492820422, -1.33, 0.73, -0.764], a = 0.2, v = 0.2, t = 0.2)
movej(p[0.383251026536598, 0.213950654641728, 0.298220765176422, -1.33, 0.73, -0.764], a = 0.2, v = 0.2, t = 0.2)
movej(p[0.38332185191931, 0.214036346840877, 0.297164801231882, -1.33, 0.73, -0.764], a = 0.2, v = 0.2, t = 0.2)
movej(p[0.383352315238471, 0.214073204655297, 0.296710611428274, -1.33, 0.73, -0.764], a = 0.2, v = 0.2, t = 0.2)
movej(p[0.383382778557631, 0.214110062469717, 0.296256421624665, -1.33, 0.73, -0.764], a = 0.2, v = 0.2, t = 0.2)
movej(p[0.383413241876792, 0.214146920284138, 0.295802231821057, -1.33, 0.73, -0.764], a = 0.2, v = 0.2, t = 0.2)
movej(p[0.383478971140424, 0.214226446647899, 0.294822247953144, -1.33, 0.73, -0.764], a = 0.2, v = 0.2, t = 0.2)
movej(p[0.383546541410426, 0.214308200460046, 0.293814815785298, -1.33, 0.73, -0.764], a = 0.2, v = 0.2, t = 0.2)
movej(p[0.383539871097493, 0.214300129994878, 0.293914266147375, -1.33, 0.73, -0.764], a = 0.2, v = 0.2, t = 0.2)
movej(p[0.383516731781932, 0.214272133551212, 0.294259259453423, -1.33, 0.73, -0.764], a = 0.2, v = 0.2, t = 0.2)
movej(p[0.383333464934125, 0.214050397520734, 0.296991658151505, -1.33, 0.73, -0.764], a = 0.2, v = 0.2, t = 0.2)
movej(p[0.383188785846629, 0.21387534913125, 0.299148736504969, -1.33, 0.73, -0.764], a = 0.2, v = 0.2, t = 0.2)
movej(p[0.382992098329202, 0.213637375324854, 0.302081229331551, -1.33, 0.73, -0.764], a = 0.2, v = 0.2, t = 0.2)
movej(p[0.382783110754728, 0.21338451958069, 0.305197108625805, -1.33, 0.73, -0.764], a = 0.2, v = 0.2, t = 0.2)
movej(p[0.382710577771905, 0.213296761342458, 0.306278531863037, -1.33, 0.73, -0.764], a = 0.2, v = 0.2, t = 0.2)
movej(p[0.382645488858315, 0.213218009743353, 0.30724896849619, -1.33, 0.73, -0.764], a = 0.2, v = 0.2, t = 0.2)
movej(p[0.382645101980165, 0.213217541656373, 0.307254736617191, -1.33, 0.73, -0.764], a = 0.2, v = 0.2, t = 0.2)
movej(p[0.382638431667233, 0.213209471191206, 0.307354186979268, -1.33, 0.73, -0.764], a = 0.2, v = 0.2, t = 0.2)
movej(p[0.382748164985277, 0.213342238413677, 0.305718129072729, -1.33, 0.73, -0.764], a = 0.2, v = 0.2, t = 0.2)
movej(p[0.382889655663192, 0.213513429120811, 0.303608587992339, -1.33, 0.73, -0.764], a = 0.2, v = 0.2, t = 0.2)
movej(p[0.3830364559102, 0.213691043918218, 0.301419884423735, -1.33, 0.73, -0.764], a = 0.2, v = 0.2, t = 0.2)
movej(p[0.3831717498674, 0.213854737163212, 0.299402732729715, -1.33, 0.73, -0.764], a = 0.2, v = 0.2, t = 0.2)
movej(p[0.383274065797465, 0.213978530028417, 0.297877263625806, -1.33, 0.73, -0.764], a = 0.2, v = 0.2, t = 0.2)
movej(p[0.383410093489088, 0.214143111024579, 0.295849172391958, -1.33, 0.73, -0.764], a = 0.2, v = 0.2, t = 0.2)
movej(p[0.383546207894779, 0.214307796936788, 0.293819788303402, -1.33, 0.73, -0.764], a = 0.2, v = 0.2, t = 0.2)
movej(p[0.383539537581847, 0.21429972647162, 0.293919238665479, -1.33, 0.73, -0.764], a = 0.2, v = 0.2, t = 0.2)
movej(p[0.383438789175321, 0.214177830165729, 0.2954213369343, -1.33, 0.73, -0.764], a = 0.2, v = 0.2, t = 0.2)
movej(p[0.383259437801205, 0.213960831498304, 0.298095358269842, -1.33, 0.73, -0.764], a = 0.2, v = 0.2, t = 0.2)
movej(p[0.383058161108481, 0.213717305211874, 0.301096272945534, -1.33, 0.73, -0.764], a = 0.2, v = 0.2, t = 0.2)
movej(p[0.382932212259698, 0.21356491868858, 0.302974094682284, -1.33, 0.73, -0.764], a = 0.2, v = 0.2, t = 0.2)
movej(p[0.382891810174269, 0.21351603588106, 0.303576465525388, -1.33, 0.73, -0.764], a = 0.2, v = 0.2, t = 0.2)
movej(p[0.382865782613208, 0.213484544925976, 0.303964520838215, -1.33, 0.73, -0.764], a = 0.2, v = 0.2, t = 0.2)
movej(p[0.382779008512275, 0.213379556244612, 0.305258270598482, -1.33, 0.73, -0.764], a = 0.2, v = 0.2, t = 0.2)
movej(p[0.382702780176088, 0.213287326968677, 0.306394789336305, -1.33, 0.73, -0.764], a = 0.2, v = 0.2, t = 0.2)
movej(p[0.382661317510902, 0.213237160957196, 0.30701297278698, -1.33, 0.73, -0.764], a = 0.2, v = 0.2, t = 0.2)
movej(p[0.382633088746574, 0.213203006748607, 0.307433846719292, -1.33, 0.73, -0.764], a = 0.2, v = 0.2, t = 0.2)
movej(p[0.382626418433642, 0.213194936283439, 0.30753329708137, -1.33, 0.73, -0.764], a = 0.2, v = 0.2, t = 0.2)
movej(p[0.382680207837126, 0.21326001651455, 0.306731329361576, -1.33, 0.73, -0.764], a = 0.2, v = 0.2, t = 0.2)
movej(p[0.382767155366195, 0.213365215028009, 0.305434993891894, -1.33, 0.73, -0.764], a = 0.2, v = 0.2, t = 0.2)
movej(p[0.382888595083436, 0.213512145916849, 0.303624400599909, -1.33, 0.73, -0.764], a = 0.2, v = 0.2, t = 0.2)
movej(p[0.382993132227706, 0.213638626246955, 0.302065814525429, -1.33, 0.73, -0.764], a = 0.2, v = 0.2, t = 0.2)
movej(p[0.38310311234733, 0.213771692076638, 0.300426076955493, -1.33, 0.73, -0.764], a = 0.2, v = 0.2, t = 0.2)
movej(p[0.38321597404214, 0.213908244347273, 0.29874337682914, -1.33, 0.73, -0.764], a = 0.2, v = 0.2, t = 0.2)
movej(p[0.383341649408092, 0.214060299981494, 0.296869632557236, -1.33, 0.73, -0.764], a = 0.2, v = 0.2, t = 0.2)
movej(p[0.383391323228497, 0.214120400735597, 0.296129025710844, -1.33, 0.73, -0.764], a = 0.2, v = 0.2, t = 0.2)
movej(p[0.383384652915565, 0.21411233027043, 0.296228476072922, -1.33, 0.73, -0.764], a = 0.2, v = 0.2, t = 0.2)
movej(p[0.383218808925136, 0.213911674294969, 0.298701110425257, -1.33, 0.73, -0.764], a = 0.2, v = 0.2, t = 0.2)
movej(p[0.383021194234211, 0.213672578693915, 0.301647426852169, -1.33, 0.73, -0.764], a = 0.2, v = 0.2, t = 0.2)
movej(p[0.382882024825198, 0.213504196508659, 0.303722359206556, -1.33, 0.73, -0.764], a = 0.2, v = 0.2, t = 0.2)
movej(p[0.38280436237173, 0.213410232082714, 0.304880259772225, -1.33, 0.73, -0.764], a = 0.2, v = 0.2, t = 0.2)
movej(p[0.382755082099788, 0.213350607486056, 0.305614999047255, -1.33, 0.73, -0.764], a = 0.2, v = 0.2, t = 0.2)
movej(p[0.382740434092589, 0.213332884744548, 0.305833392042377, -1.33, 0.73, -0.764], a = 0.2, v = 0.2, t = 0.2)
movej(p[0.382698978097717, 0.213282726803532, 0.30645147604269, -1.33, 0.73, -0.764], a = 0.2, v = 0.2, t = 0.2)
movej(p[0.382671703188138, 0.213249726671462, 0.306858128573225, -1.33, 0.73, -0.764], a = 0.2, v = 0.2, t = 0.2)
movej(p[0.382666827189384, 0.213243827161424, 0.306930826787904, -1.33, 0.73, -0.764], a = 0.2, v = 0.2, t = 0.2)
movej(p[0.382660030140507, 0.213235603357418, 0.307032166706861, -1.33, 0.73, -0.764], a = 0.2, v = 0.2, t = 0.2)
movej(p[0.382632281638709, 0.213202030222321, 0.307445880213104, -1.33, 0.73, -0.764], a = 0.2, v = 0.2, t = 0.2)
movej(p[0.382622996563108, 0.213190796134808, 0.307584315117116, -1.33, 0.73, -0.764], a = 0.2, v = 0.2, t = 0.2)
movej(p[0.382597609352089, 0.21316007994438, 0.307962823195183, -1.33, 0.73, -0.764], a = 0.2, v = 0.2, t = 0.2)
movej(p[0.382580233186901, 0.213139056382619, 0.308221891388395, -1.33, 0.73, -0.764], a = 0.2, v = 0.2, t = 0.2)
movej(p[0.382565258334368, 0.213120938188318, 0.30844515745126, -1.33, 0.73, -0.764], a = 0.2, v = 0.2, t = 0.2)
movej(p[0.382558588021436, 0.21311286772315, 0.308544607813337, -1.33, 0.73, -0.764], a = 0.2, v = 0.2, t = 0.2)
movej(p[0.382568773589283, 0.213125191323461, 0.308392747110445, -1.33, 0.73, -0.764], a = 0.2, v = 0.2, t = 0.2)
movej(p[0.382600811102296, 0.213163953767661, 0.307915087021386, -1.33, 0.73, -0.764], a = 0.2, v = 0.2, t = 0.2)
movej(p[0.382671976670968, 0.213250057560533, 0.30685405110838, -1.33, 0.73, -0.764], a = 0.2, v = 0.2, t = 0.2)
movej(p[0.382753734696576, 0.213348977252092, 0.305635088020395, -1.33, 0.73, -0.764], a = 0.2, v = 0.2, t = 0.2)
movej(p[0.382880737454802, 0.213502638908882, 0.303741553126437, -1.33, 0.73, -0.764], a = 0.2, v = 0.2, t = 0.2)
movej(p[0.383003944804969, 0.213651708470992, 0.301904605488501, -1.33, 0.73, -0.764], a = 0.2, v = 0.2, t = 0.2)
movej(p[0.383144208145304, 0.213821414212535, 0.299813363274733, -1.33, 0.73, -0.764], a = 0.2, v = 0.2, t = 0.2)
movej(p[0.383278181380544, 0.213983509505425, 0.297815902752404, -1.33, 0.73, -0.764], a = 0.2, v = 0.2, t = 0.2)
movej(p[0.383418358006811, 0.214153110330921, 0.295725953393343, -1.33, 0.73, -0.764], a = 0.2, v = 0.2, t = 0.2)
movej(p[0.383556113309483, 0.214319781577561, 0.293672104515717, -1.33, 0.73, -0.764], a = 0.2, v = 0.2, t = 0.2)
movej(p[0.38363179468001, 0.214411349075352, 0.292543740707584, -1.33, 0.73, -0.764], a = 0.2, v = 0.2, t = 0.2)
movej(p[0.383625124367078, 0.214403278610185, 0.292643191069662, -1.33, 0.73, -0.764], a = 0.2, v = 0.2, t = 0.2)
movej(p[0.383614011625733, 0.214389833215216, 0.292808875372883, -1.33, 0.73, -0.764], a = 0.2, v = 0.2, t = 0.2)
movej(p[0.383537843322362, 0.214297676573467, 0.293944499057447, -1.33, 0.73, -0.764], a = 0.2, v = 0.2, t = 0.2)
movej(p[0.383456959107748, 0.214199814112846, 0.295150434148, -1.33, 0.73, -0.764], a = 0.2, v = 0.2, t = 0.2)
movej(p[0.38335365597137, 0.214074826818796, 0.296690621905496, -1.33, 0.73, -0.764], a = 0.2, v = 0.2, t = 0.2)
movej(p[0.383095334762451, 0.213762281914252, 0.300542036077676, -1.33, 0.73, -0.764], a = 0.2, v = 0.2, t = 0.2)
movej(p[0.382933939870748, 0.213567008939058, 0.302948337038506, -1.33, 0.73, -0.764], a = 0.2, v = 0.2, t = 0.2)
movej(p[0.382835499392497, 0.213447905014116, 0.304416025482047, -1.33, 0.73, -0.764], a = 0.2, v = 0.2, t = 0.2)
movej(p[0.382750572968246, 0.213345151851603, 0.305682227492019, -1.33, 0.73, -0.764], a = 0.2, v = 0.2, t = 0.2)
movej(p[0.382718955684948, 0.213306897846708, 0.306153622208267, -1.33, 0.73, -0.764], a = 0.2, v = 0.2, t = 0.2)
movej(p[0.382689512923666, 0.213271274813459, 0.306592596106478, -1.33, 0.73, -0.764], a = 0.2, v = 0.2, t = 0.2)
movej(p[0.382666987276895, 0.213244020852588, 0.306928439979214, -1.33, 0.73, -0.764], a = 0.2, v = 0.2, t = 0.2)
movej(p[0.382637958075014, 0.213208898188179, 0.307361247954976, -1.33, 0.73, -0.764], a = 0.2, v = 0.2, t = 0.2)
movej(p[0.382625851457043, 0.2131942502939, 0.307541750362147, -1.33, 0.73, -0.764], a = 0.2, v = 0.2, t = 0.2)
movej(p[0.382604159599388, 0.213168005141175, 0.307865162939623, -1.33, 0.73, -0.764], a = 0.2, v = 0.2, t = 0.2)
movej(p[0.382597489286456, 0.213159934676007, 0.307964613301701, -1.33, 0.73, -0.764], a = 0.2, v = 0.2, t = 0.2)
movej(p[0.382649651133584, 0.213223045713618, 0.307186911470254, -1.33, 0.73, -0.764], a = 0.2, v = 0.2, t = 0.2)
movej(p[0.382754295002862, 0.213349655171166, 0.30562673418998, -1.33, 0.73, -0.764], a = 0.2, v = 0.2, t = 0.2)
movej(p[0.382908619362858, 0.213536373453282, 0.303325850612952, -1.33, 0.73, -0.764], a = 0.2, v = 0.2, t = 0.2)
movej(p[0.38306543841989, 0.213726110089371, 0.300987772600508, -1.33, 0.73, -0.764], a = 0.2, v = 0.2, t = 0.2)
movej(p[0.383204180928876, 0.213893975764856, 0.298919205069293, -1.33, 0.73, -0.764], a = 0.2, v = 0.2, t = 0.2)
movej(p[0.383347345855336, 0.214067192158747, 0.296784701948022, -1.33, 0.73, -0.764], a = 0.2, v = 0.2, t = 0.2)
movej(p[0.383501383391876, 0.214253563410862, 0.294488094736563, -1.33, 0.73, -0.764], a = 0.2, v = 0.2, t = 0.2)
movej(p[0.383637704577268, 0.214418499507491, 0.292455627686783, -1.33, 0.73, -0.764], a = 0.2, v = 0.2, t = 0.2)
movej(p[0.383658235800472, 0.214443340399276, 0.292149519472308, -1.33, 0.73, -0.764], a = 0.2, v = 0.2, t = 0.2)
movej(p[0.38365156548754, 0.214435269934109, 0.292248969834386, -1.33, 0.73, -0.764], a = 0.2, v = 0.2, t = 0.2)
movej(p[0.383635576747442, 0.214415925029102, 0.292487352352286, -1.33, 0.73, -0.764], a = 0.2, v = 0.2, t = 0.2)
movej(p[0.383499328935493, 0.21425107770759, 0.294518725448083, -1.33, 0.73, -0.764], a = 0.2, v = 0.2, t = 0.2)
movej(p[0.383219202473599, 0.213912150452414, 0.298695242853895, -1.33, 0.73, -0.764], a = 0.2, v = 0.2, t = 0.2)
movej(p[0.382925995528046, 0.213557397015044, 0.30306678241974, -1.33, 0.73, -0.764], a = 0.2, v = 0.2, t = 0.2)
movej(p[0.382810472378376, 0.213417624628807, 0.304789163240562, -1.33, 0.73, -0.764], a = 0.2, v = 0.2, t = 0.2)
movej(p[0.382765387733268, 0.21336307635474, 0.305461348237845, -1.33, 0.73, -0.764], a = 0.2, v = 0.2, t = 0.2)
movej(p[0.382717881764566, 0.213305598501816, 0.306169633716562, -1.33, 0.73, -0.764], a = 0.2, v = 0.2, t = 0.2)
movej(p[0.382701239333801, 0.213285462691223, 0.306417762369945, -1.33, 0.73, -0.764], a = 0.2, v = 0.2, t = 0.2)
movej(p[0.382689646329925, 0.213271436222762, 0.306590607099236, -1.33, 0.73, -0.764], a = 0.2, v = 0.2, t = 0.2)
movej(p[0.382671189574042, 0.213249105245644, 0.306865786251105, -1.33, 0.73, -0.764], a = 0.2, v = 0.2, t = 0.2)
movej(p[0.382640272673602, 0.213211698639592, 0.307326738679335, -1.33, 0.73, -0.764], a = 0.2, v = 0.2, t = 0.2)
movej(p[0.382627672452473, 0.213196453530891, 0.307514600413299, -1.33, 0.73, -0.764], a = 0.2, v = 0.2, t = 0.2)
movej(p[0.382605340244777, 0.21316943361351, 0.307847560225535, -1.33, 0.73, -0.764], a = 0.2, v = 0.2, t = 0.2)
movej(p[0.382592239750178, 0.213153583219921, 0.308042880736656, -1.33, 0.73, -0.764], a = 0.2, v = 0.2, t = 0.2)
movej(p[0.382563530723319, 0.213118847937839, 0.308470915095038, -1.33, 0.73, -0.764], a = 0.2, v = 0.2, t = 0.2)
movej(p[0.382553992175826, 0.21310730717265, 0.308613129112809, -1.33, 0.73, -0.764], a = 0.2, v = 0.2, t = 0.2)
movej(p[0.382547321862894, 0.213099236707482, 0.308712579474886, -1.33, 0.73, -0.764], a = 0.2, v = 0.2, t = 0.2)
movej(p[0.382610189562278, 0.213175300841686, 0.307775259812305, -1.33, 0.73, -0.764], a = 0.2, v = 0.2, t = 0.2)
movej(p[0.382670569234939, 0.213248354692383, 0.306875035134778, -1.33, 0.73, -0.764], a = 0.2, v = 0.2, t = 0.2)
movej(p[0.382741081112944, 0.213333667579669, 0.305823745357256, -1.33, 0.73, -0.764], a = 0.2, v = 0.2, t = 0.2)
movej(p[0.382797251818144, 0.213401628966845, 0.3049862738582, -1.33, 0.73, -0.764], a = 0.2, v = 0.2, t = 0.2)
movej(p[0.382989877114996, 0.213634687859954, 0.302114346302123, -1.33, 0.73, -0.764], a = 0.2, v = 0.2, t = 0.2)
movej(p[0.383168087865601, 0.213850306477835, 0.299457330978495, -1.33, 0.73, -0.764], a = 0.2, v = 0.2, t = 0.2)
movej(p[0.383334245360738, 0.214051341765158, 0.296980022459142, -1.33, 0.73, -0.764], a = 0.2, v = 0.2, t = 0.2)
movej(p[0.383492471853798, 0.214242781269398, 0.294620960420299, -1.33, 0.73, -0.764], a = 0.2, v = 0.2, t = 0.2)
movej(p[0.383604759901696, 0.214378639480028, 0.292946813025084, -1.33, 0.73, -0.764], a = 0.2, v = 0.2, t = 0.2)
movej(p[0.383628072645394, 0.214406845755789, 0.292599234009623, -1.33, 0.73, -0.764], a = 0.2, v = 0.2, t = 0.2)
movej(p[0.383621402332462, 0.214398775290621, 0.292698684371701, -1.33, 0.73, -0.764], a = 0.2, v = 0.2, t = 0.2)
movej(p[0.383627012065638, 0.214405562551827, 0.292615046617194, -1.33, 0.73, -0.764], a = 0.2, v = 0.2, t = 0.2)
movej(p[0.383538517023968, 0.214298491690449, 0.293934454570877, -1.33, 0.73, -0.764], a = 0.2, v = 0.2, t = 0.2)
movej(p[0.383392844059846, 0.214122240801655, 0.29610635102829, -1.33, 0.73, -0.764], a = 0.2, v = 0.2, t = 0.2)
movej(p[0.383282570446453, 0.213988819871505, 0.297750464414157, -1.33, 0.73, -0.764], a = 0.2, v = 0.2, t = 0.2)
movej(p[0.383144848495346, 0.213822188977191, 0.299803816039974, -1.33, 0.73, -0.764], a = 0.2, v = 0.2, t = 0.2)
movej(p[0.382999408992175, 0.213646220554678, 0.301972231734714, -1.33, 0.73, -0.764], a = 0.2, v = 0.2, t = 0.2)
movej(p[0.382868690869646, 0.21348806364879, 0.303921160480349, -1.33, 0.73, -0.764], a = 0.2, v = 0.2, t = 0.2)
movej(p[0.38278602568148, 0.213388046373968, 0.305153648817577, -1.33, 0.73, -0.764], a = 0.2, v = 0.2, t = 0.2)
movej(p[0.382704881324662, 0.213289869165205, 0.306363462472251, -1.33, 0.73, -0.764], a = 0.2, v = 0.2, t = 0.2)
movej(p[0.38265753544347, 0.213232585003446, 0.307069361142278, -1.33, 0.73, -0.764], a = 0.2, v = 0.2, t = 0.2)
movej(p[0.382612404106172, 0.213177980236122, 0.307742242292095, -1.33, 0.73, -0.764], a = 0.2, v = 0.2, t = 0.2)
movej(p[0.382605340244777, 0.21316943361351, 0.307847560225535, -1.33, 0.73, -0.764], a = 0.2, v = 0.2, t = 0.2)
movej(p[0.382593907328411, 0.213155600836212, 0.308018018146136, -1.33, 0.73, -0.764], a = 0.2, v = 0.2, t = 0.2)
movej(p[0.382587237015479, 0.213147530371045, 0.308117468508214, -1.33, 0.73, -0.764], a = 0.2, v = 0.2, t = 0.2)
movej(p[0.3827197561225, 0.213307866302529, 0.306141688164818, -1.33, 0.73, -0.764], a = 0.2, v = 0.2, t = 0.2)
movej(p[0.382877722473356, 0.213498991058626, 0.303786504690096, -1.33, 0.73, -0.764], a = 0.2, v = 0.2, t = 0.2)
movej(p[0.383023275371846, 0.213675096679047, 0.3016163983392, -1.33, 0.73, -0.764], a = 0.2, v = 0.2, t = 0.2)
movej(p[0.383160957301076, 0.213841679150571, 0.299563643415556, -1.33, 0.73, -0.764], a = 0.2, v = 0.2, t = 0.2)
movej(p[0.383290401393835, 0.213998294597612, 0.297633709689078, -1.33, 0.73, -0.764], a = 0.2, v = 0.2, t = 0.2)
movej(p[0.383399274241512, 0.214130020730077, 0.296010480879247, -1.33, 0.73, -0.764], a = 0.2, v = 0.2, t = 0.2)
movej(p[0.383492365128792, 0.214242652141955, 0.294622551626092, -1.33, 0.73, -0.764], a = 0.2, v = 0.2, t = 0.2)
movej(p[0.383579826271956, 0.214348472081232, 0.293318558478531, -1.33, 0.73, -0.764], a = 0.2, v = 0.2, t = 0.2)
movej(p[0.383588831194415, 0.214359367209208, 0.293184300489726, -1.33, 0.73, -0.764], a = 0.2, v = 0.2, t = 0.2)
movej(p[0.383582160881483, 0.214351296744041, 0.293283750851803, -1.33, 0.73, -0.764], a = 0.2, v = 0.2, t = 0.2)
movej(p[0.383524716146512, 0.214281793898018, 0.294140217370016, -1.33, 0.73, -0.764], a = 0.2, v = 0.2, t = 0.2)
movej(p[0.383415583156631, 0.214149753017411, 0.295767324743968, -1.33, 0.73, -0.764], a = 0.2, v = 0.2, t = 0.2)
movej(p[0.383281930096412, 0.213988045106849, 0.297760011648917, -1.33, 0.73, -0.764], a = 0.2, v = 0.2, t = 0.2)
movej(p[0.383138831873081, 0.21381490941761, 0.299893520266568, -1.33, 0.73, -0.764], a = 0.2, v = 0.2, t = 0.2)
movej(p[0.383020980784198, 0.21367232043903, 0.301650609263755, -1.33, 0.73, -0.764], a = 0.2, v = 0.2, t = 0.2)
movej(p[0.382903243090634, 0.213529868658357, 0.303406007604787, -1.33, 0.73, -0.764], a = 0.2, v = 0.2, t = 0.2)
movej(p[0.382798819341683, 0.213403525526159, 0.304962903023112, -1.33, 0.73, -0.764], a = 0.2, v = 0.2, t = 0.2)
movej(p[0.382729348032496, 0.213319471631439, 0.30599867854415, -1.33, 0.73, -0.764], a = 0.2, v = 0.2, t = 0.2)
movej(p[0.382696456719428, 0.213279676167698, 0.306489068279555, -1.33, 0.73, -0.764], a = 0.2, v = 0.2, t = 0.2)
movej(p[0.38264927759606, 0.213222593767568, 0.30719248069053, -1.33, 0.73, -0.764], a = 0.2, v = 0.2, t = 0.2)
movej(p[0.382590138601605, 0.213151041023393, 0.30807420760071, -1.33, 0.73, -0.764], a = 0.2, v = 0.2, t = 0.2)
movej(p[0.382562303385739, 0.213117362972249, 0.30848921396166, -1.33, 0.73, -0.764], a = 0.2, v = 0.2, t = 0.2)
movej(p[0.382550330174026, 0.213102876487273, 0.308667727361589, -1.33, 0.73, -0.764], a = 0.2, v = 0.2, t = 0.2)
movej(p[0.382543659861094, 0.213094806022105, 0.308767177723667, -1.33, 0.73, -0.764], a = 0.2, v = 0.2, t = 0.2)
movej(p[0.382612684259315, 0.213178319195659, 0.307738065376888, -1.33, 0.73, -0.764], a = 0.2, v = 0.2, t = 0.2)
movej(p[0.382699211558669, 0.213283009269813, 0.306447995280017, -1.33, 0.73, -0.764], a = 0.2, v = 0.2, t = 0.2)
movej(p[0.382825100374636, 0.21343532315892, 0.304571068596526, -1.33, 0.73, -0.764], a = 0.2, v = 0.2, t = 0.2)
movej(p[0.382965123583705, 0.213604738363717, 0.302483406595793, -1.33, 0.73, -0.764], a = 0.2, v = 0.2, t = 0.2)
movej(p[0.383108408575798, 0.213778100025981, 0.300347113368004, -1.33, 0.73, -0.764], a = 0.2, v = 0.2, t = 0.2)
movej(p[0.383229888314916, 0.213925079337612, 0.298535923373846, -1.33, 0.73, -0.764], a = 0.2, v = 0.2, t = 0.2)
movej(p[0.383348306380398, 0.214068354305732, 0.296770381095882, -1.33, 0.73, -0.764], a = 0.2, v = 0.2, t = 0.2)
movej(p[0.383461621656488, 0.214205455367998, 0.295080918344908, -1.33, 0.73, -0.764], a = 0.2, v = 0.2, t = 0.2)
movej(p[0.383575610634183, 0.214343371547246, 0.293381411107364, -1.33, 0.73, -0.764], a = 0.2, v = 0.2, t = 0.2)
movej(p[0.383588364272509, 0.214358802276646, 0.293191262015071, -1.33, 0.73, -0.764], a = 0.2, v = 0.2, t = 0.2)
movej(p[0.383581693959577, 0.214350731811479, 0.293290712377149, -1.33, 0.73, -0.764], a = 0.2, v = 0.2, t = 0.2)
movej(p[0.383523081919844, 0.214279816634052, 0.294164582708725, -1.33, 0.73, -0.764], a = 0.2, v = 0.2, t = 0.2)
movej(p[0.383455038057624, 0.214197489818878, 0.295179075852279, -1.33, 0.73, -0.764], a = 0.2, v = 0.2, t = 0.2)
movej(p[0.383305696421389, 0.214016800174241, 0.297405670008834, -1.33, 0.73, -0.764], a = 0.2, v = 0.2, t = 0.2)
movej(p[0.383094347556137, 0.213761087485408, 0.300556754731263, -1.33, 0.73, -0.764], a = 0.2, v = 0.2, t = 0.2)
movej(p[0.382929437409518, 0.21356156137507, 0.303015466032908, -1.33, 0.73, -0.764], a = 0.2, v = 0.2, t = 0.2)
movej(p[0.382826007537194, 0.213436420742182, 0.304557543347284, -1.33, 0.73, -0.764], a = 0.2, v = 0.2, t = 0.2)
movej(p[0.382718221950526, 0.21330601009554, 0.306164561748096, -1.33, 0.73, -0.764], a = 0.2, v = 0.2, t = 0.2)
movej(p[0.382680014398051, 0.21325978247106, 0.306734213422076, -1.33, 0.73, -0.764], a = 0.2, v = 0.2, t = 0.2)
movej(p[0.382644781805144, 0.213217154274045, 0.30725951023457, -1.33, 0.73, -0.764], a = 0.2, v = 0.2, t = 0.2)
movej(p[0.38261786042215, 0.213184581876629, 0.307660891895916, -1.33, 0.73, -0.764], a = 0.2, v = 0.2, t = 0.2)
movej(p[0.382611190109218, 0.213176511411462, 0.307760342257993, -1.33, 0.73, -0.764], a = 0.2, v = 0.2, t = 0.2)
movej(p[0.382618547464382, 0.213185413134541, 0.307650648508622, -1.33, 0.73, -0.764], a = 0.2, v = 0.2, t = 0.2)
movej(p[0.382739400194085, 0.213331633822447, 0.305848806848499, -1.33, 0.73, -0.764], a = 0.2, v = 0.2, t = 0.2)
movej(p[0.382883065394015, 0.213505455501226, 0.303706844950072, -1.33, 0.73, -0.764], a = 0.2, v = 0.2, t = 0.2)
movej(p[0.383013036441496, 0.213662708515015, 0.301769054644989, -1.33, 0.73, -0.764], a = 0.2, v = 0.2, t = 0.2)
movej(p[0.383158029033699, 0.213838136216362, 0.299607302124508, -1.33, 0.73, -0.764], a = 0.2, v = 0.2, t = 0.2)
movej(p[0.383292262411143, 0.214000546257394, 0.297605963038059, -1.33, 0.73, -0.764], a = 0.2, v = 0.2, t = 0.2)
movej(p[0.38340795898895, 0.214140528475725, 0.295880996507822, -1.33, 0.73, -0.764], a = 0.2, v = 0.2, t = 0.2)
movej(p[0.383422687039904, 0.214158348062815, 0.295661410108355, -1.33, 0.73, -0.764], a = 0.2, v = 0.2, t = 0.2)
movej(p[0.383425835427607, 0.214162157322374, 0.295614469537454, -1.33, 0.73, -0.764], a = 0.2, v = 0.2, t = 0.2)
movej(p[0.383422687039904, 0.214158348062815, 0.295661410108355, -1.33, 0.73, -0.764], a = 0.2, v = 0.2, t = 0.2)
movej(p[0.383411834440763, 0.214145217415987, 0.295823215847455, -1.33, 0.73, -0.764], a = 0.2, v = 0.2, t = 0.2)
movej(p[0.383324920263259, 0.214040059254854, 0.297119054065327, -1.33, 0.73, -0.764], a = 0.2, v = 0.2, t = 0.2)
movej(p[0.383169461950065, 0.213851968993659, 0.299436844203907, -1.33, 0.73, -0.764], a = 0.2, v = 0.2, t = 0.2)
movej(p[0.38302669724238, 0.213679236827678, 0.301565380303454, -1.33, 0.73, -0.764], a = 0.2, v = 0.2, t = 0.2)
movej(p[0.382865815964773, 0.213484585278302, 0.303964023586404, -1.33, 0.73, -0.764], a = 0.2, v = 0.2, t = 0.2)
movej(p[0.382761939181482, 0.213358903924248, 0.305512764075039, -1.33, 0.73, -0.764], a = 0.2, v = 0.2, t = 0.2)
movej(p[0.382704334359001, 0.213289207387061, 0.306371617401941, -1.33, 0.73, -0.764], a = 0.2, v = 0.2, t = 0.2)
movej(p[0.382680761473099, 0.213260686363159, 0.306723074981524, -1.33, 0.73, -0.764], a = 0.2, v = 0.2, t = 0.2)
movej(p[0.382672096736601, 0.213250202828906, 0.306852261001862, -1.33, 0.73, -0.764], a = 0.2, v = 0.2, t = 0.2)
movej(p[0.382628733032229, 0.213197736734852, 0.307498787805729, -1.33, 0.73, -0.764], a = 0.2, v = 0.2, t = 0.2)
movej(p[0.382597836142728, 0.213160354340196, 0.307959441882873, -1.33, 0.73, -0.764], a = 0.2, v = 0.2, t = 0.2)
movej(p[0.382565451773443, 0.213121172231808, 0.308442273390759, -1.33, 0.73, -0.764], a = 0.2, v = 0.2, t = 0.2)
movej(p[0.382541945590671, 0.213092731912557, 0.308792736466721, -1.33, 0.73, -0.764], a = 0.2, v = 0.2, t = 0.2)
movej(p[0.382535275277739, 0.21308466144739, 0.308892186828798, -1.33, 0.73, -0.764], a = 0.2, v = 0.2, t = 0.2)
movej(p[0.382577938599252, 0.213136280142601, 0.30825610231295, -1.33, 0.73, -0.764], a = 0.2, v = 0.2, t = 0.2)
movej(p[0.382721336986665, 0.213309779002773, 0.306118118429005, -1.33, 0.73, -0.764], a = 0.2, v = 0.2, t = 0.2)
movej(p[0.382866122799168, 0.2134849565197, 0.303959448869749, -1.33, 0.73, -0.764], a = 0.2, v = 0.2, t = 0.2)
movej(p[0.383022881823383, 0.213674620521603, 0.301622265910563, -1.33, 0.73, -0.764], a = 0.2, v = 0.2, t = 0.2)
movej(p[0.383149671131595, 0.213828023923507, 0.299731913428192, -1.33, 0.73, -0.764], a = 0.2, v = 0.2, t = 0.2)
movej(p[0.38329559756761, 0.214004581489978, 0.29755623785702, -1.33, 0.73, -0.764], a = 0.2, v = 0.2, t = 0.2)
movej(p[0.383443992019408, 0.21418412512856, 0.295343765651879, -1.33, 0.73, -0.764], a = 0.2, v = 0.2, t = 0.2)
movej(p[0.383451296012069, 0.214192962287919, 0.295234867505404, -1.33, 0.73, -0.764], a = 0.2, v = 0.2, t = 0.2)
movej(p[0.383444625699137, 0.214184891822751, 0.295334317867482, -1.33, 0.73, -0.764], a = 0.2, v = 0.2, t = 0.2)
movej(p[0.383263540043658, 0.213965794834382, 0.298034196297165, -1.33, 0.73, -0.764], a = 0.2, v = 0.2, t = 0.2)
movej(p[0.38304985656888, 0.21370725748274, 0.301220088646321, -1.33, 0.73, -0.764], a = 0.2, v = 0.2, t = 0.2)
movej(p[0.382887214328659, 0.21351047533056, 0.303644986824859, -1.33, 0.73, -0.764], a = 0.2, v = 0.2, t = 0.2)
movej(p[0.382788226884747, 0.213390709627473, 0.305120830198091, -1.33, 0.73, -0.764], a = 0.2, v = 0.2, t = 0.2)
movej(p[0.382741127805134, 0.213333724072925, 0.305823049204721, -1.33, 0.73, -0.764], a = 0.2, v = 0.2, t = 0.2)
movej(p[0.3826882922564, 0.213269797918333, 0.306610795522738, -1.33, 0.73, -0.764], a = 0.2, v = 0.2, t = 0.2)
movej(p[0.382651458788389, 0.213225232809678, 0.307159960422131, -1.33, 0.73, -0.764], a = 0.2, v = 0.2, t = 0.2)
movej(p[0.382600917827303, 0.213164082895104, 0.307913495815593, -1.33, 0.73, -0.764], a = 0.2, v = 0.2, t = 0.2)
movej(p[0.382578832421185, 0.213137361584934, 0.308242775964432, -1.33, 0.73, -0.764], a = 0.2, v = 0.2, t = 0.2)
movej(p[0.382556406829107, 0.213110228681041, 0.308577128081737, -1.33, 0.73, -0.764], a = 0.2, v = 0.2, t = 0.2)
movej(p[0.38254069157184, 0.213091214665106, 0.308811433134791, -1.33, 0.73, -0.764], a = 0.2, v = 0.2, t = 0.2)
movej(p[0.382534021258908, 0.213083144199938, 0.308910883496869, -1.33, 0.73, -0.764], a = 0.2, v = 0.2, t = 0.2)
movej(p[0.382566939253227, 0.21312297194554, 0.308420095960016, -1.33, 0.73, -0.764], a = 0.2, v = 0.2, t = 0.2)
movej(p[0.382631287762082, 0.213200827723011, 0.307460698317053, -1.33, 0.73, -0.764], a = 0.2, v = 0.2, t = 0.2)
movej(p[0.382821638482224, 0.213431134587498, 0.304622683334444, -1.33, 0.73, -0.764], a = 0.2, v = 0.2, t = 0.2)
movej(p[0.383008333870879, 0.213657018837072, 0.301839167150254, -1.33, 0.73, -0.764], a = 0.2, v = 0.2, t = 0.2)
movej(p[0.383143914651535, 0.213821059112068, 0.299817739090665, -1.33, 0.73, -0.764], a = 0.2, v = 0.2, t = 0.2)
movej(p[0.383273658908376, 0.213978037730042, 0.297883330097893, -1.33, 0.73, -0.764], a = 0.2, v = 0.2, t = 0.2)
movej(p[0.383426515799527, 0.214162980509821, 0.295604325600522, -1.33, 0.73, -0.764], a = 0.2, v = 0.2, t = 0.2)
movej(p[0.38349786813696, 0.214249310275718, 0.294540505077378, -1.33, 0.73, -0.764], a = 0.2, v = 0.2, t = 0.2)
movej(p[0.383491197824028, 0.214241239810551, 0.294639955439456, -1.33, 0.73, -0.764], a = 0.2, v = 0.2, t = 0.2)
movej(p[0.383303775371264, 0.214014475880273, 0.297434311713113, -1.33, 0.73, -0.764], a = 0.2, v = 0.2, t = 0.2)
movej(p[0.383053185055034, 0.213711284644859, 0.301170462915644, -1.33, 0.73, -0.764], a = 0.2, v = 0.2, t = 0.2)
movej(p[0.382874900930986, 0.21349557725186, 0.303828572193255, -1.33, 0.73, -0.764], a = 0.2, v = 0.2, t = 0.2)
movej(p[0.382762599542462, 0.2133597029003, 0.305502918489193, -1.33, 0.73, -0.764], a = 0.2, v = 0.2, t = 0.2)
movej(p[0.382717721677056, 0.213305404810652, 0.306172020525252, -1.33, 0.73, -0.764], a = 0.2, v = 0.2, t = 0.2)
movej(p[0.382679100565179, 0.213258676817332, 0.306747838121681, -1.33, 0.73, -0.764], a = 0.2, v = 0.2, t = 0.2)
movej(p[0.382648470488195, 0.213221617241283, 0.307204514184341, -1.33, 0.73, -0.764], a = 0.2, v = 0.2, t = 0.2)
movej(p[0.3826247975476, 0.213192975160403, 0.307557463519355, -1.33, 0.73, -0.764], a = 0.2, v = 0.2, t = 0.2)
movej(p[0.382601037892936, 0.213164228163477, 0.307911705709075, -1.33, 0.73, -0.764], a = 0.2, v = 0.2, t = 0.2)
movej(p[0.382579472771226, 0.21313813634959, 0.308233228729672, -1.33, 0.73, -0.764], a = 0.2, v = 0.2, t = 0.2)
movej(p[0.382566912571975, 0.213122939663679, 0.308420493761464, -1.33, 0.73, -0.764], a = 0.2, v = 0.2, t = 0.2)
movej(p[0.382560242259043, 0.213114869198512, 0.308519944123542, -1.33, 0.73, -0.764], a = 0.2, v = 0.2, t = 0.2)
movej(p[0.38266340531885, 0.213239687012793, 0.30698184482365, -1.33, 0.73, -0.764], a = 0.2, v = 0.2, t = 0.2)
movej(p[0.382769743447613, 0.213368346368494, 0.305396407151408, -1.33, 0.73, -0.764], a = 0.2, v = 0.2, t = 0.2)
movej(p[0.382875187754442, 0.213495924281863, 0.303824295827685, -1.33, 0.73, -0.764], a = 0.2, v = 0.2, t = 0.2)
movej(p[0.382968852288634, 0.213609249753745, 0.302427813843392, -1.33, 0.73, -0.764], a = 0.2, v = 0.2, t = 0.2)
movej(p[0.383072662368795, 0.213734850403148, 0.300880067858378, -1.33, 0.73, -0.764], a = 0.2, v = 0.2, t = 0.2)
movej(p[0.383109956088398, 0.2137799723739, 0.300324040884002, -1.33, 0.73, -0.764], a = 0.2, v = 0.2, t = 0.2)
movej(p[0.383139418860619, 0.213815619618545, 0.299884768634705, -1.33, 0.73, -0.764], a = 0.2, v = 0.2, t = 0.2)
movej(p[0.383231816035353, 0.213927411702046, 0.298507182219206, -1.33, 0.73, -0.764], a = 0.2, v = 0.2, t = 0.2)
movej(p[0.383225145722421, 0.213919341236878, 0.298606632581283, -1.33, 0.73, -0.764], a = 0.2, v = 0.2, t = 0.2)
movej(p[0.383176105581745, 0.213860007176966, 0.299337791643278, -1.33, 0.73, -0.764], a = 0.2, v = 0.2, t = 0.2)
movej(p[0.382845598246276, 0.213460123698379, 0.304265457633862, -1.33, 0.73, -0.764], a = 0.2, v = 0.2, t = 0.2)
movej(p[0.382704214293368, 0.213289062118688, 0.306373407508459, -1.33, 0.73, -0.764], a = 0.2, v = 0.2, t = 0.2)
movej(p[0.38264745660063, 0.213220390530578, 0.307219630639377, -1.33, 0.73, -0.764], a = 0.2, v = 0.2, t = 0.2)
movej(p[0.382618480761253, 0.21318533242989, 0.307651643012242, -1.33, 0.73, -0.764], a = 0.2, v = 0.2, t = 0.2)
movej(p[0.382596141883244, 0.213158304442044, 0.30798470227484, -1.33, 0.73, -0.764], a = 0.2, v = 0.2, t = 0.2)
movej(p[0.382582127555773, 0.213141348394727, 0.308193647485565, -1.33, 0.73, -0.764], a = 0.2, v = 0.2, t = 0.2)
movej(p[0.382576504481972, 0.21313454499259, 0.308277484140797, -1.33, 0.73, -0.764], a = 0.2, v = 0.2, t = 0.2)
movej(p[0.382563517382693, 0.213118831796909, 0.308471113995762, -1.33, 0.73, -0.764], a = 0.2, v = 0.2, t = 0.2)
movej(p[0.382545073967436, 0.213096516960721, 0.308746094246906, -1.33, 0.73, -0.764], a = 0.2, v = 0.2, t = 0.2)
movej(p[0.382538403654504, 0.213088446495553, 0.308845544608984, -1.33, 0.73, -0.764], a = 0.2, v = 0.2, t = 0.2)
movej(p[0.382614291804732, 0.213180264177764, 0.307714097839627, -1.33, 0.73, -0.764], a = 0.2, v = 0.2, t = 0.2)
movej(p[0.382703227087054, 0.213287867689843, 0.306388126162046, -1.33, 0.73, -0.764], a = 0.2, v = 0.2, t = 0.2)
movej(p[0.382807243946917, 0.213413718523666, 0.304837297215808, -1.33, 0.73, -0.764], a = 0.2, v = 0.2, t = 0.2)
movej(p[0.382887327723978, 0.213510612528468, 0.303643296168704, -1.33, 0.73, -0.764], a = 0.2, v = 0.2, t = 0.2)
movej(p[0.38298620177257, 0.213630241033646, 0.302169143451628, -1.33, 0.73, -0.764], a = 0.2, v = 0.2, t = 0.2)
movej(p[0.383013883571238, 0.213663733464092, 0.301756424449006, -1.33, 0.73, -0.764], a = 0.2, v = 0.2, t = 0.2)
movej(p[0.383119221153061, 0.213791182250017, 0.300185904331076, -1.33, 0.73, -0.764], a = 0.2, v = 0.2, t = 0.2)
movej(p[0.383224398647373, 0.213918437344779, 0.298617771021836, -1.33, 0.73, -0.764], a = 0.2, v = 0.2, t = 0.2)
movej(p[0.383328308782228, 0.214044159051159, 0.297068533281391, -1.33, 0.73, -0.764], a = 0.2, v = 0.2, t = 0.2)
movej(p[0.383413121811159, 0.214146775015765, 0.295804021927574, -1.33, 0.73, -0.764], a = 0.2, v = 0.2, t = 0.2)
movej(p[0.383406451498227, 0.214138704550597, 0.295903472289652, -1.33, 0.73, -0.764], a = 0.2, v = 0.2, t = 0.2)
movej(p[0.383341282540881, 0.21405985610591, 0.29687510232715, -1.33, 0.73, -0.764], a = 0.2, v = 0.2, t = 0.2)
movej(p[0.383315835297045, 0.214029067281296, 0.297254505458476, -1.33, 0.73, -0.764], a = 0.2, v = 0.2, t = 0.2)
movej(p[0.383165299674795, 0.213846933023395, 0.299498901229844, -1.33, 0.73, -0.764], a = 0.2, v = 0.2, t = 0.2)
movej(p[0.382954230962687, 0.213591559294098, 0.302645809037066, -1.33, 0.73, -0.764], a = 0.2, v = 0.2, t = 0.2)
movej(p[0.382795984458687, 0.213400095578463, 0.305005169426995, -1.33, 0.73, -0.764], a = 0.2, v = 0.2, t = 0.2)
movej(p[0.382696496741306, 0.213279724590489, 0.306488471577383, -1.33, 0.73, -0.764], a = 0.2, v = 0.2, t = 0.2)
movej(p[0.38264773008346, 0.213220721419649, 0.307215553174532, -1.33, 0.73, -0.764], a = 0.2, v = 0.2, t = 0.2)
movej(p[0.382614058343779, 0.213179981711484, 0.3077175786023, -1.33, 0.73, -0.764], a = 0.2, v = 0.2, t = 0.2)
movej(p[0.382574149861507, 0.213131696118386, 0.30831259011861, -1.33, 0.73, -0.764], a = 0.2, v = 0.2, t = 0.2)
movej(p[0.382556740344754, 0.213110632204299, 0.308572155563633, -1.33, 0.73, -0.764], a = 0.2, v = 0.2, t = 0.2)
movej(p[0.38254096505467, 0.213091545554178, 0.308807355669946, -1.33, 0.73, -0.764], a = 0.2, v = 0.2, t = 0.2)
movej(p[0.382534294741738, 0.21308347508901, 0.308906806032024, -1.33, 0.73, -0.764], a = 0.2, v = 0.2, t = 0.2)
movej(p[0.382584969109082, 0.213144786412888, 0.30815128163132, -1.33, 0.73, -0.764], a = 0.2, v = 0.2, t = 0.2)
movej(p[0.382703680668334, 0.213288416481475, 0.306381363537425, -1.33, 0.73, -0.764], a = 0.2, v = 0.2, t = 0.2)
movej(p[0.382846852265107, 0.213461640945831, 0.304246760965791, -1.33, 0.73, -0.764], a = 0.2, v = 0.2, t = 0.2)
movej(p[0.382997961534269, 0.213644469263737, 0.301993812463285, -1.33, 0.73, -0.764], a = 0.2, v = 0.2, t = 0.2)
movej(p[0.383125784740986, 0.213799123587742, 0.300088045174792, -1.33, 0.73, -0.764], a = 0.2, v = 0.2, t = 0.2)
movej(p[0.383245756989381, 0.213944278974246, 0.298299330962464, -1.33, 0.73, -0.764], a = 0.2, v = 0.2, t = 0.2)
movej(p[0.383425061671307, 0.214161221148415, 0.295626005779455, -1.33, 0.73, -0.764], a = 0.2, v = 0.2, t = 0.2)
movej(p[0.383555893189156, 0.214319515252211, 0.293675386377665, -1.33, 0.73, -0.764], a = 0.2, v = 0.2, t = 0.2)
movej(p[0.383549222876224, 0.214311444787043, 0.293774836739743, -1.33, 0.73, -0.764], a = 0.2, v = 0.2, t = 0.2)
movej(p[0.383507980331365, 0.214261545100912, 0.294389738328469, -1.33, 0.73, -0.764], a = 0.2, v = 0.2, t = 0.2)
movej(p[0.383408239142093, 0.214140867435262, 0.295876819592615, -1.33, 0.73, -0.764], a = 0.2, v = 0.2, t = 0.2)
movej(p[0.383256783016658, 0.213957619453168, 0.298134939513949, -1.33, 0.73, -0.764], a = 0.2, v = 0.2, t = 0.2)
movej(p[0.383062450119696, 0.213722494520976, 0.301032326362718, -1.33, 0.73, -0.764], a = 0.2, v = 0.2, t = 0.2)
movej(p[0.382899200880998, 0.213524977956466, 0.303466274524206, -1.33, 0.73, -0.764], a = 0.2, v = 0.2, t = 0.2)
movej(p[0.382788827212911, 0.213391435969338, 0.305111879665504, -1.33, 0.73, -0.764], a = 0.2, v = 0.2, t = 0.2)
movej(p[0.382716694448864, 0.213304161959017, 0.306187335881012, -1.33, 0.73, -0.764], a = 0.2, v = 0.2, t = 0.2)
movej(p[0.382669235172353, 0.21324674059935, 0.306894925207194, -1.33, 0.73, -0.764], a = 0.2, v = 0.2, t = 0.2)
movej(p[0.38265371335416, 0.213227960626905, 0.307126346199748, -1.33, 0.73, -0.764], a = 0.2, v = 0.2, t = 0.2)
movej(p[0.382638284920348, 0.213209293640972, 0.307356374887234, -1.33, 0.73, -0.764], a = 0.2, v = 0.2, t = 0.2)
movej(p[0.382630020402625, 0.21319929433463, 0.307479593885848, -1.33, 0.73, -0.764], a = 0.2, v = 0.2, t = 0.2)
movej(p[0.382623350089693, 0.213191223869462, 0.307579044247926, -1.33, 0.73, -0.764], a = 0.2, v = 0.2, t = 0.2)
movej(p[0.382729634855952, 0.213319818661442, 0.305994402178581, -1.33, 0.73, -0.764], a = 0.2, v = 0.2, t = 0.2)
movej(p[0.382869264516559, 0.213488757708794, 0.30391260774921, -1.33, 0.73, -0.764], a = 0.2, v = 0.2, t = 0.2)
movej(p[0.383019319876278, 0.213670310893203, 0.301675372403912, -1.33, 0.73, -0.764], a = 0.2, v = 0.2, t = 0.2)
movej(p[0.383134522850927, 0.213809695897112, 0.29995776520047, -1.33, 0.73, -0.764], a = 0.2, v = 0.2, t = 0.2)
movej(p[0.383268169240833, 0.213971395737209, 0.297965177745883, -1.33, 0.73, -0.764], a = 0.2, v = 0.2, t = 0.2)
movej(p[0.383391336569123, 0.214120416876527, 0.29612882681012, -1.33, 0.73, -0.764], a = 0.2, v = 0.2, t = 0.2)
movej(p[0.383384666256191, 0.21411234641136, 0.296228277172197, -1.33, 0.73, -0.764], a = 0.2, v = 0.2, t = 0.2)
movej(p[0.383351488119667, 0.214072203917617, 0.296722943273171, -1.33, 0.73, -0.764], a = 0.2, v = 0.2, t = 0.2)
movej(p[0.38308056668962, 0.213744413904371, 0.300762219179316, -1.33, 0.73, -0.764], a = 0.2, v = 0.2, t = 0.2)
movej(p[0.382955638398715, 0.213593262162248, 0.302624825010667, -1.33, 0.73, -0.764], a = 0.2, v = 0.2, t = 0.2)
movej(p[0.382875668016973, 0.213496505355355, 0.303817135401616, -1.33, 0.73, -0.764], a = 0.2, v = 0.2, t = 0.2)
movej(p[0.382761438908012, 0.213358298639361, 0.305520222852195, -1.33, 0.73, -0.764], a = 0.2, v = 0.2, t = 0.2)
movej(p[0.382710751200042, 0.213296971174552, 0.306275946153623, -1.33, 0.73, -0.764], a = 0.2, v = 0.2, t = 0.2)
movej(p[0.382673737633582, 0.213252188163338, 0.306827796212791, -1.33, 0.73, -0.764], a = 0.2, v = 0.2, t = 0.2)
movej(p[0.382652932927547, 0.21322701638248, 0.307137981892111, -1.33, 0.73, -0.764], a = 0.2, v = 0.2, t = 0.2)
movej(p[0.38261852078313, 0.213185380852681, 0.30765104631007, -1.33, 0.73, -0.764], a = 0.2, v = 0.2, t = 0.2)
movej(p[0.382600731058541, 0.213163856922079, 0.307916280425731, -1.33, 0.73, -0.764], a = 0.2, v = 0.2, t = 0.2)
movej(p[0.382579666210301, 0.21313837039308, 0.308230344669172, -1.33, 0.73, -0.764], a = 0.2, v = 0.2, t = 0.2)
movej(p[0.382572995897369, 0.213130299927912, 0.30832979503125, -1.33, 0.73, -0.764], a = 0.2, v = 0.2, t = 0.2)
movej(p[0.382602725482107, 0.213166269991164, 0.30788654476747, -1.33, 0.73, -0.764], a = 0.2, v = 0.2, t = 0.2)
movej(p[0.382727253554236, 0.213316937505377, 0.306029905957843, -1.33, 0.73, -0.764], a = 0.2, v = 0.2, t = 0.2)
movej(p[0.382851054562254, 0.213466725338887, 0.304184107237682, -1.33, 0.73, -0.764], a = 0.2, v = 0.2, t = 0.2)
movej(p[0.382967084655707, 0.213607111080476, 0.302454168189342, -1.33, 0.73, -0.764], a = 0.2, v = 0.2, t = 0.2)
movej(p[0.383060122180483, 0.213719677928633, 0.301067034539084, -1.33, 0.73, -0.764], a = 0.2, v = 0.2, t = 0.2)
movej(p[0.383144181464052, 0.213821381930674, 0.299813761076182, -1.33, 0.73, -0.764], a = 0.2, v = 0.2, t = 0.2)
movej(p[0.383244049389271, 0.213942212935163, 0.298324790255156, -1.33, 0.73, -0.764], a = 0.2, v = 0.2, t = 0.2)
movej(p[0.383319990902002, 0.214034095181095, 0.297192547882902, -1.33, 0.73, -0.764], a = 0.2, v = 0.2, t = 0.2)
movej(p[0.38331332058907, 0.214026024715928, 0.297291998244979, -1.33, 0.73, -0.764], a = 0.2, v = 0.2, t = 0.2)
movej(p[0.38315109190825, 0.213829742932588, 0.299710730501069, -1.33, 0.73, -0.764], a = 0.2, v = 0.2, t = 0.2)
movej(p[0.382969159123029, 0.213609620995143, 0.302423239126736, -1.33, 0.73, -0.764], a = 0.2, v = 0.2, t = 0.2)
movej(p[0.382907878958122, 0.213535477631649, 0.303336889603143, -1.33, 0.73, -0.764], a = 0.2, v = 0.2, t = 0.2)
movej(p[0.382770884071124, 0.213369726418038, 0.305379401139493, -1.33, 0.73, -0.764], a = 0.2, v = 0.2, t = 0.2)
movej(p[0.382673504172629, 0.213251905697057, 0.306831276975464, -1.33, 0.73, -0.764], a = 0.2, v = 0.2, t = 0.2)
movej(p[0.382635756871747, 0.213206234934674, 0.307394066574461, -1.33, 0.73, -0.764], a = 0.2, v = 0.2, t = 0.2)
movej(p[0.382614792078201, 0.213180869462652, 0.307706639062471, -1.33, 0.73, -0.764], a = 0.2, v = 0.2, t = 0.2)
movej(p[0.382600350850704, 0.213163396905564, 0.307921949096369, -1.33, 0.73, -0.764], a = 0.2, v = 0.2, t = 0.2)
movej(p[0.382594134119051, 0.213155875232028, 0.308014636833826, -1.33, 0.73, -0.764], a = 0.2, v = 0.2, t = 0.2)
movej(p[0.382587463806119, 0.213147804766861, 0.308114087195903, -1.33, 0.73, -0.764], a = 0.2, v = 0.2, t = 0.2)
movej(p[0.382613311268731, 0.213179077819385, 0.307728717042852, -1.33, 0.73, -0.764], a = 0.2, v = 0.2, t = 0.2)
movej(p[0.382719275859969, 0.213307285229036, 0.306148848590887, -1.33, 0.73, -0.764], a = 0.2, v = 0.2, t = 0.2)
movej(p[0.382821458383775, 0.213430916684938, 0.304625368494221, -1.33, 0.73, -0.764], a = 0.2, v = 0.2, t = 0.2)
movej(p[0.382916783825886, 0.213546251702648, 0.303204123369769, -1.33, 0.73, -0.764], a = 0.2, v = 0.2, t = 0.2)
movej(p[0.383000729714136, 0.213647818506781, 0.301952540563023, -1.33, 0.73, -0.764], a = 0.2, v = 0.2, t = 0.2)
movej(p[0.383030719441078, 0.213684103318174, 0.301505411735122, -1.33, 0.73, -0.764], a = 0.2, v = 0.2, t = 0.2)
movej(p[0.383048295715654, 0.213705368993891, 0.301243360031047, -1.33, 0.73, -0.764], a = 0.2, v = 0.2, t = 0.2)
movej(p[0.383041625402722, 0.213697298528723, 0.301342810393125, -1.33, 0.73, -0.764], a = 0.2, v = 0.2, t = 0.2)
movej(p[0.38293606103026, 0.213569575346982, 0.302916711823365, -1.33, 0.73, -0.764], a = 0.2, v = 0.2, t = 0.2)
movej(p[0.382866896555468, 0.213485892693659, 0.303947912627748, -1.33, 0.73, -0.764], a = 0.2, v = 0.2, t = 0.2)
movej(p[0.382769730106987, 0.213368330227564, 0.305396606052132, -1.33, 0.73, -0.764], a = 0.2, v = 0.2, t = 0.2)
movej(p[0.382684270057702, 0.213264931427837, 0.306670764091071, -1.33, 0.73, -0.764], a = 0.2, v = 0.2, t = 0.2)
movej(p[0.382645889077091, 0.213218493971263, 0.307243001474465, -1.33, 0.73, -0.764], a = 0.2, v = 0.2, t = 0.2)
movej(p[0.382631494541783, 0.213201077907432, 0.307457615355829, -1.33, 0.73, -0.764], a = 0.2, v = 0.2, t = 0.2)
movej(p[0.382600490927275, 0.213163566385333, 0.307919860638766, -1.33, 0.73, -0.764], a = 0.2, v = 0.2, t = 0.2)
movej(p[0.382567312790751, 0.213123423891589, 0.30841452673974, -1.33, 0.73, -0.764], a = 0.2, v = 0.2, t = 0.2)
movej(p[0.382558327879232, 0.213112552975009, 0.308548486377458, -1.33, 0.73, -0.764], a = 0.2, v = 0.2, t = 0.2)
movej(p[0.3825516575663, 0.213104482509841, 0.308647936739536, -1.33, 0.73, -0.764], a = 0.2, v = 0.2, t = 0.2)
movej(p[0.38262982696355, 0.21319906029114, 0.307482477946348, -1.33, 0.73, -0.764], a = 0.2, v = 0.2, t = 0.2)
movej(p[0.382741621408291, 0.213334321287348, 0.305815689877928, -1.33, 0.73, -0.764], a = 0.2, v = 0.2, t = 0.2)
movej(p[0.382881971462694, 0.213504131944938, 0.303723154809452, -1.33, 0.73, -0.764], a = 0.2, v = 0.2, t = 0.2)
movej(p[0.382992565251107, 0.213637940257416, 0.302074267806206, -1.33, 0.73, -0.764], a = 0.2, v = 0.2, t = 0.2)
movej(p[0.383131167683522, 0.213805636453132, 0.300007788732595, -1.33, 0.73, -0.764], a = 0.2, v = 0.2, t = 0.2)
movej(p[0.383249172189603, 0.213948411052412, 0.29824841237708, -1.33, 0.73, -0.764], a = 0.2, v = 0.2, t = 0.2)
movej(p[0.383363421309502, 0.214086641979801, 0.296545026575415, -1.33, 0.73, -0.764], a = 0.2, v = 0.2, t = 0.2)
movej(p[0.383469746097639, 0.214215285194572, 0.294959787803897, -1.33, 0.73, -0.764], a = 0.2, v = 0.2, t = 0.2)
movej(p[0.383570647921362, 0.214337367121161, 0.293455402176749, -1.33, 0.73, -0.764], a = 0.2, v = 0.2, t = 0.2)
movej(p[0.38356397760843, 0.214329296655994, 0.293554852538827, -1.33, 0.73, -0.764], a = 0.2, v = 0.2, t = 0.2)
movej(p[0.383513676778609, 0.214268437278165, 0.294304807719254, -1.33, 0.73, -0.764], a = 0.2, v = 0.2, t = 0.2)
movej(p[0.383412261340791, 0.214145733925758, 0.295816851024282, -1.33, 0.73, -0.764], a = 0.2, v = 0.2, t = 0.2)
movej(p[0.383287139610812, 0.213994348140145, 0.297682340916134, -1.33, 0.73, -0.764], a = 0.2, v = 0.2, t = 0.2)
movej(p[0.383131467847604, 0.213805999624065, 0.300003313466301, -1.33, 0.73, -0.764], a = 0.2, v = 0.2, t = 0.2)
movej(p[0.383027317581483, 0.213679987380939, 0.301556131419781, -1.33, 0.73, -0.764], a = 0.2, v = 0.2, t = 0.2)
movej(p[0.382986608661659, 0.213630733332021, 0.302163076979541, -1.33, 0.73, -0.764], a = 0.2, v = 0.2, t = 0.2)
movej(p[0.382796938313437, 0.213401249654982, 0.304990948025218, -1.33, 0.73, -0.764], a = 0.2, v = 0.2, t = 0.2)
movej(p[0.382689019320509, 0.213270677599036, 0.306599955433272, -1.33, 0.73, -0.764], a = 0.2, v = 0.2, t = 0.2)
movej(p[0.382618734233144, 0.213185639107566, 0.307647863898483, -1.33, 0.73, -0.764], a = 0.2, v = 0.2, t = 0.2)
movej(p[0.382596775562972, 0.213159071136235, 0.307975254490443, -1.33, 0.73, -0.764], a = 0.2, v = 0.2, t = 0.2)
movej(p[0.38259010525004, 0.213151000671067, 0.30807470485252, -1.33, 0.73, -0.764], a = 0.2, v = 0.2, t = 0.2)
movej(p[0.382691093787831, 0.213273187513704, 0.306569026370665, -1.33, 0.73, -0.764], a = 0.2, v = 0.2, t = 0.2)
movej(p[0.382838047452037, 0.21345098793181, 0.304378035443734, -1.33, 0.73, -0.764], a = 0.2, v = 0.2, t = 0.2)
movej(p[0.382972887827958, 0.213614132385172, 0.302367646374335, -1.33, 0.73, -0.764], a = 0.2, v = 0.2, t = 0.2)
movej(p[0.383147343192382, 0.213825207331164, 0.299766621604557, -1.33, 0.73, -0.764], a = 0.2, v = 0.2, t = 0.2)
movej(p[0.383312019878048, 0.21402445097522, 0.297311391065585, -1.33, 0.73, -0.764], a = 0.2, v = 0.2, t = 0.2)
movej(p[0.383458833465682, 0.214202081913558, 0.295122488596256, -1.33, 0.73, -0.764], a = 0.2, v = 0.2, t = 0.2)
movej(p[0.383597535952791, 0.214369899166252, 0.293054517767215, -1.33, 0.73, -0.764], a = 0.2, v = 0.2, t = 0.2)
movej(p[0.383666720438522, 0.21445360603097, 0.292023018611746, -1.33, 0.73, -0.764], a = 0.2, v = 0.2, t = 0.2)
movej(p[0.383672897148297, 0.214461079281715, 0.291930927576462, -1.33, 0.73, -0.764], a = 0.2, v = 0.2, t = 0.2)
movej(p[0.383666226835365, 0.214453008816547, 0.292030377938539, -1.33, 0.73, -0.764], a = 0.2, v = 0.2, t = 0.2)
movej(p[0.383624043776383, 0.214401971194828, 0.292659302028318, -1.33, 0.73, -0.764], a = 0.2, v = 0.2, t = 0.2)
movej(p[0.383533681047093, 0.214292640603203, 0.294006556083384, -1.33, 0.73, -0.764], a = 0.2, v = 0.2, t = 0.2)
movej(p[0.383416043408223, 0.214150309879508, 0.295760462668984, -1.33, 0.73, -0.764], a = 0.2, v = 0.2, t = 0.2)
movej(p[0.383334925732657, 0.214052164952606, 0.29696987852221, -1.33, 0.73, -0.764], a = 0.2, v = 0.2, t = 0.2)
movej(p[0.38330090046639, 0.214010997509786, 0.297477174819168, -1.33, 0.73, -0.764], a = 0.2, v = 0.2, t = 0.2)
movej(p[0.383025883464203, 0.213678252230928, 0.301577513247628, -1.33, 0.73, -0.764], a = 0.2, v = 0.2, t = 0.2)
movej(p[0.382833524979869, 0.213445516156426, 0.304445462789222, -1.33, 0.73, -0.764], a = 0.2, v = 0.2, t = 0.2)
movej(p[0.382700185424357, 0.213284187557727, 0.306433475527154, -1.33, 0.73, -0.764], a = 0.2, v = 0.2, t = 0.2)
movej(p[0.382660910621814, 0.21323666865882, 0.307019039259067, -1.33, 0.73, -0.764], a = 0.2, v = 0.2, t = 0.2)
movej(p[0.382625978192988, 0.213194403632738, 0.307539860805267, -1.33, 0.73, -0.764], a = 0.2, v = 0.2, t = 0.2)
movej(p[0.382609702629434, 0.213174711697729, 0.307782519688736, -1.33, 0.73, -0.764], a = 0.2, v = 0.2, t = 0.2)
movej(p[0.382603032316502, 0.213166641232562, 0.307881970050814, -1.33, 0.73, -0.764], a = 0.2, v = 0.2, t = 0.2)
movej(p[0.382626785300853, 0.213195380159023, 0.307527827311456, -1.33, 0.73, -0.764], a = 0.2, v = 0.2, t = 0.2)
movej(p[0.382725926161962, 0.213315331482809, 0.306049696579896, -1.33, 0.73, -0.764], a = 0.2, v = 0.2, t = 0.2)
movej(p[0.382838080803601, 0.213451028284136, 0.304377538191923, -1.33, 0.73, -0.764], a = 0.2, v = 0.2, t = 0.2)
movej(p[0.382963716147676, 0.213603035495566, 0.302504390622191, -1.33, 0.73, -0.764], a = 0.2, v = 0.2, t = 0.2)
movej(p[0.383115419074689, 0.213786582084872, 0.30024259103746, -1.33, 0.73, -0.764], a = 0.2, v = 0.2, t = 0.2)
movej(p[0.38327951544313, 0.213985123598459, 0.297796012679989, -1.33, 0.73, -0.764], a = 0.2, v = 0.2, t = 0.2)
movej(p[0.383439109350342, 0.214178217548057, 0.29541656331692, -1.33, 0.73, -0.764], a = 0.2, v = 0.2, t = 0.2)
movej(p[0.383537736597355, 0.214297547446025, 0.29394609026324, -1.33, 0.73, -0.764], a = 0.2, v = 0.2, t = 0.2)
movej(p[0.383531066284423, 0.214289476980857, 0.294045540625318, -1.33, 0.73, -0.764], a = 0.2, v = 0.2, t = 0.2)
movej(p[0.383362720926645, 0.214085794580959, 0.296555468863433, -1.33, 0.73, -0.764], a = 0.2, v = 0.2, t = 0.2)
movej(p[0.383132021483577, 0.213806669472674, 0.299995059086249, -1.33, 0.73, -0.764], a = 0.2, v = 0.2, t = 0.2)
movej(p[0.382963415983594, 0.213602672324634, 0.302508865888485, -1.33, 0.73, -0.764], a = 0.2, v = 0.2, t = 0.2)
movej(p[0.382911160752085, 0.213539448300511, 0.303287960025001, -1.33, 0.73, -0.764], a = 0.2, v = 0.2, t = 0.2)
movej(p[0.382748618566557, 0.213342787205309, 0.305711366448108, -1.33, 0.73, -0.764], a = 0.2, v = 0.2, t = 0.2)
movej(p[0.382703553932388, 0.213288263142637, 0.306383253094304, -1.33, 0.73, -0.764], a = 0.2, v = 0.2, t = 0.2)
movej(p[0.382639705697003, 0.213211012650053, 0.307335191960111, -1.33, 0.73, -0.764], a = 0.2, v = 0.2, t = 0.2)
movej(p[0.382620835381718, 0.213188181304094, 0.307616537034429, -1.33, 0.73, -0.764], a = 0.2, v = 0.2, t = 0.2)
movej(p[0.382615005528215, 0.213181127717537, 0.307703456650885, -1.33, 0.73, -0.764], a = 0.2, v = 0.2, t = 0.2)
movej(p[0.382589344834366, 0.213150080638038, 0.308086042193797, -1.33, 0.73, -0.764], a = 0.2, v = 0.2, t = 0.2)
movej(p[0.38257647780072, 0.21313451271073, 0.308277881942245, -1.33, 0.73, -0.764], a = 0.2, v = 0.2, t = 0.2)
movej(p[0.382569807487788, 0.213126442245562, 0.308377332304323, -1.33, 0.73, -0.764], a = 0.2, v = 0.2, t = 0.2)
movej(p[0.382634336095092, 0.213204515925593, 0.307415249501584, -1.33, 0.73, -0.764], a = 0.2, v = 0.2, t = 0.2)
movej(p[0.382753327807487, 0.213348484953717, 0.305641154492481, -1.33, 0.73, -0.764], a = 0.2, v = 0.2, t = 0.2)
movej(p[0.382865956041344, 0.213484754758071, 0.303961935128801, -1.33, 0.73, -0.764], a = 0.2, v = 0.2, t = 0.2)
movej(p[0.382973921726462, 0.213615383307273, 0.302352231568213, -1.33, 0.73, -0.764], a = 0.2, v = 0.2, t = 0.2)
movej(p[0.383092313110693, 0.213758625993532, 0.300587087091697, -1.33, 0.73, -0.764], a = 0.2, v = 0.2, t = 0.2)
movej(p[0.383232569780715, 0.21392832366461, 0.298495944328291, -1.33, 0.73, -0.764], a = 0.2, v = 0.2, t = 0.2)
movej(p[0.383323806320999, 0.214038711487171, 0.297135662275793, -1.33, 0.73, -0.764], a = 0.2, v = 0.2, t = 0.2)
movej(p[0.383317136008067, 0.214030641022004, 0.297235112637871, -1.33, 0.73, -0.764], a = 0.2, v = 0.2, t = 0.2)
movej(p[0.383281709976085, 0.213987778781499, 0.297763293510865, -1.33, 0.73, -0.764], a = 0.2, v = 0.2, t = 0.2)
movej(p[0.383079145912965, 0.213742694895291, 0.300783402106438, -1.33, 0.73, -0.764], a = 0.2, v = 0.2, t = 0.2)
movej(p[0.382862013886401, 0.213479985113157, 0.304020710292789, -1.33, 0.73, -0.764], a = 0.2, v = 0.2, t = 0.2)
movej(p[0.382799453021412, 0.21340429222035, 0.304953455238715, -1.33, 0.73, -0.764], a = 0.2, v = 0.2, t = 0.2)
movej(p[0.382717915116131, 0.213305638854142, 0.306169136464751, -1.33, 0.73, -0.764], a = 0.2, v = 0.2, t = 0.2)
movej(p[0.382634002579446, 0.213204112402335, 0.307420222019688, -1.33, 0.73, -0.764], a = 0.2, v = 0.2, t = 0.2)
movej(p[0.382596115201992, 0.213158272160183, 0.307985100076289, -1.33, 0.73, -0.764], a = 0.2, v = 0.2, t = 0.2)
movej(p[0.382572682392662, 0.213129920616049, 0.308334469198267, -1.33, 0.73, -0.764], a = 0.2, v = 0.2, t = 0.2)
movej(p[0.382545854394049, 0.213097461205145, 0.308734458554543, -1.33, 0.73, -0.764], a = 0.2, v = 0.2, t = 0.2)
movej(p[0.382527170847526, 0.213074855832211, 0.309013019018723, -1.33, 0.73, -0.764], a = 0.2, v = 0.2, t = 0.2)
movej(p[0.382500522947363, 0.213042614323867, 0.309410323215223, -1.33, 0.73, -0.764], a = 0.2, v = 0.2, t = 0.2)
movej(p[0.382497314526842, 0.213038732430121, 0.309458158839382, -1.33, 0.73, -0.764], a = 0.2, v = 0.2, t = 0.2)
movej(p[0.382497301186217, 0.213038716289191, 0.309458357740106, -1.33, 0.73, -0.764], a = 0.2, v = 0.2, t = 0.2)
movej(p[0.382490630873285, 0.213030645824023, 0.309557808102184, -1.33, 0.73, -0.764], a = 0.2, v = 0.2, t = 0.2)
movej(p[0.382585382668484, 0.213145286781728, 0.308145115708871, -1.33, 0.73, -0.764], a = 0.2, v = 0.2, t = 0.2)
movej(p[0.382711404890709, 0.213297762080139, 0.306266200018139, -1.33, 0.73, -0.764], a = 0.2, v = 0.2, t = 0.2)
movej(p[0.382835872930021, 0.213448356960165, 0.304410456261771, -1.33, 0.73, -0.764], a = 0.2, v = 0.2, t = 0.2)
movej(p[0.382984787666228, 0.213628530095031, 0.302190226928388, -1.33, 0.73, -0.764], a = 0.2, v = 0.2, t = 0.2)
movej(p[0.383101491461287, 0.213769730953602, 0.300450243393478, -1.33, 0.73, -0.764], a = 0.2, v = 0.2, t = 0.2)
movej(p[0.383234450808962, 0.213930599535787, 0.298467899326185, -1.33, 0.73, -0.764], a = 0.2, v = 0.2, t = 0.2)
movej(p[0.383363434650128, 0.214086658120732, 0.29654482767469, -1.33, 0.73, -0.764], a = 0.2, v = 0.2, t = 0.2)
movej(p[0.383470019580469, 0.214215616083644, 0.294955710339052, -1.33, 0.73, -0.764], a = 0.2, v = 0.2, t = 0.2)
movej(p[0.383509821337735, 0.214263772549299, 0.294362290028535, -1.33, 0.73, -0.764], a = 0.2, v = 0.2, t = 0.2)
movej(p[0.383503151024803, 0.214255702084131, 0.294461740390613, -1.33, 0.73, -0.764], a = 0.2, v = 0.2, t = 0.2)
movej(p[0.383500009307412, 0.214251900895037, 0.294508581511151, -1.33, 0.73, -0.764], a = 0.2, v = 0.2, t = 0.2)
movej(p[0.383415122905039, 0.214149196155315, 0.295774186818951, -1.33, 0.73, -0.764], a = 0.2, v = 0.2, t = 0.2)
movej(p[0.383249205541167, 0.213948451404737, 0.298247915125269, -1.33, 0.73, -0.764], a = 0.2, v = 0.2, t = 0.2)
movej(p[0.383111250129107, 0.213781538044142, 0.300304747513759, -1.33, 0.73, -0.764], a = 0.2, v = 0.2, t = 0.2)
movej(p[0.382965410407161, 0.213605085393719, 0.302479130230224, -1.33, 0.73, -0.764], a = 0.2, v = 0.2, t = 0.2)
movej(p[0.382842663308586, 0.213456572693706, 0.304309215793176, -1.33, 0.73, -0.764], a = 0.2, v = 0.2, t = 0.2)
movej(p[0.38271793512707, 0.213305663065538, 0.306168838113665, -1.33, 0.73, -0.764], a = 0.2, v = 0.2, t = 0.2)
movej(p[0.382638351623477, 0.213209374345624, 0.307355380383613, -1.33, 0.73, -0.764], a = 0.2, v = 0.2, t = 0.2)
movej(p[0.382601838330488, 0.213165196619297, 0.307899771665626, -1.33, 0.73, -0.764], a = 0.2, v = 0.2, t = 0.2)
movej(p[0.382590532150068, 0.213151517180838, 0.308068340029347, -1.33, 0.73, -0.764], a = 0.2, v = 0.2, t = 0.2)
movej(p[0.382583861837136, 0.21314344671567, 0.308167790391425, -1.33, 0.73, -0.764], a = 0.2, v = 0.2, t = 0.2)
movej(p[0.382703113691735, 0.213287730491936, 0.306389816818202, -1.33, 0.73, -0.764], a = 0.2, v = 0.2, t = 0.2)
movej(p[0.382879590160977, 0.213501250788873, 0.303758658588714, -1.33, 0.73, -0.764], a = 0.2, v = 0.2, t = 0.2)
movej(p[0.383000796417265, 0.213647899211433, 0.301951546059402, -1.33, 0.73, -0.764], a = 0.2, v = 0.2, t = 0.2)
movej(p[0.383145422142258, 0.213822883037196, 0.299795263308835, -1.33, 0.73, -0.764], a = 0.2, v = 0.2, t = 0.2)
movej(p[0.383287579851465, 0.213994880790846, 0.297675777192237, -1.33, 0.73, -0.764], a = 0.2, v = 0.2, t = 0.2)
movej(p[0.383456999129626, 0.214199862535637, 0.295149837445828, -1.33, 0.73, -0.764], a = 0.2, v = 0.2, t = 0.2)
movej(p[0.383603559245369, 0.214377186796298, 0.292964714090258, -1.33, 0.73, -0.764], a = 0.2, v = 0.2, t = 0.2)
movej(p[0.383604139562594, 0.214377888926768, 0.292956061908758, -1.33, 0.73, -0.764], a = 0.2, v = 0.2, t = 0.2)
movej(p[0.383597469249662, 0.2143698184616, 0.293055512270835, -1.33, 0.73, -0.764], a = 0.2, v = 0.2, t = 0.2)
movej(p[0.383491284538097, 0.214241344726598, 0.294638662584749, -1.33, 0.73, -0.764], a = 0.2, v = 0.2, t = 0.2)
movej(p[0.38323851969985, 0.213935522519539, 0.298407234605318, -1.33, 0.73, -0.764], a = 0.2, v = 0.2, t = 0.2)
movej(p[0.382957245944132, 0.213595207144354, 0.302600857473407, -1.33, 0.73, -0.764], a = 0.2, v = 0.2, t = 0.2)
movej(p[0.382792375819391, 0.213395729456808, 0.305058972072879, -1.33, 0.73, -0.764], a = 0.2, v = 0.2, t = 0.2)
movej(p[0.382708543326461, 0.213294299850582, 0.30630886422347, -1.33, 0.73, -0.764], a = 0.2, v = 0.2, t = 0.2)
movej(p[0.382670068961469, 0.213247749407495, 0.306882493911934, -1.33, 0.73, -0.764], a = 0.2, v = 0.2, t = 0.2)
movej(p[0.382642253756543, 0.213214095567747, 0.307297201921798, -1.33, 0.73, -0.764], a = 0.2, v = 0.2, t = 0.2)
movej(p[0.382617847081524, 0.213184565735699, 0.30766109079664, -1.33, 0.73, -0.764], a = 0.2, v = 0.2, t = 0.2)
movej(p[0.382594601040956, 0.21315644016459, 0.30800767530848, -1.33, 0.73, -0.764], a = 0.2, v = 0.2, t = 0.2)
movej(p[0.382577505028911, 0.213135755562365, 0.308262566586485, -1.33, 0.73, -0.764], a = 0.2, v = 0.2, t = 0.2)
movej(p[0.382570834715979, 0.213127685097198, 0.308362016948563, -1.33, 0.73, -0.764], a = 0.2, v = 0.2, t = 0.2)
movej(p[0.382617013292408, 0.213183556927553, 0.307673522091899, -1.33, 0.73, -0.764], a = 0.2, v = 0.2, t = 0.2)
movej(p[0.382728727693394, 0.213318721078179, 0.306007927427824, -1.33, 0.73, -0.764], a = 0.2, v = 0.2, t = 0.2)
movej(p[0.382834712295571, 0.213446952699226, 0.304427760624772, -1.33, 0.73, -0.764], a = 0.2, v = 0.2, t = 0.2)
movej(p[0.382869477966572, 0.213489015963679, 0.303909425337624, -1.33, 0.73, -0.764], a = 0.2, v = 0.2, t = 0.2)
movej(p[0.38286280765364, 0.213480945498512, 0.304008875699701, -1.33, 0.73, -0.764], a = 0.2, v = 0.2, t = 0.2)
movej(p[0.382862507489558, 0.213480582327579, 0.304013350965995, -1.33, 0.73, -0.764], a = 0.2, v = 0.2, t = 0.2)
movej(p[0.38283011644996, 0.213441392148726, 0.304496281924244, -1.33, 0.73, -0.764], a = 0.2, v = 0.2, t = 0.2)
movej(p[0.382806109993718, 0.213412346544588, 0.304854203777361, -1.33, 0.73, -0.764], a = 0.2, v = 0.2, t = 0.2)
movej(p[0.382764340494138, 0.213361809291708, 0.305476961944691, -1.33, 0.73, -0.764], a = 0.2, v = 0.2, t = 0.2)
movej(p[0.382699465030561, 0.213283315947489, 0.306444216166258, -1.33, 0.73, -0.764], a = 0.2, v = 0.2, t = 0.2)
movej(p[0.382625364524199, 0.213193661149943, 0.307549010238578, -1.33, 0.73, -0.764], a = 0.2, v = 0.2, t = 0.2)
movej(p[0.382571455055082, 0.213128435650458, 0.308352768064889, -1.33, 0.73, -0.764], a = 0.2, v = 0.2, t = 0.2)
movej(p[0.382527237550656, 0.213074936536863, 0.309012024515102, -1.33, 0.73, -0.764], a = 0.2, v = 0.2, t = 0.2)
movej(p[0.382493072207818, 0.213033599614275, 0.309521409269663, -1.33, 0.73, -0.764], a = 0.2, v = 0.2, t = 0.2)
movej(p[0.382481305775806, 0.213019363313719, 0.309696839708368, -1.33, 0.73, -0.764], a = 0.2, v = 0.2, t = 0.2)
movej(p[0.382474635462874, 0.213011292848552, 0.309796290070446, -1.33, 0.73, -0.764], a = 0.2, v = 0.2, t = 0.2)
movej(p[0.382518799604797, 0.213064727398426, 0.30913782922313, -1.33, 0.73, -0.764], a = 0.2, v = 0.2, t = 0.2)
movej(p[0.382608428599664, 0.213173170238882, 0.307801514707893, -1.33, 0.73, -0.764], a = 0.2, v = 0.2, t = 0.2)
movej(p[0.382706962462296, 0.213292387150337, 0.306332433959283, -1.33, 0.73, -0.764], a = 0.2, v = 0.2, t = 0.2)
movej(p[0.382837240344172, 0.213450011405525, 0.304390068937545, -1.33, 0.73, -0.764], a = 0.2, v = 0.2, t = 0.2)
movej(p[0.382954110897054, 0.213591414025725, 0.302647599143583, -1.33, 0.73, -0.764], a = 0.2, v = 0.2, t = 0.2)
movej(p[0.383065878660543, 0.213726642740073, 0.300981208876611, -1.33, 0.73, -0.764], a = 0.2, v = 0.2, t = 0.2)
movej(p[0.383203560589773, 0.213893225211596, 0.298928453952967, -1.33, 0.73, -0.764], a = 0.2, v = 0.2, t = 0.2)
movej(p[0.383337947384415, 0.214055820873326, 0.296924827508189, -1.33, 0.73, -0.764], a = 0.2, v = 0.2, t = 0.2)
movej(p[0.383429203935638, 0.214166232907284, 0.295564247104605, -1.33, 0.73, -0.764], a = 0.2, v = 0.2, t = 0.2)
movej(p[0.383499835879275, 0.214251691062943, 0.294511167220565, -1.33, 0.73, -0.764], a = 0.2, v = 0.2, t = 0.2)
movej(p[0.383555939881347, 0.214319571745467, 0.29367469022513, -1.33, 0.73, -0.764], a = 0.2, v = 0.2, t = 0.2)
movej(p[0.383549269568415, 0.214311501280299, 0.293774140587208, -1.33, 0.73, -0.764], a = 0.2, v = 0.2, t = 0.2)
movej(p[0.38352989897966, 0.214288064649453, 0.294062944438682, -1.33, 0.73, -0.764], a = 0.2, v = 0.2, t = 0.2)
movej(p[0.383415616508196, 0.214149793369737, 0.295766827492157, -1.33, 0.73, -0.764], a = 0.2, v = 0.2, t = 0.2)
movej(p[0.383270377114413, 0.213974067061179, 0.297932259676035, -1.33, 0.73, -0.764], a = 0.2, v = 0.2, t = 0.2)
movej(p[0.383086609993136, 0.213751725745813, 0.300672117151273, -1.33, 0.73, -0.764], a = 0.2, v = 0.2, t = 0.2)
movej(p[0.382945773005889, 0.213581325944266, 0.30277191209618, -1.33, 0.73, -0.764], a = 0.2, v = 0.2, t = 0.2)
movej(p[0.382813574073889, 0.21342137739511, 0.304742918822196, -1.33, 0.73, -0.764], a = 0.2, v = 0.2, t = 0.2)
movej(p[0.382723478157116, 0.213312369622092, 0.306086194862779, -1.33, 0.73, -0.764], a = 0.2, v = 0.2, t = 0.2)
movej(p[0.382686584656289, 0.21326773187925, 0.30663625481543, -1.33, 0.73, -0.764], a = 0.2, v = 0.2, t = 0.2)
movej(p[0.382643694544136, 0.213215838788223, 0.307275720643589, -1.33, 0.73, -0.764], a = 0.2, v = 0.2, t = 0.2)
movej(p[0.382592700001771, 0.213154140082017, 0.308036018661672, -1.33, 0.73, -0.764], a = 0.2, v = 0.2, t = 0.2)
movej(p[0.382580333241595, 0.213139177439596, 0.308220399632964, -1.33, 0.73, -0.764], a = 0.2, v = 0.2, t = 0.2)
movej(p[0.382562256693549, 0.213117306478992, 0.308489910114194, -1.33, 0.73, -0.764], a = 0.2, v = 0.2, t = 0.2)
movej(p[0.382540084573363, 0.213090480252776, 0.30882048311774, -1.33, 0.73, -0.764], a = 0.2, v = 0.2, t = 0.2)
movej(p[0.382527971285078, 0.213075824288031, 0.309001084975273, -1.33, 0.73, -0.764], a = 0.2, v = 0.2, t = 0.2)
movej(p[0.382521300972146, 0.213067753822864, 0.309100535337351, -1.33, 0.73, -0.764], a = 0.2, v = 0.2, t = 0.2)
movej(p[0.382569900872169, 0.213126555232074, 0.308375939999254, -1.33, 0.73, -0.764], a = 0.2, v = 0.2, t = 0.2)
movej(p[0.382644494981688, 0.213216807244043, 0.30726378660014, -1.33, 0.73, -0.764], a = 0.2, v = 0.2, t = 0.2)
movej(p[0.382726659896385, 0.213316219233977, 0.306038757040068, -1.33, 0.73, -0.764], a = 0.2, v = 0.2, t = 0.2)
movej(p[0.382858111753336, 0.213475263891034, 0.304078888754604, -1.33, 0.73, -0.764], a = 0.2, v = 0.2, t = 0.2)
movej(p[0.382983300186445, 0.213626730381298, 0.302212404359131, -1.33, 0.73, -0.764], a = 0.2, v = 0.2, t = 0.2)
movej(p[0.383044146781011, 0.213700349164557, 0.301305218156259, -1.33, 0.73, -0.764], a = 0.2, v = 0.2, t = 0.2)
movej(p[0.383150785073855, 0.21382937169119, 0.299715305217725, -1.33, 0.73, -0.764], a = 0.2, v = 0.2, t = 0.2)
movej(p[0.383310032124794, 0.2140220459766, 0.297341027273484, -1.33, 0.73, -0.764], a = 0.2, v = 0.2, t = 0.2)
movej(p[0.38347061323832, 0.214216334355044, 0.294946859256827, -1.33, 0.73, -0.764], a = 0.2, v = 0.2, t = 0.2)
movej(p[0.383584902380098, 0.214354613705224, 0.29324287675299, -1.33, 0.73, -0.764], a = 0.2, v = 0.2, t = 0.2)
movej(p[0.383654807259625, 0.21443919218018, 0.292200636958416, -1.33, 0.73, -0.764], a = 0.2, v = 0.2, t = 0.2)
movej(p[0.383648136946693, 0.214431121715013, 0.292300087320494, -1.33, 0.73, -0.764], a = 0.2, v = 0.2, t = 0.2)
movej(p[0.383654360348659, 0.214438651459014, 0.292207300132675, -1.33, 0.73, -0.764], a = 0.2, v = 0.2, t = 0.2)
movej(p[0.383598423104411, 0.214370972538119, 0.293041290869058, -1.33, 0.73, -0.764], a = 0.2, v = 0.2, t = 0.2)
movej(p[0.383535435339394, 0.214294763135542, 0.293980400638157, -1.33, 0.73, -0.764], a = 0.2, v = 0.2, t = 0.2)
movej(p[0.383456905745245, 0.214199749549124, 0.295151229750897, -1.33, 0.73, -0.764], a = 0.2, v = 0.2, t = 0.2)
movej(p[0.383345137981756, 0.214064520834777, 0.296817620017869, -1.33, 0.73, -0.764], a = 0.2, v = 0.2, t = 0.2)
movej(p[0.383214439870165, 0.213906388140284, 0.298766250412418, -1.33, 0.73, -0.764], a = 0.2, v = 0.2, t = 0.2)
movej(p[0.383055392928614, 0.213713955968829, 0.301137544845797, -1.33, 0.73, -0.764], a = 0.2, v = 0.2, t = 0.2)
movej(p[0.382934520187973, 0.213567711069528, 0.302939684857005, -1.33, 0.73, -0.764], a = 0.2, v = 0.2, t = 0.2)
movej(p[0.382822012019748, 0.213431586533547, 0.304617114114168, -1.33, 0.73, -0.764], a = 0.2, v = 0.2, t = 0.2)
movej(p[0.382762879695606, 0.213360041859837, 0.305498741573986, -1.33, 0.73, -0.764], a = 0.2, v = 0.2, t = 0.2)
movej(p[0.382663365296973, 0.213239638590002, 0.306982441525822, -1.33, 0.73, -0.764], a = 0.2, v = 0.2, t = 0.2)
movej(p[0.382638018107831, 0.213208970822365, 0.307360352901717, -1.33, 0.73, -0.764], a = 0.2, v = 0.2, t = 0.2)
movej(p[0.382612430787424, 0.213178012517983, 0.307741844490647, -1.33, 0.73, -0.764], a = 0.2, v = 0.2, t = 0.2)
movej(p[0.382589158065604, 0.213149854665013, 0.308088826803935, -1.33, 0.73, -0.764], a = 0.2, v = 0.2, t = 0.2)
movej(p[0.382568733567406, 0.21312514290067, 0.308393343812617, -1.33, 0.73, -0.764], a = 0.2, v = 0.2, t = 0.2)
movej(p[0.382562063254474, 0.213117072435503, 0.308492794174695, -1.33, 0.73, -0.764], a = 0.2, v = 0.2, t = 0.2)
movej(p[0.382571841933232, 0.213128903737438, 0.308346999943889, -1.33, 0.73, -0.764], a = 0.2, v = 0.2, t = 0.2)
movej(p[0.382581720666684, 0.213140856096351, 0.308199713957652, -1.33, 0.73, -0.764], a = 0.2, v = 0.2, t = 0.2)
movej(p[0.382661270818712, 0.21323710446394, 0.307013668939514, -1.33, 0.73, -0.764], a = 0.2, v = 0.2, t = 0.2)
movej(p[0.382747944864951, 0.213341972088327, 0.305721410934678, -1.33, 0.73, -0.764], a = 0.2, v = 0.2, t = 0.2)
movej(p[0.38285882547682, 0.213476127430807, 0.304068247565862, -1.33, 0.73, -0.764], a = 0.2, v = 0.2, t = 0.2)
movej(p[0.382997141085779, 0.213643476596521, 0.30200604485782, -1.33, 0.73, -0.764], a = 0.2, v = 0.2, t = 0.2)
movej(p[0.383144481628134, 0.213821745101607, 0.299809285809888, -1.33, 0.73, -0.764], a = 0.2, v = 0.2, t = 0.2)
movej(p[0.383297451914605, 0.214006825079294, 0.297528590656362, -1.33, 0.73, -0.764], a = 0.2, v = 0.2, t = 0.2)
movej(p[0.383442104320849, 0.214181841186918, 0.295371910104347, -1.33, 0.73, -0.764], a = 0.2, v = 0.2, t = 0.2)
movej(p[0.383546094499459, 0.21430765973888, 0.293821478959557, -1.33, 0.73, -0.764], a = 0.2, v = 0.2, t = 0.2)
movej(p[0.383621015454312, 0.214398307203642, 0.292704452492701, -1.33, 0.73, -0.764], a = 0.2, v = 0.2, t = 0.2)
movej(p[0.383692888076154, 0.214485266465822, 0.291632874841315, -1.33, 0.73, -0.764], a = 0.2, v = 0.2, t = 0.2)
movej(p[0.383742508534056, 0.214545302656203, 0.29089306359782, -1.33, 0.73, -0.764], a = 0.2, v = 0.2, t = 0.2)
movej(p[0.383749965943914, 0.214554325436261, 0.290781878093017, -1.33, 0.73, -0.764], a = 0.2, v = 0.2, t = 0.2)
movej(p[0.383762092572824, 0.214568997541935, 0.29060107733476, -1.33, 0.73, -0.764], a = 0.2, v = 0.2, t = 0.2)
movej(p[0.383770763979636, 0.214579489146653, 0.290471791864059, -1.33, 0.73, -0.764], a = 0.2, v = 0.2, t = 0.2)
movej(p[0.383764093666704, 0.214571418681485, 0.290571242226137, -1.33, 0.73, -0.764], a = 0.2, v = 0.2, t = 0.2)
movej(p[0.383748731936021, 0.214552832400205, 0.290800276410001, -1.33, 0.73, -0.764], a = 0.2, v = 0.2, t = 0.2)
movej(p[0.383695996441981, 0.21448902730259, 0.291586530972587, -1.33, 0.73, -0.764], a = 0.2, v = 0.2, t = 0.2)
movej(p[0.383665980033786, 0.214452710209336, 0.292034057601936, -1.33, 0.73, -0.764], a = 0.2, v = 0.2, t = 0.2)
movej(p[0.383659623225562, 0.214445019056031, 0.292128833796996, -1.33, 0.73, -0.764], a = 0.2, v = 0.2, t = 0.2)
movej(p[0.383609455802, 0.214384321087506, 0.292876799970182, -1.33, 0.73, -0.764], a = 0.2, v = 0.2, t = 0.2)
movej(p[0.383598950059133, 0.214371610104867, 0.293033434290454, -1.33, 0.73, -0.764], a = 0.2, v = 0.2, t = 0.2)
movej(p[0.383588324250632, 0.214358753853855, 0.293191858717244, -1.33, 0.73, -0.764], a = 0.2, v = 0.2, t = 0.2)
movej(p[0.383567592918039, 0.214333670848115, 0.293500950442581, -1.33, 0.73, -0.764], a = 0.2, v = 0.2, t = 0.2)
movej(p[0.383451642868341, 0.214193381952107, 0.295229696086576, -1.33, 0.73, -0.764], a = 0.2, v = 0.2, t = 0.2)
movej(p[0.383294123428452, 0.214002797917176, 0.297578216387039, -1.33, 0.73, -0.764], a = 0.2, v = 0.2, t = 0.2)
movej(p[0.383121762542288, 0.213794257097246, 0.300148013743124, -1.33, 0.73, -0.764], a = 0.2, v = 0.2, t = 0.2)
movej(p[0.382983133428621, 0.213626528619669, 0.302214890618183, -1.33, 0.73, -0.764], a = 0.2, v = 0.2, t = 0.2)
movej(p[0.382879310007834, 0.213500911829336, 0.303762835503921, -1.33, 0.73, -0.764], a = 0.2, v = 0.2, t = 0.2)
movej(p[0.382809872050212, 0.213416898286942, 0.304798113773149, -1.33, 0.73, -0.764], a = 0.2, v = 0.2, t = 0.2)
movej(p[0.382753281115296, 0.213348428460461, 0.305641850645016, -1.33, 0.73, -0.764], a = 0.2, v = 0.2, t = 0.2)
movej(p[0.382706568913833, 0.213291910992892, 0.306338301530645, -1.33, 0.73, -0.764], a = 0.2, v = 0.2, t = 0.2)
movej(p[0.382670075631782, 0.213247757477961, 0.306882394461572, -1.33, 0.73, -0.764], a = 0.2, v = 0.2, t = 0.2)
movej(p[0.382635403345162, 0.21320580720002, 0.307399337443651, -1.33, 0.73, -0.764], a = 0.2, v = 0.2, t = 0.2)
movej(p[0.382618554134695, 0.213185421205007, 0.307650549058259, -1.33, 0.73, -0.764], a = 0.2, v = 0.2, t = 0.2)
movej(p[0.382611883821763, 0.213177350739839, 0.307749999420337, -1.33, 0.73, -0.764], a = 0.2, v = 0.2, t = 0.2)
movej(p[0.382621262281746, 0.213188697813865, 0.307610172211256, -1.33, 0.73, -0.764], a = 0.2, v = 0.2, t = 0.2)
movej(p[0.382686264481268, 0.213267344496922, 0.30664102843281, -1.33, 0.73, -0.764], a = 0.2, v = 0.2, t = 0.2)
movej(p[0.382811019344036, 0.213418286406951, 0.304781008310872, -1.33, 0.73, -0.764], a = 0.2, v = 0.2, t = 0.2)
movej(p[0.382974855570273, 0.213616513172396, 0.302338308517522, -1.33, 0.73, -0.764], a = 0.2, v = 0.2, t = 0.2)
movej(p[0.383144875176597, 0.213822221259052, 0.299803418238525, -1.33, 0.73, -0.764], a = 0.2, v = 0.2, t = 0.2)
movej(p[0.383305816487021, 0.214016945442614, 0.297403879902317, -1.33, 0.73, -0.764], a = 0.2, v = 0.2, t = 0.2)
movej(p[0.383450168729184, 0.214191598379305, 0.295251674616595, -1.33, 0.73, -0.764], a = 0.2, v = 0.2, t = 0.2)
movej(p[0.383565278319452, 0.214330870396702, 0.293535459718222, -1.33, 0.73, -0.764], a = 0.2, v = 0.2, t = 0.2)
movej(p[0.383669155102742, 0.214456551750756, 0.291986719229587, -1.33, 0.73, -0.764], a = 0.2, v = 0.2, t = 0.2)
movej(p[0.383725766048596, 0.214525045788633, 0.291142684006635, -1.33, 0.73, -0.764], a = 0.2, v = 0.2, t = 0.2)
movej(p[0.383754708536408, 0.214560063536995, 0.29071116888558, -1.33, 0.73, -0.764], a = 0.2, v = 0.2, t = 0.2)
movej(p[0.38377341209387, 0.214582693121324, 0.290432310070314, -1.33, 0.73, -0.764], a = 0.2, v = 0.2, t = 0.2)
movej(p[0.383781850039729, 0.214592902259761, 0.290306505362286, -1.33, 0.73, -0.764], a = 0.2, v = 0.2, t = 0.2)
movej(p[0.3837819901163, 0.21459307173953, 0.290304416904682, -1.33, 0.73, -0.764], a = 0.2, v = 0.2, t = 0.2)
movej(p[0.383793583120176, 0.214607098207991, 0.290131572175391, -1.33, 0.73, -0.764], a = 0.2, v = 0.2, t = 0.2)
movej(p[0.383786912807244, 0.214599027742824, 0.290231022537469, -1.33, 0.73, -0.764], a = 0.2, v = 0.2, t = 0.2)
movej(p[0.383758563977283, 0.214564728265862, 0.290653686576299, -1.33, 0.73, -0.764], a = 0.2, v = 0.2, t = 0.2)
movej(p[0.383731822692739, 0.214532373771005, 0.291052383077868, -1.33, 0.73, -0.764], a = 0.2, v = 0.2, t = 0.2)
movej(p[0.383705081408194, 0.214500019276148, 0.291451079579437, -1.33, 0.73, -0.764], a = 0.2, v = 0.2, t = 0.2)
movej(p[0.38367834012365, 0.214467664781291, 0.291849776081006, -1.33, 0.73, -0.764], a = 0.2, v = 0.2, t = 0.2)
movej(p[0.383593747215046, 0.214365315142037, 0.293111005572875, -1.33, 0.73, -0.764], a = 0.2, v = 0.2, t = 0.2)
movej(p[0.383451302682382, 0.214192970358384, 0.295234768055042, -1.33, 0.73, -0.764], a = 0.2, v = 0.2, t = 0.2)
movej(p[0.383308858149718, 0.214020625574731, 0.297358530537209, -1.33, 0.73, -0.764], a = 0.2, v = 0.2, t = 0.2)
movej(p[0.383166413617055, 0.213848280791078, 0.299482293019377, -1.33, 0.73, -0.764], a = 0.2, v = 0.2, t = 0.2)
movej(p[0.383050416875167, 0.213707935401814, 0.301211734815907, -1.33, 0.73, -0.764], a = 0.2, v = 0.2, t = 0.2)
