def moving():
set_payload_mass(0)
set_tcp(p[0,0,0,0,0,0])
movej(p[0.418, -0.0122, 0.3232, -1.214, 1.172, -1.157], a = 0.2, v = 0.2, t = 0.2)
movej(p[0.418104662038235, -0.0122963516639048, 0.32329880392004, -1.21222290345934, 1.1703126131385, -1.15523092864399], a = 0.2, v = 0.2, t = 0.2)
movej(p[0.418, -0.0122, 0.3232, -1.214, 1.172, -1.157], a = 0.2, v = 0.2, t = 0.2)
movej(p[0.418104662038235, -0.0122963516639048, 0.32329880392004, -1.21222290345934, 1.1703126131385, -1.15523092864399], a = 0.2, v = 0.2, t = 0.2)
movej(p[0.418, -0.0122, 0.3232, -1.214, 1.172, -1.157], a = 0.2, v = 0.2, t = 0.2)
movej(p[0.418104662038235, -0.0122963516639048, 0.32329880392004, -1.21222290345934, 1.1703126131385, -1.15523092864399], a = 0.2, v = 0.2, t = 0.2)
movej(p[0.418, -0.0122, 0.3232, -1.214, 1.172, -1.157], a = 0.2, v = 0.2, t = 0.2)
movej(p[0.418104662038235, -0.0122963516639048, 0.32329880392004, -1.21222290345934, 1.1703126131385, -1.15523092864399], a = 0.2, v = 0.2, t = 0.2)
movej(p[0.418, -0.0122, 0.3232, -1.214, 1.172, -1.157], a = 0.2, v = 0.2, t = 0.2)
movej(p[0.418104662038235, -0.0122963516639048, 0.32329880392004, -1.21222290345934, 1.1703126131385, -1.15523092864399], a = 0.2, v = 0.2, t = 0.2)
movej(p[0.418, -0.0122, 0.3232, -1.214, 1.172, -1.157], a = 0.2, v = 0.2, t = 0.2)
movej(p[0.418067897994171, -0.0120504224194688, 0.323060346697891, -1.2136911000809, 1.17411761307423, -1.16536175229143], a = 0.2, v = 0.2, t = 0.2)
movej(p[0.418322231413822, -0.0119765686330233, 0.322928852736143, -1.21752890373008, 1.17724182872056, -1.1693343425539], a = 0.2, v = 0.2, t = 0.2)
movej(p[0.418348255511819, -0.011969253826587, 0.322840536995585, -1.21606537692491, 1.18009364754924, -1.16724115666363], a = 0.2, v = 0.2, t = 0.2)
movej(p[0.418346324034964, -0.0121223471718949, 0.322864120612008, -1.22043148549984, 1.18027889439202, -1.17229237339031], a = 0.2, v = 0.2, t = 0.2)
movej(p[0.418289324650489, -0.0121501911755762, 0.322820407322845, -1.21726759644343, 1.18196148230838, -1.1729387273657], a = 0.2, v = 0.2, t = 0.2)
movej(p[0.418154468650044, -0.0121227570843417, 0.322686709431286, -1.2175921578866, 1.18069435695595, -1.1765290285249], a = 0.2, v = 0.2, t = 0.2)
movej(p[0.417679921132513, -0.0122381880035325, 0.322591694469308, -1.21011196961127, 1.18030827940135, -1.16998810190782], a = 0.2, v = 0.2, t = 0.2)
movej(p[0.416790808832877, -0.0123655519540098, 0.32254473456075, -1.20572565016986, 1.17668860938577, -1.18354239839164], a = 0.2, v = 0.2, t = 0.2)
movej(p[0.415834358578245, -0.0122727724796811, 0.322474186649805, -1.20488386723734, 1.17067581848539, -1.1934882543805], a = 0.2, v = 0.2, t = 0.2)
movej(p[0.414862110467214, -0.0120225082318283, 0.322465905051945, -1.20588329766709, 1.16206834610159, -1.20521660495348], a = 0.2, v = 0.2, t = 0.2)
movej(p[0.414006983905998, -0.0119528459491051, 0.32258373808623, -1.19831518965419, 1.1554417391623, -1.19297911605072], a = 0.2, v = 0.2, t = 0.2)
movej(p[0.41347761226864, -0.0118377883852105, 0.32268297607468, -1.1961328583558, 1.14709024455791, -1.19880922471872], a = 0.2, v = 0.2, t = 0.2)
movej(p[0.413650828669347, -0.0116725600051741, 0.322693368858556, -1.20211043294288, 1.14037524219867, -1.20008881147859], a = 0.2, v = 0.2, t = 0.2)
movej(p[0.414540461650033, -0.0115914904929804, 0.322736690837585, -1.20851191041338, 1.13779013305305, -1.20125138834403], a = 0.2, v = 0.2, t = 0.2)
movej(p[0.415638820441165, -0.0115946474487462, 0.32281220760112, -1.21007010309538, 1.14152714518442, -1.1965079501775], a = 0.2, v = 0.2, t = 0.2)
movej(p[0.416812401912102, -0.0114873000995985, 0.322790524928244, -1.21177541629984, 1.15138746962826, -1.19548725437661], a = 0.2, v = 0.2, t = 0.2)
movej(p[0.41772548859854, -0.0114143547367705, 0.32271445399298, -1.21369130709005, 1.1628029382333, -1.18945758281081], a = 0.2, v = 0.2, t = 0.2)
movej(p[0.418244340135032, -0.0115381730322551, 0.322695465291503, -1.22092057248007, 1.17126435519562, -1.18530889296795], a = 0.2, v = 0.2, t = 0.2)
movej(p[0.418314909007555, -0.0117116474091815, 0.322667243466956, -1.21942483028344, 1.17583731271559, -1.18289885298079], a = 0.2, v = 0.2, t = 0.2)
movej(p[0.41826369398439, -0.0117556604781096, 0.322569054410204, -1.21748616863498, 1.17868333991624, -1.17891251730829], a = 0.2, v = 0.2, t = 0.2)
movej(p[0.417942725086073, -0.0118827775131531, 0.322483003383831, -1.21050028387059, 1.17816801171386, -1.17288867704121], a = 0.2, v = 0.2, t = 0.2)
movej(p[0.417254153594332, -0.0120822406355109, 0.322498986475076, -1.20833662351541, 1.17721397023874, -1.17820395882106], a = 0.2, v = 0.2, t = 0.2)
movej(p[0.416329884062439, -0.0121547782725737, 0.322452002621212, -1.20734573843739, 1.17109471044233, -1.19314662668633], a = 0.2, v = 0.2, t = 0.2)
movej(p[0.415285806660041, -0.0120117037373543, 0.322439449865628, -1.20774005576469, 1.16438418987698, -1.20398558797354], a = 0.2, v = 0.2, t = 0.2)
movej(p[0.414438097107105, -0.0119585040435712, 0.322534951022393, -1.20427000297038, 1.15639766992205, -1.19991981625116], a = 0.2, v = 0.2, t = 0.2)
movej(p[0.413682740707429, -0.0118639420958397, 0.322676720107914, -1.20661847192588, 1.1468445051184, -1.20653458189354], a = 0.2, v = 0.2, t = 0.2)
movej(p[0.413528074522854, -0.0117326459508203, 0.322715982519355, -1.20936339854271, 1.1395886048418, -1.20709949194782], a = 0.2, v = 0.2, t = 0.2)
movej(p[0.413944937864861, -0.0115906304568695, 0.322694411129306, -1.20886869534505, 1.13725198678714, -1.20307736941722], a = 0.2, v = 0.2, t = 0.2)
movej(p[0.414924007235203, -0.0116363686572478, 0.322754081357104, -1.21049558754398, 1.13911000420007, -1.19863457630019], a = 0.2, v = 0.2, t = 0.2)
movej(p[0.41610045750337, -0.011592437802283, 0.322750358104264, -1.20962763936029, 1.14688253740721, -1.19616970365175], a = 0.2, v = 0.2, t = 0.2)
movej(p[0.417193367031493, -0.011496319559758, 0.322698153837278, -1.21921970279657, 1.15503771817017, -1.19696131698672], a = 0.2, v = 0.2, t = 0.2)
movej(p[0.417859071295543, -0.0115532909761154, 0.322676836303547, -1.21467870110857, 1.16768291632516, -1.18035659747475], a = 0.2, v = 0.2, t = 0.2)
movej(p[0.418091057677803, -0.0116721187310676, 0.32268761098214, -1.21963591935536, 1.17250650366691, -1.18412829808725], a = 0.2, v = 0.2, t = 0.2)
movej(p[0.418131727528769, -0.0117420568290502, 0.322613684344363, -1.22166050719636, 1.17462762815905, -1.18622622934454], a = 0.2, v = 0.2, t = 0.2)
movej(p[0.418019309343623, -0.011778673967439, 0.322502259556615, -1.22399809155698, 1.1734689288778, -1.189041722616], a = 0.2, v = 0.2, t = 0.2)
movej(p[0.417593154239838, -0.0120219069796567, 0.322468327262471, -1.2168340344051, 1.17238409449765, -1.18505900377145], a = 0.2, v = 0.2, t = 0.2)
movej(p[0.416848402446732, -0.0120710795666841, 0.32238864803588, -1.20843696652685, 1.16967274563785, -1.19086577496174], a = 0.2, v = 0.2, t = 0.2)
movej(p[0.415901511387491, -0.011991756697112, 0.322318392105939, -1.20471732154142, 1.16483254488165, -1.19989612487292], a = 0.2, v = 0.2, t = 0.2)
movej(p[0.414896119736268, -0.0118899436319805, 0.32234827146369, -1.20044951988166, 1.15984522274753, -1.19884582631494], a = 0.2, v = 0.2, t = 0.2)
movej(p[0.413991972309552, -0.0118606467844591, 0.322475783737958, -1.19864499779629, 1.15385284095181, -1.20133656642722], a = 0.2, v = 0.2, t = 0.2)
movej(p[0.413575538957509, -0.0116975505927302, 0.322537141150306, -1.20259946198896, 1.14618654095683, -1.20123244691196], a = 0.2, v = 0.2, t = 0.2)
movej(p[0.413666285833441, -0.0116081043914089, 0.322599219024608, -1.20988506439243, 1.13848951715917, -1.20398598217692], a = 0.2, v = 0.2, t = 0.2)
movej(p[0.414195673021294, -0.0116417061306912, 0.322717014699204, -1.21028980606422, 1.13743625069697, -1.1970281951353], a = 0.2, v = 0.2, t = 0.2)
movej(p[0.415204534271008, -0.0116430378147502, 0.322775668397674, -1.21409218660673, 1.14111026211527, -1.19853089061057], a = 0.2, v = 0.2, t = 0.2)
movej(p[0.416414174096199, -0.0115929910770314, 0.322786312882397, -1.21340343783361, 1.15219686405263, -1.18834358387076], a = 0.2, v = 0.2, t = 0.2)
movej(p[0.41744592373973, -0.0116529486753344, 0.322789166665926, -1.21614196513315, 1.1624429717821, -1.1784578023106], a = 0.2, v = 0.2, t = 0.2)
movej(p[0.417895056307769, -0.0117957090351205, 0.322824288468632, -1.21376389805478, 1.17046427458743, -1.17114322061832], a = 0.2, v = 0.2, t = 0.2)
movej(p[0.41811039443671, -0.0118709235844264, 0.32278469212004, -1.21038814068567, 1.17698245903381, -1.16418377839945], a = 0.2, v = 0.2, t = 0.2)
movej(p[0.418150861199027, -0.01199231598473, 0.322741913517958, -1.2084785282385, 1.17903953124259, -1.16175251067939], a = 0.2, v = 0.2, t = 0.2)
movej(p[0.417924602945839, -0.0121774972697986, 0.322688840978002, -1.20292712899859, 1.18045402705111, -1.16012579399428], a = 0.2, v = 0.2, t = 0.2)
movej(p[0.417346019268389, -0.0122682062650882, 0.322567337543209, -1.20818070163536, 1.17433259648789, -1.17975943142947], a = 0.2, v = 0.2, t = 0.2)
movej(p[0.41639047943653, -0.0122377933257431, 0.322441088339051, -1.20595443553614, 1.16960189305638, -1.18656782507766], a = 0.2, v = 0.2, t = 0.2)
movej(p[0.415352516142148, -0.0122339718229499, 0.322465989802018, -1.20974513780386, 1.16254726202989, -1.19442182075998], a = 0.2, v = 0.2, t = 0.2)
movej(p[0.414338382180204, -0.0121786850021652, 0.322543579888241, -1.20104394523231, 1.15737946987482, -1.19160197722255], a = 0.2, v = 0.2, t = 0.2)
movej(p[0.413675901692589, -0.0119752892949226, 0.32256106981119, -1.1993915163657, 1.15139627888656, -1.18963638583952], a = 0.2, v = 0.2, t = 0.2)
movej(p[0.41352787710092, -0.0118581810287938, 0.322606858801847, -1.19696319472182, 1.14662398365165, -1.18225215472095], a = 0.2, v = 0.2, t = 0.2)
movej(p[0.413828307949871, -0.011851909771897, 0.322734298492821, -1.20174547155075, 1.14249222867915, -1.18289937209457], a = 0.2, v = 0.2, t = 0.2)
movej(p[0.414795099159065, -0.0118206079310951, 0.322827054386907, -1.208116721897, 1.1428875484857, -1.18861150988142], a = 0.2, v = 0.2, t = 0.2)
movej(p[0.4160718726715, -0.0117203627616222, 0.322847823509229, -1.20988619008859, 1.15144602379128, -1.18172077034991], a = 0.2, v = 0.2, t = 0.2)
movej(p[0.417250677421946, -0.0117529658893449, 0.322872686151638, -1.21156158771293, 1.16238339924577, -1.16936457957658], a = 0.2, v = 0.2, t = 0.2)
movej(p[0.417831615087222, -0.0118341416891252, 0.322881141853463, -1.2097933426707, 1.1712073340665, -1.16128745371344], a = 0.2, v = 0.2, t = 0.2)
movej(p[0.418098510693282, -0.011901479397926, 0.322810335569565, -1.21236650473812, 1.17531239119698, -1.16172839589429], a = 0.2, v = 0.2, t = 0.2)
movej(p[0.418144310370871, -0.0120314928526826, 0.322756365035798, -1.21200979130339, 1.1766534973745, -1.16170517608196], a = 0.2, v = 0.2, t = 0.2)
movej(p[0.417903451523814, -0.0121696006291465, 0.322694068558107, -1.21030053083275, 1.17699959939122, -1.16865044337798], a = 0.2, v = 0.2, t = 0.2)
movej(p[0.417431007569212, -0.0122239627351752, 0.322574430874461, -1.21005886024933, 1.1738145166405, -1.1801798296248], a = 0.2, v = 0.2, t = 0.2)
movej(p[0.416567829196022, -0.0121866652472652, 0.322475209334689, -1.20619336633125, 1.17019241612089, -1.18563231184872], a = 0.2, v = 0.2, t = 0.2)
movej(p[0.415576174409931, -0.0122722514739903, 0.322537959231484, -1.20279791651796, 1.16656627174772, -1.18495379602384], a = 0.2, v = 0.2, t = 0.2)
movej(p[0.41462773983436, -0.0121837752737147, 0.322611216698611, -1.19494930304556, 1.16120518404709, -1.18571492664318], a = 0.2, v = 0.2, t = 0.2)
movej(p[0.414000529043135, -0.0119621437000797, 0.322625697204097, -1.19874583651492, 1.15330420260228, -1.19081321573338], a = 0.2, v = 0.2, t = 0.2)
movej(p[0.413648474424783, -0.011838819033463, 0.322643938289623, -1.19967351819098, 1.14575094796408, -1.18935080221251], a = 0.2, v = 0.2, t = 0.2)
movej(p[0.413750122398098, -0.0118604898955366, 0.322727116085688, -1.21164957203729, 1.13913742734392, -1.20235437762418], a = 0.2, v = 0.2, t = 0.2)
movej(p[0.414494135629561, -0.0118501672352036, 0.322795500662105, -1.21736686353132, 1.1395987804401, -1.20497444080223], a = 0.2, v = 0.2, t = 0.2)
movej(p[0.415734932297374, -0.0117375721488173, 0.322797053390297, -1.21909315669033, 1.1466334484258, -1.19809103093176], a = 0.2, v = 0.2, t = 0.2)
movej(p[0.416936741937351, -0.0117944342059205, 0.32288328883208, -1.22188158435073, 1.15580917643032, -1.18917524037453], a = 0.2, v = 0.2, t = 0.2)
movej(p[0.417668945361204, -0.011846574735717, 0.322862867278511, -1.21459790060081, 1.16640549625084, -1.17575432665739], a = 0.2, v = 0.2, t = 0.2)
movej(p[0.418053009506777, -0.0119222539472831, 0.322809645156921, -1.2182546372294, 1.17138235289348, -1.17496996939164], a = 0.2, v = 0.2, t = 0.2)
movej(p[0.418119323887674, -0.0120574234869708, 0.322760531636676, -1.21444869177626, 1.17564502803318, -1.16494176637633], a = 0.2, v = 0.2, t = 0.2)
movej(p[0.4179342867513, -0.0122131249412477, 0.322750778680017, -1.22205835933335, 1.17384667346553, -1.17838893364251], a = 0.2, v = 0.2, t = 0.2)
movej(p[0.417419228552047, -0.0122750861346864, 0.322615972053554, -1.2246849067741, 1.17049590673071, -1.18953274205524], a = 0.2, v = 0.2, t = 0.2)
movej(p[0.416577422019592, -0.012285433130678, 0.322498756433069, -1.22122069869753, 1.16713466763302, -1.19485917433432], a = 0.2, v = 0.2, t = 0.2)
movej(p[0.415569435207015, -0.0123592768142187, 0.322498052944183, -1.21013078111576, 1.16455031542319, -1.19077607809986], a = 0.2, v = 0.2, t = 0.2)
movej(p[0.414648100954187, -0.0122383398516899, 0.322529575968398, -1.1995738881546, 1.16053918052854, -1.18811331425379], a = 0.2, v = 0.2, t = 0.2)
movej(p[0.413981919535173, -0.0120393515111376, 0.322551677954405, -1.2012818345857, 1.1512467370073, -1.19234918678668], a = 0.2, v = 0.2, t = 0.2)
movej(p[0.413615984448966, -0.0119707599254376, 0.322615930722854, -1.2017191168841, 1.14482359033904, -1.18574514931905], a = 0.2, v = 0.2, t = 0.2)
movej(p[0.413501169259392, -0.0120320801612963, 0.32272489891967, -1.20774020580726, 1.13762575997036, -1.19418422121786], a = 0.2, v = 0.2, t = 0.2)
movej(p[0.414164120410935, -0.0120226445404712, 0.322779717787116, -1.21485483617689, 1.1369078999998, -1.19599240355812], a = 0.2, v = 0.2, t = 0.2)
movej(p[0.415316913728947, -0.0119363479756727, 0.322818938086058, -1.2202541063943, 1.14039226428058, -1.19809041961679], a = 0.2, v = 0.2, t = 0.2)
movej(p[0.416641741041059, -0.0119753827997897, 0.322903689814003, -1.21905347766464, 1.15164695686771, -1.18692187684629], a = 0.2, v = 0.2, t = 0.2)
movej(p[0.41758166683017, -0.011950152886254, 0.32290566742047, -1.21842417689359, 1.16239427669768, -1.18084217923188], a = 0.2, v = 0.2, t = 0.2)
movej(p[0.418133041898553, -0.0120218584067625, 0.322875780097174, -1.21539882094737, 1.17139280287928, -1.16961160086753], a = 0.2, v = 0.2, t = 0.2)
movej(p[0.418266895535652, -0.0121342813713603, 0.322860090090306, -1.2197726872886, 1.17501246909654, -1.17051213744321], a = 0.2, v = 0.2, t = 0.2)
movej(p[0.418198993638808, -0.0122761020649008, 0.322852358525862, -1.21945188267673, 1.1765590767074, -1.17176162705668], a = 0.2, v = 0.2, t = 0.2)
movej(p[0.41794677072869, -0.0123561877987375, 0.32275350283427, -1.22094497646248, 1.17559407311941, -1.17565482236964], a = 0.2, v = 0.2, t = 0.2)
movej(p[0.417319312043439, -0.0124743215355996, 0.32264660953288, -1.21668980558231, 1.17238775570637, -1.1759169820563], a = 0.2, v = 0.2, t = 0.2)
movej(p[0.416305426083776, -0.0126379453820116, 0.322606478951235, -1.20595686363262, 1.17086088447438, -1.17548425154411], a = 0.2, v = 0.2, t = 0.2)
movej(p[0.41525897221312, -0.0125104028212455, 0.322563028579752, -1.19966298365917, 1.16511713287548, -1.18282953342317], a = 0.2, v = 0.2, t = 0.2)
movej(p[0.414358141765945, -0.0122843785513793, 0.32257102993425, -1.19797128229513, 1.15778644167914, -1.18668003144243], a = 0.2, v = 0.2, t = 0.2)
movej(p[0.413650118589029, -0.0121889771461343, 0.322654014829429, -1.19879046507236, 1.14969063168299, -1.18184016824533], a = 0.2, v = 0.2, t = 0.2)
movej(p[0.41335103448584, -0.012153995410907, 0.322767059941752, -1.20102805632491, 1.1431299684473, -1.18732045137889], a = 0.2, v = 0.2, t = 0.2)
movej(p[0.413686769298608, -0.0120463511382338, 0.322816197819775, -1.20671954753854, 1.13977022294206, -1.18895235841746], a = 0.2, v = 0.2, t = 0.2)
movej(p[0.414789537257464, -0.0119541026564174, 0.322868942209263, -1.20856523776914, 1.14201404872835, -1.18723893572795], a = 0.2, v = 0.2, t = 0.2)
movej(p[0.416088668284425, -0.0118927788282661, 0.32292895958166, -1.21031008167575, 1.15085829991187, -1.18200222022185], a = 0.2, v = 0.2, t = 0.2)
movej(p[0.417227009132297, -0.011851606397727, 0.32294063886366, -1.21563459302143, 1.16073463482211, -1.18072774694428], a = 0.2, v = 0.2, t = 0.2)
movej(p[0.417985844370469, -0.0118652240646491, 0.322925476635508, -1.21556907280922, 1.17233881887201, -1.16834313555355], a = 0.2, v = 0.2, t = 0.2)
movej(p[0.418331868645574, -0.0120609080632553, 0.32296812347808, -1.2204584768993, 1.17814115811835, -1.16325354374234], a = 0.2, v = 0.2, t = 0.2)
movej(p[0.418326242085707, -0.012218125988302, 0.322933299743874, -1.20969123471441, 1.18316222117628, -1.15270795067147], a = 0.2, v = 0.2, t = 0.2)
movej(p[0.418285315717296, -0.0122443245892386, 0.322846649926201, -1.2090518297768, 1.18388594786045, -1.1534225301685], a = 0.2, v = 0.2, t = 0.2)
movej(p[0.418037938030525, -0.0123699326984407, 0.322769460707321, -1.20443030385479, 1.18285227576256, -1.14859230795554], a = 0.2, v = 0.2, t = 0.2)
movej(p[0.417465193881818, -0.0124851481553352, 0.322690712505981, -1.20293457757797, 1.17942861363114, -1.1583786469162], a = 0.2, v = 0.2, t = 0.2)
movej(p[0.416673889915713, -0.012501625929847, 0.322589469812052, -1.20580470839629, 1.17327633129439, -1.17429277879652], a = 0.2, v = 0.2, t = 0.2)
movej(p[0.415656546032645, -0.0124118563043, 0.322503161871849, -1.20151418883795, 1.16813816809298, -1.17994108921419], a = 0.2, v = 0.2, t = 0.2)
movej(p[0.414780975088409, -0.0124070311825783, 0.322622107032575, -1.20347202530231, 1.16132544716942, -1.18223695538381], a = 0.2, v = 0.2, t = 0.2)
movej(p[0.414099701454271, -0.0123005074975, 0.322690608580333, -1.19837633185257, 1.15578117159185, -1.18334580795013], a = 0.2, v = 0.2, t = 0.2)
movej(p[0.414048230571652, -0.0121174006877332, 0.322729035125317, -1.20420668952921, 1.14910619954909, -1.18556736776261], a = 0.2, v = 0.2, t = 0.2)
movej(p[0.414550849981457, -0.012022233602028, 0.322739878168482, -1.20146879972646, 1.14770471900753, -1.17724913672547], a = 0.2, v = 0.2, t = 0.2)
movej(p[0.415502137732414, -0.0120234669947384, 0.322854068431302, -1.20616478755564, 1.15062667019154, -1.17814355770914], a = 0.2, v = 0.2, t = 0.2)
movej(p[0.416651639249024, -0.0119929935955333, 0.322891415036923, -1.21098165969252, 1.15778933575189, -1.17637213341759], a = 0.2, v = 0.2, t = 0.2)
movej(p[0.417535471806869, -0.0119438050523325, 0.322903334412383, -1.21887760666941, 1.16660362012064, -1.17464877492462], a = 0.2, v = 0.2, t = 0.2)
movej(p[0.418066793071917, -0.0121353048782053, 0.322952910447222, -1.21980385321718, 1.17406843677243, -1.16584269196751], a = 0.2, v = 0.2, t = 0.2)
movej(p[0.41819667527498, -0.0122431000358635, 0.322915621654402, -1.21455753422766, 1.18071024206738, -1.16074223215783], a = 0.2, v = 0.2, t = 0.2)
movej(p[0.418262443791932, -0.0122736053535041, 0.322829247498952, -1.21225811845273, 1.18314076197327, -1.16038051743523], a = 0.2, v = 0.2, t = 0.2)
movej(p[0.418203933823037, -0.0123354819251526, 0.322756029371266, -1.20824806552227, 1.18421227107104, -1.15512803699543], a = 0.2, v = 0.2, t = 0.2)
movej(p[0.417966508437594, -0.012467863604553, 0.322754392084896, -1.21847282345829, 1.17875812731604, -1.17147688972522], a = 0.2, v = 0.2, t = 0.2)
movej(p[0.417467594489658, -0.012470753595541, 0.322641197135334, -1.22034442843416, 1.17448855788834, -1.18126553471096], a = 0.2, v = 0.2, t = 0.2)
movej(p[0.416685466345283, -0.0124319109130527, 0.322574779556377, -1.22521121863422, 1.16827824948424, -1.19595271031677], a = 0.2, v = 0.2, t = 0.2)
movej(p[0.415691039034514, -0.0125015235271432, 0.322635419842946, -1.20854852180772, 1.16817954572805, -1.18311284244027], a = 0.2, v = 0.2, t = 0.2)
movej(p[0.414863332641648, -0.0123981532070529, 0.322701214200841, -1.20277769915657, 1.16300552828829, -1.18787421766272], a = 0.2, v = 0.2, t = 0.2)
movej(p[0.41435925372741, -0.0121816645426879, 0.322697971107083, -1.20366224942299, 1.15548646247559, -1.19109179961057], a = 0.2, v = 0.2, t = 0.2)
movej(p[0.414183034828091, -0.0120372808735645, 0.32272473154268, -1.20907789836575, 1.14767075214265, -1.19321083976283], a = 0.2, v = 0.2, t = 0.2)
movej(p[0.414310193469088, -0.012106217210471, 0.32284887830411, -1.21302006270629, 1.14326053462849, -1.19542651252337], a = 0.2, v = 0.2, t = 0.2)
movej(p[0.415022745819265, -0.0120707775013315, 0.322872768992093, -1.21197395454181, 1.14601574784606, -1.18995212686216], a = 0.2, v = 0.2, t = 0.2)
movej(p[0.416073107308258, -0.0119890152795157, 0.322867981244756, -1.20967299270903, 1.15313810016502, -1.17982532286183], a = 0.2, v = 0.2, t = 0.2)
movej(p[0.417112161220641, -0.0119903885904023, 0.322906534157468, -1.20976310703588, 1.16385531450102, -1.1669181186101], a = 0.2, v = 0.2, t = 0.2)
movej(p[0.417712294844374, -0.012024433590696, 0.322921892852753, -1.20841348572737, 1.17249608788599, -1.16076751842143], a = 0.2, v = 0.2, t = 0.2)
movej(p[0.418080518306562, -0.011978521366494, 0.322828326738378, -1.20944509333768, 1.17894803093841, -1.15680427888666], a = 0.2, v = 0.2, t = 0.2)
movej(p[0.418209988237921, -0.0120437945987631, 0.322727071935534, -1.20558067153749, 1.18027982227616, -1.1502641891743], a = 0.2, v = 0.2, t = 0.2)
movej(p[0.418163012408621, -0.0121205995036852, 0.322662271932252, -1.20657819055325, 1.18058325545465, -1.15746387702908], a = 0.2, v = 0.2, t = 0.2)
movej(p[0.418109230037996, -0.0121153984973942, 0.322573707613592, -1.21315441827199, 1.17815701458251, -1.17336997178852], a = 0.2, v = 0.2, t = 0.2)
movej(p[0.418033015086785, -0.0120316590893084, 0.322457629662899, -1.21648610979281, 1.17734509355885, -1.18110073402115], a = 0.2, v = 0.2, t = 0.2)
movej(p[0.417866905327324, -0.0121569897517205, 0.322414289966822, -1.21246788181107, 1.17730254716533, -1.17419037051191], a = 0.2, v = 0.2, t = 0.2)
movej(p[0.417281875107019, -0.012233727488432, 0.322352042908934, -1.20736737570391, 1.17384910751243, -1.18589731163768], a = 0.2, v = 0.2, t = 0.2)
movej(p[0.416653459729612, -0.0121326366586445, 0.322231619588867, -1.20607834534714, 1.16952977288545, -1.1957136389407], a = 0.2, v = 0.2, t = 0.2)
movej(p[0.41594796442116, -0.0119231980743566, 0.322134096464621, -1.20876515452252, 1.16250922638116, -1.2087315894896], a = 0.2, v = 0.2, t = 0.2)
movej(p[0.415338252603022, -0.0119241194884004, 0.322238969852659, -1.20812145027603, 1.15866523064411, -1.20762813024578], a = 0.2, v = 0.2, t = 0.2)
movej(p[0.414748829227695, -0.011786666722954, 0.3222817015024, -1.20490283515686, 1.15256792150168, -1.21277144453056], a = 0.2, v = 0.2, t = 0.2)
movej(p[0.414481017287713, -0.0115507868478563, 0.32229356501904, -1.20672813442839, 1.14732895397298, -1.2144117916612], a = 0.2, v = 0.2, t = 0.2)
movej(p[0.414567248812876, -0.0114052558881263, 0.322320314797134, -1.2055693207351, 1.14288970045197, -1.20793973584035], a = 0.2, v = 0.2, t = 0.2)
movej(p[0.415036143357521, -0.011459878337152, 0.322422229553005, -1.21539289532548, 1.13949816379508, -1.21423284730391], a = 0.2, v = 0.2, t = 0.2)
movej(p[0.41598661157273, -0.0114580016906274, 0.322471912575013, -1.21620538746245, 1.14431181792497, -1.20914478940614], a = 0.2, v = 0.2, t = 0.2)
movej(p[0.416953739486603, -0.0114135592423832, 0.32247561207536, -1.22360336870292, 1.15036664300275, -1.21032917246344], a = 0.2, v = 0.2, t = 0.2)
movej(p[0.417708034224992, -0.0115410825887273, 0.322528048139041, -1.21277732840227, 1.16311434608235, -1.18509123634333], a = 0.2, v = 0.2, t = 0.2)
movej(p[0.41798225255116, -0.0116680493825722, 0.322535617770024, -1.21495305267851, 1.16739583295415, -1.18911604106034], a = 0.2, v = 0.2, t = 0.2)
movej(p[0.418097366430769, -0.0116910061297292, 0.322459420448577, -1.21114242763412, 1.17130779253645, -1.18440932826169], a = 0.2, v = 0.2, t = 0.2)
movej(p[0.418127117187838, -0.0117466670185313, 0.322401752755615, -1.20797681097179, 1.17298172842793, -1.17998589365195], a = 0.2, v = 0.2, t = 0.2)
movej(p[0.418069935139473, -0.0118900724745393, 0.322371792764494, -1.20032463416634, 1.17566865962047, -1.17497557991698], a = 0.2, v = 0.2, t = 0.2)
movej(p[0.418024768674878, -0.011905875402579, 0.322319195416487, -1.20500410875732, 1.17363575935226, -1.18560339161558], a = 0.2, v = 0.2, t = 0.2)
movej(p[0.417890728554919, -0.0119113331989701, 0.32221230739424, -1.20387173726567, 1.17304444548931, -1.18739519361749], a = 0.2, v = 0.2, t = 0.2)
movej(p[0.41747359016758, -0.0120175017501245, 0.322211265302862, -1.20680723325131, 1.17118078943809, -1.18840583178853], a = 0.2, v = 0.2, t = 0.2)
movej(p[0.416725850000527, -0.0121259916420305, 0.322191497143389, -1.20121885253104, 1.16825569055025, -1.19518060316737], a = 0.2, v = 0.2, t = 0.2)
movej(p[0.415962189415828, -0.0120117698017335, 0.322135464322864, -1.20273451013243, 1.16377924254176, -1.20271861583072], a = 0.2, v = 0.2, t = 0.2)
movej(p[0.415228979948745, -0.0118490896058612, 0.322138578620704, -1.20009291314018, 1.15758948902168, -1.20363861226217], a = 0.2, v = 0.2, t = 0.2)
movej(p[0.414590669125285, -0.0118328752808935, 0.322290366009245, -1.20173820292991, 1.15244035086141, -1.20097262868244], a = 0.2, v = 0.2, t = 0.2)
movej(p[0.414189601964175, -0.0117478106716213, 0.322385186368497, -1.1970644766449, 1.14856235044493, -1.20000570753628], a = 0.2, v = 0.2, t = 0.2)
movej(p[0.414427273392989, -0.0115977768634093, 0.322429292218665, -1.20167114030373, 1.14448810245489, -1.20029552212546], a = 0.2, v = 0.2, t = 0.2)
movej(p[0.415109794383067, -0.011586041777966, 0.322441454256855, -1.19376397131678, 1.14543130046879, -1.18401423171229], a = 0.2, v = 0.2, t = 0.2)
movej(p[0.4159898393794, -0.0116664859424223, 0.322535314579852, -1.20319212758102, 1.14666910752758, -1.19147982270299], a = 0.2, v = 0.2, t = 0.2)
movej(p[0.416944724745309, -0.0116970886610591, 0.322560780456727, -1.21076911282452, 1.15263355355642, -1.19304900067353], a = 0.2, v = 0.2, t = 0.2)
movej(p[0.417638783943795, -0.0116811899441676, 0.322553040049843, -1.21692088413505, 1.16026991176204, -1.18981967993507], a = 0.2, v = 0.2, t = 0.2)
movej(p[0.418061733182417, -0.0118966315048592, 0.322603251800217, -1.21090338350348, 1.17007886815861, -1.17248765522557], a = 0.2, v = 0.2, t = 0.2)
movej(p[0.418139914809508, -0.0120234960202108, 0.32258121567465, -1.20322918562861, 1.17593135496185, -1.16754573534088], a = 0.2, v = 0.2, t = 0.2)
movej(p[0.418196169283794, -0.0120524436589112, 0.322541694357156, -1.20001132741723, 1.18062832164722, -1.16571545635333], a = 0.2, v = 0.2, t = 0.2)
movej(p[0.418151538804463, -0.0120808128379364, 0.322542173076336, -1.20188139075294, 1.18084626684732, -1.16721114439805], a = 0.2, v = 0.2, t = 0.2)
movej(p[0.418022155956799, -0.0122046171482395, 0.322559153386957, -1.21261333209764, 1.17717490064688, -1.18111577763448], a = 0.2, v = 0.2, t = 0.2)
movej(p[0.417643796404134, -0.0122673177057453, 0.322458328226662, -1.21666317738631, 1.17283345774127, -1.18951900880197], a = 0.2, v = 0.2, t = 0.2)
movej(p[0.417026378496775, -0.0123332141168555, 0.32235710539841, -1.21784512130758, 1.16858736373524, -1.19687230426791], a = 0.2, v = 0.2, t = 0.2)
movej(p[0.416089426074935, -0.012507089509666, 0.322361966205445, -1.19687718827597, 1.17073208194247, -1.1776419530127], a = 0.2, v = 0.2, t = 0.2)
movej(p[0.415226746840247, -0.0124807978472599, 0.322380548590278, -1.18844728157114, 1.16722224572958, -1.17903807815393], a = 0.2, v = 0.2, t = 0.2)
movej(p[0.414628131080613, -0.0122534038982972, 0.322375286965714, -1.18896994257969, 1.16091316269107, -1.1830678340776], a = 0.2, v = 0.2, t = 0.2)
movej(p[0.41414020604908, -0.0120494111245894, 0.322426148019359, -1.19406426650408, 1.15202335494842, -1.18709343590726], a = 0.2, v = 0.2, t = 0.2)
movej(p[0.413836492083637, -0.0120285024865592, 0.322562862278494, -1.19553677918569, 1.14535417442492, -1.19048720951074], a = 0.2, v = 0.2, t = 0.2)
movej(p[0.414164865642114, -0.0119564677059017, 0.322591681226584, -1.19488428624108, 1.14373819012406, -1.1858347520368], a = 0.2, v = 0.2, t = 0.2)
movej(p[0.415085911855447, -0.0118584739695134, 0.322634688483334, -1.19755759838034, 1.14603202255236, -1.18229825868344], a = 0.2, v = 0.2, t = 0.2)
movej(p[0.416265196369642, -0.0118140902780433, 0.32267112551546, -1.19550367487637, 1.15507599483868, -1.17088994577572], a = 0.2, v = 0.2, t = 0.2)
movej(p[0.417234864812701, -0.0117804964526378, 0.322694073444157, -1.20243430062157, 1.16167416965707, -1.17478874710088], a = 0.2, v = 0.2, t = 0.2)
movej(p[0.417960586724364, -0.0117846667400151, 0.322665937428975, -1.21006277612453, 1.16727181450539, -1.17543165520656], a = 0.2, v = 0.2, t = 0.2)
movej(p[0.418260462237769, -0.0119055405452926, 0.322675255129011, -1.21724575991814, 1.17133554831574, -1.17531273315146], a = 0.2, v = 0.2, t = 0.2)
movej(p[0.418273997303212, -0.0120932015336327, 0.322690204373797, -1.21699595206259, 1.1729109407408, -1.17681173954081], a = 0.2, v = 0.2, t = 0.2)
movej(p[0.418264240776004, -0.0121378621167417, 0.322624928790934, -1.20710582792564, 1.17813897728642, -1.16823219343436], a = 0.2, v = 0.2, t = 0.2)
movej(p[0.418255309295034, -0.0121958111446147, 0.322599633253536, -1.2048849801598, 1.17832175079398, -1.1663574349798], a = 0.2, v = 0.2, t = 0.2)
movej(p[0.418195510123914, -0.0123441217396114, 0.322652432074973, -1.20236257639686, 1.18035816832055, -1.15938807081433], a = 0.2, v = 0.2, t = 0.2)
movej(p[0.417789951964342, -0.0124409708708448, 0.32259680643445, -1.2088814709008, 1.17599898322617, -1.1755748248319], a = 0.2, v = 0.2, t = 0.2)
movej(p[0.417157313847795, -0.0124666674596529, 0.322476469970669, -1.2102237883988, 1.17288196433465, -1.18389029185492], a = 0.2, v = 0.2, t = 0.2)
movej(p[0.416324138458136, -0.0125531676428998, 0.322445108845587, -1.20732529690348, 1.16979019473324, -1.18626590752799], a = 0.2, v = 0.2, t = 0.2)
movej(p[0.415517944372696, -0.0125707564162091, 0.322514733700735, -1.20261859280022, 1.16550975698923, -1.19054181081708], a = 0.2, v = 0.2, t = 0.2)
movej(p[0.414948002471087, -0.0124059020032742, 0.322537554435837, -1.19954882407633, 1.16052249243808, -1.19184120460813], a = 0.2, v = 0.2, t = 0.2)
movej(p[0.414536574016995, -0.0121864643351509, 0.322514768143969, -1.19920793701835, 1.15387467166135, -1.19099442455267], a = 0.2, v = 0.2, t = 0.2)
movej(p[0.414432602410616, -0.0121842586840374, 0.322617784283336, -1.20275742987, 1.14869341855764, -1.18608012100447], a = 0.2, v = 0.2, t = 0.2)
movej(p[0.414612975734962, -0.0122150255747976, 0.322724645621516, -1.2040534074745, 1.14578852749938, -1.18979936834336], a = 0.2, v = 0.2, t = 0.2)
movej(p[0.415423383706741, -0.0121186550630483, 0.322785549166918, -1.21075282426374, 1.14680418507258, -1.18845975621533], a = 0.2, v = 0.2, t = 0.2)
movej(p[0.416403794877959, -0.0120671219850174, 0.322806038903818, -1.2057466132795, 1.15413486089191, -1.17529064118153], a = 0.2, v = 0.2, t = 0.2)
movej(p[0.417250314676012, -0.0120726814506088, 0.322850721835098, -1.21823403401184, 1.15922897869513, -1.18096086100868], a = 0.2, v = 0.2, t = 0.2)
movej(p[0.417825613503308, -0.0120714383483036, 0.322816936000668, -1.22135141699741, 1.16583050712965, -1.18005947991278], a = 0.2, v = 0.2, t = 0.2)
movej(p[0.418059026787275, -0.0120463868891057, 0.322734305065874, -1.22680781049166, 1.16983516487814, -1.18349680795436], a = 0.2, v = 0.2, t = 0.2)
movej(p[0.418132059836461, -0.012181843073369, 0.322703210039229, -1.21244825877024, 1.17761825644927, -1.165394779717], a = 0.2, v = 0.2, t = 0.2)
movej(p[0.418059988122061, -0.0122249441199428, 0.322623779071085, -1.20271525595612, 1.18082896138476, -1.16461193828206], a = 0.2, v = 0.2, t = 0.2)
movej(p[0.41808880113584, -0.0121711573013226, 0.322542100335298, -1.20115520667675, 1.1819052138367, -1.16636341654011], a = 0.2, v = 0.2, t = 0.2)
movej(p[0.418042636190481, -0.0121660679961916, 0.322464683167, -1.20049639189403, 1.1812324778449, -1.16536658439556], a = 0.2, v = 0.2, t = 0.2)
movej(p[0.417764398628334, -0.0123507066772236, 0.322460046369487, -1.19956674908831, 1.17978433478298, -1.16898349258512], a = 0.2, v = 0.2, t = 0.2)
movej(p[0.417268001928661, -0.0123583296780297, 0.322332808518543, -1.20027949377926, 1.17576204216774, -1.18123145940252], a = 0.2, v = 0.2, t = 0.2)
movej(p[0.416576624160223, -0.0122889747882695, 0.32221865885189, -1.20166625753542, 1.16976002094678, -1.19200045162181], a = 0.2, v = 0.2, t = 0.2)
movej(p[0.415838843156905, -0.0122827450389026, 0.322238625775214, -1.20312522316909, 1.16379273525005, -1.19559107249163], a = 0.2, v = 0.2, t = 0.2)
movej(p[0.41515527146244, -0.0122610404632047, 0.322307189641938, -1.19715016118124, 1.16045808274409, -1.19218844089417], a = 0.2, v = 0.2, t = 0.2)
movej(p[0.414675859987174, -0.0120942054489496, 0.322295387614003, -1.19458987976592, 1.15716406887235, -1.1870135341498], a = 0.2, v = 0.2, t = 0.2)
movej(p[0.414482380876006, -0.0119552445773115, 0.322349363502092, -1.19248614590496, 1.15329957026669, -1.18057727827613], a = 0.2, v = 0.2, t = 0.2)
movej(p[0.414646630479813, -0.0120073758126666, 0.322524147765827, -1.19607914722859, 1.14977583610997, -1.17765354852277], a = 0.2, v = 0.2, t = 0.2)
movej(p[0.415314296450311, -0.0120178206520519, 0.322648285968122, -1.20576947391793, 1.14853013219839, -1.18812648719858], a = 0.2, v = 0.2, t = 0.2)
movej(p[0.416294869052986, -0.0119300246398186, 0.322683533199488, -1.213132938948, 1.15363131644024, -1.18677685951153], a = 0.2, v = 0.2, t = 0.2)
movej(p[0.417223292270557, -0.0119863787162718, 0.322729852461602, -1.21233285612567, 1.16192830712806, -1.17431981745133], a = 0.2, v = 0.2, t = 0.2)
movej(p[0.417690025179558, -0.0120826485891017, 0.322766480765418, -1.20832577611547, 1.16926502318473, -1.16975407087004], a = 0.2, v = 0.2, t = 0.2)
movej(p[0.418002606868159, -0.0121149022965509, 0.322726790690144, -1.21012022136059, 1.17221960778817, -1.17130306207863], a = 0.2, v = 0.2, t = 0.2)
movej(p[0.418077544406196, -0.0121068757042794, 0.32262407067715, -1.21160986645177, 1.17424454252712, -1.17117508508537], a = 0.2, v = 0.2, t = 0.2)
movej(p[0.418176854108132, -0.012268587854344, 0.322646109372029, -1.2116899254953, 1.17635753853444, -1.16442404714682], a = 0.2, v = 0.2, t = 0.2)
movej(p[0.418069878419664, -0.0123605438558749, 0.322618066758377, -1.20201144745477, 1.17912137639032, -1.16035282405965], a = 0.2, v = 0.2, t = 0.2)
movej(p[0.417808635377719, -0.0123599915162725, 0.322502893677076, -1.19930396172652, 1.17910076291737, -1.16121052583502], a = 0.2, v = 0.2, t = 0.2)
movej(p[0.417229233795183, -0.0124141649923091, 0.322403207814746, -1.19412283988996, 1.17681286802113, -1.16218801032702], a = 0.2, v = 0.2, t = 0.2)
movej(p[0.416363678700196, -0.0125413750846197, 0.322394816005867, -1.20204075077955, 1.16887236285234, -1.18133769952041], a = 0.2, v = 0.2, t = 0.2)
movej(p[0.415552088502057, -0.0124596601097607, 0.322357125782077, -1.1998222544607, 1.16343486767651, -1.18959029695106], a = 0.2, v = 0.2, t = 0.2)
movej(p[0.414880102341112, -0.0122314928555608, 0.322329958194618, -1.2019492267027, 1.15566541512616, -1.19523536550337], a = 0.2, v = 0.2, t = 0.2)
movej(p[0.414330988488817, -0.0121508124738061, 0.322384794723661, -1.18980648581346, 1.15450508252864, -1.17369864194752], a = 0.2, v = 0.2, t = 0.2)
movej(p[0.414038354579004, -0.0121525530518453, 0.322520821248338, -1.19010400660287, 1.14935405763718, -1.17661068364957], a = 0.2, v = 0.2, t = 0.2)
movej(p[0.414414475359809, -0.0121107876668404, 0.322597069202813, -1.19843120321142, 1.14569765980718, -1.1797307820319], a = 0.2, v = 0.2, t = 0.2)
movej(p[0.415295515072182, -0.0120552979611698, 0.322675184660225, -1.20570383201639, 1.14496074242489, -1.18337633643358], a = 0.2, v = 0.2, t = 0.2)
movej(p[0.416441698243482, -0.012148271803118, 0.322789622920621, -1.20085948685436, 1.15363705861281, -1.16906666638495], a = 0.2, v = 0.2, t = 0.2)
movej(p[0.417377260685275, -0.0121193848779239, 0.322785032325972, -1.19778720659262, 1.16351753807589, -1.16175154230368], a = 0.2, v = 0.2, t = 0.2)
movej(p[0.418027032251383, -0.0121202745367137, 0.322785235388758, -1.19707988910886, 1.17436191816808, -1.15008259966652], a = 0.2, v = 0.2, t = 0.2)
movej(p[0.418221465910894, -0.0122318437251399, 0.322798541540459, -1.20169246665142, 1.17890595363081, -1.14850354279039], a = 0.2, v = 0.2, t = 0.2)
movej(p[0.418196860816356, -0.0123815830963267, 0.322847932108945, -1.20413351780703, 1.18184878873097, -1.15230539862128], a = 0.2, v = 0.2, t = 0.2)
movej(p[0.41821197344951, -0.0123918776502449, 0.322791187230949, -1.20255610754788, 1.18363445854143, -1.14984498367591], a = 0.2, v = 0.2, t = 0.2)
movej(p[0.418177456637345, -0.012459470851822, 0.32274262521515, -1.20099871754513, 1.18433860061717, -1.14749135875597], a = 0.2, v = 0.2, t = 0.2)
movej(p[0.417907413535608, -0.0126198622586761, 0.322681679075716, -1.19639412719836, 1.18376027595037, -1.14674837662165], a = 0.2, v = 0.2, t = 0.2)
movej(p[0.417341393219892, -0.0126483413888701, 0.322539425897403, -1.19510132300157, 1.18142810763567, -1.15687438015119], a = 0.2, v = 0.2, t = 0.2)
movej(p[0.416481938654543, -0.0126352753477461, 0.322399069132089, -1.19743432814029, 1.17548163023671, -1.17007379920905], a = 0.2, v = 0.2, t = 0.2)
movej(p[0.415564049733115, -0.012647936257058, 0.322415771158795, -1.1968609684641, 1.17037413230007, -1.17088317470619], a = 0.2, v = 0.2, t = 0.2)
movej(p[0.414713887912261, -0.0126391520807994, 0.322477843989472, -1.19256912882224, 1.16355463122576, -1.17376629476183], a = 0.2, v = 0.2, t = 0.2)
movej(p[0.414180653899544, -0.0124160653216348, 0.322491244662919, -1.19154584507826, 1.15777587590816, -1.17054765155501], a = 0.2, v = 0.2, t = 0.2)
movej(p[0.414034461594282, -0.0122702621494177, 0.322511256651188, -1.19213872623054, 1.15108428390465, -1.16884978182554], a = 0.2, v = 0.2, t = 0.2)
movej(p[0.414330136125421, -0.0122683513753859, 0.32263762013119, -1.20168354163642, 1.14683779616248, -1.17479114384173], a = 0.2, v = 0.2, t = 0.2)
movej(p[0.415167521787202, -0.0122889448788675, 0.32273977692334, -1.20867313679882, 1.14736145731911, -1.18144113645496], a = 0.2, v = 0.2, t = 0.2)
movej(p[0.416286169126526, -0.0122144836877839, 0.322819587006322, -1.2129594784913, 1.15410790358746, -1.17460211571888], a = 0.2, v = 0.2, t = 0.2)
movej(p[0.417292834617981, -0.0122517650564177, 0.322930250793128, -1.20791969533521, 1.16661959680693, -1.15373272701612], a = 0.2, v = 0.2, t = 0.2)
movej(p[0.417857271382416, -0.0122958647414001, 0.32299895778118, -1.20272737137513, 1.17593845298769, -1.14362586836049], a = 0.2, v = 0.2, t = 0.2)
movej(p[0.418169650527208, -0.0123145391021776, 0.322945394686445, -1.19936464580828, 1.1830198519205, -1.13863234657661], a = 0.2, v = 0.2, t = 0.2)
movej(p[0.418230960837325, -0.012398135036253, 0.322869127779602, -1.19931783860201, 1.18355376119975, -1.13951076342257], a = 0.2, v = 0.2, t = 0.2)
movej(p[0.418234119669128, -0.0125646625914998, 0.322872125466241, -1.20615091932544, 1.18236687583929, -1.14649665895711], a = 0.2, v = 0.2, t = 0.2)
movej(p[0.418184127315085, -0.0126340205577015, 0.322846727144218, -1.20954513841029, 1.1818725168345, -1.1540299285174], a = 0.2, v = 0.2, t = 0.2)
movej(p[0.418047912318514, -0.0126266379461366, 0.322738909216466, -1.20859198901636, 1.18301387185844, -1.15173059837945], a = 0.2, v = 0.2, t = 0.2)
movej(p[0.417610825112706, -0.0127597672894891, 0.322671562739753, -1.19973328835227, 1.18514345617979, -1.14453040275255], a = 0.2, v = 0.2, t = 0.2)
movej(p[0.416894933001636, -0.0128121717319642, 0.322605284724419, -1.1949292072378, 1.18129806162365, -1.15467892020074], a = 0.2, v = 0.2, t = 0.2)
movej(p[0.416145403795847, -0.0127281009084672, 0.322545040334588, -1.19169192947496, 1.17609418619035, -1.16192465784699], a = 0.2, v = 0.2, t = 0.2)
movej(p[0.415372932923329, -0.0125964394495476, 0.322515630333802, -1.18912073856133, 1.16979763793667, -1.16481865069789], a = 0.2, v = 0.2, t = 0.2)
movej(p[0.414651633488996, -0.0126099355446648, 0.322586673038904, -1.19036781737158, 1.16296706305228, -1.16718600811043], a = 0.2, v = 0.2, t = 0.2)
movej(p[0.414148110214692, -0.0125016615227142, 0.322612454954834, -1.18904216409246, 1.15835626600215, -1.16689588793287], a = 0.2, v = 0.2, t = 0.2)
movej(p[0.414066969047205, -0.0123198528557796, 0.32266199618299, -1.19479722265716, 1.15179861535587, -1.1689983365511], a = 0.2, v = 0.2, t = 0.2)
movej(p[0.414507194688103, -0.0122924860093799, 0.322772591271953, -1.1908545549635, 1.15221081252795, -1.15622187088737], a = 0.2, v = 0.2, t = 0.2)
movej(p[0.41531555672309, -0.0122923320182813, 0.322901128875318, -1.19587155879754, 1.15368873742611, -1.16216186753263], a = 0.2, v = 0.2, t = 0.2)
movej(p[0.416469191832493, -0.0121898740245324, 0.322924387023856, -1.20530594220445, 1.15861910751527, -1.16125399063519], a = 0.2, v = 0.2, t = 0.2)
movej(p[0.417404563706337, -0.0121260998043082, 0.322950586646376, -1.21345312231896, 1.16563154631015, -1.16053518285946], a = 0.2, v = 0.2, t = 0.2)
movej(p[0.417941982549425, -0.0123039984283546, 0.323042800802046, -1.21792756364783, 1.16951704432108, -1.15776469379717], a = 0.2, v = 0.2, t = 0.2)
movej(p[0.418145960261986, -0.0123710248719065, 0.323004390053652, -1.21177288601827, 1.17535275873295, -1.15358173976635], a = 0.2, v = 0.2, t = 0.2)
movej(p[0.418253297720114, -0.0124175302794256, 0.322934817606132, -1.21234461381424, 1.17715308175751, -1.15443662910914], a = 0.2, v = 0.2, t = 0.2)
movej(p[0.418250930859821, -0.0124794367697778, 0.322899666440793, -1.21197623808759, 1.17922055972026, -1.15139528914545], a = 0.2, v = 0.2, t = 0.2)
movej(p[0.418145872067023, -0.012591563969969, 0.32288853353313, -1.21308031754497, 1.18039164373792, -1.15422104676211], a = 0.2, v = 0.2, t = 0.2)
movej(p[0.417850976639867, -0.0126175684716941, 0.322751573172322, -1.20842349962797, 1.1819490294143, -1.15272516982675], a = 0.2, v = 0.2, t = 0.2)
movej(p[0.417248687283111, -0.0127133837760203, 0.322664935594475, -1.20468447553645, 1.18037208324917, -1.15579505125135], a = 0.2, v = 0.2, t = 0.2)
movej(p[0.416410067620381, -0.012856125814978, 0.32266804488652, -1.19256680099813, 1.17898726081036, -1.15360925258526], a = 0.2, v = 0.2, t = 0.2)
movej(p[0.415678903454731, -0.0127842482025205, 0.322682332370443, -1.19048644971459, 1.17283632112295, -1.16369805576273], a = 0.2, v = 0.2, t = 0.2)
movej(p[0.415202051004041, -0.0125803685746275, 0.322680960874357, -1.18934222510464, 1.16785669176975, -1.164325676887], a = 0.2, v = 0.2, t = 0.2)
movej(p[0.415241826734339, -0.0125484317968429, 0.32278744604893, -1.19473642664527, 1.16285264363693, -1.16463234275322], a = 0.2, v = 0.2, t = 0.2)
movej(p[0.415662097875643, -0.0125896981618142, 0.322959842881006, -1.19388849363984, 1.16256262166088, -1.16195790146824], a = 0.2, v = 0.2, t = 0.2)
movej(p[0.416598451302746, -0.0125025871057243, 0.323016901720447, -1.19045001952269, 1.16828516829688, -1.15145004982982], a = 0.2, v = 0.2, t = 0.2)
movej(p[0.417439052306676, -0.0124405208354165, 0.323048471054958, -1.1879725861806, 1.17555106389384, -1.13935412466797], a = 0.2, v = 0.2, t = 0.2)
movej(p[0.418062973560516, -0.0124854860290491, 0.32307637337553, -1.19390491511476, 1.17953851198708, -1.13640783732217], a = 0.2, v = 0.2, t = 0.2)
movej(p[0.418304871752138, -0.0125587596429069, 0.323077175040119, -1.19807648603078, 1.18217459898486, -1.13765006257389], a = 0.2, v = 0.2, t = 0.2)
movej(p[0.418397657842174, -0.012527088701173, 0.322991412922926, -1.20253288042863, 1.18284838279269, -1.14000681722122], a = 0.2, v = 0.2, t = 0.2)
movej(p[0.418357582958604, -0.0126440527683745, 0.322948506087917, -1.19929400979934, 1.18452259266239, -1.13221927045017], a = 0.2, v = 0.2, t = 0.2)
movej(p[0.417986488819577, -0.012748631142434, 0.32286252942446, -1.19627545692437, 1.18308657224276, -1.14042709420656], a = 0.2, v = 0.2, t = 0.2)
movej(p[0.417375493975566, -0.0127871063676734, 0.322745669827787, -1.1964603212101, 1.17954283631087, -1.1501955936821], a = 0.2, v = 0.2, t = 0.2)
movej(p[0.416362291535353, -0.0127810536593583, 0.32264889250416, -1.1935559887825, 1.17582015424839, -1.15694508295644], a = 0.2, v = 0.2, t = 0.2)
movej(p[0.415291157085373, -0.0128562444256388, 0.322709025334061, -1.19662971373316, 1.16785442775713, -1.16594396491505], a = 0.2, v = 0.2, t = 0.2)
movej(p[0.414391337128926, -0.0127475443825773, 0.322740384623252, -1.19300848199116, 1.16053460822711, -1.17068735715722], a = 0.2, v = 0.2, t = 0.2)
movej(p[0.413847376787963, -0.0125230361325665, 0.32272242725328, -1.19355064936384, 1.1527771828694, -1.17176489736527], a = 0.2, v = 0.2, t = 0.2)
movej(p[0.413643695303243, -0.0124460764625171, 0.322756195261705, -1.18961482724519, 1.14889793899115, -1.16340643338577], a = 0.2, v = 0.2, t = 0.2)
movej(p[0.413840254684541, -0.0125068200015096, 0.322875007890404, -1.19154285513964, 1.14720821301746, -1.16482942003609], a = 0.2, v = 0.2, t = 0.2)
movej(p[0.414616115425529, -0.012483482459709, 0.322976047853612, -1.19817706445259, 1.14869028283234, -1.16576635461678], a = 0.2, v = 0.2, t = 0.2)
movej(p[0.415667100779154, -0.0123580624933259, 0.32301255099216, -1.20298246552267, 1.15290792599079, -1.16491242901195], a = 0.2, v = 0.2, t = 0.2)
movej(p[0.41675021236098, -0.012359187652695, 0.323077643786354, -1.20718866008959, 1.15919038880258, -1.16016122229808], a = 0.2, v = 0.2, t = 0.2)
movej(p[0.417571099960553, -0.0122997387275727, 0.323036774289692, -1.20198985592274, 1.16846717964848, -1.1506048525595], a = 0.2, v = 0.2, t = 0.2)
movej(p[0.418135906517758, -0.0122657189103494, 0.322987526856103, -1.20560371052783, 1.17482299402199, -1.14856214008541], a = 0.2, v = 0.2, t = 0.2)
movej(p[0.41830370709157, -0.0123635862250449, 0.322944955380364, -1.20309033070688, 1.18028265671744, -1.14216461350151], a = 0.2, v = 0.2, t = 0.2)
movej(p[0.418164147054168, -0.0124796163927794, 0.322927232786433, -1.20861022437366, 1.18110596977008, -1.15412477290979], a = 0.2, v = 0.2, t = 0.2)
movej(p[0.417736061318674, -0.0125635439961711, 0.322803540946947, -1.20995559154164, 1.17993698133171, -1.16010368907529], a = 0.2, v = 0.2, t = 0.2)
movej(p[0.41688714340462, -0.0126383402421521, 0.322725434090743, -1.20786573886593, 1.17883047416405, -1.16230163991003], a = 0.2, v = 0.2, t = 0.2)
movej(p[0.415761013794092, -0.01283545293258, 0.322747527188408, -1.20054146282377, 1.17420938546043, -1.16260638269313], a = 0.2, v = 0.2, t = 0.2)
movej(p[0.414575886121446, -0.0127685994926565, 0.322729950132387, -1.19147896004799, 1.16827082574593, -1.16229921588476], a = 0.2, v = 0.2, t = 0.2)
movej(p[0.413581595520747, -0.0126059926274201, 0.322706691165494, -1.19274711954954, 1.15584926893033, -1.16831901349953], a = 0.2, v = 0.2, t = 0.2)
movej(p[0.413042310225025, -0.0124951077199629, 0.322739542529839, -1.19705385519166, 1.14609607190699, -1.16867716425803], a = 0.2, v = 0.2, t = 0.2)
movej(p[0.41297071905567, -0.0124945792771075, 0.322838334096496, -1.2063725299088, 1.13634890256725, -1.18320157262295], a = 0.2, v = 0.2, t = 0.2)
movej(p[0.413752372779947, -0.0124159642695904, 0.322875269015716, -1.20907020719533, 1.13744488434995, -1.17840633246728], a = 0.2, v = 0.2, t = 0.2)
movej(p[0.414920801183653, -0.0123240294888407, 0.322935057846261, -1.21035188635043, 1.14165217932285, -1.17396711187309], a = 0.2, v = 0.2, t = 0.2)
movej(p[0.416177376621573, -0.0123011181695141, 0.323020647033483, -1.20432104662192, 1.15307228767475, -1.15977321335404], a = 0.2, v = 0.2, t = 0.2)
movej(p[0.417187945268349, -0.0122035824739887, 0.323026902880475, -1.21064524773276, 1.1620542019559, -1.16537715422349], a = 0.2, v = 0.2, t = 0.2)
movej(p[0.417882174073203, -0.0121535108583581, 0.32295685790418, -1.21170753025045, 1.17204386844453, -1.15804423855179], a = 0.2, v = 0.2, t = 0.2)
movej(p[0.418226668638121, -0.0122634578178754, 0.32294511974829, -1.21707998851109, 1.177733261201, -1.15341308241682], a = 0.2, v = 0.2, t = 0.2)
movej(p[0.418258072009158, -0.0124030674121456, 0.322946546234959, -1.21027197236936, 1.18170253565634, -1.14727745130399], a = 0.2, v = 0.2, t = 0.2)
movej(p[0.418271357257089, -0.0124279304562516, 0.322881983444397, -1.20475908165057, 1.18575692862342, -1.14363632160676], a = 0.2, v = 0.2, t = 0.2)
movej(p[0.418017715643105, -0.0125413533622967, 0.322831707023992, -1.2025820280914, 1.18527542906381, -1.14428628075397], a = 0.2, v = 0.2, t = 0.2)
movej(p[0.417393870742692, -0.0127060177220856, 0.322806544700162, -1.20125050270136, 1.1843227355116, -1.15160286418322], a = 0.2, v = 0.2, t = 0.2)
movej(p[0.416436786292156, -0.0127447183634834, 0.322719498944961, -1.20635946986624, 1.17666645804001, -1.17418231551786], a = 0.2, v = 0.2, t = 0.2)
movej(p[0.415354537311184, -0.0126418040254868, 0.322641732313183, -1.20557633612, 1.16849536345682, -1.18463525690762], a = 0.2, v = 0.2, t = 0.2)
movej(p[0.41434788258489, -0.0126333210123983, 0.322699471802432, -1.19951729780706, 1.16236400244644, -1.17557509883686], a = 0.2, v = 0.2, t = 0.2)
movej(p[0.41351445617949, -0.0125877822465012, 0.322802472191184, -1.19649530679975, 1.15156600521781, -1.17834029040585], a = 0.2, v = 0.2, t = 0.2)
movej(p[0.41328638632393, -0.0124208790184657, 0.322831524274077, -1.19911438789168, 1.1437133404766, -1.17860659601169], a = 0.2, v = 0.2, t = 0.2)
movej(p[0.413651456320758, -0.0122740931156338, 0.322838692977595, -1.1996490466408, 1.13924391170759, -1.17576761641355], a = 0.2, v = 0.2, t = 0.2)
movej(p[0.414535327178448, -0.0122873270880826, 0.322938498321634, -1.20557618220145, 1.13930926662638, -1.17473942355642], a = 0.2, v = 0.2, t = 0.2)
movej(p[0.415670618013607, -0.0122272456715431, 0.32296950206779, -1.2045032076639, 1.14772042100532, -1.16891871079087], a = 0.2, v = 0.2, t = 0.2)
movej(p[0.416888404481343, -0.0120895937003183, 0.322945877323143, -1.21034791949815, 1.15779873601574, -1.1649593203664], a = 0.2, v = 0.2, t = 0.2)
movej(p[0.417813247275557, -0.0121155392001862, 0.322943039136435, -1.20336467414935, 1.17120567143336, -1.14559430537551], a = 0.2, v = 0.2, t = 0.2)
movej(p[0.418161472857592, -0.0122227738332761, 0.322980687090998, -1.21064508376317, 1.17686081758058, -1.15257573255005], a = 0.2, v = 0.2, t = 0.2)
movej(p[0.418322109970185, -0.0122695031043424, 0.322910747045727, -1.21555546941782, 1.17822776193652, -1.16003271672009], a = 0.2, v = 0.2, t = 0.2)
movej(p[0.418241063824516, -0.0122642985501372, 0.322825740522279, -1.22194989738781, 1.17784975575239, -1.16813187786771], a = 0.2, v = 0.2, t = 0.2)
movej(p[0.417923933263171, -0.0125307434470392, 0.322805112006551, -1.21160236226448, 1.17894260415542, -1.15887061067484], a = 0.2, v = 0.2, t = 0.2)
movej(p[0.417256027983913, -0.0126195264121603, 0.322722342430836, -1.20263256165511, 1.17813169057989, -1.16293142683587], a = 0.2, v = 0.2, t = 0.2)
movej(p[0.416328059792026, -0.0126034853641903, 0.322593679762877, -1.19738292414937, 1.17392408412417, -1.16726138737819], a = 0.2, v = 0.2, t = 0.2)
movej(p[0.415313690973207, -0.0125252381649519, 0.322573580924116, -1.19597455117417, 1.16695361370026, -1.17345683687249], a = 0.2, v = 0.2, t = 0.2)
movej(p[0.414362718030377, -0.0124715029790903, 0.322665682948685, -1.19180867626277, 1.16043244203281, -1.17650123913871], a = 0.2, v = 0.2, t = 0.2)
movej(p[0.413813236413279, -0.0122767059321108, 0.322701380779469, -1.19510190312203, 1.15270765239559, -1.18030343869323], a = 0.2, v = 0.2, t = 0.2)
movej(p[0.41368581978651, -0.0121242723094243, 0.322719769898471, -1.1984920023182, 1.14533111119361, -1.18139382053926], a = 0.2, v = 0.2, t = 0.2)
movej(p[0.413995580096564, -0.0121874305965043, 0.322793384877846, -1.19370989657864, 1.14463207738025, -1.16684114541613], a = 0.2, v = 0.2, t = 0.2)
movej(p[0.414719775503562, -0.0122302958754529, 0.322889424505311, -1.19563219522955, 1.14585951865077, -1.16657352324792], a = 0.2, v = 0.2, t = 0.2)
movej(p[0.415723993690022, -0.0121825382599632, 0.322949482886462, -1.19906433010864, 1.15217292716203, -1.16290829886574], a = 0.2, v = 0.2, t = 0.2)
movej(p[0.416769582294842, -0.0121684407552259, 0.323005169781276, -1.20570750967702, 1.15944439056159, -1.16016232207645], a = 0.2, v = 0.2, t = 0.2)
movej(p[0.417479816972567, -0.0122339088740947, 0.323041021585709, -1.20463843964429, 1.16730994139878, -1.15462264593613], a = 0.2, v = 0.2, t = 0.2)
movej(p[0.417985157655412, -0.0122127702923339, 0.322978830547722, -1.204622147859, 1.1738083035042, -1.1495242751991], a = 0.2, v = 0.2, t = 0.2)
movej(p[0.418170292726274, -0.012262648583925, 0.322919760318015, -1.20987132123238, 1.17560635103261, -1.15378262440101], a = 0.2, v = 0.2, t = 0.2)
movej(p[0.418125973255837, -0.0123791195173756, 0.322879242673336, -1.21256616976694, 1.17647402527891, -1.15828137657546], a = 0.2, v = 0.2, t = 0.2)
movej(p[0.417779022318773, -0.0124874196047723, 0.322750368217991, -1.21546528756301, 1.1738951132932, -1.17459678881758], a = 0.2, v = 0.2, t = 0.2)
movej(p[0.417147990771549, -0.012515054914122, 0.322603677073456, -1.21451930257026, 1.17037340043289, -1.18358303023189], a = 0.2, v = 0.2, t = 0.2)
movej(p[0.416249538917236, -0.0126040743797736, 0.322538949162819, -1.21046544802866, 1.16715636528388, -1.18481489995555], a = 0.2, v = 0.2, t = 0.2)
movej(p[0.415259733762361, -0.0125977121239062, 0.322572794367567, -1.20235687743068, 1.16298688825116, -1.18823669221885], a = 0.2, v = 0.2, t = 0.2)
movej(p[0.414579429538228, -0.0123781382459955, 0.322555138744238, -1.19900096381762, 1.15825490971478, -1.18797660105213], a = 0.2, v = 0.2, t = 0.2)
movej(p[0.41409627891794, -0.0121736668057162, 0.322560214172274, -1.19451510742204, 1.1542604771198, -1.18233098515464], a = 0.2, v = 0.2, t = 0.2)
movej(p[0.413951384252406, -0.0121387200070236, 0.322668106179211, -1.19973214322819, 1.14868273358074, -1.1812515790104], a = 0.2, v = 0.2, t = 0.2)
movej(p[0.414314369602367, -0.0121862756849064, 0.322764207070023, -1.20421400340564, 1.14603631874302, -1.18565598335595], a = 0.2, v = 0.2, t = 0.2)
movej(p[0.415258305129429, -0.0121082141332213, 0.322824985469955, -1.20759021779592, 1.14935702109316, -1.18105773072045], a = 0.2, v = 0.2, t = 0.2)
movej(p[0.416543921325589, -0.0121373815276714, 0.322898307070272, -1.19952888156573, 1.1595062034913, -1.1598117767308], a = 0.2, v = 0.2, t = 0.2)
movej(p[0.41741680674259, -0.0121418870996478, 0.322939207408564, -1.19706678243162, 1.16887782871528, -1.15355462267198], a = 0.2, v = 0.2, t = 0.2)
movej(p[0.418077849120464, -0.0121467477693633, 0.322922337873002, -1.20629970980618, 1.17385692741194, -1.15748206935084], a = 0.2, v = 0.2, t = 0.2)
movej(p[0.418263575528622, -0.0121618716006071, 0.32285492141084, -1.21353228965931, 1.17714562391177, -1.16176507935354], a = 0.2, v = 0.2, t = 0.2)
movej(p[0.418350972090179, -0.0123714196524792, 0.322868636395693, -1.21268916935679, 1.18065835793704, -1.15225262481264], a = 0.2, v = 0.2, t = 0.2)
movej(p[0.418172318504008, -0.0125020396976243, 0.322795216128365, -1.20276238419299, 1.18339446294071, -1.14580067682148], a = 0.2, v = 0.2, t = 0.2)
movej(p[0.417727977425178, -0.0125555642603247, 0.322655560356727, -1.19922522549038, 1.1825549688038, -1.14696639860046], a = 0.2, v = 0.2, t = 0.2)
movej(p[0.416900489491306, -0.0126527728697567, 0.322571326477269, -1.19517846656309, 1.17916742316241, -1.1507877685071], a = 0.2, v = 0.2, t = 0.2)
movej(p[0.415903146786621, -0.0126932135790691, 0.322549600524091, -1.19499218788637, 1.17286554108399, -1.16723723696837], a = 0.2, v = 0.2, t = 0.2)
movej(p[0.41503431998519, -0.0125513609303942, 0.322513032366082, -1.1975145890584, 1.16417177167489, -1.17876824568619], a = 0.2, v = 0.2, t = 0.2)
movej(p[0.414341187977781, -0.012303972852537, 0.322502860316163, -1.20298670003353, 1.15436209340437, -1.18946814812356], a = 0.2, v = 0.2, t = 0.2)
movej(p[0.413800841421164, -0.012317467631621, 0.322600957917413, -1.19848292698302, 1.15088760480527, -1.17907370670789], a = 0.2, v = 0.2, t = 0.2)
movej(p[0.41354842100778, -0.0122931875424602, 0.32267952020466, -1.19748437816648, 1.14631554231821, -1.17980717492737], a = 0.2, v = 0.2, t = 0.2)
movej(p[0.413918808402162, -0.0122057382832514, 0.322684736414698, -1.19894838706196, 1.14370963104917, -1.1777659665055], a = 0.2, v = 0.2, t = 0.2)
movej(p[0.414836536614955, -0.0121461267235832, 0.322732673456702, -1.20718948404887, 1.14253134129169, -1.18193253181742], a = 0.2, v = 0.2, t = 0.2)
movej(p[0.415938134372837, -0.0121714984762889, 0.32284295170023, -1.21442934217645, 1.14730283024339, -1.18636502548935], a = 0.2, v = 0.2, t = 0.2)
movej(p[0.417045137840355, -0.0121254728146562, 0.322871932431316, -1.21618506131568, 1.15858834772831, -1.17828140993387], a = 0.2, v = 0.2, t = 0.2)
movej(p[0.41779743760384, -0.0121213919317705, 0.322869662007695, -1.21803364286319, 1.16740273802432, -1.17163663552945], a = 0.2, v = 0.2, t = 0.2)
movej(p[0.418161465292004, -0.0122694390330664, 0.322869751433667, -1.20670365932885, 1.17708228161441, -1.1517909709736], a = 0.2, v = 0.2, t = 0.2)
movej(p[0.418236912677815, -0.0123556247806311, 0.322836416548171, -1.21067855427066, 1.17868017566441, -1.16229793887065], a = 0.2, v = 0.2, t = 0.2)
movej(p[0.418267480930032, -0.0123683356261281, 0.32277534562413, -1.2139929087372, 1.17898843159949, -1.16575929169485], a = 0.2, v = 0.2, t = 0.2)
movej(p[0.41817005458543, -0.0124615866735482, 0.322712108722463, -1.21147089151935, 1.17973950243903, -1.1606406681133], a = 0.2, v = 0.2, t = 0.2)
movej(p[0.417674545190469, -0.0126568448764709, 0.3226762049901, -1.20446155341695, 1.17891934086032, -1.16121632853899], a = 0.2, v = 0.2, t = 0.2)
movej(p[0.416978584783731, -0.012634664475428, 0.322527473575929, -1.19553386574627, 1.17778472291874, -1.16378594581598], a = 0.2, v = 0.2, t = 0.2)
movej(p[0.416012540861091, -0.0125457708437379, 0.322456243358491, -1.19459978004922, 1.17230888457305, -1.17245559393421], a = 0.2, v = 0.2, t = 0.2)
movej(p[0.415051993658477, -0.0124797660213256, 0.322487643959909, -1.19660654032238, 1.16573253061453, -1.17787467312716], a = 0.2, v = 0.2, t = 0.2)
movej(p[0.414260359451476, -0.0123774852780763, 0.322535420095075, -1.19601293192018, 1.15855973808102, -1.18360093501216], a = 0.2, v = 0.2, t = 0.2)
movej(p[0.41376896327422, -0.0121605986766104, 0.322522307360509, -1.19759220511001, 1.15291361791879, -1.18145299842399], a = 0.2, v = 0.2, t = 0.2)
movej(p[0.413834644404498, -0.0121079108556217, 0.322580394511798, -1.19372465245833, 1.15001090355449, -1.16766729933798], a = 0.2, v = 0.2, t = 0.2)
movej(p[0.414340846244499, -0.0121644574934194, 0.322724007447616, -1.1966019799601, 1.14918377072311, -1.16596322659355], a = 0.2, v = 0.2, t = 0.2)
movej(p[0.415461579957954, -0.0121309921760593, 0.322802831893433, -1.2056003032243, 1.15098556948477, -1.17451761979202], a = 0.2, v = 0.2, t = 0.2)
movej(p[0.416707871527583, -0.0120090916948167, 0.322827364303535, -1.21254172901364, 1.15863666275973, -1.17528080075708], a = 0.2, v = 0.2, t = 0.2)
movej(p[0.41777111704296, -0.0120977016604289, 0.322893473417307, -1.21190449606602, 1.168928944049, -1.16210908239993], a = 0.2, v = 0.2, t = 0.2)
movej(p[0.418188914215082, -0.0121847975559694, 0.32292655665875, -1.20969826962124, 1.17559967261361, -1.16176156667923], a = 0.2, v = 0.2, t = 0.2)
movej(p[0.418417228545953, -0.0122104490443946, 0.322875242917185, -1.20758644953839, 1.18023489741392, -1.15741104957416], a = 0.2, v = 0.2, t = 0.2)
movej(p[0.418388950479762, -0.0122569199614551, 0.322800979566762, -1.20612230089373, 1.18164813631408, -1.15488067864427], a = 0.2, v = 0.2, t = 0.2)
movej(p[0.418156886353355, -0.0124396655901008, 0.322796036028893, -1.20986967148558, 1.1797572735339, -1.16079486476888], a = 0.2, v = 0.2, t = 0.2)
movej(p[0.417599650517832, -0.0125531707177749, 0.322702305237787, -1.20574240246303, 1.17821918909817, -1.16479608241876], a = 0.2, v = 0.2, t = 0.2)
movej(p[0.416645436939707, -0.0125536318440866, 0.322600360980057, -1.20377992058827, 1.17438912912655, -1.17286676442495], a = 0.2, v = 0.2, t = 0.2)
movej(p[0.41553342472386, -0.0126596986082309, 0.322617017766973, -1.19328155650617, 1.17084967103271, -1.16542208296543], a = 0.2, v = 0.2, t = 0.2)
movej(p[0.414419130829043, -0.0126558605159046, 0.322701185245377, -1.19752375943381, 1.15971085295462, -1.18142690355412], a = 0.2, v = 0.2, t = 0.2)
movej(p[0.413652878015375, -0.0124899494692996, 0.322728966396989, -1.20303455278104, 1.14858064401131, -1.18862869097982], a = 0.2, v = 0.2, t = 0.2)
movej(p[0.413224873637457, -0.0123633602714028, 0.322729615059674, -1.20153153607916, 1.141673282968, -1.18312770408527], a = 0.2, v = 0.2, t = 0.2)
movej(p[0.413193932280651, -0.0124749280292953, 0.322878895031076, -1.1959168838461, 1.14035567435943, -1.17136376059534], a = 0.2, v = 0.2, t = 0.2)
movej(p[0.413910606973853, -0.0124435038581018, 0.322950144603326, -1.18984252132676, 1.14362858953105, -1.16408109905391], a = 0.2, v = 0.2, t = 0.2)
movej(p[0.415095027277936, -0.0123029713700035, 0.322990956707815, -1.19569904917344, 1.14769862253045, -1.16568130027073], a = 0.2, v = 0.2, t = 0.2)
movej(p[0.416493851259732, -0.0121953101283937, 0.323003647203291, -1.19635367237789, 1.15865310538785, -1.15467299710087], a = 0.2, v = 0.2, t = 0.2)
movej(p[0.417466839605992, -0.012233784481277, 0.323039857189515, -1.19918667700229, 1.16802778160938, -1.15228492345295], a = 0.2, v = 0.2, t = 0.2)
movej(p[0.418051911809485, -0.0122143601363379, 0.322959670276143, -1.20192410290559, 1.17638537331266, -1.1481930739789], a = 0.2, v = 0.2, t = 0.2)
movej(p[0.418304231841031, -0.0122539182462793, 0.322875278700388, -1.20373435001255, 1.18037056207134, -1.14755333765184], a = 0.2, v = 0.2, t = 0.2)
movej(p[0.418277539977121, -0.0123827954980439, 0.322825282579142, -1.20123492704344, 1.18373299878874, -1.14439955472743], a = 0.2, v = 0.2, t = 0.2)
movej(p[0.418003408569445, -0.0125026856316562, 0.32277873015505, -1.2050031248714, 1.18211721103011, -1.15674336093929], a = 0.2, v = 0.2, t = 0.2)
movej(p[0.417424726663699, -0.0125299033602968, 0.322662385118411, -1.20331894003003, 1.18060801088805, -1.16088227298768], a = 0.2, v = 0.2, t = 0.2)
movej(p[0.416579448874286, -0.0126427960463915, 0.322662173569789, -1.20346140783863, 1.17646283664504, -1.16590536347267], a = 0.2, v = 0.2, t = 0.2)
movej(p[0.415578489555446, -0.0126808481667258, 0.322684480957896, -1.19782806386956, 1.17073012964493, -1.1738755233219], a = 0.2, v = 0.2, t = 0.2)
movej(p[0.414792107174839, -0.0125129734499264, 0.322676054076432, -1.19914583594751, 1.16237631503095, -1.18391126240627], a = 0.2, v = 0.2, t = 0.2)
movej(p[0.414144258422012, -0.0123163405679437, 0.322631467548874, -1.196757606178, 1.15482503404688, -1.18292351124935], a = 0.2, v = 0.2, t = 0.2)
movej(p[0.413771949701439, -0.0122871015466579, 0.322689554494183, -1.20103067744365, 1.1472449005707, -1.18254555190635], a = 0.2, v = 0.2, t = 0.2)
movej(p[0.413642603786272, -0.0123108627127016, 0.322731477721849, -1.19742987489328, 1.14466572438045, -1.18048421698291], a = 0.2, v = 0.2, t = 0.2)
movej(p[0.414102821767354, -0.0122416393359194, 0.322739295585769, -1.20349441629663, 1.14347731517174, -1.18311830119178], a = 0.2, v = 0.2, t = 0.2)
movej(p[0.414943845294726, -0.0122299440109129, 0.322780514875897, -1.19928638967886, 1.14872341616589, -1.17019081497275], a = 0.2, v = 0.2, t = 0.2)
movej(p[0.415906021666604, -0.0122951010490218, 0.322915104381408, -1.20858354460815, 1.15179835600962, -1.17715709636664], a = 0.2, v = 0.2, t = 0.2)
movej(p[0.416890493768131, -0.0122639660814071, 0.322944583163249, -1.20885204166665, 1.16087314771711, -1.16937777923864], a = 0.2, v = 0.2, t = 0.2)
movej(p[0.417623195029052, -0.0122265488512987, 0.322912981532419, -1.2117368605821, 1.16903591573508, -1.16397072249128], a = 0.2, v = 0.2, t = 0.2)
movej(p[0.418069036710175, -0.0123633142666559, 0.322922276969167, -1.20351498574343, 1.17815670995222, -1.14585812727662], a = 0.2, v = 0.2, t = 0.2)
movej(p[0.418160123192311, -0.0124856551896689, 0.322882146492863, -1.20669272831301, 1.17921775211871, -1.15571303031773], a = 0.2, v = 0.2, t = 0.2)
movej(p[0.418071658057846, -0.0124996133477551, 0.322811280372693, -1.20819670325044, 1.18024953778271, -1.15936507313787], a = 0.2, v = 0.2, t = 0.2)
movej(p[0.417683544434941, -0.0125542342636248, 0.322726444130522, -1.21325079843446, 1.17706579761353, -1.16771377138409], a = 0.2, v = 0.2, t = 0.2)
movej(p[0.416909123316753, -0.0127639154662028, 0.322774563273183, -1.20558500066649, 1.17720799092104, -1.16469811483873], a = 0.2, v = 0.2, t = 0.2)
movej(p[0.416060567798987, -0.0127556176568051, 0.322711327500652, -1.19630897540031, 1.17484040748691, -1.16842530592067], a = 0.2, v = 0.2, t = 0.2)
movej(p[0.41523900999948, -0.0125709325261963, 0.322631590112299, -1.18944867892739, 1.17109088191552, -1.16935510341673], a = 0.2, v = 0.2, t = 0.2)
movej(p[0.414518189279126, -0.0124782914458715, 0.322659939068781, -1.18873000954592, 1.16399202466905, -1.16657942362002], a = 0.2, v = 0.2, t = 0.2)
movej(p[0.413883379851103, -0.0124665995218248, 0.322759946082267, -1.18998107419034, 1.15533887708692, -1.1720627874112], a = 0.2, v = 0.2, t = 0.2)
movej(p[0.413784133629563, -0.0123343288924533, 0.322789129206357, -1.19508268526022, 1.1494352969205, -1.17527898263363], a = 0.2, v = 0.2, t = 0.2)
movej(p[0.414234532200588, -0.0122156577949501, 0.322803971990324, -1.19738868228244, 1.14682535238976, -1.17529255952607], a = 0.2, v = 0.2, t = 0.2)
movej(p[0.415194284607862, -0.012159780718729, 0.322857646036046, -1.20332798422775, 1.1486680851725, -1.1754946569906], a = 0.2, v = 0.2, t = 0.2)
movej(p[0.416268878939668, -0.0121064252096438, 0.3228856171837, -1.20723335105668, 1.15457869107612, -1.17752233695608], a = 0.2, v = 0.2, t = 0.2)
movej(p[0.417350427573344, -0.0119811116107631, 0.32280700784628, -1.20765645973781, 1.16532199224179, -1.16520042852783], a = 0.2, v = 0.2, t = 0.2)
movej(p[0.418044901287764, -0.0120653999255358, 0.322814734727681, -1.20834833877999, 1.17401016404236, -1.15272374371276], a = 0.2, v = 0.2, t = 0.2)
movej(p[0.418291413409795, -0.0122311052258664, 0.322866254520133, -1.20814501473914, 1.18064507786216, -1.14952730677236], a = 0.2, v = 0.2, t = 0.2)
movej(p[0.418364808673174, -0.0123034623473619, 0.322834271711027, -1.21878628667908, 1.17909099091033, -1.16528896000232], a = 0.2, v = 0.2, t = 0.2)
movej(p[0.41820147038538, -0.0123273551868765, 0.322731433719213, -1.21804674467287, 1.17853623335744, -1.16624051656831], a = 0.2, v = 0.2, t = 0.2)
movej(p[0.417825255553945, -0.0125657508402192, 0.322697513943624, -1.2138551944441, 1.17639701151684, -1.16225794818739], a = 0.2, v = 0.2, t = 0.2)
movej(p[0.417043078170863, -0.0126921295778402, 0.322671396331325, -1.20310817493095, 1.17493470695188, -1.16636565671734], a = 0.2, v = 0.2, t = 0.2)
movej(p[0.416179975523182, -0.012623114597899, 0.32259831006579, -1.19841986193501, 1.17227709256713, -1.17122860837011], a = 0.2, v = 0.2, t = 0.2)
movej(p[0.415234121278916, -0.0124546010552539, 0.322576484953015, -1.1953658987582, 1.16663599288236, -1.17505828446293], a = 0.2, v = 0.2, t = 0.2)
movej(p[0.414375182281981, -0.0124638163994087, 0.322738873169895, -1.19999175613877, 1.15889187489829, -1.18129468129302], a = 0.2, v = 0.2, t = 0.2)
movej(p[0.413760395368708, -0.0123532886688966, 0.322818545941609, -1.20011561858236, 1.15041750520021, -1.18599101362949], a = 0.2, v = 0.2, t = 0.2)
movej(p[0.413740016724403, -0.0121734462729064, 0.322838111810483, -1.20391761781333, 1.14366348714367, -1.18640507444853], a = 0.2, v = 0.2, t = 0.2)
movej(p[0.414311065718195, -0.0120889069802999, 0.322868508882627, -1.20037339723321, 1.14457096493365, -1.17503023683633], a = 0.2, v = 0.2, t = 0.2)
movej(p[0.415235641983813, -0.0121234587829387, 0.322949880551466, -1.20589590295119, 1.14658260358482, -1.17901996963957], a = 0.2, v = 0.2, t = 0.2)
movej(p[0.416453572885784, -0.0120591981835564, 0.322952769961564, -1.20588861017574, 1.15824809474306, -1.17181967604679], a = 0.2, v = 0.2, t = 0.2)
movej(p[0.417463663660092, -0.0120276334096461, 0.322933126603753, -1.20845900152973, 1.16671361276027, -1.16703340467612], a = 0.2, v = 0.2, t = 0.2)
movej(p[0.418099065317113, -0.0121285633984638, 0.322972765669858, -1.19919804425377, 1.17966094990634, -1.1474684847869], a = 0.2, v = 0.2, t = 0.2)
movej(p[0.41836346364868, -0.0121809605883326, 0.322960655171458, -1.20391306899596, 1.18272520682893, -1.15727083147788], a = 0.2, v = 0.2, t = 0.2)
movej(p[0.418473603466108, -0.0121891385006121, 0.322890559033213, -1.2076920371207, 1.18408722614802, -1.16089124879648], a = 0.2, v = 0.2, t = 0.2)
movej(p[0.418483212393638, -0.012285422056413, 0.322855463555755, -1.20814485119263, 1.18503624637307, -1.15853767398507], a = 0.2, v = 0.2, t = 0.2)
movej(p[0.418198084128435, -0.0125149907329344, 0.322848002125394, -1.20273195399156, 1.18448638173562, -1.15729330807963], a = 0.2, v = 0.2, t = 0.2)
movej(p[0.417664455263519, -0.0125488569594579, 0.322732344946934, -1.19940347259313, 1.18259528865289, -1.16431723605852], a = 0.2, v = 0.2, t = 0.2)
movej(p[0.416741312812695, -0.0125528423947596, 0.322627308296223, -1.19803106955404, 1.17820843647978, -1.17324294747121], a = 0.2, v = 0.2, t = 0.2)
movej(p[0.415669418719777, -0.0125885383486418, 0.32268361432116, -1.19896998891791, 1.17311277242992, -1.17953955319131], a = 0.2, v = 0.2, t = 0.2)
movej(p[0.414772568603518, -0.0125515452382734, 0.322797997524695, -1.19454735449794, 1.16782205212887, -1.18064396707142], a = 0.2, v = 0.2, t = 0.2)
movej(p[0.414095882816855, -0.0123414456351393, 0.322898220876365, -1.19505186305925, 1.16026663564836, -1.17961996558504], a = 0.2, v = 0.2, t = 0.2)
movej(p[0.413542026755374, -0.0122264081382608, 0.323119291644714, -1.19756203602087, 1.15201499951625, -1.17469431341564], a = 0.2, v = 0.2, t = 0.2)
movej(p[0.413035838864554, -0.0122509152127932, 0.3234159474754, -1.20022565687964, 1.14516099070748, -1.17292257863992], a = 0.2, v = 0.2, t = 0.2)
movej(p[0.413051671868135, -0.0121937192068835, 0.323604298462936, -1.20383149448922, 1.14014293905751, -1.17997010893215], a = 0.2, v = 0.2, t = 0.2)
movej(p[0.413772720264064, -0.0119962703336969, 0.323596587561221, -1.2063231891503, 1.13827425767364, -1.18260790688432], a = 0.2, v = 0.2, t = 0.2)
movej(p[0.414897554702555, -0.0119588418910229, 0.323592304610907, -1.20336354318383, 1.14216262476522, -1.1745650028981], a = 0.2, v = 0.2, t = 0.2)
movej(p[0.415928810176718, -0.0119550237398621, 0.32361085230972, -1.20514568994887, 1.14858822912548, -1.1798947671812], a = 0.2, v = 0.2, t = 0.2)
movej(p[0.416900624282223, -0.0119624158038745, 0.323579312237891, -1.21193564441924, 1.15683839735708, -1.18069659271059], a = 0.2, v = 0.2, t = 0.2)
movej(p[0.417642260676154, -0.0119591569832572, 0.323496995829534, -1.21535658421581, 1.16612297963253, -1.17831885417232], a = 0.2, v = 0.2, t = 0.2)
movej(p[0.418117129037391, -0.0121493604601965, 0.323484653079738, -1.21657278601764, 1.17344208311496, -1.17075482762388], a = 0.2, v = 0.2, t = 0.2)
movej(p[0.41827571223695, -0.0122074323283908, 0.323400748898417, -1.20934278409985, 1.17973983336731, -1.16358009680891], a = 0.2, v = 0.2, t = 0.2)
movej(p[0.418369084580049, -0.0121986262866002, 0.323281623432952, -1.21112038543325, 1.18182572971004, -1.16519354912239], a = 0.2, v = 0.2, t = 0.2)
movej(p[0.418369737177475, -0.0122539509289621, 0.323216229028351, -1.20695318764297, 1.18473537219953, -1.15711270322464], a = 0.2, v = 0.2, t = 0.2)
movej(p[0.418300562972284, -0.0124176339098689, 0.323211209852447, -1.20979139152173, 1.18396555648379, -1.16125487281067], a = 0.2, v = 0.2, t = 0.2)
movej(p[0.418059228158521, -0.0124722059689866, 0.323105660242786, -1.20751280325006, 1.18500438877053, -1.16104149159572], a = 0.2, v = 0.2, t = 0.2)
movej(p[0.417477032233501, -0.0125423829328303, 0.322995136742655, -1.20668251456244, 1.18182793380104, -1.16677821431914], a = 0.2, v = 0.2, t = 0.2)
movej(p[0.416517959833708, -0.0127015018923669, 0.323005390340557, -1.20148211788253, 1.17922344013236, -1.16692434144699], a = 0.2, v = 0.2, t = 0.2)
movej(p[0.415540561127031, -0.012681232955864, 0.323044067819802, -1.20175843637755, 1.17076404075964, -1.18313474898573], a = 0.2, v = 0.2, t = 0.2)
movej(p[0.414789264004311, -0.0124508693926451, 0.323047622342771, -1.20553573505614, 1.16263169776667, -1.1910016226305], a = 0.2, v = 0.2, t = 0.2)
movej(p[0.414223008181037, -0.0122737254957547, 0.32309812436577, -1.20510590000362, 1.15486722285651, -1.1907016845436], a = 0.2, v = 0.2, t = 0.2)
movej(p[0.413868028976712, -0.0122830760397035, 0.323230564521815, -1.20071070674402, 1.1513497049244, -1.18013561401725], a = 0.2, v = 0.2, t = 0.2)
movej(p[0.414092478157802, -0.0122653956409632, 0.323314805380484, -1.20302029917902, 1.14830531285593, -1.18362440123497], a = 0.2, v = 0.2, t = 0.2)
movej(p[0.414856631705573, -0.012169780224556, 0.323331877948362, -1.20774898923909, 1.1477905139354, -1.1827329773832], a = 0.2, v = 0.2, t = 0.2)
movej(p[0.41598561732279, -0.0121950150389935, 0.323401163132612, -1.21114670010608, 1.15146636945483, -1.17861875985238], a = 0.2, v = 0.2, t = 0.2)
movej(p[0.416890344273066, -0.0121857122742946, 0.32341093977098, -1.2100261279756, 1.15910861768758, -1.17799552865782], a = 0.2, v = 0.2, t = 0.2)
movej(p[0.417750270103627, -0.0121136593020904, 0.323344936656998, -1.21873733434409, 1.1663132088033, -1.18234357419396], a = 0.2, v = 0.2, t = 0.2)
movej(p[0.418193751293537, -0.0120887084410157, 0.32324066459704, -1.21783373494963, 1.17456139373814, -1.17409961369443], a = 0.2, v = 0.2, t = 0.2)
movej(p[0.418351257407946, -0.0122710668393861, 0.323223243769225, -1.21948488632119, 1.17830918540171, -1.16828089881488], a = 0.2, v = 0.2, t = 0.2)
movej(p[0.418026547816234, -0.0123951974822253, 0.323109507125258, -1.2048915255225, 1.18166242683807, -1.15855504555052], a = 0.2, v = 0.2, t = 0.2)
movej(p[0.417317487039247, -0.0124145152498796, 0.322934497339235, -1.20159160826568, 1.17848807931342, -1.16486641856265], a = 0.2, v = 0.2, t = 0.2)
movej(p[0.416236664210511, -0.0124621293918468, 0.322862318203281, -1.19275899544546, 1.1745377174334, -1.16312948672149], a = 0.2, v = 0.2, t = 0.2)
movej(p[0.415077077429429, -0.0124708769207137, 0.322960420354017, -1.19935077958588, 1.16556023565406, -1.18319869307389], a = 0.2, v = 0.2, t = 0.2)
movej(p[0.414238965174805, -0.0122708700875914, 0.323052709485851, -1.206722761351, 1.15649319960041, -1.19443257456698], a = 0.2, v = 0.2, t = 0.2)
movej(p[0.413730703392992, -0.0120130930444805, 0.323105956979064, -1.21445336069717, 1.14608934297628, -1.2037567619318], a = 0.2, v = 0.2, t = 0.2)
movej(p[0.413659889947168, -0.0120477920582108, 0.323225470171059, -1.20829773473616, 1.1433103631259, -1.18602399349929], a = 0.2, v = 0.2, t = 0.2)
movej(p[0.413894756844777, -0.0121023251679762, 0.323298703054082, -1.20566193922142, 1.14165355321399, -1.18640296159556], a = 0.2, v = 0.2, t = 0.2)
movej(p[0.414630922108228, -0.0120693427982669, 0.323318017563563, -1.20944605109075, 1.14342010801742, -1.18514093407075], a = 0.2, v = 0.2, t = 0.2)
movej(p[0.415452440624677, -0.0120710642037065, 0.323349770730249, -1.21335192416781, 1.14799810949415, -1.1856739603641], a = 0.2, v = 0.2, t = 0.2)
movej(p[0.416113677938671, -0.0122167673150277, 0.323418420007987, -1.20910064767653, 1.155635686905, -1.1752938775102], a = 0.2, v = 0.2, t = 0.2)
movej(p[0.416528909453593, -0.0122577304838386, 0.323359799396957, -1.20435308020542, 1.1624739392416, -1.17128376697696], a = 0.2, v = 0.2, t = 0.2)
movej(p[0.416592974987862, -0.0122917903074267, 0.323246370192248, -1.20381344870761, 1.1649299642069, -1.1701753187828], a = 0.2, v = 0.2, t = 0.2)
movej(p[0.416061659590631, -0.0124296175473278, 0.323191035024637, -1.20173440020288, 1.16724820207378, -1.16434110615015], a = 0.2, v = 0.2, t = 0.2)
movej(p[0.415031895040516, -0.0125167190135658, 0.32316461072404, -1.19986762558126, 1.16355970918981, -1.17325537969492], a = 0.2, v = 0.2, t = 0.2)
movej(p[0.413934032684353, -0.012384918509053, 0.323108492705778, -1.19870365179899, 1.15802447566491, -1.1757936637034], a = 0.2, v = 0.2, t = 0.2)
movej(p[0.412953706283842, -0.0122404996769242, 0.323186125799533, -1.20003253829044, 1.14729599333588, -1.17803868111862], a = 0.2, v = 0.2, t = 0.2)
movej(p[0.41195476613735, -0.0122220686021693, 0.323470284328016, -1.1998273594737, 1.1400038236841, -1.1706440779441], a = 0.2, v = 0.2, t = 0.2)
movej(p[0.411132263287536, -0.0121886756703611, 0.323860443840335, -1.20369396618143, 1.12971698251015, -1.17585985666957], a = 0.2, v = 0.2, t = 0.2)
movej(p[0.410602235919095, -0.0120551053017637, 0.324160720104193, -1.21079952270092, 1.11884273153621, -1.1829923343648], a = 0.2, v = 0.2, t = 0.2)
movej(p[0.410771212615892, -0.011972087584833, 0.324286833011999, -1.21715089219601, 1.10889532983906, -1.18583597141697], a = 0.2, v = 0.2, t = 0.2)
movej(p[0.411270793708599, -0.0119298494817468, 0.324142927143608, -1.21887208355184, 1.10607726424375, -1.19113508700378], a = 0.2, v = 0.2, t = 0.2)
movej(p[0.41220624199404, -0.0118209847613345, 0.323873761433839, -1.21930530687695, 1.10953000138322, -1.19128043467454], a = 0.2, v = 0.2, t = 0.2)
movej(p[0.413055045637586, -0.0117590387644573, 0.323675723547128, -1.2138731272578, 1.11839207172108, -1.18343673483128], a = 0.2, v = 0.2, t = 0.2)
movej(p[0.413886602262105, -0.0119418346437461, 0.323687048013253, -1.21418377946728, 1.12648048008172, -1.17838571991914], a = 0.2, v = 0.2, t = 0.2)
movej(p[0.41459976600092, -0.0120388935566831, 0.323610988700476, -1.2136491239581, 1.13273636823196, -1.18181430262173], a = 0.2, v = 0.2, t = 0.2)
movej(p[0.415372708004635, -0.0120520085306061, 0.323471911879432, -1.2212750324384, 1.1370863235144, -1.18840753422072], a = 0.2, v = 0.2, t = 0.2)
movej(p[0.416066636784115, -0.0120873396963087, 0.323335305790847, -1.21694365658544, 1.14355356808869, -1.18078425724454], a = 0.2, v = 0.2, t = 0.2)
movej(p[0.416616120407513, -0.0121692535307391, 0.323268744562881, -1.22383048687128, 1.14877487922792, -1.18569381622967], a = 0.2, v = 0.2, t = 0.2)
movej(p[0.416992017467883, -0.0122282130340174, 0.323160190178152, -1.22767462159997, 1.15316331429452, -1.18767052908503], a = 0.2, v = 0.2, t = 0.2)
movej(p[0.417090607354579, -0.0122343870218695, 0.323038951137347, -1.23384989518319, 1.15535192231274, -1.19256920481445], a = 0.2, v = 0.2, t = 0.2)
movej(p[0.416767383033731, -0.0124320378209645, 0.322995999732827, -1.22502410368342, 1.15829174512502, -1.18437722273648], a = 0.2, v = 0.2, t = 0.2)
movej(p[0.416148897728148, -0.0123914528347179, 0.322921275609109, -1.21694202226791, 1.15809029458335, -1.18982348945765], a = 0.2, v = 0.2, t = 0.2)
movej(p[0.415383846713681, -0.0121613482937539, 0.32283715095014, -1.21471491929206, 1.15489545532059, -1.19781662175706], a = 0.2, v = 0.2, t = 0.2)
movej(p[0.414743600863731, -0.0119599907982501, 0.322856214620468, -1.21404996087434, 1.14973007081447, -1.19980281702938], a = 0.2, v = 0.2, t = 0.2)
movej(p[0.414215167877503, -0.0120573779675924, 0.323007832669571, -1.21217326801752, 1.14553483323786, -1.19721499770241], a = 0.2, v = 0.2, t = 0.2)
movej(p[0.414413033458934, -0.0120804872695688, 0.323069362265272, -1.20681034312377, 1.14394211459979, -1.18909704889859], a = 0.2, v = 0.2, t = 0.2)
movej(p[0.41509612120841, -0.012049672973064, 0.323067041027277, -1.20572186188989, 1.14557620159043, -1.18172483739769], a = 0.2, v = 0.2, t = 0.2)
movej(p[0.416217236294426, -0.0120181521345763, 0.323090834569441, -1.20508441550786, 1.15286133076589, -1.16898012241461], a = 0.2, v = 0.2, t = 0.2)
movej(p[0.417113247035723, -0.0120082892472444, 0.323092625947158, -1.21089273700865, 1.16049775803926, -1.17077859610673], a = 0.2, v = 0.2, t = 0.2)
movej(p[0.417757040360099, -0.0119628312812444, 0.323021639179967, -1.21367821336196, 1.16883878888166, -1.16699610500848], a = 0.2, v = 0.2, t = 0.2)
movej(p[0.418060904224592, -0.0120465820913784, 0.322955338760804, -1.2128966354009, 1.17385985143964, -1.16248295209254], a = 0.2, v = 0.2, t = 0.2)
movej(p[0.418036873828912, -0.0122294651478539, 0.322944931110991, -1.20949040261494, 1.17850146819417, -1.1605177617728], a = 0.2, v = 0.2, t = 0.2)
movej(p[0.417733098595972, -0.0123405218472674, 0.322876145755828, -1.21364516839187, 1.17631954880946, -1.17358391723237], a = 0.2, v = 0.2, t = 0.2)
movej(p[0.417079294938238, -0.0123520313520166, 0.322775010735017, -1.21502830890728, 1.17324524619388, -1.18449536650065], a = 0.2, v = 0.2, t = 0.2)
movej(p[0.416225539468685, -0.0124335741269066, 0.322795151692552, -1.21700210359328, 1.16923932457469, -1.19106499177783], a = 0.2, v = 0.2, t = 0.2)
movej(p[0.415322928325588, -0.012387897323808, 0.322859510049467, -1.21169679388047, 1.16486310505074, -1.19723862972041], a = 0.2, v = 0.2, t = 0.2)
movej(p[0.414650635026363, -0.0121745457962325, 0.322893867610035, -1.20977489849645, 1.15985207543573, -1.19798948234581], a = 0.2, v = 0.2, t = 0.2)
movej(p[0.414245290548776, -0.0119969368838937, 0.322911398224601, -1.20486975691037, 1.15281015483678, -1.19077544847587], a = 0.2, v = 0.2, t = 0.2)
movej(p[0.414203406486223, -0.0120756198912266, 0.323060779268114, -1.20723239507541, 1.14805571572506, -1.18382112837875], a = 0.2, v = 0.2, t = 0.2)
movej(p[0.414621152907049, -0.012155783400412, 0.323172534759516, -1.21024844017883, 1.1464091678389, -1.18789582538324], a = 0.2, v = 0.2, t = 0.2)
movej(p[0.415622763077637, -0.0120993121036022, 0.323176784403048, -1.21677057656805, 1.14914668537557, -1.18924665014123], a = 0.2, v = 0.2, t = 0.2)
movej(p[0.416713471931227, -0.012083684151519, 0.323147054483933, -1.21269452051567, 1.15747259766901, -1.17648342703642], a = 0.2, v = 0.2, t = 0.2)
movej(p[0.417463739752307, -0.0121897042352128, 0.323185232414028, -1.22115723985754, 1.16218424074854, -1.17979872807043], a = 0.2, v = 0.2, t = 0.2)
movej(p[0.41788844686305, -0.0122440068286646, 0.323131205639639, -1.22302067303585, 1.16831490492792, -1.17539932371213], a = 0.2, v = 0.2, t = 0.2)
movej(p[0.418056056948697, -0.0122666525078853, 0.323036684470217, -1.22659667033174, 1.1708916108819, -1.17618369863407], a = 0.2, v = 0.2, t = 0.2)
movej(p[0.418013927063606, -0.0124271445947453, 0.322980445578419, -1.21937700739809, 1.17339989541632, -1.16737944279105], a = 0.2, v = 0.2, t = 0.2)
movej(p[0.417677615012285, -0.0125402221493783, 0.322879197948154, -1.22147756745116, 1.17109223714215, -1.18295179401904], a = 0.2, v = 0.2, t = 0.2)
movej(p[0.417086898439455, -0.0125081281279981, 0.322751661640871, -1.22378788450922, 1.16716824508911, -1.19590613385705], a = 0.2, v = 0.2, t = 0.2)
movej(p[0.416301793578081, -0.0124507025705367, 0.322692339328903, -1.22027839497383, 1.16490452026579, -1.19947457471823], a = 0.2, v = 0.2, t = 0.2)
movej(p[0.415373743097061, -0.0124986916753062, 0.322814437974684, -1.20561262117116, 1.16455725235164, -1.18545655114429], a = 0.2, v = 0.2, t = 0.2)
movej(p[0.414728997252819, -0.0123402334873512, 0.322865285393174, -1.19855863951432, 1.16085256839586, -1.18653593231627], a = 0.2, v = 0.2, t = 0.2)
movej(p[0.414459684072718, -0.0120924069606125, 0.322869703887539, -1.20323049853337, 1.15457385749989, -1.1895003838229], a = 0.2, v = 0.2, t = 0.2)
movej(p[0.414713558452932, -0.0120346619128611, 0.322930468899107, -1.20829709957265, 1.15024466269164, -1.18891519283314], a = 0.2, v = 0.2, t = 0.2)
movej(p[0.415293804905491, -0.0120961467917669, 0.323044543858931, -1.21218051259064, 1.14925978336264, -1.19114978198071], a = 0.2, v = 0.2, t = 0.2)
movej(p[0.416209455533279, -0.0120771527471216, 0.323049181800322, -1.21434900841109, 1.15379402957647, -1.19112739611316], a = 0.2, v = 0.2, t = 0.2)
movej(p[0.417159097971148, -0.011989206756525, 0.322989358560397, -1.21670049800894, 1.16084650726496, -1.18515374433263], a = 0.2, v = 0.2, t = 0.2)
movej(p[0.417894374225436, -0.0121028007665433, 0.322999391732007, -1.21801762015245, 1.16895316809112, -1.1729571769482], a = 0.2, v = 0.2, t = 0.2)
movej(p[0.418097039810767, -0.0121901731146012, 0.322990065964819, -1.2173364766489, 1.1726299236459, -1.17407251588153], a = 0.2, v = 0.2, t = 0.2)
movej(p[0.418286205823292, -0.0121941041769161, 0.322905403262902, -1.22227311937756, 1.17297591242519, -1.18027964056832], a = 0.2, v = 0.2, t = 0.2)
movej(p[0.418330661080311, -0.0121967779836062, 0.322815007016176, -1.22220658154936, 1.17428129322807, -1.18044741910069], a = 0.2, v = 0.2, t = 0.2)
movej(p[0.418389853613474, -0.0124146666626614, 0.322841791905448, -1.21499792587067, 1.1783588834495, -1.17010633489842], a = 0.2, v = 0.2, t = 0.2)
movej(p[0.418317200330233, -0.0124933363835644, 0.32279100527879, -1.20770501725565, 1.18105322902267, -1.16946713536192], a = 0.2, v = 0.2, t = 0.2)
movej(p[0.418171186740428, -0.0124808816503576, 0.322700493831375, -1.2105200238399, 1.17958201916661, -1.17188288996328], a = 0.2, v = 0.2, t = 0.2)
movej(p[0.417696293232468, -0.0125719946441576, 0.322660894531401, -1.21360345086423, 1.17686676948401, -1.17696161177872], a = 0.2, v = 0.2, t = 0.2)
movej(p[0.416877889131798, -0.0128055796925316, 0.322739257142912, -1.21155145948343, 1.17455336777178, -1.18274310319312], a = 0.2, v = 0.2, t = 0.2)
movej(p[0.416019260970084, -0.0127447904325912, 0.322727728448852, -1.20722962372234, 1.17141367556648, -1.18969657047202], a = 0.2, v = 0.2, t = 0.2)
movej(p[0.415231896583105, -0.0125321010242106, 0.322706961458718, -1.20537112690183, 1.16518593291295, -1.1947372238216], a = 0.2, v = 0.2, t = 0.2)
movej(p[0.414607719430678, -0.0124068818181483, 0.322770375256947, -1.20383268202904, 1.15849835900529, -1.18888754402647], a = 0.2, v = 0.2, t = 0.2)
movej(p[0.414009999458884, -0.0124005708782008, 0.322901524507921, -1.20356483379409, 1.15028893370137, -1.19203050257482], a = 0.2, v = 0.2, t = 0.2)
movej(p[0.414027852145149, -0.0122673181142498, 0.322934351413906, -1.20411088489822, 1.14606067234281, -1.18783852942235], a = 0.2, v = 0.2, t = 0.2)
movej(p[0.414578222885505, -0.0121314671845259, 0.32292968094791, -1.21048866821517, 1.14151923574906, -1.19296515773452], a = 0.2, v = 0.2, t = 0.2)
movej(p[0.415649775726071, -0.0121570514932882, 0.322982857025424, -1.2122492383296, 1.14553447940891, -1.1838590290824], a = 0.2, v = 0.2, t = 0.2)
movej(p[0.416696150911811, -0.0121309660451415, 0.322974483032114, -1.20750505045415, 1.15454486595426, -1.18171179713042], a = 0.2, v = 0.2, t = 0.2)
movej(p[0.417629281358828, -0.0120234178582472, 0.322852788591631, -1.20726090473152, 1.16506300093272, -1.17268638395667], a = 0.2, v = 0.2, t = 0.2)
movej(p[0.418174639485728, -0.0119938062345081, 0.322753772642595, -1.20529375848281, 1.17540048235887, -1.16269348475476], a = 0.2, v = 0.2, t = 0.2)
movej(p[0.41834843879763, -0.0121696718796193, 0.322752907011377, -1.21450352803162, 1.17732382800937, -1.1674581857852], a = 0.2, v = 0.2, t = 0.2)
movej(p[0.418360290212591, -0.012264720017455, 0.322728576504284, -1.21364909221279, 1.17946792109123, -1.17024952530484], a = 0.2, v = 0.2, t = 0.2)
movej(p[0.418375473544325, -0.0122345957772995, 0.322634221970782, -1.21426538754812, 1.17899959229741, -1.17368548942995], a = 0.2, v = 0.2, t = 0.2)
movej(p[0.418354758021078, -0.0123191570632293, 0.322570756961371, -1.20706736247887, 1.18169505462431, -1.16355115372406], a = 0.2, v = 0.2, t = 0.2)
movej(p[0.418127528213917, -0.0124773229150178, 0.322583213873728, -1.21172045817595, 1.17892192098916, -1.17612947473936], a = 0.2, v = 0.2, t = 0.2)
movej(p[0.41765737719161, -0.0124841818999522, 0.322494766873502, -1.20808147084748, 1.17774874168029, -1.17743238769268], a = 0.2, v = 0.2, t = 0.2)
movej(p[0.416910752849341, -0.012477196087982, 0.322456249374058, -1.20927868745536, 1.17285649198687, -1.18784780601569], a = 0.2, v = 0.2, t = 0.2)
movej(p[0.416016657781228, -0.012518806199312, 0.322560219021603, -1.20171546023483, 1.17123960525124, -1.18393125097008], a = 0.2, v = 0.2, t = 0.2)
movej(p[0.415194755531843, -0.0124617945120615, 0.322693180705451, -1.20578405503377, 1.16392924496752, -1.20140479862314], a = 0.2, v = 0.2, t = 0.2)
movej(p[0.41467229619041, -0.012202277621294, 0.32273230409048, -1.21257883717903, 1.15582712893287, -1.20845186510663], a = 0.2, v = 0.2, t = 0.2)
movej(p[0.414491664677387, -0.0120441237129883, 0.322763908651711, -1.21368204593227, 1.14917908294466, -1.2073706550201], a = 0.2, v = 0.2, t = 0.2)
movej(p[0.414516671574133, -0.0120951829742837, 0.322911180970737, -1.2157195360617, 1.14595749498394, -1.20233540926688], a = 0.2, v = 0.2, t = 0.2)
movej(p[0.415118994169466, -0.0120774090968229, 0.322985815986856, -1.21802333215755, 1.14639301986263, -1.20408338501913], a = 0.2, v = 0.2, t = 0.2)
movej(p[0.416072952279098, -0.0119838495757056, 0.322992287545763, -1.22407779415998, 1.15018916102312, -1.20150841260815], a = 0.2, v = 0.2, t = 0.2)
movej(p[0.417166145126716, -0.0120048816980141, 0.322993276660409, -1.22274561917544, 1.15791031790077, -1.18704027006271], a = 0.2, v = 0.2, t = 0.2)
movej(p[0.417781005635124, -0.0120723683927262, 0.322976263070601, -1.2165062700609, 1.16647025382339, -1.17718606213065], a = 0.2, v = 0.2, t = 0.2)
movej(p[0.418210930710015, -0.0120786555347815, 0.322898517053827, -1.21001151573041, 1.1744157612989, -1.16558851509058], a = 0.2, v = 0.2, t = 0.2)
movej(p[0.418358165443661, -0.0121177420138641, 0.322823594574889, -1.21171307503352, 1.17748954005264, -1.16480677629364], a = 0.2, v = 0.2, t = 0.2)
movej(p[0.418458612877562, -0.0122878089967378, 0.32282906429772, -1.21222276799873, 1.18083446499134, -1.15937976056921], a = 0.2, v = 0.2, t = 0.2)
movej(p[0.418426992804221, -0.0123692938886238, 0.32281292340381, -1.21050953173544, 1.18259349733739, -1.16082991587202], a = 0.2, v = 0.2, t = 0.2)
movej(p[0.418403242083459, -0.0123460086996877, 0.322726958854492, -1.20536892499639, 1.18510016039063, -1.15547335157994], a = 0.2, v = 0.2, t = 0.2)
movej(p[0.418136296218629, -0.0124661670252564, 0.32268176473378, -1.19913791171373, 1.18504902580172, -1.14975385411717], a = 0.2, v = 0.2, t = 0.2)
movej(p[0.41751988256867, -0.0126493664287028, 0.322673147076227, -1.20368467664623, 1.18075295254309, -1.16883593813239], a = 0.2, v = 0.2, t = 0.2)
movej(p[0.416825269939641, -0.0126700297700705, 0.322601395127703, -1.20177961405728, 1.17784147430749, -1.17656511471675], a = 0.2, v = 0.2, t = 0.2)
movej(p[0.416069771699358, -0.0125551565760995, 0.322547037052542, -1.19982880264812, 1.17314587409527, -1.18404859456057], a = 0.2, v = 0.2, t = 0.2)
movej(p[0.415332478186543, -0.0125851769890453, 0.322651325678804, -1.19192631126128, 1.16967850897684, -1.1724702916841], a = 0.2, v = 0.2, t = 0.2)
movej(p[0.414675699469458, -0.0125072252943341, 0.322734840327674, -1.1901818115498, 1.16336694021559, -1.17782586111435], a = 0.2, v = 0.2, t = 0.2)
movej(p[0.414409405338592, -0.0122853125696484, 0.32276526975568, -1.19683734863569, 1.15615346275003, -1.18195897017628], a = 0.2, v = 0.2, t = 0.2)
movej(p[0.414616713781107, -0.0121246381388418, 0.322812250934324, -1.20066186070973, 1.15155716070719, -1.18235667358719], a = 0.2, v = 0.2, t = 0.2)
movej(p[0.415206146413822, -0.0121849532742646, 0.322922067585291, -1.19832774807624, 1.15274364646852, -1.17508461799295], a = 0.2, v = 0.2, t = 0.2)
movej(p[0.416208851604568, -0.0121425942270015, 0.322948394432159, -1.20125471278885, 1.15669239298212, -1.17636665248241], a = 0.2, v = 0.2, t = 0.2)
movej(p[0.417246185804006, -0.0120523386796991, 0.322907007010657, -1.20326429430394, 1.16537283251972, -1.16849689228145], a = 0.2, v = 0.2, t = 0.2)
movej(p[0.417964968139251, -0.0121265997949202, 0.322924785594039, -1.21021581646711, 1.17180601002905, -1.16358069187431], a = 0.2, v = 0.2, t = 0.2)
movej(p[0.418229905722796, -0.0123007723808824, 0.322957732404608, -1.21025292233573, 1.17757927963908, -1.16045171828528], a = 0.2, v = 0.2, t = 0.2)
movej(p[0.418346414864305, -0.0123484759384233, 0.322881091706916, -1.21061225153296, 1.18071368400035, -1.15785186501174], a = 0.2, v = 0.2, t = 0.2)
movej(p[0.418287481165473, -0.0124150735748476, 0.322807292286426, -1.20930445209537, 1.18066583420686, -1.1579801885898], a = 0.2, v = 0.2, t = 0.2)
movej(p[0.417967662894584, -0.0125274740998902, 0.322747501687903, -1.20930241592933, 1.18009658433949, -1.16186294402007], a = 0.2, v = 0.2, t = 0.2)
movej(p[0.417353283803262, -0.0125216330746636, 0.322645080250072, -1.21308581444364, 1.17525084062504, -1.18268853578862], a = 0.2, v = 0.2, t = 0.2)
movej(p[0.416580737251578, -0.0123784704887466, 0.322516454281567, -1.21474657074246, 1.1706726389211, -1.19482724422128], a = 0.2, v = 0.2, t = 0.2)
movej(p[0.41576709179924, -0.0123074560238015, 0.322518996420594, -1.20566760983295, 1.16735107055863, -1.18770443156896], a = 0.2, v = 0.2, t = 0.2)
movej(p[0.414922532521538, -0.012248289885722, 0.32260561273361, -1.19748309823039, 1.16278226000163, -1.1877587750928], a = 0.2, v = 0.2, t = 0.2)
movej(p[0.414499849853216, -0.0120575436867067, 0.322609403506807, -1.19444132775572, 1.15636221782785, -1.18805683914404], a = 0.2, v = 0.2, t = 0.2)
movej(p[0.414567912168662, -0.0118651088705823, 0.322617316897944, -1.20139836936404, 1.14906205557152, -1.19347993718965], a = 0.2, v = 0.2, t = 0.2)
movej(p[0.415224860053607, -0.0119171061879411, 0.322718957271092, -1.20482368727696, 1.14743665978303, -1.18818074226428], a = 0.2, v = 0.2, t = 0.2)
movej(p[0.41612548624429, -0.0119257419759, 0.322774072034293, -1.20563224540116, 1.15058345837539, -1.18885110184095], a = 0.2, v = 0.2, t = 0.2)
movej(p[0.417148418150527, -0.0118436091271942, 0.322744351536896, -1.20635966265326, 1.15990815202161, -1.18259526809166], a = 0.2, v = 0.2, t = 0.2)
movej(p[0.417891865117021, -0.0118194867174035, 0.322673054360535, -1.20473882034051, 1.16892528562621, -1.17168468731365], a = 0.2, v = 0.2, t = 0.2)
movej(p[0.418174898580375, -0.0119758640512282, 0.322703244706469, -1.21251358851598, 1.1746295088871, -1.17183366741424], a = 0.2, v = 0.2, t = 0.2)
movej(p[0.418277158587123, -0.0120892633475934, 0.322664043310158, -1.21417621548305, 1.17772271174366, -1.17085813252303], a = 0.2, v = 0.2, t = 0.2)
movej(p[0.418322133669139, -0.0121059734570912, 0.322582931846114, -1.2168441387347, 1.17791430285735, -1.17414862295996], a = 0.2, v = 0.2, t = 0.2)
movej(p[0.418222955658893, -0.0122791487799627, 0.32255733207432, -1.21005624516706, 1.17844256953524, -1.16473819298049], a = 0.2, v = 0.2, t = 0.2)
movej(p[0.417800585395046, -0.0123932703830676, 0.322491690208694, -1.21045466110511, 1.17580685384292, -1.17846128885338], a = 0.2, v = 0.2, t = 0.2)
movej(p[0.417119234800567, -0.0123724247113085, 0.32237522779642, -1.20925505583056, 1.17312693437979, -1.18711874013704], a = 0.2, v = 0.2, t = 0.2)
movej(p[0.416225684500394, -0.0123394978797644, 0.322322150455867, -1.20321417629065, 1.17085481720941, -1.18812618980512], a = 0.2, v = 0.2, t = 0.2)
movej(p[0.415339476523903, -0.0123782836484275, 0.322410833777031, -1.19574613103017, 1.16677266020426, -1.18508397117429], a = 0.2, v = 0.2, t = 0.2)
movej(p[0.414640562489459, -0.0122363756886589, 0.322473436915029, -1.19681321219943, 1.15892493001725, -1.19180900955425], a = 0.2, v = 0.2, t = 0.2)
movej(p[0.414314030097102, -0.0120358957807882, 0.322519276376002, -1.20695457044417, 1.14881868840551, -1.19949096092731], a = 0.2, v = 0.2, t = 0.2)
movej(p[0.414491403506953, -0.0119613137076005, 0.322597044993302, -1.21157599123356, 1.14539201013498, -1.19740835902785], a = 0.2, v = 0.2, t = 0.2)
movej(p[0.41506399089832, -0.012026867518757, 0.322707947655537, -1.21329680277298, 1.14487534512666, -1.1989263391958], a = 0.2, v = 0.2, t = 0.2)
movej(p[0.416158952303759, -0.0119797033871891, 0.322725279458471, -1.21403538755705, 1.15275567772604, -1.19143471118412], a = 0.2, v = 0.2, t = 0.2)
movej(p[0.417192512062528, -0.0119867985866728, 0.32272228256051, -1.21274176431363, 1.1604368202863, -1.18085400810596], a = 0.2, v = 0.2, t = 0.2)
movej(p[0.417921315123844, -0.0121056627178055, 0.322767156582874, -1.21656301410098, 1.16898893619294, -1.17265632946036], a = 0.2, v = 0.2, t = 0.2)
movej(p[0.418183325851483, -0.0122113283547189, 0.322759163613283, -1.22270934525952, 1.17199316515267, -1.17952146831825], a = 0.2, v = 0.2, t = 0.2)
movej(p[0.418272268786555, -0.0122429849060105, 0.322700254915538, -1.22683443505931, 1.1743128446691, -1.18210706944493], a = 0.2, v = 0.2, t = 0.2)
movej(p[0.41830793498038, -0.0123544230610239, 0.32269130539006, -1.21900202107001, 1.17935782817556, -1.1688259228595], a = 0.2, v = 0.2, t = 0.2)
movej(p[0.418224492177666, -0.0124518428022328, 0.322692051713134, -1.20588230226058, 1.18352832911018, -1.15931676013815], a = 0.2, v = 0.2, t = 0.2)
movej(p[0.418218358437871, -0.0124442878863128, 0.322649562492365, -1.19400747792536, 1.18945373626527, -1.14716340985756], a = 0.2, v = 0.2, t = 0.2)
movej(p[0.417950002622914, -0.0124905979563125, 0.322570542492639, -1.19399096080643, 1.18867451659732, -1.14829417804094], a = 0.2, v = 0.2, t = 0.2)
movej(p[0.417440811512196, -0.012646740861581, 0.3225987443167, -1.19760504117387, 1.18695123964036, -1.15267009868039], a = 0.2, v = 0.2, t = 0.2)
movej(p[0.41670159877909, -0.0126830294171626, 0.322566175250882, -1.19436964063698, 1.18289807141254, -1.16226828510276], a = 0.2, v = 0.2, t = 0.2)
movej(p[0.416002485649888, -0.0125651004928763, 0.32252744453188, -1.1946570543793, 1.17788206614814, -1.17064087369702], a = 0.2, v = 0.2, t = 0.2)
movej(p[0.41534733107036, -0.0125119079325514, 0.322512293365283, -1.18481375602643, 1.17473719925241, -1.16040556789031], a = 0.2, v = 0.2, t = 0.2)
movej(p[0.414754082661069, -0.0124397656083592, 0.322559992086833, -1.18871531114514, 1.16815707794098, -1.16962881973902], a = 0.2, v = 0.2, t = 0.2)
movej(p[0.414527851581548, -0.0122780910601592, 0.322583718044506, -1.19281172912488, 1.16196428661228, -1.17207209980521], a = 0.2, v = 0.2, t = 0.2)
movej(p[0.414750747835251, -0.0121244750893599, 0.322645642492027, -1.2012535535989, 1.15549025169814, -1.17990570963767], a = 0.2, v = 0.2, t = 0.2)
movej(p[0.415474391950572, -0.0121954652975738, 0.322777863027873, -1.20564010331773, 1.15414997569587, -1.17727412988302], a = 0.2, v = 0.2, t = 0.2)
movej(p[0.41634140183259, -0.0122139185720433, 0.322822270930683, -1.20773166885907, 1.15757804099049, -1.18107111635095], a = 0.2, v = 0.2, t = 0.2)
movej(p[0.417288844359941, -0.0121611500339006, 0.32279598928548, -1.21396637494235, 1.16520738886062, -1.1789539697115], a = 0.2, v = 0.2, t = 0.2)
movej(p[0.417887047231906, -0.0122012746521359, 0.322789822165914, -1.21262589517707, 1.17405435457905, -1.16507113368403], a = 0.2, v = 0.2, t = 0.2)
movej(p[0.418165825867333, -0.0123889245424236, 0.322875085084994, -1.2154909105944, 1.17834507686613, -1.16151115247183], a = 0.2, v = 0.2, t = 0.2)
movej(p[0.418293736138625, -0.0124309654524221, 0.322819702046215, -1.20459816560907, 1.18462968722354, -1.14716902792204], a = 0.2, v = 0.2, t = 0.2)
movej(p[0.41836046063819, -0.0124690364688898, 0.322768856615124, -1.2088256998379, 1.18424669193833, -1.15183947088773], a = 0.2, v = 0.2, t = 0.2)
movej(p[0.418333685121142, -0.0125685181067844, 0.322730792931532, -1.19878037680465, 1.18837113682505, -1.14235661447817], a = 0.2, v = 0.2, t = 0.2)
movej(p[0.418181590658905, -0.0126371430050732, 0.322675181709718, -1.20864105815556, 1.18413996432356, -1.16432167224968], a = 0.2, v = 0.2, t = 0.2)
movej(p[0.417832732802473, -0.0126541281415523, 0.322554150359463, -1.20887118061362, 1.18301234317906, -1.16691935133371], a = 0.2, v = 0.2, t = 0.2)
movej(p[0.417209958581121, -0.0127093101709748, 0.322503362283609, -1.209892642352, 1.17957463217666, -1.1722896152231], a = 0.2, v = 0.2, t = 0.2)
