def moving():
set_payload_mass(0)
set_tcp(p[0,0,0,0,0,0])
movej(p[0.4865, -0.1069, 0.4178, -1.123, 1.281, -1.3], a = 0.2, v = 0.2, t = 0.2)
movej(p[0.486476598877809, -0.106908099056743, 0.418661084006564, -1.123, 1.281, -1.3], a = 0.2, v = 0.2, t = 0.2)
movej(p[0.486436471647061, -0.106921986968447, 0.420137633564439, -1.123, 1.281, -1.3], a = 0.2, v = 0.2, t = 0.2)
movej(p[0.486400860889398, -0.106934311742644, 0.421447991829907, -1.123, 1.281, -1.3], a = 0.2, v = 0.2, t = 0.2)
movej(p[0.486373125300434, -0.106943910945066, 0.422468569897679, -1.123, 1.281, -1.3], a = 0.2, v = 0.2, t = 0.2)
movej(p[0.486345987344142, -0.10695330330865, 0.423467157057037, -1.123, 1.281, -1.3], a = 0.2, v = 0.2, t = 0.2)
movej(p[0.48631795022233, -0.106963006870668, 0.424498830537691, -1.123, 1.281, -1.3], a = 0.2, v = 0.2, t = 0.2)
movej(p[0.486304872932881, -0.106967532880507, 0.424980031597265, -1.123, 1.281, -1.3], a = 0.2, v = 0.2, t = 0.2)
movej(p[0.486325844406613, -0.106960274717657, 0.424208350629273, -1.123, 1.281, -1.3], a = 0.2, v = 0.2, t = 0.2)
movej(p[0.4863892939807, -0.10693831501433, 0.421873615866398, -1.123, 1.281, -1.3], a = 0.2, v = 0.2, t = 0.2)
movej(p[0.486471405993199, -0.106909896298207, 0.418852165008949, -1.123, 1.281, -1.3], a = 0.2, v = 0.2, t = 0.2)
movej(p[0.486555047402034, -0.106880948262695, 0.415774437417695, -1.123, 1.281, -1.3], a = 0.2, v = 0.2, t = 0.2)
movej(p[0.486632962403274, -0.106853982119319, 0.412907422712519, -1.123, 1.281, -1.3], a = 0.2, v = 0.2, t = 0.2)
movej(p[0.486690185731534, -0.10683417730061, 0.410801793231851, -1.123, 1.281, -1.3], a = 0.2, v = 0.2, t = 0.2)
movej(p[0.486710399298378, -0.106827181447013, 0.410058000734075, -1.123, 1.281, -1.3], a = 0.2, v = 0.2, t = 0.2)
movej(p[0.486678360754182, -0.106838269889067, 0.41123691334243, -1.123, 1.281, -1.3], a = 0.2, v = 0.2, t = 0.2)
movej(p[0.486617796115989, -0.106859231124914, 0.413465491992869, -1.123, 1.281, -1.3], a = 0.2, v = 0.2, t = 0.2)
movej(p[0.486550144097619, -0.106882645281341, 0.415954862825367, -1.123, 1.281, -1.3], a = 0.2, v = 0.2, t = 0.2)
movej(p[0.486493639286821, -0.106902201423357, 0.4180340532366, -1.123, 1.281, -1.3], a = 0.2, v = 0.2, t = 0.2)
movej(p[0.486446916636244, -0.10691837198967, 0.419753292460562, -1.123, 1.281, -1.3], a = 0.2, v = 0.2, t = 0.2)
movej(p[0.486408339447324, -0.106931723436643, 0.421172805598704, -1.123, 1.281, -1.3], a = 0.2, v = 0.2, t = 0.2)
movej(p[0.486375920591428, -0.106942943503411, 0.422365712421505, -1.123, 1.281, -1.3], a = 0.2, v = 0.2, t = 0.2)
movej(p[0.486347236939727, -0.106952870827444, 0.423421176066716, -1.123, 1.281, -1.3], a = 0.2, v = 0.2, t = 0.2)
movej(p[0.486328867884626, -0.106959228301174, 0.424097096624432, -1.123, 1.281, -1.3], a = 0.2, v = 0.2, t = 0.2)
movej(p[0.486329864844582, -0.106958883256385, 0.42406041179085, -1.123, 1.281, -1.3], a = 0.2, v = 0.2, t = 0.2)
movej(p[0.486366899054606, -0.106946065829684, 0.422697675179886, -1.123, 1.281, -1.3], a = 0.2, v = 0.2, t = 0.2)
movej(p[0.486428053175934, -0.106924900575529, 0.420447405497057, -1.123, 1.281, -1.3], a = 0.2, v = 0.2, t = 0.2)
movej(p[0.486500652479051, -0.106899774178998, 0.417775990925945, -1.123, 1.281, -1.3], a = 0.2, v = 0.2, t = 0.2)
movej(p[0.486570436443315, -0.106875622162625, 0.415208171526027, -1.123, 1.281, -1.3], a = 0.2, v = 0.2, t = 0.2)
movej(p[0.486625407783009, -0.106856596750263, 0.413185407786611, -1.123, 1.281, -1.3], a = 0.2, v = 0.2, t = 0.2)
movej(p[0.486653561714843, -0.106846852760654, 0.412149436082949, -1.123, 1.281, -1.3], a = 0.2, v = 0.2, t = 0.2)
movej(p[0.486640036200891, -0.106851533899622, 0.412647130323834, -1.123, 1.281, -1.3], a = 0.2, v = 0.2, t = 0.2)
movej(p[0.486600600594134, -0.10686518244238, 0.414098230403153, -1.123, 1.281, -1.3], a = 0.2, v = 0.2, t = 0.2)
movej(p[0.486540973152629, -0.106885819317323, 0.416292323310851, -1.123, 1.281, -1.3], a = 0.2, v = 0.2, t = 0.2)
movej(p[0.48648772571154, -0.106904248093656, 0.41825165327536, -1.123, 1.281, -1.3], a = 0.2, v = 0.2, t = 0.2)
movej(p[0.486443746466575, -0.106919469175686, 0.419869944233832, -1.123, 1.281, -1.3], a = 0.2, v = 0.2, t = 0.2)
movej(p[0.486409162550503, -0.106931438563153, 0.421142518120297, -1.123, 1.281, -1.3], a = 0.2, v = 0.2, t = 0.2)
movej(p[0.486379077178536, -0.106941851018278, 0.422249560441608, -1.123, 1.281, -1.3], a = 0.2, v = 0.2, t = 0.2)
movej(p[0.48635240374582, -0.106951082611675, 0.423231054667607, -1.123, 1.281, -1.3], a = 0.2, v = 0.2, t = 0.2)
movej(p[0.486328544619681, -0.106959340182181, 0.42410899170671, -1.123, 1.281, -1.3], a = 0.2, v = 0.2, t = 0.2)
movej(p[0.486309740922639, -0.106965848084157, 0.424800905652363, -1.123, 1.281, -1.3], a = 0.2, v = 0.2, t = 0.2)
movej(p[0.486311609882992, -0.1069652012427, 0.424732134084231, -1.123, 1.281, -1.3], a = 0.2, v = 0.2, t = 0.2)
movej(p[0.486346193799064, -0.106953231855234, 0.423459560197766, -1.123, 1.281, -1.3], a = 0.2, v = 0.2, t = 0.2)
movej(p[0.486411626427015, -0.106930585823036, 0.421051855602426, -1.123, 1.281, -1.3], a = 0.2, v = 0.2, t = 0.2)
movej(p[0.486488337198423, -0.106904036459918, 0.418229152577705, -1.123, 1.281, -1.3], a = 0.2, v = 0.2, t = 0.2)
movej(p[0.486565141961151, -0.106877454566691, 0.415402990982843, -1.123, 1.281, -1.3], a = 0.2, v = 0.2, t = 0.2)
movej(p[0.486628920233208, -0.106855381102003, 0.413056161220339, -1.123, 1.281, -1.3], a = 0.2, v = 0.2, t = 0.2)
movej(p[0.48665799777917, -0.106845317452373, 0.41198620356731, -1.123, 1.281, -1.3], a = 0.2, v = 0.2, t = 0.2)
movej(p[0.48664352420248, -0.106850326712951, 0.412518783385634, -1.123, 1.281, -1.3], a = 0.2, v = 0.2, t = 0.2)
movej(p[0.486593317625082, -0.106867703055671, 0.414366219609783, -1.123, 1.281, -1.3], a = 0.2, v = 0.2, t = 0.2)
movej(p[0.486531655515984, -0.106889044122838, 0.416635181564765, -1.123, 1.281, -1.3], a = 0.2, v = 0.2, t = 0.2)
movej(p[0.486473104084939, -0.106909308593855, 0.41878968084145, -1.123, 1.281, -1.3], a = 0.2, v = 0.2, t = 0.2)
movej(p[0.486429522809003, -0.106924391940023, 0.420393327854092, -1.123, 1.281, -1.3], a = 0.2, v = 0.2, t = 0.2)
movej(p[0.4863973484392, -0.106935527390904, 0.421577238396178, -1.123, 1.281, -1.3], a = 0.2, v = 0.2, t = 0.2)
movej(p[0.486372427156814, -0.106944152570435, 0.422494259277054, -1.123, 1.281, -1.3], a = 0.2, v = 0.2, t = 0.2)
movej(p[0.486352208156945, -0.106951150304385, 0.423238251692179, -1.123, 1.281, -1.3], a = 0.2, v = 0.2, t = 0.2)
movej(p[0.486336082940874, -0.106956731192297, 0.423831606384666, -1.123, 1.281, -1.3], a = 0.2, v = 0.2, t = 0.2)
movej(p[0.486328202339152, -0.106959458644425, 0.424121586499711, -1.123, 1.281, -1.3], a = 0.2, v = 0.2, t = 0.2)
movej(p[0.486347581936769, -0.106952751425024, 0.423408481315041, -1.123, 1.281, -1.3], a = 0.2, v = 0.2, t = 0.2)
movej(p[0.486391320498758, -0.106937613642635, 0.421799046695138, -1.123, 1.281, -1.3], a = 0.2, v = 0.2, t = 0.2)
movej(p[0.486455087904766, -0.106915543938653, 0.419452616767334, -1.123, 1.281, -1.3], a = 0.2, v = 0.2, t = 0.2)
movej(p[0.486520146740646, -0.106893027274746, 0.417058666485619, -1.123, 1.281, -1.3], a = 0.2, v = 0.2, t = 0.2)
movej(p[0.486577969331483, -0.106873015053093, 0.414930986121332, -1.123, 1.281, -1.3], a = 0.2, v = 0.2, t = 0.2)
movej(p[0.486616247704068, -0.106859767025539, 0.413522468437397, -1.123, 1.281, -1.3], a = 0.2, v = 0.2, t = 0.2)
movej(p[0.486624739521022, -0.106856828033691, 0.413209997620565, -1.123, 1.281, -1.3], a = 0.2, v = 0.2, t = 0.2)
movej(p[0.48659956831952, -0.106865539709464, 0.414136214699505, -1.123, 1.281, -1.3], a = 0.2, v = 0.2, t = 0.2)
movej(p[0.48655143987391, -0.106882196817134, 0.415907182537577, -1.123, 1.281, -1.3], a = 0.2, v = 0.2, t = 0.2)
movej(p[0.486500778443719, -0.106899730583012, 0.417771355842204, -1.123, 1.281, -1.3], a = 0.2, v = 0.2, t = 0.2)
movej(p[0.486456562970859, -0.106915033422794, 0.41939833920702, -1.123, 1.281, -1.3], a = 0.2, v = 0.2, t = 0.2)
movej(p[0.486421245596508, -0.106927256657925, 0.42069790193563, -1.123, 1.281, -1.3], a = 0.2, v = 0.2, t = 0.2)
movej(p[0.486392545645734, -0.106937189623017, 0.421753965332889, -1.123, 1.281, -1.3], a = 0.2, v = 0.2, t = 0.2)
movej(p[0.486367121808602, -0.106945988735208, 0.422689478568568, -1.123, 1.281, -1.3], a = 0.2, v = 0.2, t = 0.2)
movej(p[0.486349244442199, -0.106952176036985, 0.423347306606179, -1.123, 1.281, -1.3], a = 0.2, v = 0.2, t = 0.2)
movej(p[0.48633980727902, -0.106955442210267, 0.423694563041776, -1.123, 1.281, -1.3], a = 0.2, v = 0.2, t = 0.2)
movej(p[0.486360322378712, -0.106948341997075, 0.422939675131118, -1.123, 1.281, -1.3], a = 0.2, v = 0.2, t = 0.2)
movej(p[0.486404077239774, -0.106933198573626, 0.421329640759168, -1.123, 1.281, -1.3], a = 0.2, v = 0.2, t = 0.2)
movej(p[0.486465576358144, -0.106911913917051, 0.419066676324663, -1.123, 1.281, -1.3], a = 0.2, v = 0.2, t = 0.2)
movej(p[0.486532883379472, -0.106888619163044, 0.416590000243841, -1.123, 1.281, -1.3], a = 0.2, v = 0.2, t = 0.2)
movej(p[0.486596794760623, -0.106866499629706, 0.414238272506282, -1.123, 1.281, -1.3], a = 0.2, v = 0.2, t = 0.2)
movej(p[0.486660162839347, -0.106844568131674, 0.411906536503645, -1.123, 1.281, -1.3], a = 0.2, v = 0.2, t = 0.2)
movej(p[0.486696493472726, -0.106831994210696, 0.410569689189406, -1.123, 1.281, -1.3], a = 0.2, v = 0.2, t = 0.2)
movej(p[0.486693404798421, -0.106833063191416, 0.410683342202438, -1.123, 1.281, -1.3], a = 0.2, v = 0.2, t = 0.2)
movej(p[0.486647389799258, -0.106848988841742, 0.412376542191663, -1.123, 1.281, -1.3], a = 0.2, v = 0.2, t = 0.2)
movej(p[0.486579585656207, -0.106872455648055, 0.414871510709939, -1.123, 1.281, -1.3], a = 0.2, v = 0.2, t = 0.2)
movej(p[0.486513466022336, -0.106895339450898, 0.417304494854089, -1.123, 1.281, -1.3], a = 0.2, v = 0.2, t = 0.2)
movej(p[0.486458304255141, -0.106914430769635, 0.419334265696595, -1.123, 1.281, -1.3], a = 0.2, v = 0.2, t = 0.2)
movej(p[0.486415136160702, -0.106929371114953, 0.420922708994829, -1.123, 1.281, -1.3], a = 0.2, v = 0.2, t = 0.2)
movej(p[0.486385420234387, -0.106939655706069, 0.422016156936392, -1.123, 1.281, -1.3], a = 0.2, v = 0.2, t = 0.2)
movej(p[0.486357513505158, -0.106949314139612, 0.423043032400665, -1.123, 1.281, -1.3], a = 0.2, v = 0.2, t = 0.2)
movej(p[0.486335289719329, -0.106957005723845, 0.423860794317653, -1.123, 1.281, -1.3], a = 0.2, v = 0.2, t = 0.2)
movej(p[0.4863261323569, -0.106960175058944, 0.424197755009764, -1.123, 1.281, -1.3], a = 0.2, v = 0.2, t = 0.2)
movej(p[0.486341752301713, -0.106954769043868, 0.423622992630754, -1.123, 1.281, -1.3], a = 0.2, v = 0.2, t = 0.2)
movej(p[0.486390717433062, -0.106937822361825, 0.421821237520902, -1.123, 1.281, -1.3], a = 0.2, v = 0.2, t = 0.2)
movej(p[0.486457459419865, -0.106914723164538, 0.419365352844399, -1.123, 1.281, -1.3], a = 0.2, v = 0.2, t = 0.2)
movej(p[0.486530126119648, -0.106889573442227, 0.416691458298571, -1.123, 1.281, -1.3], a = 0.2, v = 0.2, t = 0.2)
movej(p[0.486595441937577, -0.10686696783762, 0.414288051926238, -1.123, 1.281, -1.3], a = 0.2, v = 0.2, t = 0.2)
movej(p[0.4866482047529, -0.106848706788781, 0.41234655458928, -1.123, 1.281, -1.3], a = 0.2, v = 0.2, t = 0.2)
movej(p[0.486679911882615, -0.106837733048265, 0.411179836939228, -1.123, 1.281, -1.3], a = 0.2, v = 0.2, t = 0.2)
movej(p[0.486668157534579, -0.106841801192132, 0.411612358124267, -1.123, 1.281, -1.3], a = 0.2, v = 0.2, t = 0.2)
movej(p[0.486621699743936, -0.106857880091233, 0.413321851377454, -1.123, 1.281, -1.3], a = 0.2, v = 0.2, t = 0.2)
movej(p[0.486556799552365, -0.10688034184883, 0.415709964072571, -1.123, 1.281, -1.3], a = 0.2, v = 0.2, t = 0.2)
movej(p[0.486494656620618, -0.106901849327244, 0.417996618712959, -1.123, 1.281, -1.3], a = 0.2, v = 0.2, t = 0.2)
movej(p[0.486445012361233, -0.106919031053421, 0.419823363491464, -1.123, 1.281, -1.3], a = 0.2, v = 0.2, t = 0.2)
movej(p[0.486407228393858, -0.106932107968846, 0.42121368869662, -1.123, 1.281, -1.3], a = 0.2, v = 0.2, t = 0.2)
movej(p[0.486377479869397, -0.10694240384208, 0.422308336142278, -1.123, 1.281, -1.3], a = 0.2, v = 0.2, t = 0.2)
movej(p[0.48635084446785, -0.106951622273006, 0.423288430946833, -1.123, 1.281, -1.3], a = 0.2, v = 0.2, t = 0.2)
movej(p[0.48632552385818, -0.106960385658488, 0.424220145752877, -1.123, 1.281, -1.3], a = 0.2, v = 0.2, t = 0.2)
movej(p[0.486309205769747, -0.106966033298934, 0.424820597511262, -1.123, 1.281, -1.3], a = 0.2, v = 0.2, t = 0.2)
movej(p[0.486322704118577, -0.106961361561732, 0.424323902857123, -1.123, 1.281, -1.3], a = 0.2, v = 0.2, t = 0.2)
movej(p[0.486368925572664, -0.106945364457989, 0.422623106008627, -1.123, 1.281, -1.3], a = 0.2, v = 0.2, t = 0.2)
movej(p[0.486441029954434, -0.106920409352221, 0.419969902908443, -1.123, 1.281, -1.3], a = 0.2, v = 0.2, t = 0.2)
movej(p[0.486521575354381, -0.106892532835906, 0.417006098218642, -1.123, 1.281, -1.3], a = 0.2, v = 0.2, t = 0.2)
movej(p[0.486599905167025, -0.106865423127573, 0.414123819823853, -1.123, 1.281, -1.3], a = 0.2, v = 0.2, t = 0.2)
movej(p[0.486666095701863, -0.106842514786122, 0.411688226758296, -1.123, 1.281, -1.3], a = 0.2, v = 0.2, t = 0.2)
movej(p[0.486698161411181, -0.106831416942303, 0.410508314563195, -1.123, 1.281, -1.3], a = 0.2, v = 0.2, t = 0.2)
movej(p[0.486690506279966, -0.106834066359779, 0.410789998108247, -1.123, 1.281, -1.3], a = 0.2, v = 0.2, t = 0.2)
movej(p[0.486642130631752, -0.106850809023514, 0.412570062185709, -1.123, 1.281, -1.3], a = 0.2, v = 0.2, t = 0.2)
movej(p[0.48657337299294, -0.10687460583179, 0.415100116198773, -1.123, 1.281, -1.3], a = 0.2, v = 0.2, t = 0.2)
movej(p[0.48650526460053, -0.106898177937875, 0.417606280088605, -1.123, 1.281, -1.3], a = 0.2, v = 0.2, t = 0.2)
movej(p[0.486451238607061, -0.106916876168803, 0.419594258209257, -1.123, 1.281, -1.3], a = 0.2, v = 0.2, t = 0.2)
movej(p[0.486407804294432, -0.10693190865142, 0.421192497457603, -1.123, 1.281, -1.3], a = 0.2, v = 0.2, t = 0.2)
movej(p[0.486376246572885, -0.106942830682227, 0.422353717380552, -1.123, 1.281, -1.3], a = 0.2, v = 0.2, t = 0.2)
movej(p[0.486349896405113, -0.106951950394617, 0.423323316524272, -1.123, 1.281, -1.3], a = 0.2, v = 0.2, t = 0.2)
movej(p[0.486327276008511, -0.106959779244623, 0.424155672407753, -1.123, 1.281, -1.3], a = 0.2, v = 0.2, t = 0.2)
movej(p[0.486306157843124, -0.106967088177006, 0.424932751144175, -1.123, 1.281, -1.3], a = 0.2, v = 0.2, t = 0.2)
movej(p[0.486285080425419, -0.106974383006741, 0.425708330500477, -1.123, 1.281, -1.3], a = 0.2, v = 0.2, t = 0.2)
movej(p[0.486286199628421, -0.106973995654009, 0.425667147526537, -1.123, 1.281, -1.3], a = 0.2, v = 0.2, t = 0.2)
movej(p[0.486312511765023, -0.106964889104091, 0.424698947804261, -1.123, 1.281, -1.3], a = 0.2, v = 0.2, t = 0.2)
movej(p[0.486369881784938, -0.106945033515849, 0.422587920555164, -1.123, 1.281, -1.3], a = 0.2, v = 0.2, t = 0.2)
movej(p[0.486434382649224, -0.106922709964202, 0.420214501785214, -1.123, 1.281, -1.3], a = 0.2, v = 0.2, t = 0.2)
movej(p[0.486497871449746, -0.106900736684726, 0.417878323619078, -1.123, 1.281, -1.3], a = 0.2, v = 0.2, t = 0.2)
movej(p[0.486549858863844, -0.106882743999877, 0.415965358486201, -1.123, 1.281, -1.3], a = 0.2, v = 0.2, t = 0.2)
movej(p[0.486574068420048, -0.106874365146597, 0.415074526778073, -1.123, 1.281, -1.3], a = 0.2, v = 0.2, t = 0.2)
movej(p[0.486558445758723, -0.10687977210185, 0.415649389115757, -1.123, 1.281, -1.3], a = 0.2, v = 0.2, t = 0.2)
movej(p[0.486508598032579, -0.106897024247249, 0.417483620798991, -1.123, 1.281, -1.3], a = 0.2, v = 0.2, t = 0.2)
movej(p[0.48644751970194, -0.106918163270479, 0.419731101634798, -1.123, 1.281, -1.3], a = 0.2, v = 0.2, t = 0.2)
movej(p[0.486395742980524, -0.106936083035236, 0.421636313972873, -1.123, 1.281, -1.3], a = 0.2, v = 0.2, t = 0.2)
movej(p[0.486351716468248, -0.106951320476338, 0.423256344212283, -1.123, 1.281, -1.3], a = 0.2, v = 0.2, t = 0.2)
movej(p[0.486314122656723, -0.106964331579406, 0.424639672310217, -1.123, 1.281, -1.3], a = 0.2, v = 0.2, t = 0.2)
movej(p[0.486281817894337, -0.10697551215876, 0.425828380868684, -1.123, 1.281, -1.3], a = 0.2, v = 0.2, t = 0.2)
movej(p[0.486256135988552, -0.106984400587721, 0.426773390178451, -1.123, 1.281, -1.3], a = 0.2, v = 0.2, t = 0.2)
movej(p[0.486238763893407, -0.106990413016662, 0.427412625902584, -1.123, 1.281, -1.3], a = 0.2, v = 0.2, t = 0.2)
movej(p[0.486226664548329, -0.106994600562949, 0.427857841839299, -1.123, 1.281, -1.3], a = 0.2, v = 0.2, t = 0.2)
movej(p[0.486223676384974, -0.106995634757138, 0.42796779638137, -1.123, 1.281, -1.3], a = 0.2, v = 0.2, t = 0.2)
movej(p[0.486241385327624, -0.106989505746306, 0.427316165781585, -1.123, 1.281, -1.3], a = 0.2, v = 0.2, t = 0.2)
movej(p[0.486286248525639, -0.106973978730831, 0.425665348270394, -1.123, 1.281, -1.3], a = 0.2, v = 0.2, t = 0.2)
movej(p[0.486352072331338, -0.106951197313212, 0.42324324962591, -1.123, 1.281, -1.3], a = 0.2, v = 0.2, t = 0.2)
movej(p[0.486426059256022, -0.106925590665105, 0.420520775164221, -1.123, 1.281, -1.3], a = 0.2, v = 0.2, t = 0.2)
movej(p[0.486492538012799, -0.106902582570924, 0.418074576483287, -1.123, 1.281, -1.3], a = 0.2, v = 0.2, t = 0.2)
movej(p[0.486540954137044, -0.106885825898559, 0.416293023021574, -1.123, 1.281, -1.3], a = 0.2, v = 0.2, t = 0.2)
movej(p[0.486552988285831, -0.106881660916509, 0.415850206093049, -1.123, 1.281, -1.3], a = 0.2, v = 0.2, t = 0.2)
movej(p[0.486527939327375, -0.106890330284338, 0.416771925031632, -1.123, 1.281, -1.3], a = 0.2, v = 0.2, t = 0.2)
movej(p[0.486473924743257, -0.106909024566524, 0.41875948332585, -1.123, 1.281, -1.3], a = 0.2, v = 0.2, t = 0.2)
movej(p[0.486409273927501, -0.106931400015915, 0.421138419814638, -1.123, 1.281, -1.3], a = 0.2, v = 0.2, t = 0.2)
movej(p[0.486352672680522, -0.106950989534198, 0.423221158758821, -1.123, 1.281, -1.3], a = 0.2, v = 0.2, t = 0.2)
movej(p[0.486311001384272, -0.106965411842244, 0.424754524827344, -1.123, 1.281, -1.3], a = 0.2, v = 0.2, t = 0.2)
movej(p[0.486280092909127, -0.106976109170859, 0.425891854627061, -1.123, 1.281, -1.3], a = 0.2, v = 0.2, t = 0.2)
movej(p[0.486260631816146, -0.106982844595556, 0.42660795857197, -1.123, 1.281, -1.3], a = 0.2, v = 0.2, t = 0.2)
movej(p[0.486246514102547, -0.106987730693008, 0.427127443803921, -1.123, 1.281, -1.3], a = 0.2, v = 0.2, t = 0.2)
movej(p[0.486242607758087, -0.106989082666865, 0.42727118437801, -1.123, 1.281, -1.3], a = 0.2, v = 0.2, t = 0.2)
movej(p[0.486263220652217, -0.106981948607318, 0.426512697955067, -1.123, 1.281, -1.3], a = 0.2, v = 0.2, t = 0.2)
movej(p[0.486309211202771, -0.106966031418581, 0.424820397593912, -1.123, 1.281, -1.3], a = 0.2, v = 0.2, t = 0.2)
movej(p[0.486381823572311, -0.106940900499801, 0.422148502221576, -1.123, 1.281, -1.3], a = 0.2, v = 0.2, t = 0.2)
movej(p[0.486462441503133, -0.106912998880773, 0.419182028635163, -1.123, 1.281, -1.3], a = 0.2, v = 0.2, t = 0.2)
movej(p[0.486541013900311, -0.106885805214675, 0.416290823930732, -1.123, 1.281, -1.3], a = 0.2, v = 0.2, t = 0.2)
movej(p[0.486608896822214, -0.106862311143243, 0.413792956610893, -1.123, 1.281, -1.3], a = 0.2, v = 0.2, t = 0.2)
movej(p[0.486642472912282, -0.10685069056127, 0.412557467392708, -1.123, 1.281, -1.3], a = 0.2, v = 0.2, t = 0.2)
movej(p[0.486629091373473, -0.106855321870882, 0.413049863823839, -1.123, 1.281, -1.3], a = 0.2, v = 0.2, t = 0.2)
movej(p[0.486573120357311, -0.106874693268208, 0.415109412355512, -1.123, 1.281, -1.3], a = 0.2, v = 0.2, t = 0.2)
movej(p[0.48650302945434, -0.106898951515128, 0.417688526086074, -1.123, 1.281, -1.3], a = 0.2, v = 0.2, t = 0.2)
movej(p[0.486436827510151, -0.106921863805321, 0.420124538978065, -1.123, 1.281, -1.3], a = 0.2, v = 0.2, t = 0.2)
movej(p[0.486382203884011, -0.106940768875086, 0.422134508007131, -1.123, 1.281, -1.3], a = 0.2, v = 0.2, t = 0.2)
movej(p[0.486338283315709, -0.106955969649304, 0.423750639858232, -1.123, 1.281, -1.3], a = 0.2, v = 0.2, t = 0.2)
movej(p[0.486307339525905, -0.106966679200213, 0.424889269120719, -1.123, 1.281, -1.3], a = 0.2, v = 0.2, t = 0.2)
movej(p[0.486282524187494, -0.10697526771286, 0.425802391613285, -1.123, 1.281, -1.3], a = 0.2, v = 0.2, t = 0.2)
movej(p[0.486264505562459, -0.106981503903817, 0.426465417501976, -1.123, 1.281, -1.3], a = 0.2, v = 0.2, t = 0.2)
movej(p[0.486270264568199, -0.106979510729563, 0.426253505111802, -1.123, 1.281, -1.3], a = 0.2, v = 0.2, t = 0.2)
movej(p[0.486305780247936, -0.106967218861545, 0.424946645399945, -1.123, 1.281, -1.3], a = 0.2, v = 0.2, t = 0.2)
movej(p[0.486372932428072, -0.1069439776976, 0.422475666963576, -1.123, 1.281, -1.3], a = 0.2, v = 0.2, t = 0.2)
movej(p[0.486451102781454, -0.10691692317763, 0.419599256142987, -1.123, 1.281, -1.3], a = 0.2, v = 0.2, t = 0.2)
movej(p[0.486534027031084, -0.106888223348723, 0.41654791764183, -1.123, 1.281, -1.3], a = 0.2, v = 0.2, t = 0.2)
movej(p[0.486609795987732, -0.106861999944809, 0.413759870289597, -1.123, 1.281, -1.3], a = 0.2, v = 0.2, t = 0.2)
movej(p[0.48665780762332, -0.10684538326473, 0.411993200674532, -1.123, 1.281, -1.3], a = 0.2, v = 0.2, t = 0.2)
movej(p[0.486672536552151, -0.106840285627558, 0.411451224740795, -1.123, 1.281, -1.3], a = 0.2, v = 0.2, t = 0.2)
movej(p[0.486639799864334, -0.106851615694981, 0.412655826728525, -1.123, 1.281, -1.3], a = 0.2, v = 0.2, t = 0.2)
movej(p[0.486577273904375, -0.106873255738286, 0.414956575542032, -1.123, 1.281, -1.3], a = 0.2, v = 0.2, t = 0.2)
movej(p[0.486503837888353, -0.106898671718591, 0.41765877838451, -1.123, 1.281, -1.3], a = 0.2, v = 0.2, t = 0.2)
movej(p[0.486439747760703, -0.106920853115546, 0.420017083402859, -1.123, 1.281, -1.3], a = 0.2, v = 0.2, t = 0.2)
movej(p[0.486392102854254, -0.106937342871793, 0.421770258596851, -1.123, 1.281, -1.3], a = 0.2, v = 0.2, t = 0.2)
movej(p[0.486355549466879, -0.106949993887247, 0.423115302522408, -1.123, 1.281, -1.3], a = 0.2, v = 0.2, t = 0.2)
movej(p[0.486327601989968, -0.106959666423439, 0.4241436773668, -1.123, 1.281, -1.3], a = 0.2, v = 0.2, t = 0.2)
movej(p[0.486304720808201, -0.106967585530393, 0.424985629283043, -1.123, 1.281, -1.3], a = 0.2, v = 0.2, t = 0.2)
movej(p[0.486286560924536, -0.106973870610529, 0.425653853022814, -1.123, 1.281, -1.3], a = 0.2, v = 0.2, t = 0.2)
movej(p[0.486292855083167, -0.106971692221498, 0.425422248773742, -1.123, 1.281, -1.3], a = 0.2, v = 0.2, t = 0.2)
movej(p[0.48632954429615, -0.106958994197217, 0.424072206914454, -1.123, 1.281, -1.3], a = 0.2, v = 0.2, t = 0.2)
movej(p[0.486402292491297, -0.10693381626961, 0.421395313608387, -1.123, 1.281, -1.3], a = 0.2, v = 0.2, t = 0.2)
movej(p[0.486483465948851, -0.10690572238448, 0.418408398473016, -1.123, 1.281, -1.3], a = 0.2, v = 0.2, t = 0.2)
movej(p[0.48656892062954, -0.106876146781131, 0.415263948466459, -1.123, 1.281, -1.3], a = 0.2, v = 0.2, t = 0.2)
movej(p[0.486644681436653, -0.106849926197747, 0.41247620099025, -1.123, 1.281, -1.3], a = 0.2, v = 0.2, t = 0.2)
movej(p[0.486694007864117, -0.106832854472225, 0.410661151376674, -1.123, 1.281, -1.3], a = 0.2, v = 0.2, t = 0.2)
movej(p[0.486691275052902, -0.106833800289819, 0.410761709803332, -1.123, 1.281, -1.3], a = 0.2, v = 0.2, t = 0.2)
movej(p[0.486642385983893, -0.106850720646919, 0.412560666070296, -1.123, 1.281, -1.3], a = 0.2, v = 0.2, t = 0.2)
movej(p[0.486571645291218, -0.106875203784067, 0.415163689915825, -1.123, 1.281, -1.3], a = 0.2, v = 0.2, t = 0.2)
movej(p[0.486501119963626, -0.106899612384018, 0.417758789037632, -1.123, 1.281, -1.3], a = 0.2, v = 0.2, t = 0.2)
movej(p[0.486441499911034, -0.106920246701681, 0.419952610057735, -1.123, 1.281, -1.3], a = 0.2, v = 0.2, t = 0.2)
movej(p[0.48639436842538, -0.106936558764562, 0.421686893062226, -1.123, 1.281, -1.3], a = 0.2, v = 0.2, t = 0.2)
movej(p[0.486357317916284, -0.106949381832323, 0.423050229425237, -1.123, 1.281, -1.3], a = 0.2, v = 0.2, t = 0.2)
movej(p[0.486329286227496, -0.106959083513987, 0.424081702988542, -1.123, 1.281, -1.3], a = 0.2, v = 0.2, t = 0.2)
movej(p[0.486303734714294, -0.106967926814475, 0.425021914281927, -1.123, 1.281, -1.3], a = 0.2, v = 0.2, t = 0.2)
movej(p[0.486291836391114, -0.106972044787699, 0.425459733276721, -1.123, 1.281, -1.3], a = 0.2, v = 0.2, t = 0.2)
movej(p[0.486307926292528, -0.106966476122082, 0.424867678047003, -1.123, 1.281, -1.3], a = 0.2, v = 0.2, t = 0.2)
movej(p[0.486366157446792, -0.106946322497878, 0.422724963898055, -1.123, 1.281, -1.3], a = 0.2, v = 0.2, t = 0.2)
movej(p[0.486452979891344, -0.106916273515644, 0.419530184698831, -1.123, 1.281, -1.3], a = 0.2, v = 0.2, t = 0.2)
movej(p[0.486536322483843, -0.106887428899551, 0.416463452561784, -1.123, 1.281, -1.3], a = 0.2, v = 0.2, t = 0.2)
movej(p[0.486607745021066, -0.106862709778093, 0.413835339088928, -1.123, 1.281, -1.3], a = 0.2, v = 0.2, t = 0.2)
movej(p[0.486656107086719, -0.106845971815241, 0.412055774804839, -1.123, 1.281, -1.3], a = 0.2, v = 0.2, t = 0.2)
movej(p[0.486669792874888, -0.106841235205858, 0.411552183002151, -1.123, 1.281, -1.3], a = 0.2, v = 0.2, t = 0.2)
movej(p[0.48663945215078, -0.106851736037577, 0.412668621438875, -1.123, 1.281, -1.3], a = 0.2, v = 0.2, t = 0.2)
movej(p[0.486576151984861, -0.106873644031195, 0.414997858474647, -1.123, 1.281, -1.3], a = 0.2, v = 0.2, t = 0.2)
movej(p[0.486509042453965, -0.106896870434368, 0.417467267559824, -1.123, 1.281, -1.3], a = 0.2, v = 0.2, t = 0.2)
movej(p[0.486448584574699, -0.106917794721277, 0.419691917834351, -1.123, 1.281, -1.3], a = 0.2, v = 0.2, t = 0.2)
movej(p[0.48640261303973, -0.106933705328779, 0.421383518484783, -1.123, 1.281, -1.3], a = 0.2, v = 0.2, t = 0.2)
movej(p[0.486370169735225, -0.106944933857136, 0.422577324935655, -1.123, 1.281, -1.3], a = 0.2, v = 0.2, t = 0.2)
movej(p[0.486343577797872, -0.106954137245237, 0.423555820401416, -1.123, 1.281, -1.3], a = 0.2, v = 0.2, t = 0.2)
movej(p[0.486319610011248, -0.106962432422805, 0.424437755787504, -1.123, 1.281, -1.3], a = 0.2, v = 0.2, t = 0.2)
movej(p[0.486304476322108, -0.106967670146281, 0.424994625563758, -1.123, 1.281, -1.3], a = 0.2, v = 0.2, t = 0.2)
movej(p[0.486309855016148, -0.106965808596742, 0.42479670738803, -1.123, 1.281, -1.3], a = 0.2, v = 0.2, t = 0.2)
movej(p[0.486348820666305, -0.106952322704524, 0.423362900159418, -1.123, 1.281, -1.3], a = 0.2, v = 0.2, t = 0.2)
movej(p[0.486417222442026, -0.106928649059374, 0.420845940732728, -1.123, 1.281, -1.3], a = 0.2, v = 0.2, t = 0.2)
movej(p[0.486495682103951, -0.106901494410602, 0.417958884313293, -1.123, 1.281, -1.3], a = 0.2, v = 0.2, t = 0.2)
movej(p[0.486575969978547, -0.106873707023023, 0.415004555705845, -1.123, 1.281, -1.3], a = 0.2, v = 0.2, t = 0.2)
movej(p[0.486646300477889, -0.106849365852532, 0.412416625620182, -1.123, 1.281, -1.3], a = 0.2, v = 0.2, t = 0.2)
movej(p[0.486700125449459, -0.106830737194668, 0.410436044441452, -1.123, 1.281, -1.3], a = 0.2, v = 0.2, t = 0.2)
movej(p[0.486707699085309, -0.106828115982489, 0.410157359656638, -1.123, 1.281, -1.3], a = 0.2, v = 0.2, t = 0.2)
movej(p[0.486669227840363, -0.106841430762577, 0.41157297440647, -1.123, 1.281, -1.3], a = 0.2, v = 0.2, t = 0.2)
movej(p[0.486598310574398, -0.106865975011199, 0.41418249556585, -1.123, 1.281, -1.3], a = 0.2, v = 0.2, t = 0.2)
movej(p[0.486521315112518, -0.106892622904818, 0.417015674259669, -1.123, 1.281, -1.3], a = 0.2, v = 0.2, t = 0.2)
movej(p[0.486459434324192, -0.106914039656197, 0.419292682887957, -1.123, 1.281, -1.3], a = 0.2, v = 0.2, t = 0.2)
movej(p[0.486411881779156, -0.106930497446441, 0.421042459487012, -1.123, 1.281, -1.3], a = 0.2, v = 0.2, t = 0.2)
movej(p[0.486372837350147, -0.106944010603779, 0.422479165517188, -1.123, 1.281, -1.3], a = 0.2, v = 0.2, t = 0.2)
movej(p[0.486339187914252, -0.106955656570517, 0.423717353619587, -1.123, 1.281, -1.3], a = 0.2, v = 0.2, t = 0.2)
movej(p[0.486308415264713, -0.106966306890306, 0.424849685485573, -1.123, 1.281, -1.3], a = 0.2, v = 0.2, t = 0.2)
movej(p[0.486292395992615, -0.106971851111332, 0.425439141789751, -1.123, 1.281, -1.3], a = 0.2, v = 0.2, t = 0.2)
movej(p[0.486304283449746, -0.106967736898815, 0.425001722629656, -1.123, 1.281, -1.3], a = 0.2, v = 0.2, t = 0.2)
movej(p[0.486357730826129, -0.10694923892549, 0.423035035706696, -1.123, 1.281, -1.3], a = 0.2, v = 0.2, t = 0.2)
movej(p[0.486437520220747, -0.106921624060304, 0.420099049516039, -1.123, 1.281, -1.3], a = 0.2, v = 0.2, t = 0.2)
movej(p[0.486529365496249, -0.106889836691657, 0.416719446727462, -1.123, 1.281, -1.3], a = 0.2, v = 0.2, t = 0.2)
movej(p[0.486617535330823, -0.106859321381861, 0.413475088025632, -1.123, 1.281, -1.3], a = 0.2, v = 0.2, t = 0.2)
movej(p[0.486694355577671, -0.106832734129629, 0.410648356666324, -1.123, 1.281, -1.3], a = 0.2, v = 0.2, t = 0.2)
movej(p[0.486727866471447, -0.106821136111893, 0.40941526645633, -1.123, 1.281, -1.3], a = 0.2, v = 0.2, t = 0.2)
movej(p[0.486706085477097, -0.106828674447351, 0.410216735109356, -1.123, 1.281, -1.3], a = 0.2, v = 0.2, t = 0.2)
movej(p[0.486644374470781, -0.106850032437696, 0.412487496320481, -1.123, 1.281, -1.3], a = 0.2, v = 0.2, t = 0.2)
movej(p[0.486568472405037, -0.106876301910259, 0.41528044164777, -1.123, 1.281, -1.3], a = 0.2, v = 0.2, t = 0.2)
movej(p[0.486502004541474, -0.106899306234333, 0.417726239494418, -1.123, 1.281, -1.3], a = 0.2, v = 0.2, t = 0.2)
movej(p[0.486445118305207, -0.106918994386536, 0.419819465103154, -1.123, 1.281, -1.3], a = 0.2, v = 0.2, t = 0.2)
movej(p[0.486401195020392, -0.10693419610093, 0.42143569691293, -1.123, 1.281, -1.3], a = 0.2, v = 0.2, t = 0.2)
movej(p[0.486363845694959, -0.106947122588109, 0.422810028730148, -1.123, 1.281, -1.3], a = 0.2, v = 0.2, t = 0.2)
movej(p[0.486327197229659, -0.106959806509743, 0.424158571209317, -1.123, 1.281, -1.3], a = 0.2, v = 0.2, t = 0.2)
movej(p[0.486298358736766, -0.106969787423838, 0.425219732498981, -1.123, 1.281, -1.3], a = 0.2, v = 0.2, t = 0.2)
movej(p[0.486290459119459, -0.106972521457202, 0.425510412324748, -1.123, 1.281, -1.3], a = 0.2, v = 0.2, t = 0.2)
movej(p[0.486321584915575, -0.106961748914464, 0.424365085831062, -1.123, 1.281, -1.3], a = 0.2, v = 0.2, t = 0.2)
movej(p[0.48638956019889, -0.106938222877029, 0.421863819916286, -1.123, 1.281, -1.3], a = 0.2, v = 0.2, t = 0.2)
movej(p[0.48647081107704, -0.106910102196868, 0.418874055958689, -1.123, 1.281, -1.3], a = 0.2, v = 0.2, t = 0.2)
movej(p[0.486562346670158, -0.106878422008346, 0.415505848459017, -1.123, 1.281, -1.3], a = 0.2, v = 0.2, t = 0.2)
movej(p[0.486640527889588, -0.106851363727669, 0.412629037803729, -1.123, 1.281, -1.3], a = 0.2, v = 0.2, t = 0.2)
movej(p[0.486685336757361, -0.106835855515725, 0.410980219466031, -1.123, 1.281, -1.3], a = 0.2, v = 0.2, t = 0.2)
movej(p[0.486686703162968, -0.106835382606928, 0.410929940252702, -1.123, 1.281, -1.3], a = 0.2, v = 0.2, t = 0.2)
movej(p[0.48664274999652, -0.106850594663264, 0.412547271607898, -1.123, 1.281, -1.3], a = 0.2, v = 0.2, t = 0.2)
movej(p[0.486579447114088, -0.106872503597058, 0.414876608602344, -1.123, 1.281, -1.3], a = 0.2, v = 0.2, t = 0.2)
movej(p[0.486511189585162, -0.106896127318835, 0.417388260223412, -1.123, 1.281, -1.3], a = 0.2, v = 0.2, t = 0.2)
movej(p[0.486450708887194, -0.106917059503227, 0.419613750150806, -1.123, 1.281, -1.3], a = 0.2, v = 0.2, t = 0.2)
movej(p[0.486405576754476, -0.106932679596179, 0.421274463570783, -1.123, 1.281, -1.3], a = 0.2, v = 0.2, t = 0.2)
movej(p[0.486366698032708, -0.106946135402748, 0.422705072121807, -1.123, 1.281, -1.3], a = 0.2, v = 0.2, t = 0.2)
movej(p[0.486334472049174, -0.106957288716982, 0.42389088187871, -1.123, 1.281, -1.3], a = 0.2, v = 0.2, t = 0.2)
movej(p[0.48630628008617, -0.106967045869062, 0.424928253003817, -1.123, 1.281, -1.3], a = 0.2, v = 0.2, t = 0.2)
movej(p[0.486286158880739, -0.106974009756657, 0.425668646906656, -1.123, 1.281, -1.3], a = 0.2, v = 0.2, t = 0.2)
movej(p[0.486299814787274, -0.106969283489215, 0.42516615464939, -1.123, 1.281, -1.3], a = 0.2, v = 0.2, t = 0.2)
movej(p[0.4863489537754, -0.106952276635874, 0.423358002184362, -1.123, 1.281, -1.3], a = 0.2, v = 0.2, t = 0.2)
movej(p[0.486432527271431, -0.106923352104776, 0.420282773559973, -1.123, 1.281, -1.3], a = 0.2, v = 0.2, t = 0.2)
movej(p[0.486523743402721, -0.106891782481014, 0.416926321200435, -1.123, 1.281, -1.3], a = 0.2, v = 0.2, t = 0.2)
movej(p[0.486610613657887, -0.106861716951672, 0.413729782728539, -1.123, 1.281, -1.3], a = 0.2, v = 0.2, t = 0.2)
movej(p[0.486681761827383, -0.106837092788045, 0.411111765081818, -1.123, 1.281, -1.3], a = 0.2, v = 0.2, t = 0.2)
movej(p[0.486704898361292, -0.106829085304497, 0.410260417050161, -1.123, 1.281, -1.3], a = 0.2, v = 0.2, t = 0.2)
movej(p[0.48668165588341, -0.10683712945493, 0.411115663470128, -1.123, 1.281, -1.3], a = 0.2, v = 0.2, t = 0.2)
movej(p[0.48661151825643, -0.106861403872886, 0.413696496489894, -1.123, 1.281, -1.3], a = 0.2, v = 0.2, t = 0.2)
movej(p[0.486535371704594, -0.106887757961338, 0.416498438097898, -1.123, 1.281, -1.3], a = 0.2, v = 0.2, t = 0.2)
movej(p[0.486467290477305, -0.106911320665658, 0.419003602400984, -1.123, 1.281, -1.3], a = 0.2, v = 0.2, t = 0.2)
movej(p[0.486421647640305, -0.106927117511798, 0.420683108051788, -1.123, 1.281, -1.3], a = 0.2, v = 0.2, t = 0.2)
movej(p[0.486384415124894, -0.106940003571387, 0.422053141645998, -1.123, 1.281, -1.3], a = 0.2, v = 0.2, t = 0.2)
movej(p[0.486354074400787, -0.106950504403106, 0.423169580082722, -1.123, 1.281, -1.3], a = 0.2, v = 0.2, t = 0.2)
movej(p[0.486325352717915, -0.10696044488961, 0.424226443149377, -1.123, 1.281, -1.3], a = 0.2, v = 0.2, t = 0.2)
movej(p[0.486305226079459, -0.106967410657558, 0.424967036969566, -1.123, 1.281, -1.3], a = 0.2, v = 0.2, t = 0.2)
movej(p[0.48631345982776, -0.10696456098248, 0.424664062226822, -1.123, 1.281, -1.3], a = 0.2, v = 0.2, t = 0.2)
movej(p[0.486356728433149, -0.106949585850631, 0.423071920457627, -1.123, 1.281, -1.3], a = 0.2, v = 0.2, t = 0.2)
movej(p[0.48642858017929, -0.106924718181281, 0.420428013514182, -1.123, 1.281, -1.3], a = 0.2, v = 0.2, t = 0.2)
movej(p[0.48650494024898, -0.106898290194954, 0.417618215154354, -1.123, 1.281, -1.3], a = 0.2, v = 0.2, t = 0.2)
movej(p[0.486567331469937, -0.106876696784404, 0.415322424291107, -1.123, 1.281, -1.3], a = 0.2, v = 0.2, t = 0.2)
movej(p[0.486604229854355, -0.10686392636653, 0.413964685613873, -1.123, 1.281, -1.3], a = 0.2, v = 0.2, t = 0.2)
movej(p[0.486605033941948, -0.106863648074275, 0.413935097846189, -1.123, 1.281, -1.3], a = 0.2, v = 0.2, t = 0.2)
movej(p[0.486573560432278, -0.106874540959609, 0.415093219050225, -1.123, 1.281, -1.3], a = 0.2, v = 0.2, t = 0.2)
movej(p[0.486522318320452, -0.106892275697624, 0.416978759521136, -1.123, 1.281, -1.3], a = 0.2, v = 0.2, t = 0.2)
movej(p[0.486466771623486, -0.106911500239376, 0.419022694507834, -1.123, 1.281, -1.3], a = 0.2, v = 0.2, t = 0.2)
movej(p[0.486419724349709, -0.106927783156785, 0.420753878793412, -1.123, 1.281, -1.3], a = 0.2, v = 0.2, t = 0.2)
movej(p[0.486380182798978, -0.106941468366428, 0.422208877261041, -1.123, 1.281, -1.3], a = 0.2, v = 0.2, t = 0.2)
movej(p[0.48634906786891, -0.10695223714846, 0.423353803920029, -1.123, 1.281, -1.3], a = 0.2, v = 0.2, t = 0.2)
movej(p[0.486324499733103, -0.106960740105042, 0.424257830173205, -1.123, 1.281, -1.3], a = 0.2, v = 0.2, t = 0.2)
movej(p[0.486303357119106, -0.106968057499014, 0.425035808537698, -1.123, 1.281, -1.3], a = 0.2, v = 0.2, t = 0.2)
movej(p[0.486309537184228, -0.106965918597397, 0.424808402552959, -1.123, 1.281, -1.3], a = 0.2, v = 0.2, t = 0.2)
movej(p[0.486350051246305, -0.106951896804554, 0.42331761887982, -1.123, 1.281, -1.3], a = 0.2, v = 0.2, t = 0.2)
movej(p[0.486432445776067, -0.106923380310072, 0.420285772320212, -1.123, 1.281, -1.3], a = 0.2, v = 0.2, t = 0.2)
movej(p[0.486531633783887, -0.10688905164425, 0.416635981234162, -1.123, 1.281, -1.3], a = 0.2, v = 0.2, t = 0.2)
movej(p[0.486623166660492, -0.106857372395904, 0.413267873693164, -1.123, 1.281, -1.3], a = 0.2, v = 0.2, t = 0.2)
movej(p[0.486692046542351, -0.106833533279683, 0.410733321539743, -1.123, 1.281, -1.3], a = 0.2, v = 0.2, t = 0.2)
movej(p[0.48671576712637, -0.10682532365818, 0.409860482393045, -1.123, 1.281, -1.3], a = 0.2, v = 0.2, t = 0.2)
movej(p[0.486683372719083, -0.10683653526336, 0.411052489587774, -1.123, 1.281, -1.3], a = 0.2, v = 0.2, t = 0.2)
movej(p[0.486618950633649, -0.106858831549887, 0.41342300955616, -1.123, 1.281, -1.3], a = 0.2, v = 0.2, t = 0.2)
movej(p[0.486547715535764, -0.106883485799163, 0.416044225880468, -1.123, 1.281, -1.3], a = 0.2, v = 0.2, t = 0.2)
movej(p[0.486491629611139, -0.106902896965957, 0.418108002664077, -1.123, 1.281, -1.3], a = 0.2, v = 0.2, t = 0.2)
movej(p[0.486444004535229, -0.106919379858915, 0.419860448159744, -1.123, 1.281, -1.3], a = 0.2, v = 0.2, t = 0.2)
movej(p[0.486407635870679, -0.106931966942366, 0.421198694895428, -1.123, 1.281, -1.3], a = 0.2, v = 0.2, t = 0.2)
movej(p[0.486376135195887, -0.106942869229465, 0.422357815686211, -1.123, 1.281, -1.3], a = 0.2, v = 0.2, t = 0.2)
movej(p[0.48634656867774, -0.106953102110872, 0.42344576590067, -1.123, 1.281, -1.3], a = 0.2, v = 0.2, t = 0.2)
movej(p[0.486324573078931, -0.106960714720276, 0.424255131288991, -1.123, 1.281, -1.3], a = 0.2, v = 0.2, t = 0.2)
movej(p[0.486314793635222, -0.106964099355801, 0.424614982517588, -1.123, 1.281, -1.3], a = 0.2, v = 0.2, t = 0.2)
movej(p[0.486331356209748, -0.106958367099468, 0.424005534478488, -1.123, 1.281, -1.3], a = 0.2, v = 0.2, t = 0.2)
movej(p[0.48637473075911, -0.106943355300734, 0.422409494320984, -1.123, 1.281, -1.3], a = 0.2, v = 0.2, t = 0.2)
movej(p[0.48644026389801, -0.106920674482004, 0.419998091254683, -1.123, 1.281, -1.3], a = 0.2, v = 0.2, t = 0.2)
movej(p[0.486515277935935, -0.10689471235315, 0.417237822418124, -1.123, 1.281, -1.3], a = 0.2, v = 0.2, t = 0.2)
movej(p[0.486586004774398, -0.106870234010903, 0.414635308361835, -1.123, 1.281, -1.3], a = 0.2, v = 0.2, t = 0.2)
movej(p[0.486629808532678, -0.106855073664276, 0.413023474733742, -1.123, 1.281, -1.3], a = 0.2, v = 0.2, t = 0.2)
movej(p[0.486628825155283, -0.106855414008182, 0.413059659773951, -1.123, 1.281, -1.3], a = 0.2, v = 0.2, t = 0.2)
movej(p[0.486588726719563, -0.106869291954015, 0.414535149769875, -1.123, 1.281, -1.3], a = 0.2, v = 0.2, t = 0.2)
movej(p[0.486527205869096, -0.106890584132002, 0.416798913873777, -1.123, 1.281, -1.3], a = 0.2, v = 0.2, t = 0.2)
movej(p[0.486469341443972, -0.106910610832374, 0.418928133601653, -1.123, 1.281, -1.3], a = 0.2, v = 0.2, t = 0.2)
movej(p[0.48641791243611, -0.106928410254534, 0.420820551229377, -1.123, 1.281, -1.3], a = 0.2, v = 0.2, t = 0.2)
movej(p[0.486379930163349, -0.106941555802846, 0.42221817341778, -1.123, 1.281, -1.3], a = 0.2, v = 0.2, t = 0.2)
movej(p[0.486349480778755, -0.106952094241626, 0.423338610201488, -1.123, 1.281, -1.3], a = 0.2, v = 0.2, t = 0.2)
movej(p[0.486327074986613, -0.106959848817687, 0.424163069349674, -1.123, 1.281, -1.3], a = 0.2, v = 0.2, t = 0.2)
movej(p[0.486304715375177, -0.106967587410746, 0.424985829200393, -1.123, 1.281, -1.3], a = 0.2, v = 0.2, t = 0.2)
movej(p[0.486291054035618, -0.106972315558541, 0.425488521375008, -1.123, 1.281, -1.3], a = 0.2, v = 0.2, t = 0.2)
movej(p[0.486302341143565, -0.106968409125038, 0.425073193082002, -1.123, 1.281, -1.3], a = 0.2, v = 0.2, t = 0.2)
movej(p[0.486351670287541, -0.106951336459339, 0.423258043509752, -1.123, 1.281, -1.3], a = 0.2, v = 0.2, t = 0.2)
movej(p[0.486421120636949, -0.106927299906046, 0.420702500034662, -1.123, 1.281, -1.3], a = 0.2, v = 0.2, t = 0.2)
movej(p[0.486486660567129, -0.106904616736875, 0.418290847071674, -1.123, 1.281, -1.3], a = 0.2, v = 0.2, t = 0.2)
movej(p[0.486545504294881, -0.106884251102863, 0.416125592241601, -1.123, 1.281, -1.3], a = 0.2, v = 0.2, t = 0.2)
movej(p[0.48658653992729, -0.106870048796125, 0.414615616502936, -1.123, 1.281, -1.3], a = 0.2, v = 0.2, t = 0.2)
movej(p[0.486600087173339, -0.106865360135745, 0.414117122592654, -1.123, 1.281, -1.3], a = 0.2, v = 0.2, t = 0.2)
movej(p[0.486572682998856, -0.10687484463663, 0.415125505702124, -1.123, 1.281, -1.3], a = 0.2, v = 0.2, t = 0.2)
movej(p[0.486518593982306, -0.106893564679653, 0.417115802864027, -1.123, 1.281, -1.3], a = 0.2, v = 0.2, t = 0.2)
movej(p[0.48645709812375, -0.106914848208017, 0.419378647348122, -1.123, 1.281, -1.3], a = 0.2, v = 0.2, t = 0.2)
movej(p[0.486405465377478, -0.106932718143417, 0.421278561876442, -1.123, 1.281, -1.3], a = 0.2, v = 0.2, t = 0.2)
movej(p[0.486365752686483, -0.106946462584182, 0.422739857740572, -1.123, 1.281, -1.3], a = 0.2, v = 0.2, t = 0.2)
movej(p[0.48633478444807, -0.106957180596681, 0.42387938663113, -1.123, 1.281, -1.3], a = 0.2, v = 0.2, t = 0.2)
movej(p[0.486308197943742, -0.106966382104428, 0.424857682179542, -1.123, 1.281, -1.3], a = 0.2, v = 0.2, t = 0.2)
movej(p[0.486296231707759, -0.106970523582065, 0.425298000141201, -1.123, 1.281, -1.3], a = 0.2, v = 0.2, t = 0.2)
movej(p[0.486307062441667, -0.10696677509822, 0.424899464905529, -1.123, 1.281, -1.3], a = 0.2, v = 0.2, t = 0.2)
movej(p[0.486351827845246, -0.1069512819291, 0.423252245906624, -1.123, 1.281, -1.3], a = 0.2, v = 0.2, t = 0.2)
movej(p[0.486418784436508, -0.106928108457866, 0.420788464494827, -1.123, 1.281, -1.3], a = 0.2, v = 0.2, t = 0.2)
movej(p[0.486501060635, -0.106899632917474, 0.417760972135085, -1.123, 1.281, -1.3], a = 0.2, v = 0.2, t = 0.2)
movej(p[0.486587803105435, -0.106869611614037, 0.414569135719243, -1.123, 1.281, -1.3], a = 0.2, v = 0.2, t = 0.2)
movej(p[0.486665310629855, -0.106842786497141, 0.411717114815259, -1.123, 1.281, -1.3], a = 0.2, v = 0.2, t = 0.2)
movej(p[0.486714990203897, -0.106825592548669, 0.409889070573983, -1.123, 1.281, -1.3], a = 0.2, v = 0.2, t = 0.2)
movej(p[0.486718586865972, -0.106824347754937, 0.409756725288799, -1.123, 1.281, -1.3], a = 0.2, v = 0.2, t = 0.2)
movej(p[0.486674761375595, -0.106839515622976, 0.411369358586289, -1.123, 1.281, -1.3], a = 0.2, v = 0.2, t = 0.2)
movej(p[0.486606172160536, -0.106863254140307, 0.413893215161527, -1.123, 1.281, -1.3], a = 0.2, v = 0.2, t = 0.2)
movej(p[0.486532206967949, -0.106888853267001, 0.416614889953819, -1.123, 1.281, -1.3], a = 0.2, v = 0.2, t = 0.2)
movej(p[0.486471976460749, -0.106909698861135, 0.418831173687281, -1.123, 1.281, -1.3], a = 0.2, v = 0.2, t = 0.2)
movej(p[0.48642382356653, -0.106926364430394, 0.420603041153425, -1.123, 1.281, -1.3], a = 0.2, v = 0.2, t = 0.2)
movej(p[0.486387435886396, -0.10693895809508, 0.421941987599831, -1.123, 1.281, -1.3], a = 0.2, v = 0.2, t = 0.2)
movej(p[0.486360892846262, -0.106948144560003, 0.42291868380945, -1.123, 1.281, -1.3], a = 0.2, v = 0.2, t = 0.2)
movej(p[0.486334510080344, -0.106957275554511, 0.423889482457266, -1.123, 1.281, -1.3], a = 0.2, v = 0.2, t = 0.2)
movej(p[0.486311982045155, -0.106965072438515, 0.42471843974581, -1.123, 1.281, -1.3], a = 0.2, v = 0.2, t = 0.2)
movej(p[0.486296356667318, -0.106970480333944, 0.425293402042169, -1.123, 1.281, -1.3], a = 0.2, v = 0.2, t = 0.2)
movej(p[0.486303365268643, -0.106968054678484, 0.425035508661674, -1.123, 1.281, -1.3], a = 0.2, v = 0.2, t = 0.2)
movej(p[0.486342222258314, -0.106954606393328, 0.423605699780047, -1.123, 1.281, -1.3], a = 0.2, v = 0.2, t = 0.2)
movej(p[0.4864018904475, -0.106933955415737, 0.421410107492229, -1.123, 1.281, -1.3], a = 0.2, v = 0.2, t = 0.2)
movej(p[0.486469803251036, -0.106910451002363, 0.418911140626969, -1.123, 1.281, -1.3], a = 0.2, v = 0.2, t = 0.2)
movej(p[0.486534632813291, -0.106888013689356, 0.416525626857392, -1.123, 1.281, -1.3], a = 0.2, v = 0.2, t = 0.2)
movej(p[0.486594550921595, -0.106867276215524, 0.41432083837151, -1.123, 1.281, -1.3], a = 0.2, v = 0.2, t = 0.2)
movej(p[0.486625125265746, -0.106856694528623, 0.41319580348877, -1.123, 1.281, -1.3], a = 0.2, v = 0.2, t = 0.2)
movej(p[0.486618420913781, -0.106859014884311, 0.413442501497709, -1.123, 1.281, -1.3], a = 0.2, v = 0.2, t = 0.2)
movej(p[0.486572503709055, -0.106874906688282, 0.415132102974648, -1.123, 1.281, -1.3], a = 0.2, v = 0.2, t = 0.2)
movej(p[0.486511907830972, -0.106895878736159, 0.417361831149845, -1.123, 1.281, -1.3], a = 0.2, v = 0.2, t = 0.2)
movej(p[0.486454892315892, -0.106915611631363, 0.419459813791906, -1.123, 1.281, -1.3], a = 0.2, v = 0.2, t = 0.2)
movej(p[0.48640961620803, -0.106931281553672, 0.421125825021637, -1.123, 1.281, -1.3], a = 0.2, v = 0.2, t = 0.2)
movej(p[0.486375553862289, -0.106943070427244, 0.422379206842577, -1.123, 1.281, -1.3], a = 0.2, v = 0.2, t = 0.2)
movej(p[0.486346533363082, -0.106953114333167, 0.42344706536344, -1.123, 1.281, -1.3], a = 0.2, v = 0.2, t = 0.2)
movej(p[0.48632148983765, -0.106961781820643, 0.424368584384673, -1.123, 1.281, -1.3], a = 0.2, v = 0.2, t = 0.2)
movej(p[0.486302031461181, -0.106968516305163, 0.425084588370908, -1.123, 1.281, -1.3], a = 0.2, v = 0.2, t = 0.2)
movej(p[0.48628975010979, -0.106972766843277, 0.425536501538821, -1.123, 1.281, -1.3], a = 0.2, v = 0.2, t = 0.2)
movej(p[0.486298942786876, -0.106969585285883, 0.42519824138394, -1.123, 1.281, -1.3], a = 0.2, v = 0.2, t = 0.2)
movej(p[0.486330438028644, -0.106958684879137, 0.424039320510507, -1.123, 1.281, -1.3], a = 0.2, v = 0.2, t = 0.2)
movej(p[0.48638755541293, -0.106938916727312, 0.421937589418148, -1.123, 1.281, -1.3], a = 0.2, v = 0.2, t = 0.2)
movej(p[0.486455364989004, -0.106915448040646, 0.419442420982524, -1.123, 1.281, -1.3], a = 0.2, v = 0.2, t = 0.2)
movej(p[0.486522131696067, -0.106892340287752, 0.416985626682082, -1.123, 1.281, -1.3], a = 0.2, v = 0.2, t = 0.2)
movej(p[0.486584339552455, -0.106870810339119, 0.414696583029371, -1.123, 1.281, -1.3], a = 0.2, v = 0.2, t = 0.2)
movej(p[0.486617258246585, -0.106859417279868, 0.413485283810442, -1.123, 1.281, -1.3], a = 0.2, v = 0.2, t = 0.2)
movej(p[0.486611572586673, -0.106861385069356, 0.413694497316402, -1.123, 1.281, -1.3], a = 0.2, v = 0.2, t = 0.2)
movej(p[0.486564794247597, -0.106877574909288, 0.415415785693193, -1.123, 1.281, -1.3], a = 0.2, v = 0.2, t = 0.2)
movej(p[0.486508417384521, -0.106897086768989, 0.417490268050852, -1.123, 1.281, -1.3], a = 0.2, v = 0.2, t = 0.2)
movej(p[0.486455400303662, -0.106915435818351, 0.419441121519754, -1.123, 1.281, -1.3], a = 0.2, v = 0.2, t = 0.2)
movej(p[0.486410624034035, -0.106930932748177, 0.421088740353357, -1.123, 1.281, -1.3], a = 0.2, v = 0.2, t = 0.2)
movej(p[0.486374078796196, -0.106943580943102, 0.422433484402891, -1.123, 1.281, -1.3], a = 0.2, v = 0.2, t = 0.2)
movej(p[0.486349002672619, -0.106952259712697, 0.423356202928219, -1.123, 1.281, -1.3], a = 0.2, v = 0.2, t = 0.2)
movej(p[0.486330071299505, -0.106958811802969, 0.424052814931579, -1.123, 1.281, -1.3], a = 0.2, v = 0.2, t = 0.2)
movej(p[0.486313353883787, -0.106964597649365, 0.424667960615132, -1.123, 1.281, -1.3], a = 0.2, v = 0.2, t = 0.2)
movej(p[0.486294895183786, -0.10697098614892, 0.425347179809109, -1.123, 1.281, -1.3], a = 0.2, v = 0.2, t = 0.2)
movej(p[0.486276412035175, -0.106977383110064, 0.426027298631159, -1.123, 1.281, -1.3], a = 0.2, v = 0.2, t = 0.2)
movej(p[0.486280935027891, -0.106975817716133, 0.425860867437932, -1.123, 1.281, -1.3], a = 0.2, v = 0.2, t = 0.2)
movej(p[0.486316931530277, -0.106963359436868, 0.42453631504067, -1.123, 1.281, -1.3], a = 0.2, v = 0.2, t = 0.2)
movej(p[0.486378441514695, -0.106942071019587, 0.422272950771466, -1.123, 1.281, -1.3], a = 0.2, v = 0.2, t = 0.2)
movej(p[0.48644986676843, -0.106917350957953, 0.419644737339935, -1.123, 1.281, -1.3], a = 0.2, v = 0.2, t = 0.2)
movej(p[0.486516644341542, -0.106894239444353, 0.417187543204795, -1.123, 1.281, -1.3], a = 0.2, v = 0.2, t = 0.2)
movej(p[0.486585735839696, -0.10687032708838, 0.414645204270621, -1.123, 1.281, -1.3], a = 0.2, v = 0.2, t = 0.2)
movej(p[0.486633951213694, -0.10685363989506, 0.412871037754961, -1.123, 1.281, -1.3], a = 0.2, v = 0.2, t = 0.2)
movej(p[0.486646069574357, -0.106849445767538, 0.412425122107524, -1.123, 1.281, -1.3], a = 0.2, v = 0.2, t = 0.2)
movej(p[0.486609842168439, -0.106861983961808, 0.413758170992128, -1.123, 1.281, -1.3], a = 0.2, v = 0.2, t = 0.2)
movej(p[0.486543885253645, -0.106884811448078, 0.416185167611669, -1.123, 1.281, -1.3], a = 0.2, v = 0.2, t = 0.2)
movej(p[0.486476871887279, -0.106908004569001, 0.418651038159766, -1.123, 1.281, -1.3], a = 0.2, v = 0.2, t = 0.2)
movej(p[0.486422639167236, -0.106926774347363, 0.420646623135555, -1.123, 1.281, -1.3], a = 0.2, v = 0.2, t = 0.2)
movej(p[0.486382983522996, -0.106940499044421, 0.422105819867518, -1.123, 1.281, -1.3], a = 0.2, v = 0.2, t = 0.2)
movej(p[0.486353626176283, -0.106950659532234, 0.423186073264032, -1.123, 1.281, -1.3], a = 0.2, v = 0.2, t = 0.2)
movej(p[0.486327083136149, -0.106959845997157, 0.424162769473651, -1.123, 1.281, -1.3], a = 0.2, v = 0.2, t = 0.2)
movej(p[0.486303881405949, -0.106967876044942, 0.425016516513498, -1.123, 1.281, -1.3], a = 0.2, v = 0.2, t = 0.2)
movej(p[0.486282355763741, -0.106975326003806, 0.425808589051111, -1.123, 1.281, -1.3], a = 0.2, v = 0.2, t = 0.2)
movej(p[0.48626578775619, -0.106981060140492, 0.42641823700756, -1.123, 1.281, -1.3], a = 0.2, v = 0.2, t = 0.2)
movej(p[0.486260887168287, -0.106982756218961, 0.426598562456557, -1.123, 1.281, -1.3], a = 0.2, v = 0.2, t = 0.2)
movej(p[0.486279756061621, -0.10697622575275, 0.425904249502713, -1.123, 1.281, -1.3], a = 0.2, v = 0.2, t = 0.2)
movej(p[0.486324934375045, -0.106960589676796, 0.424241836785267, -1.123, 1.281, -1.3], a = 0.2, v = 0.2, t = 0.2)
movej(p[0.486388150329089, -0.106938710828651, 0.421915698468409, -1.123, 1.281, -1.3], a = 0.2, v = 0.2, t = 0.2)
movej(p[0.486452363243088, -0.106916486935717, 0.419552875317968, -1.123, 1.281, -1.3], a = 0.2, v = 0.2, t = 0.2)
movej(p[0.486507611123718, -0.106897365813384, 0.417519935785477, -1.123, 1.281, -1.3], a = 0.2, v = 0.2, t = 0.2)
movej(p[0.48654398033157, -0.106884778541899, 0.416181669058058, -1.123, 1.281, -1.3], a = 0.2, v = 0.2, t = 0.2)
movej(p[0.486551266017133, -0.106882256988432, 0.415913579892752, -1.123, 1.281, -1.3], a = 0.2, v = 0.2, t = 0.2)
movej(p[0.486526785624668, -0.106890729577312, 0.416814377480739, -1.123, 1.281, -1.3], a = 0.2, v = 0.2, t = 0.2)
movej(p[0.486481463879403, -0.106906415294586, 0.418482068016204, -1.123, 1.281, -1.3], a = 0.2, v = 0.2, t = 0.2)
movej(p[0.486431831844323, -0.106923592789969, 0.420308362980673, -1.123, 1.281, -1.3], a = 0.2, v = 0.2, t = 0.2)
movej(p[0.486388468161009, -0.106938600827996, 0.421904003303479, -1.123, 1.281, -1.3], a = 0.2, v = 0.2, t = 0.2)
movej(p[0.486352881851957, -0.106950917140605, 0.423213461940876, -1.123, 1.281, -1.3], a = 0.2, v = 0.2, t = 0.2)
movej(p[0.486323701078533, -0.106961016516943, 0.424287218023541, -1.123, 1.281, -1.3], a = 0.2, v = 0.2, t = 0.2)
movej(p[0.48630016521734, -0.106969162206442, 0.425153259980365, -1.123, 1.281, -1.3], a = 0.2, v = 0.2, t = 0.2)
movej(p[0.486280638928067, -0.106975920195376, 0.425871762933465, -1.123, 1.281, -1.3], a = 0.2, v = 0.2, t = 0.2)
movej(p[0.486273051709656, -0.106978546108438, 0.426150947511652, -1.123, 1.281, -1.3], a = 0.2, v = 0.2, t = 0.2)
movej(p[0.486292887681313, -0.106971680939379, 0.425421049269646, -1.123, 1.281, -1.3], a = 0.2, v = 0.2, t = 0.2)
movej(p[0.486344072203082, -0.106953966133108, 0.423537627922637, -1.123, 1.281, -1.3], a = 0.2, v = 0.2, t = 0.2)
movej(p[0.486413821368825, -0.106929826160396, 0.42097108899334, -1.123, 1.281, -1.3], a = 0.2, v = 0.2, t = 0.2)
movej(p[0.48648055031637, -0.106906731475955, 0.418515684118476, -1.123, 1.281, -1.3], a = 0.2, v = 0.2, t = 0.2)
movej(p[0.486541060081018, -0.106885789231674, 0.416289124633264, -1.123, 1.281, -1.3], a = 0.2, v = 0.2, t = 0.2)
movej(p[0.486590353910336, -0.10686872878827, 0.414475274523783, -1.123, 1.281, -1.3], a = 0.2, v = 0.2, t = 0.2)
movej(p[0.486614267366717, -0.106860452414233, 0.413595338311188, -1.123, 1.281, -1.3], a = 0.2, v = 0.2, t = 0.2)
movej(p[0.48660756029824, -0.106862773710098, 0.413842136278801, -1.123, 1.281, -1.3], a = 0.2, v = 0.2, t = 0.2)
movej(p[0.486562645486494, -0.106878318588927, 0.415494853004809, -1.123, 1.281, -1.3], a = 0.2, v = 0.2, t = 0.2)
movej(p[0.486502429322478, -0.106899159218928, 0.417710608956469, -1.123, 1.281, -1.3], a = 0.2, v = 0.2, t = 0.2)
movej(p[0.486444338666222, -0.106919264217202, 0.419848153242767, -1.123, 1.281, -1.3], a = 0.2, v = 0.2, t = 0.2)
movej(p[0.486401958360304, -0.106933931911324, 0.421407608525364, -1.123, 1.281, -1.3], a = 0.2, v = 0.2, t = 0.2)
movej(p[0.486371389449176, -0.106944511717872, 0.422532443490755, -1.123, 1.281, -1.3], a = 0.2, v = 0.2, t = 0.2)
movej(p[0.486344523144097, -0.106953810063803, 0.423521034782652, -1.123, 1.281, -1.3], a = 0.2, v = 0.2, t = 0.2)
movej(p[0.486319175369306, -0.106962582851051, 0.424453749175442, -1.123, 1.281, -1.3], a = 0.2, v = 0.2, t = 0.2)
movej(p[0.486295389588995, -0.106970815036791, 0.42532898733033, -1.123, 1.281, -1.3], a = 0.2, v = 0.2, t = 0.2)
movej(p[0.486275333579855, -0.106977756360148, 0.426066982224979, -1.123, 1.281, -1.3], a = 0.2, v = 0.2, t = 0.2)
movej(p[0.486275358028464, -0.10697774789856, 0.426066082596907, -1.123, 1.281, -1.3], a = 0.2, v = 0.2, t = 0.2)
movej(p[0.486301778825552, -0.106968603741581, 0.425093884527647, -1.123, 1.281, -1.3], a = 0.2, v = 0.2, t = 0.2)
movej(p[0.486357665629838, -0.106949261489726, 0.423037434714887, -1.123, 1.281, -1.3], a = 0.2, v = 0.2, t = 0.2)
movej(p[0.48643016662238, -0.106924169118185, 0.42036963764821, -1.123, 1.281, -1.3], a = 0.2, v = 0.2, t = 0.2)
movej(p[0.486505578357682, -0.106898069347485, 0.417594734861688, -1.123, 1.281, -1.3], a = 0.2, v = 0.2, t = 0.2)
movej(p[0.486576078639033, -0.106873669415962, 0.415000557358861, -1.123, 1.281, -1.3], a = 0.2, v = 0.2, t = 0.2)
movej(p[0.486627860793473, -0.106855747770852, 0.413095145103438, -1.123, 1.281, -1.3], a = 0.2, v = 0.2, t = 0.2)
movej(p[0.486642146930825, -0.106850803382454, 0.412569462433661, -1.123, 1.281, -1.3], a = 0.2, v = 0.2, t = 0.2)
movej(p[0.486614357011618, -0.106860421388407, 0.413592039674926, -1.123, 1.281, -1.3], a = 0.2, v = 0.2, t = 0.2)
movej(p[0.486554963190158, -0.106880977408168, 0.415777536136608, -1.123, 1.281, -1.3], a = 0.2, v = 0.2, t = 0.2)
movej(p[0.48649090946377, -0.106903146206757, 0.418134501708716, -1.123, 1.281, -1.3], a = 0.2, v = 0.2, t = 0.2)
movej(p[0.486432312666972, -0.106923426378722, 0.420290670295267, -1.123, 1.281, -1.3], a = 0.2, v = 0.2, t = 0.2)
movej(p[0.486386373730148, -0.106939325704105, 0.421981071441604, -1.123, 1.281, -1.3], a = 0.2, v = 0.2, t = 0.2)
movej(p[0.486350322897519, -0.106951802786901, 0.423307623012359, -1.123, 1.281, -1.3], a = 0.2, v = 0.2, t = 0.2)
movej(p[0.486322448766436, -0.106961449938326, 0.424333298972536, -1.123, 1.281, -1.3], a = 0.2, v = 0.2, t = 0.2)
movej(p[0.486297584530806, -0.106970055374151, 0.425248220721245, -1.123, 1.281, -1.3], a = 0.2, v = 0.2, t = 0.2)
movej(p[0.486273497217648, -0.106978391919486, 0.426134554289015, -1.123, 1.281, -1.3], a = 0.2, v = 0.2, t = 0.2)
movej(p[0.486254299626344, -0.106985036147059, 0.426840962242487, -1.123, 1.281, -1.3], a = 0.2, v = 0.2, t = 0.2)
movej(p[0.486256171303209, -0.106984388365426, 0.426772090715681, -1.123, 1.281, -1.3], a = 0.2, v = 0.2, t = 0.2)
movej(p[0.486292461188907, -0.106971828547095, 0.42543674278156, -1.123, 1.281, -1.3], a = 0.2, v = 0.2, t = 0.2)
movej(p[0.486354989865378, -0.106950187563613, 0.423135894009378, -1.123, 1.281, -1.3], a = 0.2, v = 0.2, t = 0.2)
movej(p[0.486433401988341, -0.106923049367931, 0.420250586866749, -1.123, 1.281, -1.3], a = 0.2, v = 0.2, t = 0.2)
movej(p[0.486511956999842, -0.106895861718964, 0.417360021897835, -1.123, 1.281, -1.3], a = 0.2, v = 0.2, t = 0.2)
movej(p[0.486587316849762, -0.106869779905636, 0.414587028321998, -1.123, 1.281, -1.3], a = 0.2, v = 0.2, t = 0.2)
movej(p[0.486650356230516, -0.106847962168966, 0.412267387318989, -1.123, 1.281, -1.3], a = 0.2, v = 0.2, t = 0.2)
movej(p[0.486676573289193, -0.106838888525227, 0.411302686150324, -1.123, 1.281, -1.3], a = 0.2, v = 0.2, t = 0.2)
movej(p[0.486657639199567, -0.106845441555675, 0.411999398112358, -1.123, 1.281, -1.3], a = 0.2, v = 0.2, t = 0.2)
movej(p[0.486597253851175, -0.106866340739871, 0.414221379490273, -1.123, 1.281, -1.3], a = 0.2, v = 0.2, t = 0.2)
movej(p[0.486527033098924, -0.10689064392723, 0.416805271245482, -1.123, 1.281, -1.3], a = 0.2, v = 0.2, t = 0.2)
movej(p[0.486462927758806, -0.106912830589173, 0.419164136032408, -1.123, 1.281, -1.3], a = 0.2, v = 0.2, t = 0.2)
movej(p[0.48640821992079, -0.106931764804411, 0.421177203780387, -1.123, 1.281, -1.3], a = 0.2, v = 0.2, t = 0.2)
movej(p[0.486363867427057, -0.106947115066697, 0.422809229060751, -1.123, 1.281, -1.3], a = 0.2, v = 0.2, t = 0.2)
movej(p[0.486328349030807, -0.106959407874892, 0.424116188731282, -1.123, 1.281, -1.3], a = 0.2, v = 0.2, t = 0.2)
movej(p[0.486300556395088, -0.106969026821021, 0.425138865931221, -1.123, 1.281, -1.3], a = 0.2, v = 0.2, t = 0.2)
movej(p[0.486274888071864, -0.1069779105491, 0.426083375447615, -1.123, 1.281, -1.3], a = 0.2, v = 0.2, t = 0.2)
movej(p[0.486261340825815, -0.10698259920948, 0.426581869357897, -1.123, 1.281, -1.3], a = 0.2, v = 0.2, t = 0.2)
movej(p[0.486270791571555, -0.106979328335315, 0.426234113128927, -1.123, 1.281, -1.3], a = 0.2, v = 0.2, t = 0.2)
movej(p[0.486315804177738, -0.10696374961013, 0.424577797890633, -1.123, 1.281, -1.3], a = 0.2, v = 0.2, t = 0.2)
movej(p[0.486388288871208, -0.106938662879648, 0.421910600576004, -1.123, 1.281, -1.3], a = 0.2, v = 0.2, t = 0.2)
movej(p[0.486466399461323, -0.106911629043561, 0.419036388846256, -1.123, 1.281, -1.3], a = 0.2, v = 0.2, t = 0.2)
movej(p[0.486540598273954, -0.106885949061685, 0.416306117607948, -1.123, 1.281, -1.3], a = 0.2, v = 0.2, t = 0.2)
movej(p[0.486599804656076, -0.106865457914105, 0.414127518294814, -1.123, 1.281, -1.3], a = 0.2, v = 0.2, t = 0.2)
movej(p[0.486636561781862, -0.10685273638541, 0.41277497746866, -1.123, 1.281, -1.3], a = 0.2, v = 0.2, t = 0.2)
movej(p[0.486627434301067, -0.106855895378568, 0.413110838615351, -1.123, 1.281, -1.3], a = 0.2, v = 0.2, t = 0.2)
movej(p[0.486580734740843, -0.106872057953381, 0.414829228190579, -1.123, 1.281, -1.3], a = 0.2, v = 0.2, t = 0.2)
movej(p[0.486516250718932, -0.106894375675932, 0.417202027216746, -1.123, 1.281, -1.3], a = 0.2, v = 0.2, t = 0.2)
movej(p[0.486453669885428, -0.106916034710804, 0.41950479519548, -1.123, 1.281, -1.3], a = 0.2, v = 0.2, t = 0.2)
movej(p[0.486401425923924, -0.106934116185925, 0.421427200425588, -1.123, 1.281, -1.3], a = 0.2, v = 0.2, t = 0.2)
movej(p[0.486360268048469, -0.106948360800606, 0.42294167430461, -1.123, 1.281, -1.3], a = 0.2, v = 0.2, t = 0.2)
movej(p[0.486328194189615, -0.106959461464954, 0.424121886375735, -1.123, 1.281, -1.3], a = 0.2, v = 0.2, t = 0.2)
movej(p[0.48630054552904, -0.106969030581727, 0.42513926576592, -1.123, 1.281, -1.3], a = 0.2, v = 0.2, t = 0.2)
movej(p[0.486278791699811, -0.106976559515419, 0.4259397348322, -1.123, 1.281, -1.3], a = 0.2, v = 0.2, t = 0.2)
movej(p[0.486273163086654, -0.1069785075612, 0.426146849205993, -1.123, 1.281, -1.3], a = 0.2, v = 0.2, t = 0.2)
movej(p[0.486295897576766, -0.106970639223779, 0.425310295058178, -1.123, 1.281, -1.3], a = 0.2, v = 0.2, t = 0.2)
movej(p[0.486350578249661, -0.106951714410306, 0.423298226896945, -1.123, 1.281, -1.3], a = 0.2, v = 0.2, t = 0.2)
movej(p[0.486422799441453, -0.106926718876947, 0.420640725573753, -1.123, 1.281, -1.3], a = 0.2, v = 0.2, t = 0.2)
movej(p[0.486497804623548, -0.106900759813069, 0.417880782602473, -1.123, 1.281, -1.3], a = 0.2, v = 0.2, t = 0.2)
movej(p[0.486558557135721, -0.106879733554612, 0.415645290810098, -1.123, 1.281, -1.3], a = 0.2, v = 0.2, t = 0.2)
movej(p[0.486598810412632, -0.106865802018717, 0.414164103169721, -1.123, 1.281, -1.3], a = 0.2, v = 0.2, t = 0.2)
movej(p[0.486606408497092, -0.106863172344949, 0.413884518756836, -1.123, 1.281, -1.3], a = 0.2, v = 0.2, t = 0.2)
movej(p[0.486579468846185, -0.106872496075646, 0.414875808932947, -1.123, 1.281, -1.3], a = 0.2, v = 0.2, t = 0.2)
movej(p[0.486526304530368, -0.106890896082577, 0.416832080162013, -1.123, 1.281, -1.3], a = 0.2, v = 0.2, t = 0.2)
movej(p[0.486462528431521, -0.106912968795123, 0.419178829957576, -1.123, 1.281, -1.3], a = 0.2, v = 0.2, t = 0.2)
movej(p[0.486410045416949, -0.106931133005779, 0.421110031551049, -1.123, 1.281, -1.3], a = 0.2, v = 0.2, t = 0.2)
movej(p[0.486368213846483, -0.106945610784241, 0.422649295181375, -1.123, 1.281, -1.3], a = 0.2, v = 0.2, t = 0.2)
movej(p[0.486337107065951, -0.106956376745743, 0.423793921964338, -1.123, 1.281, -1.3], a = 0.2, v = 0.2, t = 0.2)
movej(p[0.486312142319372, -0.1069650169681, 0.424712542184008, -1.123, 1.281, -1.3], a = 0.2, v = 0.2, t = 0.2)
movej(p[0.486287071628818, -0.106973693857341, 0.425635060791987, -1.123, 1.281, -1.3], a = 0.2, v = 0.2, t = 0.2)
movej(p[0.486267776243078, -0.106980371931269, 0.426345067257745, -1.123, 1.281, -1.3], a = 0.2, v = 0.2, t = 0.2)
movej(p[0.486250990914556, -0.106986181282078, 0.426962711908163, -1.123, 1.281, -1.3], a = 0.2, v = 0.2, t = 0.2)
movej(p[0.486248673729699, -0.106986983252663, 0.427047976657605, -1.123, 1.281, -1.3], a = 0.2, v = 0.2, t = 0.2)
movej(p[0.486263734073011, -0.106981770913953, 0.426493805765565, -1.123, 1.281, -1.3], a = 0.2, v = 0.2, t = 0.2)
movej(p[0.486306692996016, -0.106966902962229, 0.424913059285276, -1.123, 1.281, -1.3], a = 0.2, v = 0.2, t = 0.2)
movej(p[0.486371055318183, -0.106944627359586, 0.422544738407732, -1.123, 1.281, -1.3], a = 0.2, v = 0.2, t = 0.2)
movej(p[0.486441092434213, -0.106920387728161, 0.419967603858927, -1.123, 1.281, -1.3], a = 0.2, v = 0.2, t = 0.2)
movej(p[0.48649783311976, -0.106900749950617, 0.417879734035977, -1.123, 1.281, -1.3], a = 0.2, v = 0.2, t = 0.2)
movej(p[0.486524508644191, -0.106891517633284, 0.416898162841797, -1.123, 1.281, -1.3], a = 0.2, v = 0.2, t = 0.2)
movej(p[0.486515645480027, -0.106894585147264, 0.417224298009449, -1.123, 1.281, -1.3], a = 0.2, v = 0.2, t = 0.2)
movej(p[0.486472836236842, -0.106909401295261, 0.418799536766767, -1.123, 1.281, -1.3], a = 0.2, v = 0.2, t = 0.2)
movej(p[0.486416730753329, -0.106928819231327, 0.420864033252833, -1.123, 1.281, -1.3], a = 0.2, v = 0.2, t = 0.2)
movej(p[0.486361137332354, -0.106948059944115, 0.422909687528735, -1.123, 1.281, -1.3], a = 0.2, v = 0.2, t = 0.2)
movej(p[0.486319414422374, -0.106962500115515, 0.424444952812076, -1.123, 1.281, -1.3], a = 0.2, v = 0.2, t = 0.2)
movej(p[0.486286949385772, -0.106973736165285, 0.425639558932345, -1.123, 1.281, -1.3], a = 0.2, v = 0.2, t = 0.2)
movej(p[0.486265649214071, -0.106981108089496, 0.426423334899965, -1.123, 1.281, -1.3], a = 0.2, v = 0.2, t = 0.2)
movej(p[0.486250735562414, -0.106986269658673, 0.426972108023576, -1.123, 1.281, -1.3], a = 0.2, v = 0.2, t = 0.2)
movej(p[0.48623940227376, -0.106990192075177, 0.427389135614051, -1.123, 1.281, -1.3], a = 0.2, v = 0.2, t = 0.2)
movej(p[0.486231796039764, -0.106992824569475, 0.42766901990296, -1.123, 1.281, -1.3], a = 0.2, v = 0.2, t = 0.2)
movej(p[0.486242596892039, -0.106989086427571, 0.427271584212709, -1.123, 1.281, -1.3], a = 0.2, v = 0.2, t = 0.2)
movej(p[0.486278033792924, -0.106976821824673, 0.425967623302416, -1.123, 1.281, -1.3], a = 0.2, v = 0.2, t = 0.2)
movej(p[0.486345677661757, -0.106953410488775, 0.423478552345942, -1.123, 1.281, -1.3], a = 0.2, v = 0.2, t = 0.2)
movej(p[0.486424739031122, -0.106926047590901, 0.420569355080081, -1.123, 1.281, -1.3], a = 0.2, v = 0.2, t = 0.2)
movej(p[0.486511110534658, -0.106896154677972, 0.417391169020843, -1.123, 1.281, -1.3], a = 0.2, v = 0.2, t = 0.2)
movej(p[0.486592581450292, -0.106867957843512, 0.414393308410603, -1.123, 1.281, -1.3], a = 0.2, v = 0.2, t = 0.2)
movej(p[0.486654626587602, -0.106846484211453, 0.412110252282501, -1.123, 1.281, -1.3], a = 0.2, v = 0.2, t = 0.2)
movej(p[0.486674649998597, -0.106839554170213, 0.411373456891948, -1.123, 1.281, -1.3], a = 0.2, v = 0.2, t = 0.2)
movej(p[0.486648223768485, -0.106848700207546, 0.412345854878558, -1.123, 1.281, -1.3], a = 0.2, v = 0.2, t = 0.2)
movej(p[0.486592820503361, -0.106867875107976, 0.414384512047237, -1.123, 1.281, -1.3], a = 0.2, v = 0.2, t = 0.2)
movej(p[0.486527108889613, -0.106890617696305, 0.41680248239846, -1.123, 1.281, -1.3], a = 0.2, v = 0.2, t = 0.2)
movej(p[0.486464742388916, -0.106912202551247, 0.419097363637768, -1.123, 1.281, -1.3], a = 0.2, v = 0.2, t = 0.2)
movej(p[0.486410849504543, -0.106930854713525, 0.421080443783364, -1.123, 1.281, -1.3], a = 0.2, v = 0.2, t = 0.2)
movej(p[0.486368080737388, -0.106945656852891, 0.42265419315643, -1.123, 1.281, -1.3], a = 0.2, v = 0.2, t = 0.2)
movej(p[0.486333708709262, -0.106957552906588, 0.423918970266276, -1.123, 1.281, -1.3], a = 0.2, v = 0.2, t = 0.2)
movej(p[0.486308206093279, -0.106966379283899, 0.424857382303518, -1.123, 1.281, -1.3], a = 0.2, v = 0.2, t = 0.2)
movej(p[0.486288022408068, -0.106973364795554, 0.425600075255874, -1.123, 1.281, -1.3], a = 0.2, v = 0.2, t = 0.2)
movej(p[0.48628845705001, -0.106973214367308, 0.425584081867936, -1.123, 1.281, -1.3], a = 0.2, v = 0.2, t = 0.2)
movej(p[0.486328332731734, -0.106959413515951, 0.42411678848333, -1.123, 1.281, -1.3], a = 0.2, v = 0.2, t = 0.2)
movej(p[0.486395838058449, -0.106936050129057, 0.421632815419261, -1.123, 1.281, -1.3], a = 0.2, v = 0.2, t = 0.2)
movej(p[0.486480885533968, -0.106906615458171, 0.418503349218029, -1.123, 1.281, -1.3], a = 0.2, v = 0.2, t = 0.2)
movej(p[0.486559928974352, -0.106879258765462, 0.41559481167942, -1.123, 1.281, -1.3], a = 0.2, v = 0.2, t = 0.2)
movej(p[0.486629830264775, -0.106855066142864, 0.413022675064345, -1.123, 1.281, -1.3], a = 0.2, v = 0.2, t = 0.2)
movej(p[0.486675122671709, -0.106839390579496, 0.411356064082566, -1.123, 1.281, -1.3], a = 0.2, v = 0.2, t = 0.2)
movej(p[0.486676790610164, -0.106838813311104, 0.411294689456355, -1.123, 1.281, -1.3], a = 0.2, v = 0.2, t = 0.2)
movej(p[0.486627314774532, -0.106855936746335, 0.413115236797034, -1.123, 1.281, -1.3], a = 0.2, v = 0.2, t = 0.2)
movej(p[0.486549570913557, -0.10688284365859, 0.415975954105709, -1.123, 1.281, -1.3], a = 0.2, v = 0.2, t = 0.2)
movej(p[0.486473667761208, -0.106909113507224, 0.418768939416468, -1.123, 1.281, -1.3], a = 0.2, v = 0.2, t = 0.2)
movej(p[0.486417379999731, -0.106928594529135, 0.420840143129601, -1.123, 1.281, -1.3], a = 0.2, v = 0.2, t = 0.2)
movej(p[0.48637268794198, -0.106944062313488, 0.422484663244291, -1.123, 1.281, -1.3], a = 0.2, v = 0.2, t = 0.2)
movej(p[0.486336797383567, -0.106956483925868, 0.423805317253244, -1.123, 1.281, -1.3], a = 0.2, v = 0.2, t = 0.2)
movej(p[0.486307361258003, -0.106966671678801, 0.424888469451322, -1.123, 1.281, -1.3], a = 0.2, v = 0.2, t = 0.2)
movej(p[0.486283434219061, -0.106974952753721, 0.425768905457291, -1.123, 1.281, -1.3], a = 0.2, v = 0.2, t = 0.2)
movej(p[0.486279177444535, -0.106976426010352, 0.425925540700405, -1.123, 1.281, -1.3], a = 0.2, v = 0.2, t = 0.2)
movej(p[0.486308580971954, -0.106966249539537, 0.424843588006422, -1.123, 1.281, -1.3], a = 0.2, v = 0.2, t = 0.2)
movej(p[0.486376708379949, -0.106942670852216, 0.422336724405868, -1.123, 1.281, -1.3], a = 0.2, v = 0.2, t = 0.2)
movej(p[0.486464807585208, -0.106912179987011, 0.419094964629578, -1.123, 1.281, -1.3], a = 0.2, v = 0.2, t = 0.2)
movej(p[0.486553300684727, -0.106881552796207, 0.415838710845469, -1.123, 1.281, -1.3], a = 0.2, v = 0.2, t = 0.2)
movej(p[0.486634763450824, -0.106853358782276, 0.412841150111253, -1.123, 1.281, -1.3], a = 0.2, v = 0.2, t = 0.2)
movej(p[0.486685670888355, -0.106835739874011, 0.410967924549054, -1.123, 1.281, -1.3], a = 0.2, v = 0.2, t = 0.2)
movej(p[0.486692421421026, -0.106833403535322, 0.410719527242647, -1.123, 1.281, -1.3], a = 0.2, v = 0.2, t = 0.2)
movej(p[0.486653347110384, -0.106846927034601, 0.412157332818243, -1.123, 1.281, -1.3], a = 0.2, v = 0.2, t = 0.2)
movej(p[0.486581394853294, -0.106871829490483, 0.414804938232648, -1.123, 1.281, -1.3], a = 0.2, v = 0.2, t = 0.2)
movej(p[0.486509382832936, -0.106896752630248, 0.417454742737896, -1.123, 1.281, -1.3], a = 0.2, v = 0.2, t = 0.2)
movej(p[0.486448853509401, -0.106917701643801, 0.419682021925565, -1.123, 1.281, -1.3], a = 0.2, v = 0.2, t = 0.2)
movej(p[0.486403873501363, -0.106933269086867, 0.421337137659764, -1.123, 1.281, -1.3], a = 0.2, v = 0.2, t = 0.2)
movej(p[0.486367377160743, -0.106945900358614, 0.422680082453155, -1.123, 1.281, -1.3], a = 0.2, v = 0.2, t = 0.2)
movej(p[0.486336400772795, -0.106956621191642, 0.423819911219737, -1.123, 1.281, -1.3], a = 0.2, v = 0.2, t = 0.2)
movej(p[0.486313519591027, -0.106964540298596, 0.42466186313598, -1.123, 1.281, -1.3], a = 0.2, v = 0.2, t = 0.2)
movej(p[0.486298627671468, -0.106969694346361, 0.425209836590195, -1.123, 1.281, -1.3], a = 0.2, v = 0.2, t = 0.2)
movej(p[0.486308610853588, -0.106966239197595, 0.424842488461001, -1.123, 1.281, -1.3], a = 0.2, v = 0.2, t = 0.2)
movej(p[0.48634577002317, -0.106953378522773, 0.423475153751006, -1.123, 1.281, -1.3], a = 0.2, v = 0.2, t = 0.2)
movej(p[0.486409760183174, -0.106931231724315, 0.421120527211883, -1.123, 1.281, -1.3], a = 0.2, v = 0.2, t = 0.2)
movej(p[0.486486194413646, -0.106904778071168, 0.418307999980238, -1.123, 1.281, -1.3], a = 0.2, v = 0.2, t = 0.2)
movej(p[0.486566722971218, -0.106876907383948, 0.415344815034219, -1.123, 1.281, -1.3], a = 0.2, v = 0.2, t = 0.2)
movej(p[0.486642424015063, -0.106850707484448, 0.412559266648851, -1.123, 1.281, -1.3], a = 0.2, v = 0.2, t = 0.2)
movej(p[0.486695295490872, -0.106832408828548, 0.410613770964909, -1.123, 1.281, -1.3], a = 0.2, v = 0.2, t = 0.2)
movej(p[0.486713599349681, -0.106826073919055, 0.409940249415384, -1.123, 1.281, -1.3], a = 0.2, v = 0.2, t = 0.2)
movej(p[0.48668267185895, -0.106836777828906, 0.411078278925823, -1.123, 1.281, -1.3], a = 0.2, v = 0.2, t = 0.2)
movej(p[0.486621202622214, -0.106858052143539, 0.413340143814908, -1.123, 1.281, -1.3], a = 0.2, v = 0.2, t = 0.2)
movej(p[0.486548302302387, -0.106883282721032, 0.416022634806752, -1.123, 1.281, -1.3], a = 0.2, v = 0.2, t = 0.2)
movej(p[0.486480632626688, -0.106906702988606, 0.418512655370635, -1.123, 1.281, -1.3], a = 0.2, v = 0.2, t = 0.2)
movej(p[0.486428610060923, -0.106924707839339, 0.420426913968761, -1.123, 1.281, -1.3], a = 0.2, v = 0.2, t = 0.2)
movej(p[0.486387525531296, -0.106938927069254, 0.421938688963569, -1.123, 1.281, -1.3], a = 0.2, v = 0.2, t = 0.2)
movej(p[0.486356915872487, -0.10694952097845, 0.423065023309079, -1.123, 1.281, -1.3], a = 0.2, v = 0.2, t = 0.2)
movej(p[0.48633323603615, -0.106957716497306, 0.423936363075658, -1.123, 1.281, -1.3], a = 0.2, v = 0.2, t = 0.2)
movej(p[0.486312316176149, -0.106964956796801, 0.424706144828833, -1.123, 1.281, -1.3], a = 0.2, v = 0.2, t = 0.2)
movej(p[0.486315342370674, -0.106963909440141, 0.424594790865317, -1.123, 1.281, -1.3], a = 0.2, v = 0.2, t = 0.2)
movej(p[0.486346826746393, -0.106953012794101, 0.423436269826582, -1.123, 1.281, -1.3], a = 0.2, v = 0.2, t = 0.2)
movej(p[0.486418080859863, -0.106928351963589, 0.420814353791551, -1.123, 1.281, -1.3], a = 0.2, v = 0.2, t = 0.2)
movej(p[0.486500837120382, -0.106899710275199, 0.417769196734832, -1.123, 1.281, -1.3], a = 0.2, v = 0.2, t = 0.2)
movej(p[0.486580101793514, -0.106872277014513, 0.414852518561763, -1.123, 1.281, -1.3], a = 0.2, v = 0.2, t = 0.2)
movej(p[0.486650337214931, -0.106847968750201, 0.412268087029711, -1.123, 1.281, -1.3], a = 0.2, v = 0.2, t = 0.2)
movej(p[0.486693312437008, -0.106833095157418, 0.410686740797374, -1.123, 1.281, -1.3], a = 0.2, v = 0.2, t = 0.2)
movej(p[0.486697523030828, -0.106831637883789, 0.410531804851728, -1.123, 1.281, -1.3], a = 0.2, v = 0.2, t = 0.2)
movej(p[0.486654784145307, -0.106846429681214, 0.412104454679374, -1.123, 1.281, -1.3], a = 0.2, v = 0.2, t = 0.2)
movej(p[0.486586442132852, -0.106870082642481, 0.414619215015222, -1.123, 1.281, -1.3], a = 0.2, v = 0.2, t = 0.2)
movej(p[0.486517527479639, -0.106893933792961, 0.417155046639679, -1.123, 1.281, -1.3], a = 0.2, v = 0.2, t = 0.2)
movej(p[0.486459347395803, -0.106914069741846, 0.419295881565545, -1.123, 1.281, -1.3], a = 0.2, v = 0.2, t = 0.2)
movej(p[0.486412655985117, -0.106930229496129, 0.421013971264748, -1.123, 1.281, -1.3], a = 0.2, v = 0.2, t = 0.2)
movej(p[0.486377028928382, -0.106942559911385, 0.422324929282264, -1.123, 1.281, -1.3], a = 0.2, v = 0.2, t = 0.2)
movej(p[0.486344265075444, -0.106953899380574, 0.42353053085674, -1.123, 1.281, -1.3], a = 0.2, v = 0.2, t = 0.2)
movej(p[0.486320267407187, -0.106962204900083, 0.424413565788248, -1.123, 1.281, -1.3], a = 0.2, v = 0.2, t = 0.2)
movej(p[0.486322114635443, -0.10696156558004, 0.424345593889513, -1.123, 1.281, -1.3], a = 0.2, v = 0.2, t = 0.2)
movej(p[0.486351969103877, -0.10695123303992, 0.423247048055545, -1.123, 1.281, -1.3], a = 0.2, v = 0.2, t = 0.2)
movej(p[0.486418037395669, -0.106928367006413, 0.420815953130345, -1.123, 1.281, -1.3], a = 0.2, v = 0.2, t = 0.2)
movej(p[0.486491626622975, -0.106902898000151, 0.418108112618619, -1.123, 1.281, -1.3], a = 0.2, v = 0.2, t = 0.2)
movej(p[0.486571392655589, -0.106875291220484, 0.415172986072564, -1.123, 1.281, -1.3], a = 0.2, v = 0.2, t = 0.2)
movej(p[0.486641098357138, -0.106851166290597, 0.412608046482061, -1.123, 1.281, -1.3], a = 0.2, v = 0.2, t = 0.2)
movej(p[0.48669663744787, -0.106831944381339, 0.410564391379651, -1.123, 1.281, -1.3], a = 0.2, v = 0.2, t = 0.2)
movej(p[0.486719217096789, -0.106824129633981, 0.40973353487629, -1.123, 1.281, -1.3], a = 0.2, v = 0.2, t = 0.2)
movej(p[0.486694170854845, -0.106832798061633, 0.410655153856198, -1.123, 1.281, -1.3], a = 0.2, v = 0.2, t = 0.2)
movej(p[0.486637773346277, -0.106852317066676, 0.412730395899784, -1.123, 1.281, -1.3], a = 0.2, v = 0.2, t = 0.2)
movej(p[0.486564614957796, -0.106877636960939, 0.415422382965717, -1.123, 1.281, -1.3], a = 0.2, v = 0.2, t = 0.2)
movej(p[0.486495393067059, -0.106901594445386, 0.417969519916272, -1.123, 1.281, -1.3], a = 0.2, v = 0.2, t = 0.2)
movej(p[0.486441282590063, -0.106920321915803, 0.419960606751704, -1.123, 1.281, -1.3], a = 0.2, v = 0.2, t = 0.2)
movej(p[0.486404327158891, -0.106933112077385, 0.421320444561104, -1.123, 1.281, -1.3], a = 0.2, v = 0.2, t = 0.2)
movej(p[0.486373815294518, -0.106943672140226, 0.422443180394328, -1.123, 1.281, -1.3], a = 0.2, v = 0.2, t = 0.2)
movej(p[0.48634722879019, -0.106952873647974, 0.42342147594274, -1.123, 1.281, -1.3], a = 0.2, v = 0.2, t = 0.2)
movej(p[0.486332369468777, -0.10695801641362, 0.423968249892859, -1.123, 1.281, -1.3], a = 0.2, v = 0.2, t = 0.2)
movej(p[0.486344281374517, -0.106953893739514, 0.423529931104692, -1.123, 1.281, -1.3], a = 0.2, v = 0.2, t = 0.2)
movej(p[0.486379452057212, -0.106941721273916, 0.422235766144511, -1.123, 1.281, -1.3], a = 0.2, v = 0.2, t = 0.2)
movej(p[0.486428419905073, -0.106924773651697, 0.420433911075984, -1.123, 1.281, -1.3], a = 0.2, v = 0.2, t = 0.2)
movej(p[0.486485244992653, -0.106905106662867, 0.418342935537014, -1.123, 1.281, -1.3], a = 0.2, v = 0.2, t = 0.2)
movej(p[0.486547854077883, -0.10688343785016, 0.416039127988063, -1.123, 1.281, -1.3], a = 0.2, v = 0.2, t = 0.2)
movej(p[0.486612767852015, -0.10686097139168, 0.413650515499573, -1.123, 1.281, -1.3], a = 0.2, v = 0.2, t = 0.2)
movej(p[0.486674889051665, -0.106839471434678, 0.411364660528582, -1.123, 1.281, -1.3], a = 0.2, v = 0.2, t = 0.2)
movej(p[0.486712099834979, -0.106826592896502, 0.409995426603769, -1.123, 1.281, -1.3], a = 0.2, v = 0.2, t = 0.2)
movej(p[0.486718453756877, -0.106824393823587, 0.409761623263855, -1.123, 1.281, -1.3], a = 0.2, v = 0.2, t = 0.2)
movej(p[0.486683340120937, -0.106836546545478, 0.411053689091869, -1.123, 1.281, -1.3], a = 0.2, v = 0.2, t = 0.2)
movej(p[0.486620648453737, -0.106858243939552, 0.413360535384528, -1.123, 1.281, -1.3], a = 0.2, v = 0.2, t = 0.2)
movej(p[0.486553039899561, -0.106881643053155, 0.415848306878232, -1.123, 1.281, -1.3], a = 0.2, v = 0.2, t = 0.2)
movej(p[0.486486735271213, -0.10690459088202, 0.418288098208123, -1.123, 1.281, -1.3], a = 0.2, v = 0.2, t = 0.2)
movej(p[0.486437552818893, -0.106921612778186, 0.420097850011944, -1.123, 1.281, -1.3], a = 0.2, v = 0.2, t = 0.2)
movej(p[0.486398771891562, -0.106935034738399, 0.421524860050682, -1.123, 1.281, -1.3], a = 0.2, v = 0.2, t = 0.2)
movej(p[0.486367648811957, -0.10694580634096, 0.422670086585693, -1.123, 1.281, -1.3], a = 0.2, v = 0.2, t = 0.2)
movej(p[0.486340584201492, -0.106955173319778, 0.423665974860837, -1.123, 1.281, -1.3], a = 0.2, v = 0.2, t = 0.2)
movej(p[0.486343211068733, -0.106954264169069, 0.423569314822489, -1.123, 1.281, -1.3], a = 0.2, v = 0.2, t = 0.2)
movej(p[0.48638916630463, -0.106938359202627, 0.421878313924104, -1.123, 1.281, -1.3], a = 0.2, v = 0.2, t = 0.2)
movej(p[0.48647115335757, -0.106909983734625, 0.418861461165688, -1.123, 1.281, -1.3], a = 0.2, v = 0.2, t = 0.2)
movej(p[0.486556101408745, -0.1068805834742, 0.415735653451946, -1.123, 1.281, -1.3], a = 0.2, v = 0.2, t = 0.2)
movej(p[0.486637115950339, -0.106852544589397, 0.41275458589904, -1.123, 1.281, -1.3], a = 0.2, v = 0.2, t = 0.2)
movej(p[0.486706107209195, -0.106828666925938, 0.410215935439959, -1.123, 1.281, -1.3], a = 0.2, v = 0.2, t = 0.2)
movej(p[0.486741783163148, -0.106816319587505, 0.408903178166301, -1.123, 1.281, -1.3], a = 0.2, v = 0.2, t = 0.2)
movej(p[0.486739164445444, -0.106817225917684, 0.408999538328625, -1.123, 1.281, -1.3], a = 0.2, v = 0.2, t = 0.2)
movej(p[0.486689808136346, -0.106834307985148, 0.410815687487622, -1.123, 1.281, -1.3], a = 0.2, v = 0.2, t = 0.2)
movej(p[0.486619809051486, -0.106858534454102, 0.413391422614983, -1.123, 1.281, -1.3], a = 0.2, v = 0.2, t = 0.2)
movej(p[0.486546235036647, -0.106883998195375, 0.416098703358131, -1.123, 1.281, -1.3], a = 0.2, v = 0.2, t = 0.2)
movej(p[0.486486426132132, -0.10690469787411, 0.418299473505293, -1.123, 1.281, -1.3], a = 0.2, v = 0.2, t = 0.2)
movej(p[0.486441991599732, -0.106920076529728, 0.419934517537631, -1.123, 1.281, -1.3], a = 0.2, v = 0.2, t = 0.2)
movej(p[0.486404487433107, -0.10693305660697, 0.421314546999302, -1.123, 1.281, -1.3], a = 0.2, v = 0.2, t = 0.2)
movej(p[0.486374372179507, -0.106943479404036, 0.422422688866033, -1.123, 1.281, -1.3], a = 0.2, v = 0.2, t = 0.2)
movej(p[0.486348665825113, -0.106952376294587, 0.423368597803871, -1.123, 1.281, -1.3], a = 0.2, v = 0.2, t = 0.2)
movej(p[0.486339280275664, -0.106955624604515, 0.42371395502465, -1.123, 1.281, -1.3], a = 0.2, v = 0.2, t = 0.2)
movej(p[0.486361102017697, -0.10694807216641, 0.422910986991505, -1.123, 1.281, -1.3], a = 0.2, v = 0.2, t = 0.2)
movej(p[0.486415204073505, -0.106929347610539, 0.420920210027964, -1.123, 1.281, -1.3], a = 0.2, v = 0.2, t = 0.2)
movej(p[0.486495825807443, -0.106901444675264, 0.417953596499406, -1.123, 1.281, -1.3], a = 0.2, v = 0.2, t = 0.2)
movej(p[0.486578382241329, -0.10687287214626, 0.414915792402791, -1.123, 1.281, -1.3], a = 0.2, v = 0.2, t = 0.2)
movej(p[0.486652426212768, -0.106847245754446, 0.412191218808936, -1.123, 1.281, -1.3], a = 0.2, v = 0.2, t = 0.2)
movej(p[0.486695042855243, -0.106832496264965, 0.410623067121648, -1.123, 1.281, -1.3], a = 0.2, v = 0.2, t = 0.2)
movej(p[0.486702301375684, -0.106829984113264, 0.410355977543089, -1.123, 1.281, -1.3], a = 0.2, v = 0.2, t = 0.2)
movej(p[0.486667975528265, -0.10684186418396, 0.411619055355466, -1.123, 1.281, -1.3], a = 0.2, v = 0.2, t = 0.2)
movej(p[0.486613976699918, -0.106860553013122, 0.413606033889371, -1.123, 1.281, -1.3], a = 0.2, v = 0.2, t = 0.2)
movej(p[0.486562884539562, -0.106878235853392, 0.415486056641444, -1.123, 1.281, -1.3], a = 0.2, v = 0.2, t = 0.2)
movej(p[0.486553721744109, -0.106881407068844, 0.415823217250905, -1.123, 1.281, -1.3], a = 0.2, v = 0.2, t = 0.2)
movej(p[0.486599614500226, -0.106865523726463, 0.414134515402037, -1.123, 1.281, -1.3], a = 0.2, v = 0.2, t = 0.2)
movej(p[0.486645735443363, -0.106849561409252, 0.412437417024501, -1.123, 1.281, -1.3], a = 0.2, v = 0.2, t = 0.2)
movej(p[0.486663724186764, -0.106843335560237, 0.411775490681231, -1.123, 1.281, -1.3], a = 0.2, v = 0.2, t = 0.2)
movej(p[0.486637651103231, -0.10685235937462, 0.412734894040142, -1.123, 1.281, -1.3], a = 0.2, v = 0.2, t = 0.2)
movej(p[0.486603227461374, -0.106864273291671, 0.414001570364805, -1.123, 1.281, -1.3], a = 0.2, v = 0.2, t = 0.2)
movej(p[0.486559404687509, -0.106879440219533, 0.41561410370362, -1.123, 1.281, -1.3], a = 0.2, v = 0.2, t = 0.2)
movej(p[0.486511187955254, -0.106896127882941, 0.417388320198617, -1.123, 1.281, -1.3], a = 0.2, v = 0.2, t = 0.2)
movej(p[0.486458418348651, -0.106914391282221, 0.419330067432261, -1.123, 1.281, -1.3], a = 0.2, v = 0.2, t = 0.2)
movej(p[0.486415087263483, -0.10692938803813, 0.420924508250972, -1.123, 1.281, -1.3], a = 0.2, v = 0.2, t = 0.2)
movej(p[0.486384445006528, -0.106939993229445, 0.422052042100577, -1.123, 1.281, -1.3], a = 0.2, v = 0.2, t = 0.2)
movej(p[0.486361531226615, -0.106947923618517, 0.422895193520916, -1.123, 1.281, -1.3], a = 0.2, v = 0.2, t = 0.2)
movej(p[0.486337316237386, -0.10695630435215, 0.423786225146393, -1.123, 1.281, -1.3], a = 0.2, v = 0.2, t = 0.2)
movej(p[0.486315736264935, -0.106963773114544, 0.424580296857498, -1.123, 1.281, -1.3], a = 0.2, v = 0.2, t = 0.2)
movej(p[0.486312169484493, -0.106965007566334, 0.424711542597262, -1.123, 1.281, -1.3], a = 0.2, v = 0.2, t = 0.2)
movej(p[0.486347130995753, -0.106952907494329, 0.423425074455026, -1.123, 1.281, -1.3], a = 0.2, v = 0.2, t = 0.2)
movej(p[0.486419001757479, -0.106928033243743, 0.420780467800858, -1.123, 1.281, -1.3], a = 0.2, v = 0.2, t = 0.2)
movej(p[0.486514681933171, -0.106894918627881, 0.417259753351333, -1.123, 1.281, -1.3], a = 0.2, v = 0.2, t = 0.2)
movej(p[0.486610803813737, -0.106861651139315, 0.413722785621316, -1.123, 1.281, -1.3], a = 0.2, v = 0.2, t = 0.2)
movej(p[0.486678252093696, -0.106838307496128, 0.411240911689415, -1.123, 1.281, -1.3], a = 0.2, v = 0.2, t = 0.2)
movej(p[0.486701524453212, -0.106830253003753, 0.410384565724027, -1.123, 1.281, -1.3], a = 0.2, v = 0.2, t = 0.2)
movej(p[0.486674772241643, -0.106839511862269, 0.41136895875159, -1.123, 1.281, -1.3], a = 0.2, v = 0.2, t = 0.2)
movej(p[0.486617301710779, -0.106859402237043, 0.413483684471648, -1.123, 1.281, -1.3], a = 0.2, v = 0.2, t = 0.2)
movej(p[0.486546202438501, -0.106884009477493, 0.416099902862226, -1.123, 1.281, -1.3], a = 0.2, v = 0.2, t = 0.2)
movej(p[0.486484313772291, -0.106905428955384, 0.41837720137067, -1.123, 1.281, -1.3], a = 0.2, v = 0.2, t = 0.2)
movej(p[0.486439288670151, -0.10692101200538, 0.420033976418868, -1.123, 1.281, -1.3], a = 0.2, v = 0.2, t = 0.2)
movej(p[0.486402947170723, -0.106933589687065, 0.421371223567806, -1.123, 1.281, -1.3], a = 0.2, v = 0.2, t = 0.2)
movej(p[0.48637404619805, -0.106943592225221, 0.422434683906986, -1.123, 1.281, -1.3], a = 0.2, v = 0.2, t = 0.2)
movej(p[0.486346278010941, -0.106953202709761, 0.423456461478854, -1.123, 1.281, -1.3], a = 0.2, v = 0.2, t = 0.2)
movej(p[0.486321144840608, -0.106961901223063, 0.424381279136349, -1.123, 1.281, -1.3], a = 0.2, v = 0.2, t = 0.2)
movej(p[0.486311278468511, -0.106965315944238, 0.424744329042534, -1.123, 1.281, -1.3], a = 0.2, v = 0.2, t = 0.2)
movej(p[0.486333097494031, -0.106957764446309, 0.423941460968063, -1.123, 1.281, -1.3], a = 0.2, v = 0.2, t = 0.2)
movej(p[0.486390521844188, -0.106937890054536, 0.421828434545474, -1.123, 1.281, -1.3], a = 0.2, v = 0.2, t = 0.2)
movej(p[0.486466986227945, -0.10691142596543, 0.41901479777254, -1.123, 1.281, -1.3], a = 0.2, v = 0.2, t = 0.2)
movej(p[0.486524013424028, -0.106891689027466, 0.416916385308179, -1.123, 1.281, -1.3], a = 0.2, v = 0.2, t = 0.2)
movej(p[0.486550836808215, -0.106882405536325, 0.415929373363341, -1.123, 1.281, -1.3], a = 0.2, v = 0.2, t = 0.2)
movej(p[0.486545227210643, -0.106884347000869, 0.416135788026411, -1.123, 1.281, -1.3], a = 0.2, v = 0.2, t = 0.2)
movej(p[0.486531296936381, -0.106889168226141, 0.416648376109814, -1.123, 1.281, -1.3], a = 0.2, v = 0.2, t = 0.2)
movej(p[0.486513899849325, -0.106895189304706, 0.417288531453754, -1.123, 1.281, -1.3], a = 0.2, v = 0.2, t = 0.2)
movej(p[0.486509849258071, -0.106896591201937, 0.417437579833465, -1.123, 1.281, -1.3], a = 0.2, v = 0.2, t = 0.2)
movej(p[0.486535132651525, -0.106887840696873, 0.416507234461264, -1.123, 1.281, -1.3], a = 0.2, v = 0.2, t = 0.2)
movej(p[0.486569838810644, -0.106875829001462, 0.415230162434441, -1.123, 1.281, -1.3], a = 0.2, v = 0.2, t = 0.2)
movej(p[0.486592592316341, -0.106867954082805, 0.414392908575904, -1.123, 1.281, -1.3], a = 0.2, v = 0.2, t = 0.2)
movej(p[0.48658147906517, -0.10687180034501, 0.414801839513736, -1.123, 1.281, -1.3], a = 0.2, v = 0.2, t = 0.2)
movej(p[0.48655685659912, -0.106880322105123, 0.415707864940404, -1.123, 1.281, -1.3], a = 0.2, v = 0.2, t = 0.2)
movej(p[0.486529305732982, -0.106889857375541, 0.416721645818303, -1.123, 1.281, -1.3], a = 0.2, v = 0.2, t = 0.2)
movej(p[0.486493936473249, -0.106902098568044, 0.418023117757598, -1.123, 1.281, -1.3], a = 0.2, v = 0.2, t = 0.2)
movej(p[0.486445107439158, -0.106918998147242, 0.419819864937852, -1.123, 1.281, -1.3], a = 0.2, v = 0.2, t = 0.2)
movej(p[0.486395870656595, -0.106936038846939, 0.421631615915166, -1.123, 1.281, -1.3], a = 0.2, v = 0.2, t = 0.2)
movej(p[0.486356244893988, -0.106949753202054, 0.423089713101708, -1.123, 1.281, -1.3], a = 0.2, v = 0.2, t = 0.2)
movej(p[0.486329560595222, -0.106958988556157, 0.424071607162406, -1.123, 1.281, -1.3], a = 0.2, v = 0.2, t = 0.2)
movej(p[0.486332317855046, -0.106958034276974, 0.423970149107676, -1.123, 1.281, -1.3], a = 0.2, v = 0.2, t = 0.2)
movej(p[0.486381160743349, -0.106941129902876, 0.422172892138181, -1.123, 1.281, -1.3], a = 0.2, v = 0.2, t = 0.2)
movej(p[0.486467950589755, -0.10691109220276, 0.418979312443054, -1.123, 1.281, -1.3], a = 0.2, v = 0.2, t = 0.2)
movej(p[0.486573745155103, -0.106874477027605, 0.415086421860351, -1.123, 1.281, -1.3], a = 0.2, v = 0.2, t = 0.2)
movej(p[0.486665549682923, -0.106842703761606, 0.411708318451893, -1.123, 1.281, -1.3], a = 0.2, v = 0.2, t = 0.2)
movej(p[0.486721330543235, -0.106823398176636, 0.409655767027443, -1.123, 1.281, -1.3], a = 0.2, v = 0.2, t = 0.2)
movej(p[0.486727103131536, -0.1068214003015, 0.409443354843896, -1.123, 1.281, -1.3], a = 0.2, v = 0.2, t = 0.2)
movej(p[0.486687292646103, -0.10683517858862, 0.410908249220311, -1.123, 1.281, -1.3], a = 0.2, v = 0.2, t = 0.2)
movej(p[0.486627094737049, -0.106856012900635, 0.413123333449678, -1.123, 1.281, -1.3], a = 0.2, v = 0.2, t = 0.2)
movej(p[0.486555598853999, -0.106880757406859, 0.415754145806749, -1.123, 1.281, -1.3], a = 0.2, v = 0.2, t = 0.2)
movej(p[0.486492508946119, -0.106902592630813, 0.418075646041106, -1.123, 1.281, -1.3], a = 0.2, v = 0.2, t = 0.2)
movej(p[0.48644314340088, -0.106919677894877, 0.419892135059596, -1.123, 1.281, -1.3], a = 0.2, v = 0.2, t = 0.2)
movej(p[0.486403004217478, -0.106933569943358, 0.421369124435639, -1.123, 1.281, -1.3], a = 0.2, v = 0.2, t = 0.2)
movej(p[0.486365931976284, -0.106946400532531, 0.422733260468047, -1.123, 1.281, -1.3], a = 0.2, v = 0.2, t = 0.2)
movej(p[0.486343531617166, -0.106954153228238, 0.423557519698885, -1.123, 1.281, -1.3], a = 0.2, v = 0.2, t = 0.2)
movej(p[0.486356687685467, -0.106949599953279, 0.423073419837746, -1.123, 1.281, -1.3], a = 0.2, v = 0.2, t = 0.2)
movej(p[0.48641759460419, -0.106928520255188, 0.420832246394307, -1.123, 1.281, -1.3], a = 0.2, v = 0.2, t = 0.2)
movej(p[0.486505411835488, -0.106898126980307, 0.417600862328441, -1.123, 1.281, -1.3], a = 0.2, v = 0.2, t = 0.2)
movej(p[0.486604455324862, -0.106863848331877, 0.413956389043881, -1.123, 1.281, -1.3], a = 0.2, v = 0.2, t = 0.2)
movej(p[0.486698495542174, -0.106831301300589, 0.410496019646218, -1.123, 1.281, -1.3], a = 0.2, v = 0.2, t = 0.2)
movej(p[0.486757623145445, -0.106810837418129, 0.408320319134648, -1.123, 1.281, -1.3], a = 0.2, v = 0.2, t = 0.2)
movej(p[0.486775997633569, -0.106804478064047, 0.407644198659583, -1.123, 1.281, -1.3], a = 0.2, v = 0.2, t = 0.2)
movej(p[0.486738987872154, -0.106817287029159, 0.409006035642475, -1.123, 1.281, -1.3], a = 0.2, v = 0.2, t = 0.2)
movej(p[0.486674448976698, -0.106839623743277, 0.411380853833869, -1.123, 1.281, -1.3], a = 0.2, v = 0.2, t = 0.2)
movej(p[0.486601478027555, -0.10686487876536, 0.414065943751254, -1.123, 1.281, -1.3], a = 0.2, v = 0.2, t = 0.2)
movej(p[0.486533445697485, -0.106888424546501, 0.416569308798197, -1.123, 1.281, -1.3], a = 0.2, v = 0.2, t = 0.2)
movej(p[0.486474927951191, -0.10690867735933, 0.418722568587317, -1.123, 1.281, -1.3], a = 0.2, v = 0.2, t = 0.2)
movej(p[0.486425469772888, -0.106925794683414, 0.420542466196611, -1.123, 1.281, -1.3], a = 0.2, v = 0.2, t = 0.2)
movej(p[0.486381535622024, -0.106941000158514, 0.422159097841085, -1.123, 1.281, -1.3], a = 0.2, v = 0.2, t = 0.2)
movej(p[0.486346843045466, -0.106953007153042, 0.423435670074535, -1.123, 1.281, -1.3], a = 0.2, v = 0.2, t = 0.2)
movej(p[0.486321196454339, -0.106961883359709, 0.424379379921531, -1.123, 1.281, -1.3], a = 0.2, v = 0.2, t = 0.2)
movej(p[0.486332456397165, -0.106957986327971, 0.423965051215271, -1.123, 1.281, -1.3], a = 0.2, v = 0.2, t = 0.2)
movej(p[0.486381831721848, -0.106940897679271, 0.422148202345553, -1.123, 1.281, -1.3], a = 0.2, v = 0.2, t = 0.2)
movej(p[0.486470705133067, -0.106910138863753, 0.418877954346999, -1.123, 1.281, -1.3], a = 0.2, v = 0.2, t = 0.2)
movej(p[0.486571197066715, -0.106875358913195, 0.415180183097136, -1.123, 1.281, -1.3], a = 0.2, v = 0.2, t = 0.2)
movej(p[0.486664778193475, -0.106842970771742, 0.411736706715482, -1.123, 1.281, -1.3], a = 0.2, v = 0.2, t = 0.2)
movej(p[0.486732006435951, -0.106819703282854, 0.409262929436224, -1.123, 1.281, -1.3], a = 0.2, v = 0.2, t = 0.2)
movej(p[0.486755140253347, -0.106811696739482, 0.408411681363242, -1.123, 1.281, -1.3], a = 0.2, v = 0.2, t = 0.2)
movej(p[0.486731438684913, -0.10681989977975, 0.409283820799217, -1.123, 1.281, -1.3], a = 0.2, v = 0.2, t = 0.2)
movej(p[0.486670686607383, -0.106840925887778, 0.411519296598205, -1.123, 1.281, -1.3], a = 0.2, v = 0.2, t = 0.2)
movej(p[0.486598601241197, -0.10686587441231, 0.414171799987666, -1.123, 1.281, -1.3], a = 0.2, v = 0.2, t = 0.2)
movej(p[0.48652884664243, -0.106890016265375, 0.416738538834312, -1.123, 1.281, -1.3], a = 0.2, v = 0.2, t = 0.2)
movej(p[0.486467820197173, -0.106911137331233, 0.418984110459435, -1.123, 1.281, -1.3], a = 0.2, v = 0.2, t = 0.2)
movej(p[0.486417211575978, -0.10692865282008, 0.420846340567427, -1.123, 1.281, -1.3], a = 0.2, v = 0.2, t = 0.2)
movej(p[0.486370566345997, -0.106944796591362, 0.422562730969162, -1.123, 1.281, -1.3], a = 0.2, v = 0.2, t = 0.2)
movej(p[0.48633270359977, -0.106957900771906, 0.423955954975882, -1.123, 1.281, -1.3], a = 0.2, v = 0.2, t = 0.2)
movej(p[0.486307556846877, -0.106966603986091, 0.42488127242675, -1.123, 1.281, -1.3], a = 0.2, v = 0.2, t = 0.2)
movej(p[0.486331331761139, -0.106958375561057, 0.42400643410656, -1.123, 1.281, -1.3], a = 0.2, v = 0.2, t = 0.2)
movej(p[0.486397071354961, -0.10693562328891, 0.421587434180988, -1.123, 1.281, -1.3], a = 0.2, v = 0.2, t = 0.2)
movej(p[0.486496469077519, -0.10690122204146, 0.417929926285259, -1.123, 1.281, -1.3], a = 0.2, v = 0.2, t = 0.2)
movej(p[0.486596417165436, -0.106866630314244, 0.414252166762053, -1.123, 1.281, -1.3], a = 0.2, v = 0.2, t = 0.2)
movej(p[0.486679143109679, -0.106837999118225, 0.411208125244142, -1.123, 1.281, -1.3], a = 0.2, v = 0.2, t = 0.2)
movej(p[0.486734823459042, -0.106818728319787, 0.409159272290653, -1.123, 1.281, -1.3], a = 0.2, v = 0.2, t = 0.2)
movej(p[0.486743174017364, -0.106815838217119, 0.408851999324901, -1.123, 1.281, -1.3], a = 0.2, v = 0.2, t = 0.2)
movej(p[0.486708875335067, -0.106827708886049, 0.410114077550531, -1.123, 1.281, -1.3], a = 0.2, v = 0.2, t = 0.2)
movej(p[0.486636681308396, -0.106852695017643, 0.412770579286978, -1.123, 1.281, -1.3], a = 0.2, v = 0.2, t = 0.2)
movej(p[0.486557421633646, -0.106880126548404, 0.415687073536085, -1.123, 1.281, -1.3], a = 0.2, v = 0.2, t = 0.2)
movej(p[0.486490671497306, -0.106903228566221, 0.418143258088612, -1.123, 1.281, -1.3], a = 0.2, v = 0.2, t = 0.2)
movej(p[0.486437226837436, -0.10692172559937, 0.420109845052897, -1.123, 1.281, -1.3], a = 0.2, v = 0.2, t = 0.2)
movej(p[0.48639098093474, -0.106937731164702, 0.421811541529465, -1.123, 1.281, -1.3], a = 0.2, v = 0.2, t = 0.2)
movej(p[0.486350561950588, -0.106951720051365, 0.423298826648993, -1.123, 1.281, -1.3], a = 0.2, v = 0.2, t = 0.2)
movej(p[0.486314720289394, -0.106964124740568, 0.424617681401803, -1.123, 1.281, -1.3], a = 0.2, v = 0.2, t = 0.2)
movej(p[0.486302012445596, -0.106968522886399, 0.42508528808163, -1.123, 1.281, -1.3], a = 0.2, v = 0.2, t = 0.2)
movej(p[0.486327599273456, -0.106959667363616, 0.424143777325475, -1.123, 1.281, -1.3], a = 0.2, v = 0.2, t = 0.2)
movej(p[0.486391407427146, -0.106937583556986, 0.421795848017551, -1.123, 1.281, -1.3], a = 0.2, v = 0.2, t = 0.2)
movej(p[0.486475983316158, -0.106908312100746, 0.418683734642231, -1.123, 1.281, -1.3], a = 0.2, v = 0.2, t = 0.2)
movej(p[0.48655901350976, -0.106879575604954, 0.415628497752764, -1.123, 1.281, -1.3], a = 0.2, v = 0.2, t = 0.2)
movej(p[0.486637642953694, -0.106852362195149, 0.412735193916165, -1.123, 1.281, -1.3], a = 0.2, v = 0.2, t = 0.2)
movej(p[0.486700087418289, -0.10683075035714, 0.410437443862896, -1.123, 1.281, -1.3], a = 0.2, v = 0.2, t = 0.2)
movej(p[0.486720518306105, -0.10682367928942, 0.409685654671151, -1.123, 1.281, -1.3], a = 0.2, v = 0.2, t = 0.2)
movej(p[0.48669492604522, -0.106832536692556, 0.410627365344656, -1.123, 1.281, -1.3], a = 0.2, v = 0.2, t = 0.2)
movej(p[0.486632755948352, -0.106854053572736, 0.41291501957179, -1.123, 1.281, -1.3], a = 0.2, v = 0.2, t = 0.2)
movej(p[0.486564655705478, -0.106877622858291, 0.415420883585598, -1.123, 1.281, -1.3], a = 0.2, v = 0.2, t = 0.2)
movej(p[0.486497888020471, -0.106900730949649, 0.417877713871163, -1.123, 1.281, -1.3], a = 0.2, v = 0.2, t = 0.2)
movej(p[0.486445017794257, -0.106919029173068, 0.419823163574115, -1.123, 1.281, -1.3], a = 0.2, v = 0.2, t = 0.2)
movej(p[0.486400056801805, -0.106934590034898, 0.421477579597591, -1.123, 1.281, -1.3], a = 0.2, v = 0.2, t = 0.2)
movej(p[0.486362764523127, -0.10694749677837, 0.422849812282643, -1.123, 1.281, -1.3], a = 0.2, v = 0.2, t = 0.2)
movej(p[0.486329082489085, -0.106959154027227, 0.424089199889137, -1.123, 1.281, -1.3], a = 0.2, v = 0.2, t = 0.2)
movej(p[0.486299051447362, -0.106969547678822, 0.425194243036955, -1.123, 1.281, -1.3], a = 0.2, v = 0.2, t = 0.2)
movej(p[0.486283409770452, -0.10697496121531, 0.425769805085362, -1.123, 1.281, -1.3], a = 0.2, v = 0.2, t = 0.2)
movej(p[0.48630312078255, -0.106968139294372, 0.425044504942389, -1.123, 1.281, -1.3], a = 0.2, v = 0.2, t = 0.2)
movej(p[0.486360512534562, -0.106948276184718, 0.422932678023895, -1.123, 1.281, -1.3], a = 0.2, v = 0.2, t = 0.2)
movej(p[0.486450703454169, -0.10691706138358, 0.419613950068155, -1.123, 1.281, -1.3], a = 0.2, v = 0.2, t = 0.2)
movej(p[0.486547188532409, -0.106883668193411, 0.416063617863343, -1.123, 1.281, -1.3], a = 0.2, v = 0.2, t = 0.2)
movej(p[0.486633190590294, -0.10685390314449, 0.412899026183852, -1.123, 1.281, -1.3], a = 0.2, v = 0.2, t = 0.2)
movej(p[0.486694423490474, -0.106832710625215, 0.410645857699459, -1.123, 1.281, -1.3], a = 0.2, v = 0.2, t = 0.2)
movej(p[0.48671962457361, -0.1068239886075, 0.409718541075098, -1.123, 1.281, -1.3], a = 0.2, v = 0.2, t = 0.2)
movej(p[0.486694458805132, -0.10683269840292, 0.410644558236689, -1.123, 1.281, -1.3], a = 0.2, v = 0.2, t = 0.2)
movej(p[0.486628387796828, -0.106855565376604, 0.413075753120563, -1.123, 1.281, -1.3], a = 0.2, v = 0.2, t = 0.2)
movej(p[0.486550684683535, -0.10688245818621, 0.415934971049119, -1.123, 1.281, -1.3], a = 0.2, v = 0.2, t = 0.2)
movej(p[0.486479175217924, -0.106907207393317, 0.418566283199563, -1.123, 1.281, -1.3], a = 0.2, v = 0.2, t = 0.2)
movej(p[0.486426124452314, -0.106925568100869, 0.42051837615603, -1.123, 1.281, -1.3], a = 0.2, v = 0.2, t = 0.2)
movej(p[0.486381128145203, -0.106941141184994, 0.422174091642277, -1.123, 1.281, -1.3], a = 0.2, v = 0.2, t = 0.2)
movej(p[0.486348921177254, -0.106952287917993, 0.423359201688458, -1.123, 1.281, -1.3], a = 0.2, v = 0.2, t = 0.2)
movej(p[0.486320389650233, -0.106962162592139, 0.424409067647891, -1.123, 1.281, -1.3], a = 0.2, v = 0.2, t = 0.2)
movej(p[0.486294172591556, -0.106971236235878, 0.425373768816556, -1.123, 1.281, -1.3], a = 0.2, v = 0.2, t = 0.2)
movej(p[0.486271060506257, -0.106979235257838, 0.426224217220141, -1.123, 1.281, -1.3], a = 0.2, v = 0.2, t = 0.2)
movej(p[0.486262142196896, -0.106982321857402, 0.426552381548887, -1.123, 1.281, -1.3], a = 0.2, v = 0.2, t = 0.2)
movej(p[0.486286177896324, -0.106974003175421, 0.425667947195934, -1.123, 1.281, -1.3], a = 0.2, v = 0.2, t = 0.2)
movej(p[0.486341828364053, -0.106954742718925, 0.423620193787865, -1.123, 1.281, -1.3], a = 0.2, v = 0.2, t = 0.2)
movej(p[0.486417159962247, -0.106928670683434, 0.420848239782244, -1.123, 1.281, -1.3], a = 0.2, v = 0.2, t = 0.2)
movej(p[0.486504219558309, -0.106898539623788, 0.417644734190728, -1.123, 1.281, -1.3], a = 0.2, v = 0.2, t = 0.2)
movej(p[0.486583290978768, -0.106871173247261, 0.41473516707777, -1.123, 1.281, -1.3], a = 0.2, v = 0.2, t = 0.2)
movej(p[0.486639645023142, -0.106851669285043, 0.412661524372978, -1.123, 1.281, -1.3], a = 0.2, v = 0.2, t = 0.2)
movej(p[0.486653037428, -0.106847034214726, 0.412168728107148, -1.123, 1.281, -1.3], a = 0.2, v = 0.2, t = 0.2)
movej(p[0.48662619557153, -0.106856324099068, 0.413156419770974, -1.123, 1.281, -1.3], a = 0.2, v = 0.2, t = 0.2)
movej(p[0.486564737200842, -0.106877594652995, 0.415417884825359, -1.123, 1.281, -1.3], a = 0.2, v = 0.2, t = 0.2)
movej(p[0.486495562849068, -0.106901535684352, 0.417963272499109, -1.123, 1.281, -1.3], a = 0.2, v = 0.2, t = 0.2)
movej(p[0.486434879770946, -0.106922537911896, 0.420196209347761, -1.123, 1.281, -1.3], a = 0.2, v = 0.2, t = 0.2)
movej(p[0.486389535750281, -0.106938231338618, 0.421864719544357, -1.123, 1.281, -1.3], a = 0.2, v = 0.2, t = 0.2)
movej(p[0.486353984755886, -0.106950535428931, 0.423172878718984, -1.123, 1.281, -1.3], a = 0.2, v = 0.2, t = 0.2)
movej(p[0.486322253177562, -0.106961517631036, 0.424340495997108, -1.123, 1.281, -1.3], a = 0.2, v = 0.2, t = 0.2)
movej(p[0.486298190313013, -0.106969845714783, 0.425225929936807, -1.123, 1.281, -1.3], a = 0.2, v = 0.2, t = 0.2)
movej(p[0.486275822552041, -0.106977587128372, 0.426048989663549, -1.123, 1.281, -1.3], a = 0.2, v = 0.2, t = 0.2)
movej(p[0.486257716998618, -0.106983853404978, 0.426715214229827, -1.123, 1.281, -1.3], a = 0.2, v = 0.2, t = 0.2)
movej(p[0.486258238568949, -0.106983672891083, 0.426696022164302, -1.123, 1.281, -1.3], a = 0.2, v = 0.2, t = 0.2)
movej(p[0.486288044140165, -0.106973357274141, 0.425599275586477, -1.123, 1.281, -1.3], a = 0.2, v = 0.2, t = 0.2)
movej(p[0.486351575209617, -0.106951369365518, 0.423261542063363, -1.123, 1.281, -1.3], a = 0.2, v = 0.2, t = 0.2)
movej(p[0.486427444677215, -0.106925111175073, 0.420469796240169, -1.123, 1.281, -1.3], a = 0.2, v = 0.2, t = 0.2)
movej(p[0.486505013866459, -0.106898264716169, 0.417615506274272, -1.123, 1.281, -1.3], a = 0.2, v = 0.2, t = 0.2)
movej(p[0.486565052316251, -0.106877485592517, 0.415406289619105, -1.123, 1.281, -1.3], a = 0.2, v = 0.2, t = 0.2)
movej(p[0.486596664368041, -0.106866544758179, 0.414243070522663, -1.123, 1.281, -1.3], a = 0.2, v = 0.2, t = 0.2)
movej(p[0.486585945011131, -0.106870254694787, 0.414637507452676, -1.123, 1.281, -1.3], a = 0.2, v = 0.2, t = 0.2)
movej(p[0.486535445050421, -0.106887732576572, 0.416495739213683, -1.123, 1.281, -1.3], a = 0.2, v = 0.2, t = 0.2)
movej(p[0.486466380445738, -0.106911635624797, 0.419037088556978, -1.123, 1.281, -1.3], a = 0.2, v = 0.2, t = 0.2)
movej(p[0.486399426570988, -0.106934808155854, 0.421500770010101, -1.123, 1.281, -1.3], a = 0.2, v = 0.2, t = 0.2)
movej(p[0.48634842133902, -0.106952460910475, 0.423377594084586, -1.123, 1.281, -1.3], a = 0.2, v = 0.2, t = 0.2)
movej(p[0.486311843503036, -0.106965120387518, 0.424723537638215, -1.123, 1.281, -1.3], a = 0.2, v = 0.2, t = 0.2)
movej(p[0.486282858318487, -0.106975152071147, 0.425790096696308, -1.123, 1.281, -1.3], a = 0.2, v = 0.2, t = 0.2)
