def moving():
set_payload_mass(0)
set_tcp(p[0,0,0,0,0,0])
movej(p[0.3914, 0.2819, 0.3123, -1.461, 0.614, -0.61], a = 0.2, v = 0.2, t = 0.2)
movej(p[0.391397710412582, 0.281891857251512, 0.312699910556796, -1.461, 0.614, -0.61], a = 0.2, v = 0.2, t = 0.2)
movej(p[0.3914, 0.2819, 0.3123, -1.461, 0.614, -0.61], a = 0.2, v = 0.2, t = 0.2)
movej(p[0.391397710412582, 0.281891857251512, 0.312699910556796, -1.461, 0.614, -0.61], a = 0.2, v = 0.2, t = 0.2)
movej(p[0.3914, 0.2819, 0.3123, -1.461, 0.614, -0.61], a = 0.2, v = 0.2, t = 0.2)
movej(p[0.391397710412582, 0.281891857251512, 0.312699910556796, -1.461, 0.614, -0.61], a = 0.2, v = 0.2, t = 0.2)
movej(p[0.3914, 0.2819, 0.3123, -1.461, 0.614, -0.61], a = 0.2, v = 0.2, t = 0.2)
movej(p[0.391397710412582, 0.281891857251512, 0.312699910556796, -1.461, 0.614, -0.61], a = 0.2, v = 0.2, t = 0.2)
movej(p[0.3914, 0.2819, 0.3123, -1.461, 0.614, -0.61], a = 0.2, v = 0.2, t = 0.2)
movej(p[0.391397710412582, 0.281891857251512, 0.312699910556796, -1.461, 0.614, -0.61], a = 0.2, v = 0.2, t = 0.2)
movej(p[0.3914, 0.2819, 0.3123, -1.461, 0.614, -0.61], a = 0.2, v = 0.2, t = 0.2)
movej(p[0.391399571331996, 0.281898475473914, 0.312374873253996, -1.461, 0.614, -0.61], a = 0.2, v = 0.2, t = 0.2)
movej(p[0.391398100844477, 0.281893245793698, 0.312631715809098, -1.461, 0.614, -0.61], a = 0.2, v = 0.2, t = 0.2)
movej(p[0.391397954139163, 0.281892724047088, 0.312657340078025, -1.461, 0.614, -0.61], a = 0.2, v = 0.2, t = 0.2)
movej(p[0.391398012638122, 0.281892932094312, 0.312647122363299, -1.461, 0.614, -0.61], a = 0.2, v = 0.2, t = 0.2)
movej(p[0.391398349379191, 0.281894129689046, 0.312588305518158, -1.461, 0.614, -0.61], a = 0.2, v = 0.2, t = 0.2)
movej(p[0.391399117936447, 0.281896863006145, 0.312454065542006, -1.461, 0.614, -0.61], a = 0.2, v = 0.2, t = 0.2)
movej(p[0.391401871279796, 0.281906655068339, 0.311973153101931, -1.461, 0.614, -0.61], a = 0.2, v = 0.2, t = 0.2)
movej(p[0.391406995261958, 0.281924878132319, 0.31107817327135, -1.461, 0.614, -0.61], a = 0.2, v = 0.2, t = 0.2)
movej(p[0.391412435321662, 0.281944225302727, 0.310127985788404, -1.461, 0.614, -0.61], a = 0.2, v = 0.2, t = 0.2)
movej(p[0.391417912587161, 0.281963704792798, 0.30917129975891, -1.461, 0.614, -0.61], a = 0.2, v = 0.2, t = 0.2)
movej(p[0.391422771664058, 0.281980985740777, 0.308322589579751, -1.461, 0.614, -0.61], a = 0.2, v = 0.2, t = 0.2)
movej(p[0.39142575556886, 0.281991597777745, 0.307801406146607, -1.461, 0.614, -0.61], a = 0.2, v = 0.2, t = 0.2)
movej(p[0.391424712661792, 0.281987888755808, 0.307983565405227, -1.461, 0.614, -0.61], a = 0.2, v = 0.2, t = 0.2)
movej(p[0.391419600585485, 0.281969708034121, 0.308876465700913, -1.461, 0.614, -0.61], a = 0.2, v = 0.2, t = 0.2)
movej(p[0.391413320819595, 0.281947374510705, 0.309973320380564, -1.461, 0.614, -0.61], a = 0.2, v = 0.2, t = 0.2)
movej(p[0.391406580846635, 0.281923404294842, 0.31115055708213, -1.461, 0.614, -0.61], a = 0.2, v = 0.2, t = 0.2)
movej(p[0.391401343186458, 0.281904776943401, 0.312065392471856, -1.461, 0.614, -0.61], a = 0.2, v = 0.2, t = 0.2)
movej(p[0.391398418238533, 0.281894374582207, 0.312576278208162, -1.461, 0.614, -0.61], a = 0.2, v = 0.2, t = 0.2)
movej(p[0.391398071423278, 0.28189314115938, 0.312636854659753, -1.461, 0.614, -0.61], a = 0.2, v = 0.2, t = 0.2)
movej(p[0.391398382921647, 0.281894248980311, 0.312582446828501, -1.461, 0.614, -0.61], a = 0.2, v = 0.2, t = 0.2)
movej(p[0.391400261842941, 0.281900931225074, 0.312254265228949, -1.461, 0.614, -0.61], a = 0.2, v = 0.2, t = 0.2)
movej(p[0.391404259548432, 0.281915148769288, 0.311556006400138, -1.461, 0.614, -0.61], a = 0.2, v = 0.2, t = 0.2)
movej(p[0.391409567041024, 0.281934024474558, 0.31062897373843, -1.461, 0.614, -0.61], a = 0.2, v = 0.2, t = 0.2)
movej(p[0.39141548905888, 0.281955085693523, 0.309594605083278, -1.461, 0.614, -0.61], a = 0.2, v = 0.2, t = 0.2)
movej(p[0.391420312074775, 0.281972238393214, 0.308752193495388, -1.461, 0.614, -0.61], a = 0.2, v = 0.2, t = 0.2)
movej(p[0.391424591886055, 0.281987459225825, 0.308004660687098, -1.461, 0.614, -0.61], a = 0.2, v = 0.2, t = 0.2)
movej(p[0.391425432164638, 0.281990447614521, 0.307857893512754, -1.461, 0.614, -0.61], a = 0.2, v = 0.2, t = 0.2)
movej(p[0.391423005774372, 0.28198181833681, 0.308281698725319, -1.461, 0.614, -0.61], a = 0.2, v = 0.2, t = 0.2)
movej(p[0.391417422043057, 0.281961960208934, 0.309256980595704, -1.461, 0.614, -0.61], a = 0.2, v = 0.2, t = 0.2)
movej(p[0.391410684932081, 0.281938000171508, 0.310433717409074, -1.461, 0.614, -0.61], a = 0.2, v = 0.2, t = 0.2)
movej(p[0.391404411061879, 0.281915687615669, 0.311529542319042, -1.461, 0.614, -0.61], a = 0.2, v = 0.2, t = 0.2)
movej(p[0.391400625744241, 0.281902225413162, 0.312190704444828, -1.461, 0.614, -0.61], a = 0.2, v = 0.2, t = 0.2)
movej(p[0.391399337164443, 0.281897642674313, 0.312415774106192, -1.461, 0.614, -0.61], a = 0.2, v = 0.2, t = 0.2)
movej(p[0.391399130586418, 0.28189690799483, 0.312451856036179, -1.461, 0.614, -0.61], a = 0.2, v = 0.2, t = 0.2)
movej(p[0.391399790159313, 0.281899253717101, 0.31233665180253, -1.461, 0.614, -0.61], a = 0.2, v = 0.2, t = 0.2)
movej(p[0.391402304526975, 0.281908195879922, 0.311897480026821, -1.461, 0.614, -0.61], a = 0.2, v = 0.2, t = 0.2)
movej(p[0.391406580274238, 0.281923402259155, 0.31115065705977, -1.461, 0.614, -0.61], a = 0.2, v = 0.2, t = 0.2)
movej(p[0.391411969963019, 0.281942570289097, 0.310209267609073, -1.461, 0.614, -0.61], a = 0.2, v = 0.2, t = 0.2)
movej(p[0.391417681911229, 0.281962884410888, 0.309211590747507, -1.461, 0.614, -0.61], a = 0.2, v = 0.2, t = 0.2)
movej(p[0.391422833482919, 0.281981205594986, 0.308311791994717, -1.461, 0.614, -0.61], a = 0.2, v = 0.2, t = 0.2)
movej(p[0.391425158558941, 0.281989474556076, 0.307905682824291, -1.461, 0.614, -0.61], a = 0.2, v = 0.2, t = 0.2)
movej(p[0.391424608485564, 0.281987518260752, 0.308001761335562, -1.461, 0.614, -0.61], a = 0.2, v = 0.2, t = 0.2)
movej(p[0.391421587947363, 0.281976775939809, 0.308529343337614, -1.461, 0.614, -0.61], a = 0.2, v = 0.2, t = 0.2)
movej(p[0.391415819904262, 0.28195626232068, 0.309536818007821, -1.461, 0.614, -0.61], a = 0.2, v = 0.2, t = 0.2)
movej(p[0.391408890467942, 0.28193161829238, 0.310747147307963, -1.461, 0.614, -0.61], a = 0.2, v = 0.2, t = 0.2)
movej(p[0.391403012982562, 0.281910715449873, 0.311773737702785, -1.461, 0.614, -0.61], a = 0.2, v = 0.2, t = 0.2)
movej(p[0.391400489828608, 0.281901742039255, 0.312214444135256, -1.461, 0.614, -0.61], a = 0.2, v = 0.2, t = 0.2)
movej(p[0.391399285019089, 0.281897457223216, 0.312424882069123, -1.461, 0.614, -0.61], a = 0.2, v = 0.2, t = 0.2)
movej(p[0.391399094410937, 0.281896779339404, 0.312458174622977, -1.461, 0.614, -0.61], a = 0.2, v = 0.2, t = 0.2)
movej(p[0.391400448885061, 0.281901596426555, 0.312221595535787, -1.461, 0.614, -0.61], a = 0.2, v = 0.2, t = 0.2)
movej(p[0.391403790240251, 0.281913479709416, 0.311637978066517, -1.461, 0.614, -0.61], a = 0.2, v = 0.2, t = 0.2)
movej(p[0.39140924764358, 0.281932888561144, 0.310684761261103, -1.461, 0.614, -0.61], a = 0.2, v = 0.2, t = 0.2)
movej(p[0.391415177102594, 0.281953976244042, 0.309649092896642, -1.461, 0.614, -0.61], a = 0.2, v = 0.2, t = 0.2)
movej(p[0.391420951442061, 0.281974512255729, 0.308640518472403, -1.461, 0.614, -0.61], a = 0.2, v = 0.2, t = 0.2)
movej(p[0.391424672021615, 0.281987744222023, 0.307990663817611, -1.461, 0.614, -0.61], a = 0.2, v = 0.2, t = 0.2)
movej(p[0.391425478528783, 0.281990612505178, 0.307849795323979, -1.461, 0.614, -0.61], a = 0.2, v = 0.2, t = 0.2)
movej(p[0.391423753324664, 0.281984476944192, 0.308151127928525, -1.461, 0.614, -0.61], a = 0.2, v = 0.2, t = 0.2)
movej(p[0.391418213667907, 0.281964775564224, 0.309118711520692, -1.461, 0.614, -0.61], a = 0.2, v = 0.2, t = 0.2)
movej(p[0.391410884126186, 0.281938708590626, 0.310398925190633, -1.461, 0.614, -0.61], a = 0.2, v = 0.2, t = 0.2)
movej(p[0.391404156459758, 0.281914782142037, 0.311574012372957, -1.461, 0.614, -0.61], a = 0.2, v = 0.2, t = 0.2)
movej(p[0.391400861800704, 0.281903064930531, 0.312149473666422, -1.461, 0.614, -0.61], a = 0.2, v = 0.2, t = 0.2)
movej(p[0.39139936137683, 0.281897728783878, 0.312411545052054, -1.461, 0.614, -0.61], a = 0.2, v = 0.2, t = 0.2)
movej(p[0.391399143579826, 0.281896954204928, 0.312449586543769, -1.461, 0.614, -0.61], a = 0.2, v = 0.2, t = 0.2)
movej(p[0.391400566999152, 0.281902016490592, 0.312200965149939, -1.461, 0.614, -0.61], a = 0.2, v = 0.2, t = 0.2)
movej(p[0.391403290137119, 0.281911701129578, 0.311725328529885, -1.461, 0.614, -0.61], a = 0.2, v = 0.2, t = 0.2)
movej(p[0.391408216184448, 0.28192922025295, 0.310864920966939, -1.461, 0.614, -0.61], a = 0.2, v = 0.2, t = 0.2)
movej(p[0.391413907526371, 0.281949461090005, 0.309870843300385, -1.461, 0.614, -0.61], a = 0.2, v = 0.2, t = 0.2)
movej(p[0.391419296070358, 0.281968625048572, 0.308929653804966, -1.461, 0.614, -0.61], a = 0.2, v = 0.2, t = 0.2)
movej(p[0.391422809442251, 0.281981120096127, 0.308315991055564, -1.461, 0.614, -0.61], a = 0.2, v = 0.2, t = 0.2)
movej(p[0.391424781349414, 0.281988133038263, 0.307971568088524, -1.461, 0.614, -0.61], a = 0.2, v = 0.2, t = 0.2)
movej(p[0.391424203228591, 0.28198607699427, 0.308072545504114, -1.461, 0.614, -0.61], a = 0.2, v = 0.2, t = 0.2)
movej(p[0.391419944595995, 0.281970931482081, 0.308816379139754, -1.461, 0.614, -0.61], a = 0.2, v = 0.2, t = 0.2)
movej(p[0.39141281768276, 0.281945585141724, 0.310061200725419, -1.461, 0.614, -0.61], a = 0.2, v = 0.2, t = 0.2)
movej(p[0.391405963230429, 0.281921207788438, 0.311258432954826, -1.461, 0.614, -0.61], a = 0.2, v = 0.2, t = 0.2)
movej(p[0.391401796295808, 0.281906388393326, 0.311986250172666, -1.461, 0.614, -0.61], a = 0.2, v = 0.2, t = 0.2)
movej(p[0.391399628045076, 0.281898677169794, 0.312364967469504, -1.461, 0.614, -0.61], a = 0.2, v = 0.2, t = 0.2)
movej(p[0.391399294406398, 0.281897490608485, 0.31242324243584, -1.461, 0.614, -0.61], a = 0.2, v = 0.2, t = 0.2)
movej(p[0.391400401811144, 0.281901429011646, 0.312229817696835, -1.461, 0.614, -0.61], a = 0.2, v = 0.2, t = 0.2)
movej(p[0.391403371646431, 0.281911991011424, 0.311711091714063, -1.461, 0.614, -0.61], a = 0.2, v = 0.2, t = 0.2)
movej(p[0.391408191571383, 0.281929132718404, 0.310869220005425, -1.461, 0.614, -0.61], a = 0.2, v = 0.2, t = 0.2)
movej(p[0.391413975641597, 0.281949703336772, 0.30985894596132, -1.461, 0.614, -0.61], a = 0.2, v = 0.2, t = 0.2)
movej(p[0.391419201052481, 0.28196828712451, 0.308946250093073, -1.461, 0.614, -0.61], a = 0.2, v = 0.2, t = 0.2)
movej(p[0.391422943955512, 0.281981598482601, 0.308292496310352, -1.461, 0.614, -0.61], a = 0.2, v = 0.2, t = 0.2)
movej(p[0.391425010308156, 0.281988947313112, 0.307931577032844, -1.461, 0.614, -0.61], a = 0.2, v = 0.2, t = 0.2)
movej(p[0.391425680584872, 0.281991331102732, 0.307814503217342, -1.461, 0.614, -0.61], a = 0.2, v = 0.2, t = 0.2)
movej(p[0.391421886166125, 0.281977836532799, 0.308477254987591, -1.461, 0.614, -0.61], a = 0.2, v = 0.2, t = 0.2)
movej(p[0.391415268686091, 0.281954301953981, 0.30963309647437, -1.461, 0.614, -0.61], a = 0.2, v = 0.2, t = 0.2)
movej(p[0.391407705606454, 0.281927404420037, 0.310954101021105, -1.461, 0.614, -0.61], a = 0.2, v = 0.2, t = 0.2)
movej(p[0.391402325877378, 0.281908271811052, 0.311893750860879, -1.461, 0.614, -0.61], a = 0.2, v = 0.2, t = 0.2)
movej(p[0.391399199045082, 0.28189715146301, 0.312439898710531, -1.461, 0.614, -0.61], a = 0.2, v = 0.2, t = 0.2)
movej(p[0.391398470555605, 0.28189456064401, 0.312567140251939, -1.461, 0.614, -0.61], a = 0.2, v = 0.2, t = 0.2)
movej(p[0.391398904031743, 0.281896102269867, 0.312491427185774, -1.461, 0.614, -0.61], a = 0.2, v = 0.2, t = 0.2)
movej(p[0.391400375767087, 0.281901336387882, 0.312234366679419, -1.461, 0.614, -0.61], a = 0.2, v = 0.2, t = 0.2)
movej(p[0.391404004431154, 0.281914241463537, 0.311600566433929, -1.461, 0.614, -0.61], a = 0.2, v = 0.2, t = 0.2)
movej(p[0.391409852667055, 0.281935040282432, 0.31057908489647, -1.461, 0.614, -0.61], a = 0.2, v = 0.2, t = 0.2)
movej(p[0.3914157947188, 0.281956172750446, 0.309541217023946, -1.461, 0.614, -0.61], a = 0.2, v = 0.2, t = 0.2)
movej(p[0.391420870734105, 0.281974225223845, 0.30865461531953, -1.461, 0.614, -0.61], a = 0.2, v = 0.2, t = 0.2)
movej(p[0.391424882663657, 0.281988493354883, 0.307953872046385, -1.461, 0.614, -0.61], a = 0.2, v = 0.2, t = 0.2)
movej(p[0.391426575241156, 0.281994512881703, 0.307658238167274, -1.461, 0.614, -0.61], a = 0.2, v = 0.2, t = 0.2)
movej(p[0.391424619933501, 0.281987558974494, 0.307999761782778, -1.461, 0.614, -0.61], a = 0.2, v = 0.2, t = 0.2)
movej(p[0.39141828578991, 0.281965032060802, 0.309106114338152, -1.461, 0.614, -0.61], a = 0.2, v = 0.2, t = 0.2)
movej(p[0.391410838906835, 0.281938547771343, 0.31040682342413, -1.461, 0.614, -0.61], a = 0.2, v = 0.2, t = 0.2)
movej(p[0.391404319707341, 0.281915362720004, 0.311545498750258, -1.461, 0.614, -0.61], a = 0.2, v = 0.2, t = 0.2)
movej(p[0.391399988080408, 0.281899957608851, 0.312302081934359, -1.461, 0.614, -0.61], a = 0.2, v = 0.2, t = 0.2)
movej(p[0.391398070621923, 0.281893138309418, 0.312636994628448, -1.461, 0.614, -0.61], a = 0.2, v = 0.2, t = 0.2)
movej(p[0.391398154420822, 0.281893436334012, 0.312622357902069, -1.461, 0.614, -0.61], a = 0.2, v = 0.2, t = 0.2)
movej(p[0.391398400894908, 0.281894312900887, 0.31257930753063, -1.461, 0.614, -0.61], a = 0.2, v = 0.2, t = 0.2)
movej(p[0.391399858331778, 0.281899496167437, 0.312324744465702, -1.461, 0.614, -0.61], a = 0.2, v = 0.2, t = 0.2)
movej(p[0.391403171994408, 0.281911280963756, 0.311745963914616, -1.461, 0.614, -0.61], a = 0.2, v = 0.2, t = 0.2)
movej(p[0.39140770446166, 0.281927400348663, 0.310954300976383, -1.461, 0.614, -0.61], a = 0.2, v = 0.2, t = 0.2)
movej(p[0.391413494255842, 0.281947991323903, 0.309943027155886, -1.461, 0.614, -0.61], a = 0.2, v = 0.2, t = 0.2)
movej(p[0.391418490707984, 0.281965760836791, 0.309070322343319, -1.461, 0.614, -0.61], a = 0.2, v = 0.2, t = 0.2)
movej(p[0.391422346945592, 0.281979475260933, 0.308396772988036, -1.461, 0.614, -0.61], a = 0.2, v = 0.2, t = 0.2)
movej(p[0.391422581055906, 0.281980307856966, 0.308355882133604, -1.461, 0.614, -0.61], a = 0.2, v = 0.2, t = 0.2)
movej(p[0.39141967785906, 0.281969982851883, 0.308862968719621, -1.461, 0.614, -0.61], a = 0.2, v = 0.2, t = 0.2)
movej(p[0.391414236082166, 0.281950629574413, 0.309813456135485, -1.461, 0.614, -0.61], a = 0.2, v = 0.2, t = 0.2)
movej(p[0.391407655235531, 0.281927225279571, 0.310962899053354, -1.461, 0.614, -0.61], a = 0.2, v = 0.2, t = 0.2)
movej(p[0.391402587977898, 0.281909203952185, 0.31184797109989, -1.461, 0.614, -0.61], a = 0.2, v = 0.2, t = 0.2)
movej(p[0.391399609888648, 0.281898612597799, 0.31236813876022, -1.461, 0.614, -0.61], a = 0.2, v = 0.2, t = 0.2)
movej(p[0.391398903688305, 0.281896101048455, 0.312491487172358, -1.461, 0.614, -0.61], a = 0.2, v = 0.2, t = 0.2)
movej(p[0.391398541761774, 0.281894813883488, 0.312554703033623, -1.461, 0.614, -0.61], a = 0.2, v = 0.2, t = 0.2)
movej(p[0.391398899395328, 0.281896085780802, 0.312492237004652, -1.461, 0.614, -0.61], a = 0.2, v = 0.2, t = 0.2)
movej(p[0.39140029839048, 0.281901061203697, 0.312247881656686, -1.461, 0.614, -0.61], a = 0.2, v = 0.2, t = 0.2)
movej(p[0.391403156139015, 0.281911224575222, 0.311748733295221, -1.461, 0.614, -0.61], a = 0.2, v = 0.2, t = 0.2)
movej(p[0.391407616884941, 0.281927088888533, 0.310969597555181, -1.461, 0.614, -0.61], a = 0.2, v = 0.2, t = 0.2)
movej(p[0.391413319102405, 0.281947368403643, 0.309973620313481, -1.461, 0.614, -0.61], a = 0.2, v = 0.2, t = 0.2)
movej(p[0.391418013329008, 0.281964063073732, 0.309153703694411, -1.461, 0.614, -0.61], a = 0.2, v = 0.2, t = 0.2)
movej(p[0.391420825514753, 0.281974064404562, 0.308662513553027, -1.461, 0.614, -0.61], a = 0.2, v = 0.2, t = 0.2)
movej(p[0.391421785424278, 0.281977478251866, 0.308494851052091, -1.461, 0.614, -0.61], a = 0.2, v = 0.2, t = 0.2)
movej(p[0.391421074507385, 0.28197494992846, 0.308619023279976, -1.461, 0.614, -0.61], a = 0.2, v = 0.2, t = 0.2)
movej(p[0.391416989883432, 0.281960423265157, 0.309332463713299, -1.461, 0.614, -0.61], a = 0.2, v = 0.2, t = 0.2)
movej(p[0.391410961399762, 0.281938983408388, 0.310385428209341, -1.461, 0.614, -0.61], a = 0.2, v = 0.2, t = 0.2)
movej(p[0.391405021809323, 0.281917859693828, 0.311422866178016, -1.461, 0.614, -0.61], a = 0.2, v = 0.2, t = 0.2)
movej(p[0.391401602138795, 0.281905697888255, 0.312020162587882, -1.461, 0.614, -0.61], a = 0.2, v = 0.2, t = 0.2)
movej(p[0.391399487784951, 0.281898178345022, 0.312389465990214, -1.461, 0.614, -0.61], a = 0.2, v = 0.2, t = 0.2)
movej(p[0.3913987735825, 0.281895638336772, 0.312514212089748, -1.461, 0.614, -0.61], a = 0.2, v = 0.2, t = 0.2)
movej(p[0.391399069626153, 0.281896691194152, 0.312462503654754, -1.461, 0.614, -0.61], a = 0.2, v = 0.2, t = 0.2)
movej(p[0.391399379693529, 0.281897793925866, 0.3124083457676, -1.461, 0.614, -0.61], a = 0.2, v = 0.2, t = 0.2)
movej(p[0.391399794372154, 0.281899268699758, 0.312335915967106, -1.461, 0.614, -0.61], a = 0.2, v = 0.2, t = 0.2)
movej(p[0.391400785614683, 0.281902793980575, 0.3121627806902, -1.461, 0.614, -0.61], a = 0.2, v = 0.2, t = 0.2)
movej(p[0.391404156459758, 0.281914782142037, 0.311574012372957, -1.461, 0.614, -0.61], a = 0.2, v = 0.2, t = 0.2)
movej(p[0.391407721633566, 0.281927461419277, 0.310951301647207, -1.461, 0.614, -0.61], a = 0.2, v = 0.2, t = 0.2)
movej(p[0.391411691778148, 0.281941580945155, 0.310257856741724, -1.461, 0.614, -0.61], a = 0.2, v = 0.2, t = 0.2)
movej(p[0.391415171378626, 0.28195395588717, 0.309650092673034, -1.461, 0.614, -0.61], a = 0.2, v = 0.2, t = 0.2)
movej(p[0.391418494142365, 0.281965773050914, 0.309069722477484, -1.461, 0.614, -0.61], a = 0.2, v = 0.2, t = 0.2)
movej(p[0.391419949175169, 0.281970947767578, 0.308815579318641, -1.461, 0.614, -0.61], a = 0.2, v = 0.2, t = 0.2)
movej(p[0.391419408832539, 0.281969026078935, 0.308909958210044, -1.461, 0.614, -0.61], a = 0.2, v = 0.2, t = 0.2)
movej(p[0.391416741463197, 0.281959539776946, 0.309375854008711, -1.461, 0.614, -0.61], a = 0.2, v = 0.2, t = 0.2)
movej(p[0.391411306555065, 0.281940210927722, 0.310325141692904, -1.461, 0.614, -0.61], a = 0.2, v = 0.2, t = 0.2)
movej(p[0.391405765181117, 0.281920503440693, 0.311293025217989, -1.461, 0.614, -0.61], a = 0.2, v = 0.2, t = 0.2)
movej(p[0.391401492353079, 0.281905307443465, 0.312039338299081, -1.461, 0.614, -0.61], a = 0.2, v = 0.2, t = 0.2)
movej(p[0.391399965162783, 0.28189987610401, 0.312306084839077, -1.461, 0.614, -0.61], a = 0.2, v = 0.2, t = 0.2)
movej(p[0.391399318332586, 0.281897575700206, 0.312419063370522, -1.461, 0.614, -0.61], a = 0.2, v = 0.2, t = 0.2)
movej(p[0.391399168822528, 0.28189704397873, 0.312445177529881, -1.461, 0.614, -0.61], a = 0.2, v = 0.2, t = 0.2)
movej(p[0.391399542632017, 0.281898373404562, 0.312379886132826, -1.461, 0.614, -0.61], a = 0.2, v = 0.2, t = 0.2)
movej(p[0.391399808361533, 0.281899318451952, 0.312333472513604, -1.461, 0.614, -0.61], a = 0.2, v = 0.2, t = 0.2)
movej(p[0.391400581383485, 0.28190206764741, 0.312198452711866, -1.461, 0.614, -0.61], a = 0.2, v = 0.2, t = 0.2)
movej(p[0.391402999073319, 0.281910665982676, 0.311776167159417, -1.461, 0.614, -0.61], a = 0.2, v = 0.2, t = 0.2)
movej(p[0.39140730779064, 0.281925989617487, 0.311023585480348, -1.461, 0.614, -0.61], a = 0.2, v = 0.2, t = 0.2)
movej(p[0.39141163854524, 0.281941391626253, 0.310267154662169, -1.461, 0.614, -0.61], a = 0.2, v = 0.2, t = 0.2)
movej(p[0.391415776974498, 0.281956109644146, 0.309544316330761, -1.461, 0.614, -0.61], a = 0.2, v = 0.2, t = 0.2)
movej(p[0.39141941226692, 0.281969038293058, 0.308909358344209, -1.461, 0.614, -0.61], a = 0.2, v = 0.2, t = 0.2)
movej(p[0.391421672662098, 0.281977077221503, 0.308514546647013, -1.461, 0.614, -0.61], a = 0.2, v = 0.2, t = 0.2)
movej(p[0.391420264565836, 0.281972069431183, 0.308760491639442, -1.461, 0.614, -0.61], a = 0.2, v = 0.2, t = 0.2)
movej(p[0.391416359674495, 0.281958181973636, 0.309442539094057, -1.461, 0.614, -0.61], a = 0.2, v = 0.2, t = 0.2)
movej(p[0.391411351202019, 0.281940369711318, 0.310317343437047, -1.461, 0.614, -0.61], a = 0.2, v = 0.2, t = 0.2)
movej(p[0.391405902556362, 0.281920992005603, 0.311269030584581, -1.461, 0.614, -0.61], a = 0.2, v = 0.2, t = 0.2)
movej(p[0.391401931381466, 0.281906868815487, 0.311962655449815, -1.461, 0.614, -0.61], a = 0.2, v = 0.2, t = 0.2)
movej(p[0.391399580204147, 0.281898507027065, 0.312373323600589, -1.461, 0.614, -0.61], a = 0.2, v = 0.2, t = 0.2)
movej(p[0.391399174775455, 0.281897065149876, 0.312444137762433, -1.461, 0.614, -0.61], a = 0.2, v = 0.2, t = 0.2)
movej(p[0.391398864421881, 0.281895961400319, 0.312498345638407, -1.461, 0.614, -0.61], a = 0.2, v = 0.2, t = 0.2)
movej(p[0.391399128468549, 0.281896900462788, 0.312452225953444, -1.461, 0.614, -0.61], a = 0.2, v = 0.2, t = 0.2)
movej(p[0.391399906367323, 0.281899667002301, 0.31231635434222, -1.461, 0.614, -0.61], a = 0.2, v = 0.2, t = 0.2)
movej(p[0.391402093541495, 0.281907445525649, 0.31193433178463, -1.461, 0.614, -0.61], a = 0.2, v = 0.2, t = 0.2)
movej(p[0.391405647954242, 0.281920086531971, 0.311313500638497, -1.461, 0.614, -0.61], a = 0.2, v = 0.2, t = 0.2)
movej(p[0.391411057562433, 0.281939325403824, 0.310368631965956, -1.461, 0.614, -0.61], a = 0.2, v = 0.2, t = 0.2)
movej(p[0.39141597845819, 0.281956826206013, 0.309509124201763, -1.461, 0.614, -0.61], a = 0.2, v = 0.2, t = 0.2)
movej(p[0.391419327552185, 0.281968737011364, 0.308924155034811, -1.461, 0.614, -0.61], a = 0.2, v = 0.2, t = 0.2)
movej(p[0.391422048726831, 0.281978414667942, 0.308448861338059, -1.461, 0.614, -0.61], a = 0.2, v = 0.2, t = 0.2)
movej(p[0.391423771068966, 0.281984540050492, 0.30814802862171, -1.461, 0.614, -0.61], a = 0.2, v = 0.2, t = 0.2)
movej(p[0.391421870139013, 0.28197777953356, 0.308480054361489, -1.461, 0.614, -0.61], a = 0.2, v = 0.2, t = 0.2)
movej(p[0.391416573178522, 0.281958941284932, 0.309405247434636, -1.461, 0.614, -0.61], a = 0.2, v = 0.2, t = 0.2)
movej(p[0.391409817750847, 0.281934916105518, 0.310585183532461, -1.461, 0.614, -0.61], a = 0.2, v = 0.2, t = 0.2)
movej(p[0.391404264356565, 0.281915165869059, 0.311555166587968, -1.461, 0.614, -0.61], a = 0.2, v = 0.2, t = 0.2)
movej(p[0.391400119608047, 0.281900425377181, 0.312279108672513, -1.461, 0.614, -0.61], a = 0.2, v = 0.2, t = 0.2)
movej(p[0.391398443767432, 0.281894465373852, 0.312571819205454, -1.461, 0.614, -0.61], a = 0.2, v = 0.2, t = 0.2)
movej(p[0.391398425279014, 0.281894399621158, 0.3125750484832, -1.461, 0.614, -0.61], a = 0.2, v = 0.2, t = 0.2)
movej(p[0.391398498431332, 0.281894659781973, 0.31256227134091, -1.461, 0.614, -0.61], a = 0.2, v = 0.2, t = 0.2)
movej(p[0.391398569122343, 0.281894911189332, 0.312549924102469, -1.461, 0.614, -0.61], a = 0.2, v = 0.2, t = 0.2)
movej(p[0.391398955375741, 0.281896284871002, 0.312482459191538, -1.461, 0.614, -0.61], a = 0.2, v = 0.2, t = 0.2)
movej(p[0.391401306610299, 0.281904646862994, 0.312071781043001, -1.461, 0.614, -0.61], a = 0.2, v = 0.2, t = 0.2)
movej(p[0.391404936178753, 0.281917555155035, 0.311437822832841, -1.461, 0.614, -0.61], a = 0.2, v = 0.2, t = 0.2)
movej(p[0.391409726739747, 0.281934592431265, 0.310601079977093, -1.461, 0.614, -0.61], a = 0.2, v = 0.2, t = 0.2)
movej(p[0.391414336251615, 0.281950985819659, 0.309795960048625, -1.461, 0.614, -0.61], a = 0.2, v = 0.2, t = 0.2)
movej(p[0.391417539956809, 0.281962379560482, 0.309236385202029, -1.461, 0.614, -0.61], a = 0.2, v = 0.2, t = 0.2)
movej(p[0.391419822675464, 0.281970497880724, 0.308837674376904, -1.461, 0.614, -0.61], a = 0.2, v = 0.2, t = 0.2)
movej(p[0.391420411099431, 0.281972590567086, 0.308734897363807, -1.461, 0.614, -0.61], a = 0.2, v = 0.2, t = 0.2)
movej(p[0.391419384791871, 0.281968940580076, 0.308914157270891, -1.461, 0.614, -0.61], a = 0.2, v = 0.2, t = 0.2)
movej(p[0.391414719757508, 0.281952349730031, 0.309728975030362, -1.461, 0.614, -0.61], a = 0.2, v = 0.2, t = 0.2)
movej(p[0.391409099392794, 0.28193236131818, 0.310710655469655, -1.461, 0.614, -0.61], a = 0.2, v = 0.2, t = 0.2)
movej(p[0.391404261151143, 0.281915154469212, 0.311555726462748, -1.461, 0.614, -0.61], a = 0.2, v = 0.2, t = 0.2)
movej(p[0.391400974620124, 0.281903466164463, 0.312129768073736, -1.461, 0.614, -0.61], a = 0.2, v = 0.2, t = 0.2)
movej(p[0.391399636785576, 0.281898708254737, 0.312363440810954, -1.461, 0.614, -0.61], a = 0.2, v = 0.2, t = 0.2)
movej(p[0.391399263954885, 0.28189738230993, 0.312428561246246, -1.461, 0.614, -0.61], a = 0.2, v = 0.2, t = 0.2)
movej(p[0.391399693435693, 0.281898909726691, 0.312353546024002, -1.461, 0.614, -0.61], a = 0.2, v = 0.2, t = 0.2)
movej(p[0.391399515706469, 0.28189827764584, 0.312384589080973, -1.461, 0.614, -0.61], a = 0.2, v = 0.2, t = 0.2)
movej(p[0.391399781727907, 0.28189922373143, 0.312338124473156, -1.461, 0.614, -0.61], a = 0.2, v = 0.2, t = 0.2)
movej(p[0.391401430705938, 0.281905088199962, 0.312050105890822, -1.461, 0.614, -0.61], a = 0.2, v = 0.2, t = 0.2)
movej(p[0.39140427626242, 0.281915208211352, 0.311553087053073, -1.461, 0.614, -0.61], a = 0.2, v = 0.2, t = 0.2)
movej(p[0.391408211032876, 0.281929201931766, 0.310865820765692, -1.461, 0.614, -0.61], a = 0.2, v = 0.2, t = 0.2)
movej(p[0.391412424446121, 0.281944186624672, 0.310129885363549, -1.461, 0.614, -0.61], a = 0.2, v = 0.2, t = 0.2)
movej(p[0.391416320751509, 0.281958043546912, 0.309449337573522, -1.461, 0.614, -0.61], a = 0.2, v = 0.2, t = 0.2)
movej(p[0.391419008154741, 0.28196760109795, 0.308979942557484, -1.461, 0.614, -0.61], a = 0.2, v = 0.2, t = 0.2)
movej(p[0.391420067088921, 0.281971367119126, 0.308794983924966, -1.461, 0.614, -0.61], a = 0.2, v = 0.2, t = 0.2)
movej(p[0.391419136371636, 0.281968057091865, 0.308957547566303, -1.461, 0.614, -0.61], a = 0.2, v = 0.2, t = 0.2)
movej(p[0.39141531791222, 0.281954477023074, 0.309624498397399, -1.461, 0.614, -0.61], a = 0.2, v = 0.2, t = 0.2)
movej(p[0.391409684382379, 0.281934441790418, 0.310608478322394, -1.461, 0.614, -0.61], a = 0.2, v = 0.2, t = 0.2)
movej(p[0.391404394118932, 0.28191562735933, 0.311532501657162, -1.461, 0.614, -0.61], a = 0.2, v = 0.2, t = 0.2)
movej(p[0.391401755541152, 0.281906243452403, 0.311993368580577, -1.461, 0.614, -0.61], a = 0.2, v = 0.2, t = 0.2)
movej(p[0.39139998135131, 0.281899933677314, 0.312303257271485, -1.461, 0.614, -0.61], a = 0.2, v = 0.2, t = 0.2)
movej(p[0.391399555591082, 0.281898419492518, 0.312377622639074, -1.461, 0.614, -0.61], a = 0.2, v = 0.2, t = 0.2)
movej(p[0.391399038316045, 0.281896579842066, 0.312467972431618, -1.461, 0.614, -0.61], a = 0.2, v = 0.2, t = 0.2)
movej(p[0.391399680259117, 0.281898862865174, 0.312355847509257, -1.461, 0.614, -0.61], a = 0.2, v = 0.2, t = 0.2)
movej(p[0.391401178736842, 0.28190419209049, 0.312094116047598, -1.461, 0.614, -0.61], a = 0.2, v = 0.2, t = 0.2)
movej(p[0.391404512089924, 0.281916046914446, 0.311511896265723, -1.461, 0.614, -0.61], a = 0.2, v = 0.2, t = 0.2)
movej(p[0.391409499498195, 0.281933784263478, 0.310640771099855, -1.461, 0.614, -0.61], a = 0.2, v = 0.2, t = 0.2)
movej(p[0.391414113589239, 0.281950193937369, 0.309834851350273, -1.461, 0.614, -0.61], a = 0.2, v = 0.2, t = 0.2)
movej(p[0.391417882822525, 0.281963598937068, 0.309176498596148, -1.461, 0.614, -0.61], a = 0.2, v = 0.2, t = 0.2)
movej(p[0.391420992654635, 0.281974658825202, 0.308633320082381, -1.461, 0.614, -0.61], a = 0.2, v = 0.2, t = 0.2)
movej(p[0.391422658901878, 0.281980584710414, 0.308342285174673, -1.461, 0.614, -0.61], a = 0.2, v = 0.2, t = 0.2)
movej(p[0.391420492379784, 0.281972879634657, 0.308720700539041, -1.461, 0.614, -0.61], a = 0.2, v = 0.2, t = 0.2)
movej(p[0.391415435825972, 0.281954896374621, 0.309603903003724, -1.461, 0.614, -0.61], a = 0.2, v = 0.2, t = 0.2)
movej(p[0.391408909357039, 0.281931685470055, 0.310743848045869, -1.461, 0.614, -0.61], a = 0.2, v = 0.2, t = 0.2)
movej(p[0.39140355372587, 0.281912638563497, 0.311679288827034, -1.461, 0.614, -0.61], a = 0.2, v = 0.2, t = 0.2)
movej(p[0.3913998405932, 0.281899433081493, 0.312327842772741, -1.461, 0.614, -0.61], a = 0.2, v = 0.2, t = 0.2)
movej(p[0.391398764195191, 0.281895604951503, 0.31251585172303, -1.461, 0.614, -0.61], a = 0.2, v = 0.2, t = 0.2)
movej(p[0.391398949937971, 0.281896265531975, 0.31248340897911, -1.461, 0.614, -0.61], a = 0.2, v = 0.2, t = 0.2)
movej(p[0.391398869630692, 0.281895979925071, 0.31249743584189, -1.461, 0.614, -0.61], a = 0.2, v = 0.2, t = 0.2)
movej(p[0.391399090747597, 0.281896766311007, 0.312458814479867, -1.461, 0.614, -0.61], a = 0.2, v = 0.2, t = 0.2)
movej(p[0.391400687963779, 0.281902446692352, 0.312179836875447, -1.461, 0.614, -0.61], a = 0.2, v = 0.2, t = 0.2)
movej(p[0.391403938777234, 0.281914007970224, 0.311612033869145, -1.461, 0.614, -0.61], a = 0.2, v = 0.2, t = 0.2)
movej(p[0.391408853262147, 0.281931485972717, 0.310753645854511, -1.461, 0.614, -0.61], a = 0.2, v = 0.2, t = 0.2)
movej(p[0.391414102141302, 0.281950153223626, 0.309836850903057, -1.461, 0.614, -0.61], a = 0.2, v = 0.2, t = 0.2)
movej(p[0.391418954921833, 0.281967411779047, 0.308989240477929, -1.461, 0.614, -0.61], a = 0.2, v = 0.2, t = 0.2)
movej(p[0.391421930813079, 0.281977995316395, 0.308469456731734, -1.461, 0.614, -0.61], a = 0.2, v = 0.2, t = 0.2)
movej(p[0.391422719003548, 0.281980798457562, 0.308331787522557, -1.461, 0.614, -0.61], a = 0.2, v = 0.2, t = 0.2)
movej(p[0.391421022419271, 0.281974764680932, 0.308628121245143, -1.461, 0.614, -0.61], a = 0.2, v = 0.2, t = 0.2)
movej(p[0.391416238326362, 0.281957750407966, 0.309463734353567, -1.461, 0.614, -0.61], a = 0.2, v = 0.2, t = 0.2)
movej(p[0.391409817750847, 0.281934916105518, 0.310585183532461, -1.461, 0.614, -0.61], a = 0.2, v = 0.2, t = 0.2)
movej(p[0.391404071115387, 0.281914478621087, 0.311588919038962, -1.461, 0.614, -0.61], a = 0.2, v = 0.2, t = 0.2)
movej(p[0.391400856019496, 0.281903044370091, 0.312150483440578, -1.461, 0.614, -0.61], a = 0.2, v = 0.2, t = 0.2)
movej(p[0.391399079356899, 0.281896725800833, 0.312460804034888, -1.461, 0.614, -0.61], a = 0.2, v = 0.2, t = 0.2)
movej(p[0.391398759272578, 0.281895587444594, 0.312516711530728, -1.461, 0.614, -0.61], a = 0.2, v = 0.2, t = 0.2)
movej(p[0.391398793959828, 0.281895710807234, 0.312510652885792, -1.461, 0.614, -0.61], a = 0.2, v = 0.2, t = 0.2)
movej(p[0.39139910293965, 0.281896809671142, 0.312456684956153, -1.461, 0.614, -0.61], a = 0.2, v = 0.2, t = 0.2)
movej(p[0.391399884358663, 0.281899588730131, 0.312320198482447, -1.461, 0.614, -0.61], a = 0.2, v = 0.2, t = 0.2)
movej(p[0.391402427878498, 0.281908634570497, 0.311875934845574, -1.461, 0.614, -0.61], a = 0.2, v = 0.2, t = 0.2)
movej(p[0.391406539061665, 0.281923255689683, 0.311157855449792, -1.461, 0.614, -0.61], a = 0.2, v = 0.2, t = 0.2)
movej(p[0.391410798839055, 0.281938405273245, 0.310413821858874, -1.461, 0.614, -0.61], a = 0.2, v = 0.2, t = 0.2)
movej(p[0.391415173095816, 0.281953961994232, 0.309649792740116, -1.461, 0.614, -0.61], a = 0.2, v = 0.2, t = 0.2)
movej(p[0.391419296070358, 0.281968625048572, 0.308929653804966, -1.461, 0.614, -0.61], a = 0.2, v = 0.2, t = 0.2)
movej(p[0.391422138020741, 0.281978732235133, 0.308433264826344, -1.461, 0.614, -0.61], a = 0.2, v = 0.2, t = 0.2)
movej(p[0.391422541560523, 0.281980167394554, 0.308362780590709, -1.461, 0.614, -0.61], a = 0.2, v = 0.2, t = 0.2)
movej(p[0.391420011566426, 0.281971169657475, 0.308804681755968, -1.461, 0.614, -0.61], a = 0.2, v = 0.2, t = 0.2)
movej(p[0.391415385455049, 0.281954717234154, 0.309612701035973, -1.461, 0.614, -0.61], a = 0.2, v = 0.2, t = 0.2)
movej(p[0.391408758816666, 0.281931150084342, 0.310770142164979, -1.461, 0.614, -0.61], a = 0.2, v = 0.2, t = 0.2)
movej(p[0.391403391680321, 0.281912062260473, 0.311707592496691, -1.461, 0.614, -0.61], a = 0.2, v = 0.2, t = 0.2)
movej(p[0.391400372326982, 0.281901324153402, 0.31223496754503, -1.461, 0.614, -0.61], a = 0.2, v = 0.2, t = 0.2)
movej(p[0.391399229782793, 0.281897260779409, 0.312434529911306, -1.461, 0.614, -0.61], a = 0.2, v = 0.2, t = 0.2)
movej(p[0.391398634547304, 0.28189514386837, 0.312538496658309, -1.461, 0.614, -0.61], a = 0.2, v = 0.2, t = 0.2)
movej(p[0.391398669463512, 0.281895268045285, 0.312532398022318, -1.461, 0.614, -0.61], a = 0.2, v = 0.2, t = 0.2)
movej(p[0.391399306026054, 0.281897531932933, 0.312421212889765, -1.461, 0.614, -0.61], a = 0.2, v = 0.2, t = 0.2)
movej(p[0.39140100633091, 0.281903578941529, 0.312124229312524, -1.461, 0.614, -0.61], a = 0.2, v = 0.2, t = 0.2)
movej(p[0.391404483069403, 0.281915943705109, 0.31151696513203, -1.461, 0.614, -0.61], a = 0.2, v = 0.2, t = 0.2)
movej(p[0.391409320910377, 0.281933149129096, 0.310671964123285, -1.461, 0.614, -0.61], a = 0.2, v = 0.2, t = 0.2)
movej(p[0.391413475939143, 0.281947926181915, 0.309946226440341, -1.461, 0.614, -0.61], a = 0.2, v = 0.2, t = 0.2)
movej(p[0.391416136439722, 0.281957388055658, 0.309481530373344, -1.461, 0.614, -0.61], a = 0.2, v = 0.2, t = 0.2)
movej(p[0.391415893743456, 0.281956524924319, 0.309523920892365, -1.461, 0.614, -0.61], a = 0.2, v = 0.2, t = 0.2)
movej(p[0.39141349654543, 0.281947999466651, 0.30994262724533, -1.461, 0.614, -0.61], a = 0.2, v = 0.2, t = 0.2)
movej(p[0.391408114870205, 0.28192885993633, 0.310882617009077, -1.461, 0.614, -0.61], a = 0.2, v = 0.2, t = 0.2)
movej(p[0.391403289621962, 0.281911699297459, 0.31172541850976, -1.461, 0.614, -0.61], a = 0.2, v = 0.2, t = 0.2)
movej(p[0.391399736857718, 0.281899064153916, 0.312345961720293, -1.461, 0.614, -0.61], a = 0.2, v = 0.2, t = 0.2)
movej(p[0.391398377655596, 0.28189423025199, 0.312583366622781, -1.461, 0.614, -0.61], a = 0.2, v = 0.2, t = 0.2)
movej(p[0.391397841548702, 0.281892323627431, 0.312677005679655, -1.461, 0.614, -0.61], a = 0.2, v = 0.2, t = 0.2)
movej(p[0.391398109831107, 0.281893277753985, 0.312630146160163, -1.461, 0.614, -0.61], a = 0.2, v = 0.2, t = 0.2)
movej(p[0.391400268053447, 0.281900953312279, 0.312253180471563, -1.461, 0.614, -0.61], a = 0.2, v = 0.2, t = 0.2)
movej(p[0.391403777819239, 0.281913435535006, 0.311640147581287, -1.461, 0.614, -0.61], a = 0.2, v = 0.2, t = 0.2)
movej(p[0.391409571047802, 0.281934038724368, 0.310628273894956, -1.461, 0.614, -0.61], a = 0.2, v = 0.2, t = 0.2)
movej(p[0.391415713438447, 0.281955883682875, 0.309555413848712, -1.461, 0.614, -0.61], a = 0.2, v = 0.2, t = 0.2)
movej(p[0.391420819790785, 0.281974044047691, 0.308663513329419, -1.461, 0.614, -0.61], a = 0.2, v = 0.2, t = 0.2)
movej(p[0.391423858073288, 0.281984849474935, 0.308132832020551, -1.461, 0.614, -0.61], a = 0.2, v = 0.2, t = 0.2)
movej(p[0.391424995998234, 0.281988896420934, 0.307934076473824, -1.461, 0.614, -0.61], a = 0.2, v = 0.2, t = 0.2)
movej(p[0.391423886120734, 0.281984949223604, 0.308127933116231, -1.461, 0.614, -0.61], a = 0.2, v = 0.2, t = 0.2)
movej(p[0.391419439741969, 0.28196913600604, 0.308904559417528, -1.461, 0.614, -0.61], a = 0.2, v = 0.2, t = 0.2)
movej(p[0.391413391796805, 0.281947626935908, 0.309960923153303, -1.461, 0.614, -0.61], a = 0.2, v = 0.2, t = 0.2)
movej(p[0.391407199035238, 0.281925602836934, 0.311042581231796, -1.461, 0.614, -0.61], a = 0.2, v = 0.2, t = 0.2)
movej(p[0.391402490842152, 0.28190885849608, 0.311864937305262, -1.461, 0.614, -0.61], a = 0.2, v = 0.2, t = 0.2)
movej(p[0.391399254624816, 0.28189734912823, 0.312430190881765, -1.461, 0.614, -0.61], a = 0.2, v = 0.2, t = 0.2)
movej(p[0.391398328830144, 0.281894056607878, 0.312591894715405, -1.461, 0.614, -0.61], a = 0.2, v = 0.2, t = 0.2)
movej(p[0.391399164128873, 0.281897027286096, 0.312445997346522, -1.461, 0.614, -0.61], a = 0.2, v = 0.2, t = 0.2)
movej(p[0.391401643351369, 0.281905844457727, 0.31201296419786, -1.461, 0.614, -0.61], a = 0.2, v = 0.2, t = 0.2)
movej(p[0.391406522462156, 0.281923196654756, 0.311160754801329, -1.461, 0.614, -0.61], a = 0.2, v = 0.2, t = 0.2)
movej(p[0.39141301973885, 0.281946303739279, 0.310025908618782, -1.461, 0.614, -0.61], a = 0.2, v = 0.2, t = 0.2)
movej(p[0.391419772304541, 0.281970318740258, 0.308846472409153, -1.461, 0.614, -0.61], a = 0.2, v = 0.2, t = 0.2)
movej(p[0.391425404117192, 0.281990347865852, 0.307862792417075, -1.461, 0.614, -0.61], a = 0.2, v = 0.2, t = 0.2)
movej(p[0.391428449268457, 0.282001177721341, 0.307330911376537, -1.461, 0.614, -0.61], a = 0.2, v = 0.2, t = 0.2)
movej(p[0.391428853380636, 0.282002614916449, 0.307260327163263, -1.461, 0.614, -0.61], a = 0.2, v = 0.2, t = 0.2)
movej(p[0.391424359492932, 0.281986632736854, 0.308045251608613, -1.461, 0.614, -0.61], a = 0.2, v = 0.2, t = 0.2)
movej(p[0.391417649857005, 0.281962770412409, 0.309217189495302, -1.461, 0.614, -0.61], a = 0.2, v = 0.2, t = 0.2)
movej(p[0.391410457118133, 0.281937189968033, 0.310473508509476, -1.461, 0.614, -0.61], a = 0.2, v = 0.2, t = 0.2)
movej(p[0.391404650495483, 0.281916539143592, 0.311487721672565, -1.461, 0.614, -0.61], a = 0.2, v = 0.2, t = 0.2)
movej(p[0.391400670562915, 0.281902384807463, 0.312182876195679, -1.461, 0.614, -0.61], a = 0.2, v = 0.2, t = 0.2)
movej(p[0.391398737292539, 0.281895509274209, 0.312520550672073, -1.461, 0.614, -0.61], a = 0.2, v = 0.2, t = 0.2)
movej(p[0.391398602092402, 0.28189502844491, 0.312544165390452, -1.461, 0.614, -0.61], a = 0.2, v = 0.2, t = 0.2)
movej(p[0.391398537239839, 0.28189479780156, 0.312555492856973, -1.461, 0.614, -0.61], a = 0.2, v = 0.2, t = 0.2)
movej(p[0.391400025281052, 0.281900089910193, 0.31229558428761, -1.461, 0.614, -0.61], a = 0.2, v = 0.2, t = 0.2)
movej(p[0.391403644050094, 0.281912959794925, 0.311663512355568, -1.461, 0.614, -0.61], a = 0.2, v = 0.2, t = 0.2)
movej(p[0.391409130302224, 0.281932471245284, 0.310705256677139, -1.461, 0.614, -0.61], a = 0.2, v = 0.2, t = 0.2)
movej(p[0.391415286430393, 0.281954365060282, 0.309629997167555, -1.461, 0.614, -0.61], a = 0.2, v = 0.2, t = 0.2)
movej(p[0.391421033867208, 0.281974805394675, 0.308626121692359, -1.461, 0.614, -0.61], a = 0.2, v = 0.2, t = 0.2)
movej(p[0.391425777319941, 0.281991675133855, 0.307797606996318, -1.461, 0.614, -0.61], a = 0.2, v = 0.2, t = 0.2)
movej(p[0.391427026289877, 0.281996117003156, 0.307579455787586, -1.461, 0.614, -0.61], a = 0.2, v = 0.2, t = 0.2)
movej(p[0.391424892966801, 0.281988529997252, 0.30795207244888, -1.461, 0.614, -0.61], a = 0.2, v = 0.2, t = 0.2)
movej(p[0.391419840992164, 0.281970563022712, 0.308834475092449, -1.461, 0.614, -0.61], a = 0.2, v = 0.2, t = 0.2)
movej(p[0.391413332267533, 0.281947415224447, 0.30997132082778, -1.461, 0.614, -0.61], a = 0.2, v = 0.2, t = 0.2)
movej(p[0.391406330136813, 0.281922512663883, 0.3111943472881, -1.461, 0.614, -0.61], a = 0.2, v = 0.2, t = 0.2)
movej(p[0.391401053095733, 0.281903745257167, 0.312116061139402, -1.461, 0.614, -0.61], a = 0.2, v = 0.2, t = 0.2)
movej(p[0.391399095212292, 0.281896782189366, 0.312458034654282, -1.461, 0.614, -0.61], a = 0.2, v = 0.2, t = 0.2)
movej(p[0.391398195461677, 0.281893582292779, 0.312615189505338, -1.461, 0.614, -0.61], a = 0.2, v = 0.2, t = 0.2)
movej(p[0.391398661163758, 0.281895238527821, 0.312533847698086, -1.461, 0.614, -0.61], a = 0.2, v = 0.2, t = 0.2)
movej(p[0.391400559180211, 0.281901988683106, 0.31220233084449, -1.461, 0.614, -0.61], a = 0.2, v = 0.2, t = 0.2)
movej(p[0.391404408486093, 0.281915678455077, 0.311529992218418, -1.461, 0.614, -0.61], a = 0.2, v = 0.2, t = 0.2)
movej(p[0.391409713002222, 0.281934543574774, 0.310603479440434, -1.461, 0.614, -0.61], a = 0.2, v = 0.2, t = 0.2)
movej(p[0.391415486196896, 0.281955075515088, 0.309595104971474, -1.461, 0.614, -0.61], a = 0.2, v = 0.2, t = 0.2)
movej(p[0.391420899353948, 0.281974327008201, 0.30864961643757, -1.461, 0.614, -0.61], a = 0.2, v = 0.2, t = 0.2)
movej(p[0.39142397598704, 0.281985268826482, 0.308112236626876, -1.461, 0.614, -0.61], a = 0.2, v = 0.2, t = 0.2)
movej(p[0.391424654849709, 0.281987683151409, 0.307993663146787, -1.461, 0.614, -0.61], a = 0.2, v = 0.2, t = 0.2)
movej(p[0.391422901025747, 0.281981445806067, 0.308299994633292, -1.461, 0.614, -0.61], a = 0.2, v = 0.2, t = 0.2)
movej(p[0.391418771182443, 0.281966758323481, 0.309021333300112, -1.461, 0.614, -0.61], a = 0.2, v = 0.2, t = 0.2)
movej(p[0.391413014014881, 0.281946283382407, 0.310026908395174, -1.461, 0.614, -0.61], a = 0.2, v = 0.2, t = 0.2)
movej(p[0.391407031322959, 0.281925006380607, 0.311071874680081, -1.461, 0.614, -0.61], a = 0.2, v = 0.2, t = 0.2)
movej(p[0.391402991403201, 0.281910638704469, 0.311777506859783, -1.461, 0.614, -0.61], a = 0.2, v = 0.2, t = 0.2)
movej(p[0.391400099757324, 0.281900354779552, 0.31228257589704, -1.461, 0.614, -0.61], a = 0.2, v = 0.2, t = 0.2)
movej(p[0.391399060467803, 0.281896658623158, 0.312464103296981, -1.461, 0.614, -0.61], a = 0.2, v = 0.2, t = 0.2)
movej(p[0.391399352733637, 0.281897698045002, 0.312413054714406, -1.461, 0.614, -0.61], a = 0.2, v = 0.2, t = 0.2)
movej(p[0.391401376270997, 0.281904894606116, 0.31205961376431, -1.461, 0.614, -0.61], a = 0.2, v = 0.2, t = 0.2)
movej(p[0.39140499857001, 0.281917777044931, 0.311426925270168, -1.461, 0.614, -0.61], a = 0.2, v = 0.2, t = 0.2)
movej(p[0.39141016462334, 0.281936149731914, 0.310524597083106, -1.461, 0.614, -0.61], a = 0.2, v = 0.2, t = 0.2)
movej(p[0.391415817614674, 0.281956254177931, 0.309537217918378, -1.461, 0.614, -0.61], a = 0.2, v = 0.2, t = 0.2)
movej(p[0.391419636646487, 0.28196983628241, 0.308870167109643, -1.461, 0.614, -0.61], a = 0.2, v = 0.2, t = 0.2)
movej(p[0.391422332635671, 0.281979424368755, 0.308399272429016, -1.461, 0.614, -0.61], a = 0.2, v = 0.2, t = 0.2)
movej(p[0.391423144294411, 0.281982310973094, 0.308257504136632, -1.461, 0.614, -0.61], a = 0.2, v = 0.2, t = 0.2)
movej(p[0.391421080231354, 0.281974970285332, 0.308618023503584, -1.461, 0.614, -0.61], a = 0.2, v = 0.2, t = 0.2)
movej(p[0.391415657915952, 0.281955686221224, 0.309565111679715, -1.461, 0.614, -0.61], a = 0.2, v = 0.2, t = 0.2)
movej(p[0.391408316353897, 0.281929576498197, 0.310847424880079, -1.461, 0.614, -0.61], a = 0.2, v = 0.2, t = 0.2)
movej(p[0.391403327285675, 0.281911833245672, 0.311718839981101, -1.461, 0.614, -0.61], a = 0.2, v = 0.2, t = 0.2)
movej(p[0.391399551841883, 0.281898406158768, 0.312378277492611, -1.461, 0.614, -0.61], a = 0.2, v = 0.2, t = 0.2)
movej(p[0.391398498545811, 0.28189466018911, 0.312562251345383, -1.461, 0.614, -0.61], a = 0.2, v = 0.2, t = 0.2)
movej(p[0.391398064955194, 0.281893118156115, 0.312637984407076, -1.461, 0.614, -0.61], a = 0.2, v = 0.2, t = 0.2)
movej(p[0.391399131044335, 0.28189690962338, 0.312451776054068, -1.461, 0.614, -0.61], a = 0.2, v = 0.2, t = 0.2)
movej(p[0.391401694294689, 0.281906025633881, 0.312004066187971, -1.461, 0.614, -0.61], a = 0.2, v = 0.2, t = 0.2)
movej(p[0.391406458353708, 0.281922968657798, 0.311171952296919, -1.461, 0.614, -0.61], a = 0.2, v = 0.2, t = 0.2)
movej(p[0.391412172019109, 0.281943288886651, 0.310173975502436, -1.461, 0.614, -0.61], a = 0.2, v = 0.2, t = 0.2)
movej(p[0.39141709405966, 0.281960793760213, 0.309314267782965, -1.461, 0.614, -0.61], a = 0.2, v = 0.2, t = 0.2)
movej(p[0.39142097719992, 0.28197460386165, 0.308636019478639, -1.461, 0.614, -0.61], a = 0.2, v = 0.2, t = 0.2)
movej(p[0.391424064708552, 0.281985584357986, 0.308096740092801, -1.461, 0.614, -0.61], a = 0.2, v = 0.2, t = 0.2)
movej(p[0.391425495700688, 0.281990673575791, 0.307846795994803, -1.461, 0.614, -0.61], a = 0.2, v = 0.2, t = 0.2)
movej(p[0.391423350929675, 0.281983045856145, 0.308221412208882, -1.461, 0.614, -0.61], a = 0.2, v = 0.2, t = 0.2)
movej(p[0.391418084878615, 0.281964317534622, 0.309141206489511, -1.461, 0.614, -0.61], a = 0.2, v = 0.2, t = 0.2)
movej(p[0.391411791947597, 0.281941937190402, 0.310240360654864, -1.461, 0.614, -0.61], a = 0.2, v = 0.2, t = 0.2)
movej(p[0.391405449447013, 0.281919380555677, 0.311348172883771, -1.461, 0.614, -0.61], a = 0.2, v = 0.2, t = 0.2)
movej(p[0.391401148914966, 0.281904086031191, 0.3120993248826, -1.461, 0.614, -0.61], a = 0.2, v = 0.2, t = 0.2)
movej(p[0.391399115532381, 0.281896854456259, 0.31245448544809, -1.461, 0.614, -0.61], a = 0.2, v = 0.2, t = 0.2)
movej(p[0.391398713366351, 0.281895424182487, 0.312524729737391, -1.461, 0.614, -0.61], a = 0.2, v = 0.2, t = 0.2)
movej(p[0.391398545711312, 0.281894827929729, 0.312554013187913, -1.461, 0.614, -0.61], a = 0.2, v = 0.2, t = 0.2)
movej(p[0.391399135222832, 0.281896924483896, 0.312451046217302, -1.461, 0.614, -0.61], a = 0.2, v = 0.2, t = 0.2)
movej(p[0.3914020308068, 0.28190722241434, 0.311945289333886, -1.461, 0.614, -0.61], a = 0.2, v = 0.2, t = 0.2)
movej(p[0.391406008449781, 0.28192136860772, 0.311250534721329, -1.461, 0.614, -0.61], a = 0.2, v = 0.2, t = 0.2)
movej(p[0.391411504604376, 0.281940915275466, 0.310290549429742, -1.461, 0.614, -0.61], a = 0.2, v = 0.2, t = 0.2)
movej(p[0.391416971566733, 0.281960358123169, 0.309335662997753, -1.461, 0.614, -0.61], a = 0.2, v = 0.2, t = 0.2)
movej(p[0.391421460875262, 0.281976324017268, 0.308551538373516, -1.461, 0.614, -0.61], a = 0.2, v = 0.2, t = 0.2)
movej(p[0.391424200939004, 0.281986068851521, 0.308072945414671, -1.461, 0.614, -0.61], a = 0.2, v = 0.2, t = 0.2)
movej(p[0.391423805985174, 0.281984664227407, 0.308141929985718, -1.461, 0.614, -0.61], a = 0.2, v = 0.2, t = 0.2)
movej(p[0.391420923967012, 0.281974414542747, 0.308645317399085, -1.461, 0.614, -0.61], a = 0.2, v = 0.2, t = 0.2)
movej(p[0.39141450453629, 0.281951584311673, 0.3097665666227, -1.461, 0.614, -0.61], a = 0.2, v = 0.2, t = 0.2)
movej(p[0.391407342134451, 0.281926111758715, 0.311017586821996, -1.461, 0.614, -0.61], a = 0.2, v = 0.2, t = 0.2)
movej(p[0.391401290640427, 0.281904590067323, 0.312074570419134, -1.461, 0.614, -0.61], a = 0.2, v = 0.2, t = 0.2)
movej(p[0.391398928988246, 0.281896191025826, 0.312487068160705, -1.461, 0.614, -0.61], a = 0.2, v = 0.2, t = 0.2)
movej(p[0.391397634856198, 0.281891588540812, 0.31271310760517, -1.461, 0.614, -0.61], a = 0.2, v = 0.2, t = 0.2)
movej(p[0.391397814875008, 0.281892228764412, 0.312681664637642, -1.461, 0.614, -0.61], a = 0.2, v = 0.2, t = 0.2)
movej(p[0.39139919938852, 0.281897152684422, 0.312439838723947, -1.461, 0.614, -0.61], a = 0.2, v = 0.2, t = 0.2)
movej(p[0.391402424615836, 0.28190862296708, 0.311876504718117, -1.461, 0.614, -0.61], a = 0.2, v = 0.2, t = 0.2)
movej(p[0.391407883049479, 0.281928035483045, 0.310923107952953, -1.461, 0.614, -0.61], a = 0.2, v = 0.2, t = 0.2)
movej(p[0.391414270998374, 0.281950753751327, 0.309807357499493, -1.461, 0.614, -0.61], a = 0.2, v = 0.2, t = 0.2)
movej(p[0.391420633761807, 0.281973382449376, 0.308696006062159, -1.461, 0.614, -0.61], a = 0.2, v = 0.2, t = 0.2)
movej(p[0.391424958792439, 0.281988764101271, 0.307940575020372, -1.461, 0.614, -0.61], a = 0.2, v = 0.2, t = 0.2)
movej(p[0.391427364576418, 0.281997320094245, 0.307520369002819, -1.461, 0.614, -0.61], a = 0.2, v = 0.2, t = 0.2)
movej(p[0.391427569494492, 0.281998048870235, 0.307484577007986, -1.461, 0.614, -0.61], a = 0.2, v = 0.2, t = 0.2)
movej(p[0.391423460257474, 0.281983434672385, 0.308202316479795, -1.461, 0.614, -0.61], a = 0.2, v = 0.2, t = 0.2)
movej(p[0.391416644728129, 0.281959195745823, 0.309392750229736, -1.461, 0.614, -0.61], a = 0.2, v = 0.2, t = 0.2)
movej(p[0.391408615717452, 0.281930641162561, 0.310795136574778, -1.461, 0.614, -0.61], a = 0.2, v = 0.2, t = 0.2)
movej(p[0.391403065585833, 0.28191090252952, 0.311764549757743, -1.461, 0.614, -0.61], a = 0.2, v = 0.2, t = 0.2)
movej(p[0.391399719708708, 0.28189900316473, 0.312348957050363, -1.461, 0.614, -0.61], a = 0.2, v = 0.2, t = 0.2)
movej(p[0.391398294429093, 0.281893934263082, 0.312597903371521, -1.461, 0.614, -0.61], a = 0.2, v = 0.2, t = 0.2)
movej(p[0.391398490360536, 0.281894631078784, 0.312563681025623, -1.461, 0.614, -0.61], a = 0.2, v = 0.2, t = 0.2)
movej(p[0.391400097370429, 0.281900346290736, 0.312282992803796, -1.461, 0.614, -0.61], a = 0.2, v = 0.2, t = 0.2)
movej(p[0.391403418869172, 0.281912158955611, 0.311702843558829, -1.461, 0.614, -0.61], a = 0.2, v = 0.2, t = 0.2)
movej(p[0.391408285444467, 0.281929466571092, 0.310852823672596, -1.461, 0.614, -0.61], a = 0.2, v = 0.2, t = 0.2)
movej(p[0.39141401685417, 0.281949849906245, 0.309851747571298, -1.461, 0.614, -0.61], a = 0.2, v = 0.2, t = 0.2)
movej(p[0.391418458081364, 0.281965644802625, 0.309076021068754, -1.461, 0.614, -0.61], a = 0.2, v = 0.2, t = 0.2)
movej(p[0.391422100242548, 0.281978597879783, 0.308439863350531, -1.461, 0.614, -0.61], a = 0.2, v = 0.2, t = 0.2)
movej(p[0.391424215821322, 0.281986121779386, 0.308070345996052, -1.461, 0.614, -0.61], a = 0.2, v = 0.2, t = 0.2)
movej(p[0.39142496050963, 0.281988770208332, 0.307940275087454, -1.461, 0.614, -0.61], a = 0.2, v = 0.2, t = 0.2)
movej(p[0.391422308022606, 0.281979336834208, 0.308403571467502, -1.461, 0.614, -0.61], a = 0.2, v = 0.2, t = 0.2)
movej(p[0.391417495882251, 0.281962222812573, 0.309244083480247, -1.461, 0.614, -0.61], a = 0.2, v = 0.2, t = 0.2)
movej(p[0.391412011175593, 0.281942716858569, 0.310202069219051, -1.461, 0.614, -0.61], a = 0.2, v = 0.2, t = 0.2)
movej(p[0.391406373638974, 0.281922667376104, 0.31118674898752, -1.461, 0.614, -0.61], a = 0.2, v = 0.2, t = 0.2)
movej(p[0.391402175966642, 0.281907738664595, 0.311919935004585, -1.461, 0.614, -0.61], a = 0.2, v = 0.2, t = 0.2)
movej(p[0.391399670986288, 0.281898829887042, 0.312357467147012, -1.461, 0.614, -0.61], a = 0.2, v = 0.2, t = 0.2)
movej(p[0.391399191260484, 0.281897123777665, 0.312441258406424, -1.461, 0.614, -0.61], a = 0.2, v = 0.2, t = 0.2)
movej(p[0.391399704751978, 0.281898949972226, 0.312351569466075, -1.461, 0.614, -0.61], a = 0.2, v = 0.2, t = 0.2)
movej(p[0.391401944317635, 0.281906914822016, 0.311960395955169, -1.461, 0.614, -0.61], a = 0.2, v = 0.2, t = 0.2)
movej(p[0.39140643431304, 0.281922883158939, 0.311176151357765, -1.461, 0.614, -0.61], a = 0.2, v = 0.2, t = 0.2)
movej(p[0.391411284231588, 0.281940131535924, 0.310329040820833, -1.461, 0.614, -0.61], a = 0.2, v = 0.2, t = 0.2)
movej(p[0.391415924652886, 0.281956634851423, 0.309518522099848, -1.461, 0.614, -0.61], a = 0.2, v = 0.2, t = 0.2)
movej(p[0.391420013283617, 0.281971175764536, 0.30880438182305, -1.461, 0.614, -0.61], a = 0.2, v = 0.2, t = 0.2)
movej(p[0.391423632548927, 0.281984047414209, 0.308172223210396, -1.461, 0.614, -0.61], a = 0.2, v = 0.2, t = 0.2)
movej(p[0.391424156292049, 0.281985910067926, 0.308080743670529, -1.461, 0.614, -0.61], a = 0.2, v = 0.2, t = 0.2)
movej(p[0.391421543872806, 0.2819766191919, 0.308537041615832, -1.461, 0.614, -0.61], a = 0.2, v = 0.2, t = 0.2)
movej(p[0.39141603855986, 0.28195703995316, 0.309498626549647, -1.461, 0.614, -0.61], a = 0.2, v = 0.2, t = 0.2)
movej(p[0.39140987899731, 0.28193513392404, 0.310574485925066, -1.461, 0.614, -0.61], a = 0.2, v = 0.2, t = 0.2)
movej(p[0.391403662080595, 0.28191302391907, 0.311660363059933, -1.461, 0.614, -0.61], a = 0.2, v = 0.2, t = 0.2)
movej(p[0.391399719594229, 0.281899002757593, 0.312348977045891, -1.461, 0.614, -0.61], a = 0.2, v = 0.2, t = 0.2)
movej(p[0.391398360884368, 0.281894170606357, 0.31258629596761, -1.461, 0.614, -0.61], a = 0.2, v = 0.2, t = 0.2)
movej(p[0.391397965987778, 0.281892766185812, 0.312655270540893, -1.461, 0.614, -0.61], a = 0.2, v = 0.2, t = 0.2)
movej(p[0.391398912102539, 0.281896130973056, 0.312490017501061, -1.461, 0.614, -0.61], a = 0.2, v = 0.2, t = 0.2)
movej(p[0.391401139527658, 0.281904052645923, 0.312100964515883, -1.461, 0.614, -0.61], a = 0.2, v = 0.2, t = 0.2)
movej(p[0.391405651045185, 0.281920097524681, 0.311312960759245, -1.461, 0.614, -0.61], a = 0.2, v = 0.2, t = 0.2)
movej(p[0.391410565301138, 0.281937574712899, 0.310454612735667, -1.461, 0.614, -0.61], a = 0.2, v = 0.2, t = 0.2)
movej(p[0.391415918356521, 0.281956612458865, 0.309519621853879, -1.461, 0.614, -0.61], a = 0.2, v = 0.2, t = 0.2)
movej(p[0.391420822080372, 0.28197405219044, 0.308663113418862, -1.461, 0.614, -0.61], a = 0.2, v = 0.2, t = 0.2)
movej(p[0.391424296529278, 0.28198640881127, 0.308056249148925, -1.461, 0.614, -0.61], a = 0.2, v = 0.2, t = 0.2)
movej(p[0.391424354913758, 0.281986616451357, 0.308046051429727, -1.461, 0.614, -0.61], a = 0.2, v = 0.2, t = 0.2)
movej(p[0.391421063059448, 0.281974909214718, 0.30862102283276, -1.461, 0.614, -0.61], a = 0.2, v = 0.2, t = 0.2)
movej(p[0.391415786132847, 0.28195614221514, 0.309542716688534, -1.461, 0.614, -0.61], a = 0.2, v = 0.2, t = 0.2)
movej(p[0.391408805180811, 0.281931314974999, 0.310762043976204, -1.461, 0.614, -0.61], a = 0.2, v = 0.2, t = 0.2)
movej(p[0.391403023514664, 0.281910752906516, 0.311771898114224, -1.461, 0.614, -0.61], a = 0.2, v = 0.2, t = 0.2)
movej(p[0.391399422337095, 0.281897945584556, 0.31240089743348, -1.461, 0.614, -0.61], a = 0.2, v = 0.2, t = 0.2)
movej(p[0.391397928553024, 0.281892633051874, 0.312661809078497, -1.461, 0.614, -0.61], a = 0.2, v = 0.2, t = 0.2)
movej(p[0.39139730515561, 0.281890415985029, 0.312770694725348, -1.461, 0.614, -0.61], a = 0.2, v = 0.2, t = 0.2)
movej(p[0.391397282545934, 0.281890335575388, 0.312774643842097, -1.461, 0.614, -0.61], a = 0.2, v = 0.2, t = 0.2)
movej(p[0.391398985312096, 0.281896391337439, 0.312477230361008, -1.461, 0.614, -0.61], a = 0.2, v = 0.2, t = 0.2)
movej(p[0.391402051413086, 0.281907295699077, 0.311941690138875, -1.461, 0.614, -0.61], a = 0.2, v = 0.2, t = 0.2)
movej(p[0.391407333548498, 0.281926081223408, 0.311019086486584, -1.461, 0.614, -0.61], a = 0.2, v = 0.2, t = 0.2)
movej(p[0.391413467925587, 0.281947897682295, 0.309947626127289, -1.461, 0.614, -0.61], a = 0.2, v = 0.2, t = 0.2)
movej(p[0.391418575995116, 0.281966064154173, 0.309055425675079, -1.461, 0.614, -0.61], a = 0.2, v = 0.2, t = 0.2)
movej(p[0.391422371558657, 0.281979562795479, 0.308392473949551, -1.461, 0.614, -0.61], a = 0.2, v = 0.2, t = 0.2)
movej(p[0.391425489404323, 0.281990651183233, 0.307847895748835, -1.461, 0.614, -0.61], a = 0.2, v = 0.2, t = 0.2)
movej(p[0.391428375429263, 0.282000915117702, 0.307343808491994, -1.461, 0.614, -0.61], a = 0.2, v = 0.2, t = 0.2)
movej(p[0.391428257515511, 0.282000495766155, 0.307364403885669, -1.461, 0.614, -0.61], a = 0.2, v = 0.2, t = 0.2)
movej(p[0.391424074439299, 0.281985618964667, 0.308095040472934, -1.461, 0.614, -0.61], a = 0.2, v = 0.2, t = 0.2)
movej(p[0.39141763440229, 0.281962715448857, 0.309219888891561, -1.461, 0.614, -0.61], a = 0.2, v = 0.2, t = 0.2)
movej(p[0.39141173871469, 0.281941747871499, 0.310249658575309, -1.461, 0.614, -0.61], a = 0.2, v = 0.2, t = 0.2)
movej(p[0.39140618875479, 0.281922009849164, 0.311219041764982, -1.461, 0.614, -0.61], a = 0.2, v = 0.2, t = 0.2)
movej(p[0.391401953361505, 0.281906946985873, 0.31195881630847, -1.461, 0.614, -0.61], a = 0.2, v = 0.2, t = 0.2)
movej(p[0.391399300531044, 0.281897512390337, 0.312422172675101, -1.461, 0.614, -0.61], a = 0.2, v = 0.2, t = 0.2)
movej(p[0.39139841680754, 0.281894369492989, 0.31257652815226, -1.461, 0.614, -0.61], a = 0.2, v = 0.2, t = 0.2)
movej(p[0.391397886252896, 0.281892482614596, 0.312669197426034, -1.461, 0.614, -0.61], a = 0.2, v = 0.2, t = 0.2)
movej(p[0.391397903310322, 0.281892543278072, 0.312666218092386, -1.461, 0.614, -0.61], a = 0.2, v = 0.2, t = 0.2)
movej(p[0.391398350867423, 0.281894134981833, 0.312588045576296, -1.461, 0.614, -0.61], a = 0.2, v = 0.2, t = 0.2)
movej(p[0.391399752604356, 0.281899120155669, 0.312343211335438, -1.461, 0.614, -0.61], a = 0.2, v = 0.2, t = 0.2)
movej(p[0.391403107542523, 0.281911051745386, 0.311757221396789, -1.461, 0.614, -0.61], a = 0.2, v = 0.2, t = 0.2)
movej(p[0.391408638613326, 0.281930722590046, 0.310791137469211, -1.461, 0.614, -0.61], a = 0.2, v = 0.2, t = 0.2)
movej(p[0.391414216048276, 0.281950558325364, 0.309816955352857, -1.461, 0.614, -0.61], a = 0.2, v = 0.2, t = 0.2)
movej(p[0.391418436330283, 0.281965567446515, 0.309079820219043, -1.461, 0.614, -0.61], a = 0.2, v = 0.2, t = 0.2)
movej(p[0.391421613705222, 0.281976867545729, 0.30852484434385, -1.461, 0.614, -0.61], a = 0.2, v = 0.2, t = 0.2)
movej(p[0.391423638845293, 0.281984069806767, 0.308171123456365, -1.461, 0.614, -0.61], a = 0.2, v = 0.2, t = 0.2)
movej(p[0.391422346373196, 0.281979473225246, 0.308396872965676, -1.461, 0.614, -0.61], a = 0.2, v = 0.2, t = 0.2)
movej(p[0.391417948075766, 0.2819638310054, 0.30916510114528, -1.461, 0.614, -0.61], a = 0.2, v = 0.2, t = 0.2)
movej(p[0.391411500597598, 0.281940901025657, 0.310291249273216, -1.461, 0.614, -0.61], a = 0.2, v = 0.2, t = 0.2)
movej(p[0.391406326702432, 0.28192250044976, 0.311194947153935, -1.461, 0.614, -0.61], a = 0.2, v = 0.2, t = 0.2)
movej(p[0.391401392641547, 0.281904952826768, 0.312056754403829, -1.461, 0.614, -0.61], a = 0.2, v = 0.2, t = 0.2)
movej(p[0.39139885537801, 0.281895929236462, 0.312499925285106, -1.461, 0.614, -0.61], a = 0.2, v = 0.2, t = 0.2)
movej(p[0.391398014011874, 0.281892936979961, 0.312646882416964, -1.461, 0.614, -0.61], a = 0.2, v = 0.2, t = 0.2)
movej(p[0.391399914724317, 0.281899696723333, 0.312314894668688, -1.461, 0.614, -0.61], a = 0.2, v = 0.2, t = 0.2)
movej(p[0.391403981706999, 0.281914160646759, 0.311604535546205, -1.461, 0.614, -0.61], a = 0.2, v = 0.2, t = 0.2)
movej(p[0.391410177216071, 0.28193619451703, 0.310522397575044, -1.461, 0.614, -0.61], a = 0.2, v = 0.2, t = 0.2)
movej(p[0.391416802137264, 0.281959755559781, 0.309365256378956, -1.461, 0.614, -0.61], a = 0.2, v = 0.2, t = 0.2)
movej(p[0.391421523838916, 0.281976547942851, 0.308540540833204, -1.461, 0.614, -0.61], a = 0.2, v = 0.2, t = 0.2)
movej(p[0.391424344038217, 0.281986577773302, 0.308047951004872, -1.461, 0.614, -0.61], a = 0.2, v = 0.2, t = 0.2)
movej(p[0.391424753874365, 0.281988035325281, 0.307976367015205, -1.461, 0.614, -0.61], a = 0.2, v = 0.2, t = 0.2)
movej(p[0.391423425341266, 0.281983310495471, 0.308208415115786, -1.461, 0.614, -0.61], a = 0.2, v = 0.2, t = 0.2)
movej(p[0.391419206776449, 0.281968307481381, 0.308945250316681, -1.461, 0.614, -0.61], a = 0.2, v = 0.2, t = 0.2)
movej(p[0.391414510832656, 0.281951606704232, 0.309765466868669, -1.461, 0.614, -0.61], a = 0.2, v = 0.2, t = 0.2)
movej(p[0.391410774798387, 0.281938319774386, 0.31041802091972, -1.461, 0.614, -0.61], a = 0.2, v = 0.2, t = 0.2)
movej(p[0.391408417668141, 0.281929936814817, 0.310829728837941, -1.461, 0.614, -0.61], a = 0.2, v = 0.2, t = 0.2)
movej(p[0.391408067933663, 0.281928693009986, 0.310890815175492, -1.461, 0.614, -0.61], a = 0.2, v = 0.2, t = 0.2)
movej(p[0.39141115086312, 0.281939657220825, 0.310352335610767, -1.461, 0.614, -0.61], a = 0.2, v = 0.2, t = 0.2)
movej(p[0.39141706486742, 0.28196068994017, 0.309319366642564, -1.461, 0.614, -0.61], a = 0.2, v = 0.2, t = 0.2)
movej(p[0.391423299986355, 0.281982864679991, 0.30823031021877, -1.461, 0.614, -0.61], a = 0.2, v = 0.2, t = 0.2)
movej(p[0.391428852808239, 0.282002612880762, 0.307260427140902, -1.461, 0.614, -0.61], a = 0.2, v = 0.2, t = 0.2)
movej(p[0.391434541860575, 0.282022845575068, 0.306266749384904, -1.461, 0.614, -0.61], a = 0.2, v = 0.2, t = 0.2)
movej(p[0.391439212618907, 0.282039456781985, 0.305450931849041, -1.461, 0.614, -0.61], a = 0.2, v = 0.2, t = 0.2)
movej(p[0.391442184503375, 0.282050026069522, 0.304931847946321, -1.461, 0.614, -0.61], a = 0.2, v = 0.2, t = 0.2)
movej(p[0.391441186243261, 0.282046475831181, 0.305106208949084, -1.461, 0.614, -0.61], a = 0.2, v = 0.2, t = 0.2)
movej(p[0.391438324831386, 0.282036299431258, 0.305605997167439, -1.461, 0.614, -0.61], a = 0.2, v = 0.2, t = 0.2)
movej(p[0.391432957466082, 0.282017210793115, 0.306543487490207, -1.461, 0.614, -0.61], a = 0.2, v = 0.2, t = 0.2)
movej(p[0.391428096671995, 0.281999923738074, 0.307392497602284, -1.461, 0.614, -0.61], a = 0.2, v = 0.2, t = 0.2)
movej(p[0.391423401872995, 0.281983227032299, 0.308212514198993, -1.461, 0.614, -0.61], a = 0.2, v = 0.2, t = 0.2)
movej(p[0.391419360751203, 0.281968855081217, 0.308918356331737, -1.461, 0.614, -0.61], a = 0.2, v = 0.2, t = 0.2)
movej(p[0.391414954440218, 0.281953184361751, 0.30968798419829, -1.461, 0.614, -0.61], a = 0.2, v = 0.2, t = 0.2)
movej(p[0.391411006619113, 0.28193914422767, 0.310377529975845, -1.461, 0.614, -0.61], a = 0.2, v = 0.2, t = 0.2)
movej(p[0.391407895642209, 0.281928080268162, 0.310920908444891, -1.461, 0.614, -0.61], a = 0.2, v = 0.2, t = 0.2)
movej(p[0.391405771477483, 0.281920525833252, 0.311291925463958, -1.461, 0.614, -0.61], a = 0.2, v = 0.2, t = 0.2)
movej(p[0.391405215966336, 0.2819185501989, 0.3113889537628, -1.461, 0.614, -0.61], a = 0.2, v = 0.2, t = 0.2)
movej(p[0.391407128058028, 0.281925350411731, 0.311054978459056, -1.461, 0.614, -0.61], a = 0.2, v = 0.2, t = 0.2)
movej(p[0.391410653450254, 0.281937888208716, 0.31043921617923, -1.461, 0.614, -0.61], a = 0.2, v = 0.2, t = 0.2)
movej(p[0.391414956729805, 0.2819531925045, 0.309687584287733, -1.461, 0.614, -0.61], a = 0.2, v = 0.2, t = 0.2)
movej(p[0.391418550809654, 0.281965974583939, 0.309059824691203, -1.461, 0.614, -0.61], a = 0.2, v = 0.2, t = 0.2)
movej(p[0.391421594243729, 0.281976798332367, 0.308528243583583, -1.461, 0.614, -0.61], a = 0.2, v = 0.2, t = 0.2)
movej(p[0.391420467766719, 0.281972792100111, 0.308724999577526, -1.461, 0.614, -0.61], a = 0.2, v = 0.2, t = 0.2)
movej(p[0.391416554289426, 0.281958874107257, 0.309408546696729, -1.461, 0.614, -0.61], a = 0.2, v = 0.2, t = 0.2)
movej(p[0.391410136003498, 0.281936047947558, 0.310529595965066, -1.461, 0.614, -0.61], a = 0.2, v = 0.2, t = 0.2)
movej(p[0.391405012135816, 0.281917825290716, 0.311424555800119, -1.461, 0.614, -0.61], a = 0.2, v = 0.2, t = 0.2)
movej(p[0.391401321950535, 0.281904701419408, 0.31206910164227, -1.461, 0.614, -0.61], a = 0.2, v = 0.2, t = 0.2)
movej(p[0.391399615246282, 0.28189863165183, 0.312367202969517, -1.461, 0.614, -0.61], a = 0.2, v = 0.2, t = 0.2)
movej(p[0.391399811172002, 0.281899328447175, 0.312332981623395, -1.461, 0.614, -0.61], a = 0.2, v = 0.2, t = 0.2)
movej(p[0.391401585882725, 0.28190564007474, 0.312023001952836, -1.461, 0.614, -0.61], a = 0.2, v = 0.2, t = 0.2)
movej(p[0.391405330960864, 0.281918959168443, 0.311368868255085, -1.461, 0.614, -0.61], a = 0.2, v = 0.2, t = 0.2)
movej(p[0.391410235028153, 0.28193640012143, 0.310512299833485, -1.461, 0.614, -0.61], a = 0.2, v = 0.2, t = 0.2)
movej(p[0.391415375724303, 0.281954682627473, 0.30961440065584, -1.461, 0.614, -0.61], a = 0.2, v = 0.2, t = 0.2)
movej(p[0.39141914839197, 0.281968099841295, 0.30895544803588, -1.461, 0.614, -0.61], a = 0.2, v = 0.2, t = 0.2)
movej(p[0.391421407642354, 0.281976134698365, 0.308560836293962, -1.461, 0.614, -0.61], a = 0.2, v = 0.2, t = 0.2)
movej(p[0.391421664648542, 0.281977048721883, 0.308515946333961, -1.461, 0.614, -0.61], a = 0.2, v = 0.2, t = 0.2)
movej(p[0.391419297215152, 0.281968629119946, 0.308929453849688, -1.461, 0.614, -0.61], a = 0.2, v = 0.2, t = 0.2)
movej(p[0.391413554929909, 0.281948207106738, 0.309932429526131, -1.461, 0.614, -0.61], a = 0.2, v = 0.2, t = 0.2)
movej(p[0.391407318093783, 0.281926026259856, 0.311021785882842, -1.461, 0.614, -0.61], a = 0.2, v = 0.2, t = 0.2)
movej(p[0.391403062151452, 0.281910890315397, 0.311765149623578, -1.461, 0.614, -0.61], a = 0.2, v = 0.2, t = 0.2)
movej(p[0.391400654879241, 0.281902329029636, 0.312185615582993, -1.461, 0.614, -0.61], a = 0.2, v = 0.2, t = 0.2)
movej(p[0.391399708838892, 0.281898964507032, 0.312350855625731, -1.461, 0.614, -0.61], a = 0.2, v = 0.2, t = 0.2)
movej(p[0.391400003345259, 0.281900011897166, 0.312299415700683, -1.461, 0.614, -0.61], a = 0.2, v = 0.2, t = 0.2)
movej(p[0.391401966240435, 0.281906992788833, 0.311956566811588, -1.461, 0.614, -0.61], a = 0.2, v = 0.2, t = 0.2)
movej(p[0.391405338230304, 0.281918985021669, 0.311367598539067, -1.461, 0.614, -0.61], a = 0.2, v = 0.2, t = 0.2)
movej(p[0.391409809737291, 0.281934887605898, 0.31058658321941, -1.461, 0.614, -0.61], a = 0.2, v = 0.2, t = 0.2)
movej(p[0.391415122724893, 0.281953782853765, 0.309658590772366, -1.461, 0.614, -0.61], a = 0.2, v = 0.2, t = 0.2)
movej(p[0.391418754582934, 0.281966699288555, 0.309024232651649, -1.461, 0.614, -0.61], a = 0.2, v = 0.2, t = 0.2)
movej(p[0.39142021476731, 0.281971892326403, 0.308769189694052, -1.461, 0.614, -0.61], a = 0.2, v = 0.2, t = 0.2)
movej(p[0.3914187425626, 0.281966656539125, 0.309026332182072, -1.461, 0.614, -0.61], a = 0.2, v = 0.2, t = 0.2)
movej(p[0.391415440405147, 0.281954912660118, 0.30960310318261, -1.461, 0.614, -0.61], a = 0.2, v = 0.2, t = 0.2)
movej(p[0.391410201256739, 0.28193628001589, 0.310518198514198, -1.461, 0.614, -0.61], a = 0.2, v = 0.2, t = 0.2)
movej(p[0.391404749119461, 0.281916889892483, 0.311470495525331, -1.461, 0.614, -0.61], a = 0.2, v = 0.2, t = 0.2)
movej(p[0.391400582642758, 0.281902072125922, 0.312198232761059, -1.461, 0.614, -0.61], a = 0.2, v = 0.2, t = 0.2)
movej(p[0.391399452628336, 0.281898053313119, 0.312395606616813, -1.461, 0.614, -0.61], a = 0.2, v = 0.2, t = 0.2)
movej(p[0.391398376968719, 0.281894227809165, 0.312583486595948, -1.461, 0.614, -0.61], a = 0.2, v = 0.2, t = 0.2)
movej(p[0.391398128205046, 0.281893343099542, 0.312626936877944, -1.461, 0.614, -0.61], a = 0.2, v = 0.2, t = 0.2)
movej(p[0.391397857804772, 0.281892381440946, 0.312674166314702, -1.461, 0.614, -0.61], a = 0.2, v = 0.2, t = 0.2)
movej(p[0.3913983004965, 0.281893955841366, 0.312596843608545, -1.461, 0.614, -0.61], a = 0.2, v = 0.2, t = 0.2)
movej(p[0.391399135451791, 0.281896925298171, 0.312451006226246, -1.461, 0.614, -0.61], a = 0.2, v = 0.2, t = 0.2)
movej(p[0.391401880323667, 0.281906687232196, 0.311971573455232, -1.461, 0.614, -0.61], a = 0.2, v = 0.2, t = 0.2)
movej(p[0.391406627783177, 0.281923571221186, 0.311142358915716, -1.461, 0.614, -0.61], a = 0.2, v = 0.2, t = 0.2)
movej(p[0.391411516052314, 0.281940955989209, 0.310288549876958, -1.461, 0.614, -0.61], a = 0.2, v = 0.2, t = 0.2)
movej(p[0.391415949265951, 0.281956722385969, 0.309514223061362, -1.461, 0.614, -0.61], a = 0.2, v = 0.2, t = 0.2)
movej(p[0.391419473513383, 0.28196925611158, 0.308898660736815, -1.461, 0.614, -0.61], a = 0.2, v = 0.2, t = 0.2)
movej(p[0.391422880991858, 0.281981374557018, 0.308303493850664, -1.461, 0.614, -0.61], a = 0.2, v = 0.2, t = 0.2)
movej(p[0.39142273503066, 0.281980855456801, 0.30832898814866, -1.461, 0.614, -0.61], a = 0.2, v = 0.2, t = 0.2)
movej(p[0.391419546780181, 0.281969516679532, 0.308885863598997, -1.461, 0.614, -0.61], a = 0.2, v = 0.2, t = 0.2)
movej(p[0.391413428430204, 0.281947757219884, 0.309954524584394, -1.461, 0.614, -0.61], a = 0.2, v = 0.2, t = 0.2)
movej(p[0.39140744058671, 0.2819264618969, 0.311000390668054, -1.461, 0.614, -0.61], a = 0.2, v = 0.2, t = 0.2)
movej(p[0.391402079632251, 0.281907396058452, 0.311936761241263, -1.461, 0.614, -0.61], a = 0.2, v = 0.2, t = 0.2)
movej(p[0.391398958409444, 0.281896295660144, 0.31248192931005, -1.461, 0.614, -0.61], a = 0.2, v = 0.2, t = 0.2)
movej(p[0.391398021052355, 0.281892962018913, 0.312645652692002, -1.461, 0.614, -0.61], a = 0.2, v = 0.2, t = 0.2)
movej(p[0.391397984705155, 0.281892832752781, 0.312652001272091, -1.461, 0.614, -0.61], a = 0.2, v = 0.2, t = 0.2)
movej(p[0.391397893007179, 0.281892506635704, 0.312668017689891, -1.461, 0.614, -0.61], a = 0.2, v = 0.2, t = 0.2)
movej(p[0.391398041372444, 0.281893034285806, 0.312642103485811, -1.461, 0.614, -0.61], a = 0.2, v = 0.2, t = 0.2)
movej(p[0.391399389595994, 0.281897829143253, 0.312406616154442, -1.461, 0.614, -0.61], a = 0.2, v = 0.2, t = 0.2)
movej(p[0.391402083009393, 0.281907408069006, 0.311936171373191, -1.461, 0.614, -0.61], a = 0.2, v = 0.2, t = 0.2)
movej(p[0.391406349598306, 0.281922581877245, 0.311190948048367, -1.461, 0.614, -0.61], a = 0.2, v = 0.2, t = 0.2)
movej(p[0.391411467398581, 0.281940782955804, 0.31029704797629, -1.461, 0.614, -0.61], a = 0.2, v = 0.2, t = 0.2)
movej(p[0.391416139874103, 0.281957400269781, 0.309480930507509, -1.461, 0.614, -0.61], a = 0.2, v = 0.2, t = 0.2)
movej(p[0.391419041353758, 0.281967719167803, 0.30897414385441, -1.461, 0.614, -0.61], a = 0.2, v = 0.2, t = 0.2)
movej(p[0.39142002186957, 0.281971206299843, 0.308802882158462, -1.461, 0.614, -0.61], a = 0.2, v = 0.2, t = 0.2)
movej(p[0.391419887928706, 0.281970729949056, 0.308826276926035, -1.461, 0.614, -0.61], a = 0.2, v = 0.2, t = 0.2)
movej(p[0.391416436375674, 0.28195845475571, 0.309429142090404, -1.461, 0.614, -0.61], a = 0.2, v = 0.2, t = 0.2)
movej(p[0.391410954530999, 0.281938958980142, 0.310386627941012, -1.461, 0.614, -0.61], a = 0.2, v = 0.2, t = 0.2)
movej(p[0.391404713630856, 0.281916763679882, 0.311476694138961, -1.461, 0.614, -0.61], a = 0.2, v = 0.2, t = 0.2)
movej(p[0.391401222010044, 0.281904345988437, 0.312086557738074, -1.461, 0.614, -0.61], a = 0.2, v = 0.2, t = 0.2)
movej(p[0.391398770834995, 0.281895628565474, 0.312514691982416, -1.461, 0.614, -0.61], a = 0.2, v = 0.2, t = 0.2)
movej(p[0.391397945495971, 0.281892693308213, 0.312658849740377, -1.461, 0.614, -0.61], a = 0.2, v = 0.2, t = 0.2)
movej(p[0.39139742518723, 0.281890842868619, 0.312749729414408, -1.461, 0.614, -0.61], a = 0.2, v = 0.2, t = 0.2)
movej(p[0.39139763256661, 0.281891580398063, 0.312713507515727, -1.461, 0.614, -0.61], a = 0.2, v = 0.2, t = 0.2)
movej(p[0.391397765133722, 0.281892051863201, 0.312690352694488, -1.461, 0.614, -0.61], a = 0.2, v = 0.2, t = 0.2)
movej(p[0.391399331097036, 0.281897621096029, 0.312416833869168, -1.461, 0.614, -0.61], a = 0.2, v = 0.2, t = 0.2)
movej(p[0.391402912469675, 0.281910357983215, 0.311791293776228, -1.461, 0.614, -0.61], a = 0.2, v = 0.2, t = 0.2)
movej(p[0.391406892230524, 0.281924511708637, 0.311096169246406, -1.461, 0.614, -0.61], a = 0.2, v = 0.2, t = 0.2)
movej(p[0.391411176048582, 0.281939746791058, 0.310347936594642, -1.461, 0.614, -0.61], a = 0.2, v = 0.2, t = 0.2)
movej(p[0.391415394041002, 0.281954747769461, 0.309611201371385, -1.461, 0.614, -0.61], a = 0.2, v = 0.2, t = 0.2)
movej(p[0.391419118627334, 0.281967993985564, 0.308960646873118, -1.461, 0.614, -0.61], a = 0.2, v = 0.2, t = 0.2)
movej(p[0.391420568508566, 0.281973150381044, 0.308707403513027, -1.461, 0.614, -0.61], a = 0.2, v = 0.2, t = 0.2)
movej(p[0.39141933041417, 0.281968747189799, 0.308923655146615, -1.461, 0.614, -0.61], a = 0.2, v = 0.2, t = 0.2)
movej(p[0.391415975596206, 0.281956816027577, 0.309509624089959, -1.461, 0.614, -0.61], a = 0.2, v = 0.2, t = 0.2)
movej(p[0.391410230448979, 0.281936383835933, 0.310513099654598, -1.461, 0.614, -0.61], a = 0.2, v = 0.2, t = 0.2)
movej(p[0.391404275518304, 0.281915205564958, 0.311553217024004, -1.461, 0.614, -0.61], a = 0.2, v = 0.2, t = 0.2)
movej(p[0.391400190430709, 0.281900677252749, 0.312266738439215, -1.461, 0.614, -0.61], a = 0.2, v = 0.2, t = 0.2)
movej(p[0.391398730023099, 0.281895483420982, 0.312521820388091, -1.461, 0.614, -0.61], a = 0.2, v = 0.2, t = 0.2)
movej(p[0.391398083100174, 0.281893182687397, 0.312634815115913, -1.461, 0.614, -0.61], a = 0.2, v = 0.2, t = 0.2)
movej(p[0.391398444683267, 0.281894468630952, 0.312571659241231, -1.461, 0.614, -0.61], a = 0.2, v = 0.2, t = 0.2)
movej(p[0.391400311063347, 0.28190110627381, 0.312245668151754, -1.461, 0.614, -0.61], a = 0.2, v = 0.2, t = 0.2)
movej(p[0.391403825385418, 0.281913604700606, 0.31163183943947, -1.461, 0.614, -0.61], a = 0.2, v = 0.2, t = 0.2)
movej(p[0.39140820130213, 0.281929167325085, 0.310867520385558, -1.461, 0.614, -0.61], a = 0.2, v = 0.2, t = 0.2)
movej(p[0.391412828558301, 0.28194562381978, 0.310059301150275, -1.461, 0.614, -0.61], a = 0.2, v = 0.2, t = 0.2)
movej(p[0.391417632112703, 0.281962707306108, 0.309220288802118, -1.461, 0.614, -0.61], a = 0.2, v = 0.2, t = 0.2)
movej(p[0.391419986953362, 0.281971082122928, 0.308808980794453, -1.461, 0.614, -0.61], a = 0.2, v = 0.2, t = 0.2)
movej(p[0.391419536477037, 0.281969480037163, 0.308887663196503, -1.461, 0.614, -0.61], a = 0.2, v = 0.2, t = 0.2)
movej(p[0.391415793574006, 0.281956168679072, 0.309541416979224, -1.461, 0.614, -0.61], a = 0.2, v = 0.2, t = 0.2)
movej(p[0.391410646581492, 0.28193786378047, 0.310440415910901, -1.461, 0.614, -0.61], a = 0.2, v = 0.2, t = 0.2)
movej(p[0.391404775964874, 0.281916985366209, 0.311465806574052, -1.461, 0.614, -0.61], a = 0.2, v = 0.2, t = 0.2)
movej(p[0.391400523056246, 0.281901860210892, 0.3122086404333, -1.461, 0.614, -0.61], a = 0.2, v = 0.2, t = 0.2)
movej(p[0.39139895371579, 0.28189627896751, 0.312482749126692, -1.461, 0.614, -0.61], a = 0.2, v = 0.2, t = 0.2)
movej(p[0.391398407248513, 0.281894335497014, 0.312578197778835, -1.461, 0.614, -0.61], a = 0.2, v = 0.2, t = 0.2)
movej(p[0.391398159515154, 0.281893454451628, 0.31262146810108, -1.461, 0.614, -0.61], a = 0.2, v = 0.2, t = 0.2)
movej(p[0.39139878256913, 0.28189567029706, 0.312512642440812, -1.461, 0.614, -0.61], a = 0.2, v = 0.2, t = 0.2)
movej(p[0.391401235862048, 0.281904395252065, 0.312084138279206, -1.461, 0.614, -0.61], a = 0.2, v = 0.2, t = 0.2)
movej(p[0.391405128847534, 0.28191824036732, 0.311404170359486, -1.461, 0.614, -0.61], a = 0.2, v = 0.2, t = 0.2)
movej(p[0.391410227586994, 0.281936373657497, 0.310513599542794, -1.461, 0.614, -0.61], a = 0.2, v = 0.2, t = 0.2)
movej(p[0.391415300167918, 0.281954413916773, 0.309627597704214, -1.461, 0.614, -0.61], a = 0.2, v = 0.2, t = 0.2)
movej(p[0.391419246271832, 0.281968447943792, 0.308938351859577, -1.461, 0.614, -0.61], a = 0.2, v = 0.2, t = 0.2)
movej(p[0.391421046459939, 0.281974850179791, 0.308623922184296, -1.461, 0.614, -0.61], a = 0.2, v = 0.2, t = 0.2)
movej(p[0.391420005270061, 0.281971147264916, 0.308805781509999, -1.461, 0.614, -0.61], a = 0.2, v = 0.2, t = 0.2)
movej(p[0.39141674833196, 0.281959564205192, 0.309374654277041, -1.461, 0.614, -0.61], a = 0.2, v = 0.2, t = 0.2)
movej(p[0.391410474862435, 0.281937253074334, 0.31047040920266, -1.461, 0.614, -0.61], a = 0.2, v = 0.2, t = 0.2)
movej(p[0.391404570531643, 0.281916254758101, 0.311501688548761, -1.461, 0.614, -0.61], a = 0.2, v = 0.2, t = 0.2)
movej(p[0.39140044100888, 0.2819015684155, 0.312222971228103, -1.461, 0.614, -0.61], a = 0.2, v = 0.2, t = 0.2)
movej(p[0.391398977584739, 0.281896363855663, 0.312478580059137, -1.461, 0.614, -0.61], a = 0.2, v = 0.2, t = 0.2)
movej(p[0.391398482232501, 0.281894602172027, 0.3125651007081, -1.461, 0.614, -0.61], a = 0.2, v = 0.2, t = 0.2)
movej(p[0.391398314234024, 0.281894004697857, 0.312594444145205, -1.461, 0.614, -0.61], a = 0.2, v = 0.2, t = 0.2)
movej(p[0.391398822007274, 0.281895810555903, 0.312505753981471, -1.461, 0.614, -0.61], a = 0.2, v = 0.2, t = 0.2)
movej(p[0.391398856751763, 0.281895934122111, 0.312499685338772, -1.461, 0.614, -0.61], a = 0.2, v = 0.2, t = 0.2)
movej(p[0.391400408983276, 0.281901454518806, 0.312228564977016, -1.461, 0.614, -0.61], a = 0.2, v = 0.2, t = 0.2)
movej(p[0.391403367181736, 0.281911975133064, 0.311711871539649, -1.461, 0.614, -0.61], a = 0.2, v = 0.2, t = 0.2)
movej(p[0.391407604864607, 0.281927046139104, 0.310971697085604, -1.461, 0.614, -0.61], a = 0.2, v = 0.2, t = 0.2)
movej(p[0.391411564706046, 0.281941129022614, 0.310280051777626, -1.461, 0.614, -0.61], a = 0.2, v = 0.2, t = 0.2)
movej(p[0.391415292726759, 0.28195438745284, 0.309628897413523, -1.461, 0.614, -0.61], a = 0.2, v = 0.2, t = 0.2)
movej(p[0.391418657847866, 0.281966355257431, 0.309041128872673, -1.461, 0.614, -0.61], a = 0.2, v = 0.2, t = 0.2)
movej(p[0.391419898231849, 0.281970766591425, 0.308824477328529, -1.461, 0.614, -0.61], a = 0.2, v = 0.2, t = 0.2)
movej(p[0.391418572560734, 0.28196605194005, 0.309056025540914, -1.461, 0.614, -0.61], a = 0.2, v = 0.2, t = 0.2)
movej(p[0.391414453020573, 0.281951401099832, 0.309775564610228, -1.461, 0.614, -0.61], a = 0.2, v = 0.2, t = 0.2)
movej(p[0.391409501787783, 0.281933792406226, 0.310640371189299, -1.461, 0.614, -0.61], a = 0.2, v = 0.2, t = 0.2)
movej(p[0.391404071745024, 0.281914480860343, 0.311588809063559, -1.461, 0.614, -0.61], a = 0.2, v = 0.2, t = 0.2)
movej(p[0.391400666098219, 0.281902368929104, 0.312183656021264, -1.461, 0.614, -0.61], a = 0.2, v = 0.2, t = 0.2)
movej(p[0.39139912829683, 0.281896899852082, 0.312452255946736, -1.461, 0.614, -0.61], a = 0.2, v = 0.2, t = 0.2)
movej(p[0.391398413373159, 0.281894357278866, 0.312577128018095, -1.461, 0.614, -0.61], a = 0.2, v = 0.2, t = 0.2)
movej(p[0.391398046638495, 0.281893053014127, 0.31264118369153, -1.461, 0.614, -0.61], a = 0.2, v = 0.2, t = 0.2)
movej(p[0.39139823312539, 0.281893716240992, 0.312608610976679, -1.461, 0.614, -0.61], a = 0.2, v = 0.2, t = 0.2)
movej(p[0.391399126865838, 0.281896894762864, 0.312452505890834, -1.461, 0.614, -0.61], a = 0.2, v = 0.2, t = 0.2)
movej(p[0.39140113191478, 0.281904025571284, 0.312102294218484, -1.461, 0.614, -0.61], a = 0.2, v = 0.2, t = 0.2)
movej(p[0.39140471105507, 0.281916754519289, 0.311477144038338, -1.461, 0.614, -0.61], a = 0.2, v = 0.2, t = 0.2)
movej(p[0.391409563606643, 0.281934012260436, 0.310629573604265, -1.461, 0.614, -0.61], a = 0.2, v = 0.2, t = 0.2)
movej(p[0.391413208057415, 0.281946973480342, 0.309993015975486, -1.461, 0.614, -0.61], a = 0.2, v = 0.2, t = 0.2)
movej(p[0.391416343647383, 0.281958124974396, 0.309445338467954, -1.461, 0.614, -0.61], a = 0.2, v = 0.2, t = 0.2)
movej(p[0.391418717949536, 0.281966569004579, 0.309030631220557, -1.461, 0.614, -0.61], a = 0.2, v = 0.2, t = 0.2)
movej(p[0.39141953590464, 0.281969478001476, 0.308887763174142, -1.461, 0.614, -0.61], a = 0.2, v = 0.2, t = 0.2)
movej(p[0.391416981869876, 0.281960394765538, 0.309333863400248, -1.461, 0.614, -0.61], a = 0.2, v = 0.2, t = 0.2)
movej(p[0.391411846325299, 0.281942130580678, 0.31023086277914, -1.461, 0.614, -0.61], a = 0.2, v = 0.2, t = 0.2)
movej(p[0.39140653448249, 0.281923239404186, 0.311158655270906, -1.461, 0.614, -0.61], a = 0.2, v = 0.2, t = 0.2)
movej(p[0.391402323473311, 0.281908263261166, 0.311894170766964, -1.461, 0.614, -0.61], a = 0.2, v = 0.2, t = 0.2)
movej(p[0.391399826140179, 0.281899381680394, 0.31233036720813, -1.461, 0.614, -0.61], a = 0.2, v = 0.2, t = 0.2)
movej(p[0.391398330948012, 0.281894064139921, 0.31259152479814, -1.461, 0.614, -0.61], a = 0.2, v = 0.2, t = 0.2)
movej(p[0.39139851148198, 0.281894706195639, 0.312559991850737, -1.461, 0.614, -0.61], a = 0.2, v = 0.2, t = 0.2)
movej(p[0.391399298642134, 0.281897505672569, 0.31242250260131, -1.461, 0.614, -0.61], a = 0.2, v = 0.2, t = 0.2)
movej(p[0.391402486949853, 0.281908844653408, 0.311865617153209, -1.461, 0.614, -0.61], a = 0.2, v = 0.2, t = 0.2)
movej(p[0.391407314659402, 0.281926014045733, 0.311022385748677, -1.461, 0.614, -0.61], a = 0.2, v = 0.2, t = 0.2)
movej(p[0.391412228686397, 0.281943490419676, 0.310164077716155, -1.461, 0.614, -0.61], a = 0.2, v = 0.2, t = 0.2)
movej(p[0.391416467857501, 0.281958566718502, 0.309423643320248, -1.461, 0.614, -0.61], a = 0.2, v = 0.2, t = 0.2)
movej(p[0.391420130624972, 0.281971593080396, 0.308783886407014, -1.461, 0.614, -0.61], a = 0.2, v = 0.2, t = 0.2)
movej(p[0.391422778532821, 0.281981010169023, 0.30832138984808, -1.461, 0.614, -0.61], a = 0.2, v = 0.2, t = 0.2)
movej(p[0.391422308022606, 0.281979336834208, 0.308403571467502, -1.461, 0.614, -0.61], a = 0.2, v = 0.2, t = 0.2)
movej(p[0.39141860976653, 0.281966184259713, 0.309049526994366, -1.461, 0.614, -0.61], a = 0.2, v = 0.2, t = 0.2)
movej(p[0.391412787345727, 0.281945477250307, 0.310066499540297, -1.461, 0.614, -0.61], a = 0.2, v = 0.2, t = 0.2)
movej(p[0.391406930581113, 0.281924648099674, 0.31108947074458, -1.461, 0.614, -0.61], a = 0.2, v = 0.2, t = 0.2)
movej(p[0.391401941970808, 0.281906906475699, 0.31196080586349, -1.461, 0.614, -0.61], a = 0.2, v = 0.2, t = 0.2)
movej(p[0.391399292574728, 0.281897484094286, 0.312423562364286, -1.461, 0.614, -0.61], a = 0.2, v = 0.2, t = 0.2)
movej(p[0.391398447545251, 0.281894478809388, 0.312571159353035, -1.461, 0.614, -0.61], a = 0.2, v = 0.2, t = 0.2)
movej(p[0.391398211374309, 0.281893638884881, 0.312612410126969, -1.461, 0.614, -0.61], a = 0.2, v = 0.2, t = 0.2)
movej(p[0.391398135245528, 0.281893368138494, 0.312625707152982, -1.461, 0.614, -0.61], a = 0.2, v = 0.2, t = 0.2)
movej(p[0.391398847994091, 0.281895902976098, 0.312501214996652, -1.461, 0.614, -0.61], a = 0.2, v = 0.2, t = 0.2)
movej(p[0.391401583306939, 0.281905630914148, 0.312023451852212, -1.461, 0.614, -0.61], a = 0.2, v = 0.2, t = 0.2)
movej(p[0.391405084315059, 0.281918081990862, 0.311411948619816, -1.461, 0.614, -0.61], a = 0.2, v = 0.2, t = 0.2)
movej(p[0.391409890445247, 0.281935174637782, 0.310572486372283, -1.461, 0.614, -0.61], a = 0.2, v = 0.2, t = 0.2)
movej(p[0.391414751811731, 0.28195246372851, 0.309723376282566, -1.461, 0.614, -0.61], a = 0.2, v = 0.2, t = 0.2)
movej(p[0.391418689329693, 0.281966467220223, 0.309035630102517, -1.461, 0.614, -0.61], a = 0.2, v = 0.2, t = 0.2)
movej(p[0.391421239930076, 0.281975538242039, 0.308590129742247, -1.461, 0.614, -0.61], a = 0.2, v = 0.2, t = 0.2)
movej(p[0.39142154673479, 0.281976629370336, 0.308536541727636, -1.461, 0.614, -0.61], a = 0.2, v = 0.2, t = 0.2)
movej(p[0.391419159839907, 0.281968140555037, 0.308953448483096, -1.461, 0.614, -0.61], a = 0.2, v = 0.2, t = 0.2)
movej(p[0.391413358025391, 0.281947506830368, 0.309966821834016, -1.461, 0.614, -0.61], a = 0.2, v = 0.2, t = 0.2)
movej(p[0.39140652360695, 0.28192320072613, 0.31116055484605, -1.461, 0.614, -0.61], a = 0.2, v = 0.2, t = 0.2)
movej(p[0.391401207528404, 0.281904294485553, 0.312089087172346, -1.461, 0.614, -0.61], a = 0.2, v = 0.2, t = 0.2)
movej(p[0.391398975352391, 0.281896355916483, 0.31247896997193, -1.461, 0.614, -0.61], a = 0.2, v = 0.2, t = 0.2)
movej(p[0.391397854484871, 0.28189236963396, 0.312674746185009, -1.461, 0.614, -0.61], a = 0.2, v = 0.2, t = 0.2)
movej(p[0.3913982857859, 0.281893903524207, 0.312599413033873, -1.461, 0.614, -0.61], a = 0.2, v = 0.2, t = 0.2)
movej(p[0.391400112996863, 0.281900401864995, 0.312280263414246, -1.461, 0.614, -0.61], a = 0.2, v = 0.2, t = 0.2)
movej(p[0.391403476852973, 0.281912365170717, 0.311692715823978, -1.461, 0.614, -0.61], a = 0.2, v = 0.2, t = 0.2)
movej(p[0.391408326657041, 0.281929613140565, 0.310845625282574, -1.461, 0.614, -0.61], a = 0.2, v = 0.2, t = 0.2)
movej(p[0.391413710049456, 0.281948758777948, 0.309905335585908, -1.461, 0.614, -0.61], a = 0.2, v = 0.2, t = 0.2)
movej(p[0.391418745424585, 0.281966666717561, 0.309025832293876, -1.461, 0.614, -0.61], a = 0.2, v = 0.2, t = 0.2)
movej(p[0.391421720171037, 0.281977246183534, 0.308506248502959, -1.461, 0.614, -0.61], a = 0.2, v = 0.2, t = 0.2)
movej(p[0.391422332063274, 0.281979422333068, 0.308399372406656, -1.461, 0.614, -0.61], a = 0.2, v = 0.2, t = 0.2)
movej(p[0.391420952014458, 0.281974514291416, 0.308640418494764, -1.461, 0.614, -0.61], a = 0.2, v = 0.2, t = 0.2)
movej(p[0.391415821049055, 0.281956266392054, 0.309536618052543, -1.461, 0.614, -0.61], a = 0.2, v = 0.2, t = 0.2)
movej(p[0.391409563034246, 0.281934010224748, 0.310629673581904, -1.461, 0.614, -0.61], a = 0.2, v = 0.2, t = 0.2)
movej(p[0.391403782856331, 0.281913453449052, 0.311639267778062, -1.461, 0.614, -0.61], a = 0.2, v = 0.2, t = 0.2)
movej(p[0.391400683384604, 0.281902430406855, 0.31218063669656, -1.461, 0.614, -0.61], a = 0.2, v = 0.2, t = 0.2)
movej(p[0.391398986685849, 0.281896396223088, 0.312476990414674, -1.461, 0.614, -0.61], a = 0.2, v = 0.2, t = 0.2)
movej(p[0.39139864250362, 0.281895172164421, 0.312537106969124, -1.461, 0.614, -0.61], a = 0.2, v = 0.2, t = 0.2)
movej(p[0.391399833169213, 0.281899406678631, 0.312329139482721, -1.461, 0.614, -0.61], a = 0.2, v = 0.2, t = 0.2)
movej(p[0.391402803370834, 0.281909969981249, 0.31181034951426, -1.461, 0.614, -0.61], a = 0.2, v = 0.2, t = 0.2)
movej(p[0.391407386209009, 0.281926268506623, 0.311009888543778, -1.461, 0.614, -0.61], a = 0.2, v = 0.2, t = 0.2)
movej(p[0.391412639667339, 0.28194495204303, 0.31009229377121, -1.461, 0.614, -0.61], a = 0.2, v = 0.2, t = 0.2)
movej(p[0.391417707096691, 0.281962973981121, 0.309207191731383, -1.461, 0.614, -0.61], a = 0.2, v = 0.2, t = 0.2)
movej(p[0.391420859286168, 0.281974184510102, 0.308656614872314, -1.461, 0.614, -0.61], a = 0.2, v = 0.2, t = 0.2)
movej(p[0.391422314891369, 0.281979361262454, 0.308402371735832, -1.461, 0.614, -0.61], a = 0.2, v = 0.2, t = 0.2)
movej(p[0.391421339527129, 0.281975892451598, 0.308572733633026, -1.461, 0.614, -0.61], a = 0.2, v = 0.2, t = 0.2)
movej(p[0.391417930331464, 0.281963767899099, 0.309168200452095, -1.461, 0.614, -0.61], a = 0.2, v = 0.2, t = 0.2)
movej(p[0.39141156585084, 0.281941133093989, 0.310279851822347, -1.461, 0.614, -0.61], a = 0.2, v = 0.2, t = 0.2)
movej(p[0.391405191067072, 0.28191846164651, 0.311393302790105, -1.461, 0.614, -0.61], a = 0.2, v = 0.2, t = 0.2)
movej(p[0.391401191386813, 0.281904237079176, 0.312091906541771, -1.461, 0.614, -0.61], a = 0.2, v = 0.2, t = 0.2)
movej(p[0.39139890265799, 0.281896097384218, 0.312491667132108, -1.461, 0.614, -0.61], a = 0.2, v = 0.2, t = 0.2)
movej(p[0.391398027692159, 0.281892985632883, 0.312644492951388, -1.461, 0.614, -0.61], a = 0.2, v = 0.2, t = 0.2)
movej(p[0.391397923115254, 0.281892613712846, 0.312662758866069, -1.461, 0.614, -0.61], a = 0.2, v = 0.2, t = 0.2)
movej(p[0.391398315550537, 0.281894009379937, 0.312594214196635, -1.461, 0.614, -0.61], a = 0.2, v = 0.2, t = 0.2)
movej(p[0.391399762844535, 0.281899156574112, 0.312341422735473, -1.461, 0.614, -0.61], a = 0.2, v = 0.2, t = 0.2)
movej(p[0.391403097811776, 0.281911017138705, 0.311758921016656, -1.461, 0.614, -0.61], a = 0.2, v = 0.2, t = 0.2)
movej(p[0.391408180695843, 0.281929094040349, 0.31087111958057, -1.461, 0.614, -0.61], a = 0.2, v = 0.2, t = 0.2)
movej(p[0.391412680307515, 0.281945096576815, 0.310085195358827, -1.461, 0.614, -0.61], a = 0.2, v = 0.2, t = 0.2)
movej(p[0.39141653711752, 0.281958813036644, 0.309411546025905, -1.461, 0.614, -0.61], a = 0.2, v = 0.2, t = 0.2)
movej(p[0.391419784324875, 0.281970361489687, 0.30884437287873, -1.461, 0.614, -0.61], a = 0.2, v = 0.2, t = 0.2)
movej(p[0.391422037278894, 0.2819783739542, 0.308450860890843, -1.461, 0.614, -0.61], a = 0.2, v = 0.2, t = 0.2)
movej(p[0.391421307472905, 0.281975778453119, 0.308578332380822, -1.461, 0.614, -0.61], a = 0.2, v = 0.2, t = 0.2)
movej(p[0.391417803259362, 0.281963315976558, 0.309190395487997, -1.461, 0.614, -0.61], a = 0.2, v = 0.2, t = 0.2)
movej(p[0.391412737547201, 0.281945300145527, 0.310075197594907, -1.461, 0.614, -0.61], a = 0.2, v = 0.2, t = 0.2)
movej(p[0.39140700213072, 0.281924902560564, 0.31107697353968, -1.461, 0.614, -0.61], a = 0.2, v = 0.2, t = 0.2)
movej(p[0.391402259307624, 0.281908035060639, 0.311905378260318, -1.461, 0.614, -0.61], a = 0.2, v = 0.2, t = 0.2)
movej(p[0.39139888995078, 0.281896052191964, 0.312493886635698, -1.461, 0.614, -0.61], a = 0.2, v = 0.2, t = 0.2)
movej(p[0.391398104965734, 0.281893260450645, 0.312630995970096, -1.461, 0.614, -0.61], a = 0.2, v = 0.2, t = 0.2)
movej(p[0.391397600512386, 0.281891466399584, 0.312719106263522, -1.461, 0.614, -0.61], a = 0.2, v = 0.2, t = 0.2)
movej(p[0.391397852481482, 0.281892362509055, 0.312675096106746, -1.461, 0.614, -0.61], a = 0.2, v = 0.2, t = 0.2)
movej(p[0.391399192691477, 0.281897128866883, 0.312441008462326, -1.461, 0.614, -0.61], a = 0.2, v = 0.2, t = 0.2)
movej(p[0.391401800474305, 0.281906403253842, 0.3119855203359, -1.461, 0.614, -0.61], a = 0.2, v = 0.2, t = 0.2)
movej(p[0.391405726830528, 0.281920367049656, 0.311299723719815, -1.461, 0.614, -0.61], a = 0.2, v = 0.2, t = 0.2)
movej(p[0.391410559004773, 0.281937552320341, 0.310455712489698, -1.461, 0.614, -0.61], a = 0.2, v = 0.2, t = 0.2)
movej(p[0.391415159358292, 0.281953913137741, 0.309652192203457, -1.461, 0.614, -0.61], a = 0.2, v = 0.2, t = 0.2)
movej(p[0.391418486128809, 0.281965744551294, 0.309071122164433, -1.461, 0.614, -0.61], a = 0.2, v = 0.2, t = 0.2)
movej(p[0.391420244531946, 0.281971998182133, 0.308763990856814, -1.461, 0.614, -0.61], a = 0.2, v = 0.2, t = 0.2)
movej(p[0.391419858164069, 0.281970624093326, 0.308831475763273, -1.461, 0.614, -0.61], a = 0.2, v = 0.2, t = 0.2)
movej(p[0.391417108369581, 0.281960844652392, 0.309311768341985, -1.461, 0.614, -0.61], a = 0.2, v = 0.2, t = 0.2)
movej(p[0.39141165857913, 0.281941462875302, 0.310263655444797, -1.461, 0.614, -0.61], a = 0.2, v = 0.2, t = 0.2)
movej(p[0.391406120067167, 0.281921765566709, 0.311231039081686, -1.461, 0.614, -0.61], a = 0.2, v = 0.2, t = 0.2)
movej(p[0.391401981866869, 0.281907048363091, 0.311953837422038, -1.461, 0.614, -0.61], a = 0.2, v = 0.2, t = 0.2)
movej(p[0.391399603586558, 0.281898590184884, 0.312369239514027, -1.461, 0.614, -0.61], a = 0.2, v = 0.2, t = 0.2)
movej(p[0.391398543135526, 0.281894818769137, 0.312554463087289, -1.461, 0.614, -0.61], a = 0.2, v = 0.2, t = 0.2)
movej(p[0.391398418467491, 0.281894375396482, 0.312576238217107, -1.461, 0.614, -0.61], a = 0.2, v = 0.2, t = 0.2)
movej(p[0.391399119939836, 0.28189687013105, 0.312453715620268, -1.461, 0.614, -0.61], a = 0.2, v = 0.2, t = 0.2)
movej(p[0.391400843484005, 0.281902999788543, 0.312152672950877, -1.461, 0.614, -0.61], a = 0.2, v = 0.2, t = 0.2)
movej(p[0.391404855699755, 0.281917268937425, 0.311451879688912, -1.461, 0.614, -0.61], a = 0.2, v = 0.2, t = 0.2)
movej(p[0.391410589914203, 0.281937662247445, 0.310450313697181, -1.461, 0.614, -0.61], a = 0.2, v = 0.2, t = 0.2)
movej(p[0.391415837076167, 0.281956323391293, 0.309533818678645, -1.461, 0.614, -0.61], a = 0.2, v = 0.2, t = 0.2)
movej(p[0.391420096853558, 0.281971472974856, 0.308789785087727, -1.461, 0.614, -0.61], a = 0.2, v = 0.2, t = 0.2)
movej(p[0.391423382411502, 0.281983157818937, 0.308215913438726, -1.461, 0.614, -0.61], a = 0.2, v = 0.2, t = 0.2)
movej(p[0.391425148255798, 0.281989437913708, 0.307907482421797, -1.461, 0.614, -0.61], a = 0.2, v = 0.2, t = 0.2)
movej(p[0.391422988030069, 0.281981755230509, 0.308284798032134, -1.461, 0.614, -0.61], a = 0.2, v = 0.2, t = 0.2)
movej(p[0.39141725776516, 0.28196137596673, 0.309285674178154, -1.461, 0.614, -0.61], a = 0.2, v = 0.2, t = 0.2)
movej(p[0.391409809164894, 0.281934885570211, 0.310586683197049, -1.461, 0.614, -0.61], a = 0.2, v = 0.2, t = 0.2)
movej(p[0.391403732771607, 0.281913275326429, 0.311648015821492, -1.461, 0.614, -0.61], a = 0.2, v = 0.2, t = 0.2)
movej(p[0.391399534349435, 0.281898343948169, 0.312381332809265, -1.461, 0.614, -0.61], a = 0.2, v = 0.2, t = 0.2)
movej(p[0.391397840976305, 0.281892321591744, 0.312677105657294, -1.461, 0.614, -0.61], a = 0.2, v = 0.2, t = 0.2)
movej(p[0.391397764962003, 0.281892051252494, 0.31269038268778, -1.461, 0.614, -0.61], a = 0.2, v = 0.2, t = 0.2)
movej(p[0.39139784732991, 0.281892344187871, 0.312675995905499, -1.461, 0.614, -0.61], a = 0.2, v = 0.2, t = 0.2)
movej(p[0.391399532620796, 0.281898337800394, 0.312381634741735, -1.461, 0.614, -0.61], a = 0.2, v = 0.2, t = 0.2)
movej(p[0.391402756491532, 0.281909803258474, 0.31181853768291, -1.461, 0.614, -0.61], a = 0.2, v = 0.2, t = 0.2)
movej(p[0.391407524729048, 0.281926761142907, 0.310985693955092, -1.461, 0.614, -0.61], a = 0.2, v = 0.2, t = 0.2)
movej(p[0.391412586434431, 0.281944762724127, 0.310101591691656, -1.461, 0.614, -0.61], a = 0.2, v = 0.2, t = 0.2)
movej(p[0.391417383692468, 0.281961823817897, 0.30926367909753, -1.461, 0.614, -0.61], a = 0.2, v = 0.2, t = 0.2)
movej(p[0.391422085932627, 0.281978546987605, 0.308442362791511, -1.461, 0.614, -0.61], a = 0.2, v = 0.2, t = 0.2)
movej(p[0.391423597060322, 0.281983921201607, 0.308178421824026, -1.461, 0.614, -0.61], a = 0.2, v = 0.2, t = 0.2)
movej(p[0.391422682942546, 0.281980670209273, 0.308338086113827, -1.461, 0.614, -0.61], a = 0.2, v = 0.2, t = 0.2)
movej(p[0.391418794650714, 0.281966841786653, 0.309017234216905, -1.461, 0.614, -0.61], a = 0.2, v = 0.2, t = 0.2)
movej(p[0.391412975091895, 0.281946144955683, 0.31003370687464, -1.461, 0.614, -0.61], a = 0.2, v = 0.2, t = 0.2)
movej(p[0.391406552799189, 0.281923304546173, 0.311155455986451, -1.461, 0.614, -0.61], a = 0.2, v = 0.2, t = 0.2)
movej(p[0.391401949068529, 0.281906931718219, 0.311959566140764, -1.461, 0.614, -0.61], a = 0.2, v = 0.2, t = 0.2)
movej(p[0.391399686171977, 0.281898883893822, 0.312354814740244, -1.461, 0.614, -0.61], a = 0.2, v = 0.2, t = 0.2)
movej(p[0.391398533576499, 0.281894784773162, 0.312556132713864, -1.461, 0.614, -0.61], a = 0.2, v = 0.2, t = 0.2)
movej(p[0.391398516519072, 0.281894724109686, 0.312559112047512, -1.461, 0.614, -0.61], a = 0.2, v = 0.2, t = 0.2)
movej(p[0.391400216102708, 0.281900768553316, 0.312262254442097, -1.461, 0.614, -0.61], a = 0.2, v = 0.2, t = 0.2)
movej(p[0.391403745536056, 0.281913320722252, 0.311645786320138, -1.461, 0.614, -0.61], a = 0.2, v = 0.2, t = 0.2)
movej(p[0.391408655785232, 0.28193078366066, 0.310788138140035, -1.461, 0.614, -0.61], a = 0.2, v = 0.2, t = 0.2)
movej(p[0.391414424400731, 0.281951299315476, 0.309780563492188, -1.461, 0.614, -0.61], a = 0.2, v = 0.2, t = 0.2)
movej(p[0.391420244531946, 0.281971998182133, 0.308763990856814, -1.461, 0.614, -0.61], a = 0.2, v = 0.2, t = 0.2)
movej(p[0.39142392676091, 0.28198509375739, 0.308120834703847, -1.461, 0.614, -0.61], a = 0.2, v = 0.2, t = 0.2)
movej(p[0.391425554085168, 0.281990881215878, 0.307836598275605, -1.461, 0.614, -0.61], a = 0.2, v = 0.2, t = 0.2)
movej(p[0.391424315990771, 0.281986478024633, 0.308052849909192, -1.461, 0.614, -0.61], a = 0.2, v = 0.2, t = 0.2)
movej(p[0.391420088267605, 0.281971442439549, 0.308791284752315, -1.461, 0.614, -0.61], a = 0.2, v = 0.2, t = 0.2)
movej(p[0.391413665974899, 0.281948602030039, 0.309913033864127, -1.461, 0.614, -0.61], a = 0.2, v = 0.2, t = 0.2)
movej(p[0.391406990682783, 0.281924861846822, 0.311078973092464, -1.461, 0.614, -0.61], a = 0.2, v = 0.2, t = 0.2)
movej(p[0.391402926436158, 0.28191040765398, 0.311788854321832, -1.461, 0.614, -0.61], a = 0.2, v = 0.2, t = 0.2)
movej(p[0.391399892669866, 0.281899618288308, 0.312318746807126, -1.461, 0.614, -0.61], a = 0.2, v = 0.2, t = 0.2)
movej(p[0.391398825498894, 0.281895822973594, 0.312505144117872, -1.461, 0.614, -0.61], a = 0.2, v = 0.2, t = 0.2)
movej(p[0.391398607243974, 0.281895046766095, 0.312543265591699, -1.461, 0.614, -0.61], a = 0.2, v = 0.2, t = 0.2)
movej(p[0.391400399561624, 0.281901421011396, 0.312230210608957, -1.461, 0.614, -0.61], a = 0.2, v = 0.2, t = 0.2)
movej(p[0.391403933740142, 0.281913990056178, 0.31161291367237, -1.461, 0.614, -0.61], a = 0.2, v = 0.2, t = 0.2)
movej(p[0.391409580206152, 0.281934071295362, 0.310626674252728, -1.461, 0.614, -0.61], a = 0.2, v = 0.2, t = 0.2)
movej(p[0.391416000781668, 0.28195690559781, 0.309505225073834, -1.461, 0.614, -0.61], a = 0.2, v = 0.2, t = 0.2)
movej(p[0.391420662954047, 0.28197348626942, 0.30869090720256, -1.461, 0.614, -0.61], a = 0.2, v = 0.2, t = 0.2)
movej(p[0.391424263330261, 0.281986290741417, 0.308062047851999, -1.461, 0.614, -0.61], a = 0.2, v = 0.2, t = 0.2)
movej(p[0.391425947321807, 0.281992279732931, 0.307767913637475, -1.461, 0.614, -0.61], a = 0.2, v = 0.2, t = 0.2)
movej(p[0.391425787050687, 0.281991709740536, 0.307795907376451, -1.461, 0.614, -0.61], a = 0.2, v = 0.2, t = 0.2)
movej(p[0.391421238785282, 0.281975534170664, 0.308590329697525, -1.461, 0.614, -0.61], a = 0.2, v = 0.2, t = 0.2)
movej(p[0.391414980198076, 0.281953275967672, 0.309683485204526, -1.461, 0.614, -0.61], a = 0.2, v = 0.2, t = 0.2)
movej(p[0.391408777705762, 0.281931217262017, 0.310766842902885, -1.461, 0.614, -0.61], a = 0.2, v = 0.2, t = 0.2)
movej(p[0.391403708330261, 0.281913188402589, 0.311652284866686, -1.461, 0.614, -0.61], a = 0.2, v = 0.2, t = 0.2)
movej(p[0.391400442914962, 0.281901575194338, 0.312222638302564, -1.461, 0.614, -0.61], a = 0.2, v = 0.2, t = 0.2)
movej(p[0.391398987487204, 0.28189639907305, 0.312476850445979, -1.461, 0.614, -0.61], a = 0.2, v = 0.2, t = 0.2)
movej(p[0.391399252220749, 0.281897340578344, 0.312430610787849, -1.461, 0.614, -0.61], a = 0.2, v = 0.2, t = 0.2)
movej(p[0.391400006368487, 0.281900022649055, 0.312298887648786, -1.461, 0.614, -0.61], a = 0.2, v = 0.2, t = 0.2)
movej(p[0.391402312483292, 0.281908224175973, 0.311896090337637, -1.461, 0.614, -0.61], a = 0.2, v = 0.2, t = 0.2)
movej(p[0.391406632934749, 0.281923589542371, 0.311141459116963, -1.461, 0.614, -0.61], a = 0.2, v = 0.2, t = 0.2)
movej(p[0.391411213826774, 0.281939881146408, 0.310341338070455, -1.461, 0.614, -0.61], a = 0.2, v = 0.2, t = 0.2)
movej(p[0.391415668791492, 0.28195572489928, 0.30956321210457, -1.461, 0.614, -0.61], a = 0.2, v = 0.2, t = 0.2)
movej(p[0.391419055091283, 0.281967768024294, 0.308971744391069, -1.461, 0.614, -0.61], a = 0.2, v = 0.2, t = 0.2)
movej(p[0.391422108256104, 0.281978626379403, 0.308438463663582, -1.461, 0.614, -0.61], a = 0.2, v = 0.2, t = 0.2)
movej(p[0.391422059602371, 0.281978453345997, 0.308446961762914, -1.461, 0.614, -0.61], a = 0.2, v = 0.2, t = 0.2)
movej(p[0.391418938322324, 0.281967352744121, 0.308992139829466, -1.461, 0.614, -0.61], a = 0.2, v = 0.2, t = 0.2)
movej(p[0.391413624189928, 0.28194845342488, 0.309920332231788, -1.461, 0.614, -0.61], a = 0.2, v = 0.2, t = 0.2)
movej(p[0.391408280865293, 0.281929450285595, 0.31085362349371, -1.461, 0.614, -0.61], a = 0.2, v = 0.2, t = 0.2)
movej(p[0.391403114010607, 0.28191107474865, 0.311756091649466, -1.461, 0.614, -0.61], a = 0.2, v = 0.2, t = 0.2)
movej(p[0.391400010075329, 0.281900035832165, 0.312298240193595, -1.461, 0.614, -0.61], a = 0.2, v = 0.2, t = 0.2)
movej(p[0.391398683887913, 0.2818953193446, 0.31252987858581, -1.461, 0.614, -0.61], a = 0.2, v = 0.2, t = 0.2)
movej(p[0.391398349665389, 0.28189413070689, 0.312588255529338, -1.461, 0.614, -0.61], a = 0.2, v = 0.2, t = 0.2)
movej(p[0.391398193630007, 0.28189357577858, 0.312615509433784, -1.461, 0.614, -0.61], a = 0.2, v = 0.2, t = 0.2)
movej(p[0.391398728420388, 0.281895477721058, 0.31252210032548, -1.461, 0.614, -0.61], a = 0.2, v = 0.2, t = 0.2)
movej(p[0.391400765981471, 0.281902724156507, 0.312166209923224, -1.461, 0.614, -0.61], a = 0.2, v = 0.2, t = 0.2)
movej(p[0.391404026067755, 0.28191431841251, 0.311596787279167, -1.461, 0.614, -0.61], a = 0.2, v = 0.2, t = 0.2)
movej(p[0.391408307195548, 0.281929543927203, 0.310849024522307, -1.461, 0.614, -0.61], a = 0.2, v = 0.2, t = 0.2)
movej(p[0.391413566377846, 0.28194824782048, 0.309930429973347, -1.461, 0.614, -0.61], a = 0.2, v = 0.2, t = 0.2)
movej(p[0.391417463255631, 0.281962106778407, 0.309249782205681, -1.461, 0.614, -0.61], a = 0.2, v = 0.2, t = 0.2)
movej(p[0.391420313791966, 0.281972244500275, 0.308751893562471, -1.461, 0.614, -0.61], a = 0.2, v = 0.2, t = 0.2)
movej(p[0.391421358416225, 0.281975959629273, 0.308569434370933, -1.461, 0.614, -0.61], a = 0.2, v = 0.2, t = 0.2)
movej(p[0.391421473467993, 0.281976368802384, 0.308549338865454, -1.461, 0.614, -0.61], a = 0.2, v = 0.2, t = 0.2)
movej(p[0.391417829589618, 0.281963409618165, 0.309185796516594, -1.461, 0.614, -0.61], a = 0.2, v = 0.2, t = 0.2)
movej(p[0.391411985417734, 0.281942625252649, 0.310206568212815, -1.461, 0.614, -0.61], a = 0.2, v = 0.2, t = 0.2)
movej(p[0.391406039931608, 0.281921480570512, 0.311245035951173, -1.461, 0.614, -0.61], a = 0.2, v = 0.2, t = 0.2)
movej(p[0.391402296742378, 0.281908168194577, 0.311898839722714, -1.461, 0.614, -0.61], a = 0.2, v = 0.2, t = 0.2)
movej(p[0.391399918799782, 0.281899711217425, 0.312314182827897, -1.461, 0.614, -0.61], a = 0.2, v = 0.2, t = 0.2)
movej(p[0.391398662766469, 0.281895244227745, 0.312533567760696, -1.461, 0.614, -0.61], a = 0.2, v = 0.2, t = 0.2)
movej(p[0.391398878388364, 0.281896011071084, 0.31249590618401, -1.461, 0.614, -0.61], a = 0.2, v = 0.2, t = 0.2)
movej(p[0.391399542065345, 0.281898371389232, 0.312379985110688, -1.461, 0.614, -0.61], a = 0.2, v = 0.2, t = 0.2)
movej(p[0.391402413969254, 0.2819085851033, 0.311878364302207, -1.461, 0.614, -0.61], a = 0.2, v = 0.2, t = 0.2)
movej(p[0.391406808088186, 0.28192421246263, 0.311110865959368, -1.461, 0.614, -0.61], a = 0.2, v = 0.2, t = 0.2)
movej(p[0.391412444480011, 0.281944257873721, 0.310126386146177, -1.461, 0.614, -0.61], a = 0.2, v = 0.2, t = 0.2)
movej(p[0.391417181636378, 0.281961105220343, 0.309298971204167, -1.461, 0.614, -0.61], a = 0.2, v = 0.2, t = 0.2)
movej(p[0.39142151754255, 0.281976525550293, 0.308541640587236, -1.461, 0.614, -0.61], a = 0.2, v = 0.2, t = 0.2)
movej(p[0.391424806534876, 0.281988222608496, 0.307967169072399, -1.461, 0.614, -0.61], a = 0.2, v = 0.2, t = 0.2)
movej(p[0.391425172868863, 0.281989525448254, 0.307903183383312, -1.461, 0.614, -0.61], a = 0.2, v = 0.2, t = 0.2)
movej(p[0.391422234183412, 0.28197907423057, 0.308416468582959, -1.461, 0.614, -0.61], a = 0.2, v = 0.2, t = 0.2)
