def moving():
set_payload_mass(0)
set_tcp(p[0,0,0,0,0,0])
movej(p[0.41, 0.1818, 0.3294, -1.39, 0.799, -0.802], a = 0.2, v = 0.2, t = 0.2)
movej(p[0.409994092407104, 0.181791080964172, 0.32979985691334, -1.39, 0.799, -0.802], a = 0.2, v = 0.2, t = 0.2)
movej(p[0.41, 0.1818, 0.3294, -1.39, 0.799, -0.802], a = 0.2, v = 0.2, t = 0.2)
movej(p[0.409994092407104, 0.181791080964172, 0.32979985691334, -1.39, 0.799, -0.802], a = 0.2, v = 0.2, t = 0.2)
movej(p[0.41, 0.1818, 0.3294, -1.39, 0.799, -0.802], a = 0.2, v = 0.2, t = 0.2)
movej(p[0.409994092407104, 0.181791080964172, 0.32979985691334, -1.39, 0.799, -0.802], a = 0.2, v = 0.2, t = 0.2)
movej(p[0.41, 0.1818, 0.3294, -1.39, 0.799, -0.802], a = 0.2, v = 0.2, t = 0.2)
movej(p[0.409994092407104, 0.181791080964172, 0.32979985691334, -1.39, 0.799, -0.802], a = 0.2, v = 0.2, t = 0.2)
movej(p[0.41, 0.1818, 0.3294, -1.39, 0.799, -0.802], a = 0.2, v = 0.2, t = 0.2)
movej(p[0.409994092407104, 0.181791080964172, 0.32979985691334, -1.39, 0.799, -0.802], a = 0.2, v = 0.2, t = 0.2)
movej(p[0.41, 0.1818, 0.3294, -1.39, 0.799, -0.802], a = 0.2, v = 0.2, t = 0.2)
movej(p[0.40999889395092, 0.181798330133517, 0.3294748632106, -1.39, 0.799, -0.802], a = 0.2, v = 0.2, t = 0.2)
movej(p[0.409995099799383, 0.181792601882757, 0.329731671313193, -1.39, 0.799, -0.802], a = 0.2, v = 0.2, t = 0.2)
movej(p[0.409994721270368, 0.181792030395536, 0.329757292144915, -1.39, 0.799, -0.802], a = 0.2, v = 0.2, t = 0.2)
movej(p[0.409994872209366, 0.181792258276902, 0.329747075800779, -1.39, 0.799, -0.802], a = 0.2, v = 0.2, t = 0.2)
movej(p[0.409995741068592, 0.181793570044096, 0.32968826684525, -1.39, 0.799, -0.802], a = 0.2, v = 0.2, t = 0.2)
movej(p[0.409997724099837, 0.181796563941447, 0.329554044875864, -1.39, 0.799, -0.802], a = 0.2, v = 0.2, t = 0.2)
movej(p[0.410004828275674, 0.181807289527982, 0.329073196944727, -1.39, 0.799, -0.802], a = 0.2, v = 0.2, t = 0.2)
movej(p[0.410018049173195, 0.181827249884212, 0.328178337165517, -1.39, 0.799, -0.802], a = 0.2, v = 0.2, t = 0.2)
movej(p[0.410032085613916, 0.181848441513339, 0.32722827713942, -1.39, 0.799, -0.802], a = 0.2, v = 0.2, t = 0.2)
movej(p[0.410046218053021, 0.181869778076797, 0.326271719438482, -1.39, 0.799, -0.802], a = 0.2, v = 0.2, t = 0.2)
movej(p[0.410058755442044, 0.181888706500582, 0.325423123104145, -1.39, 0.799, -0.802], a = 0.2, v = 0.2, t = 0.2)
movej(p[0.410066454512485, 0.181900330234025, 0.324902009581834, -1.39, 0.799, -0.802], a = 0.2, v = 0.2, t = 0.2)
movej(p[0.410063763603921, 0.181896267613205, 0.325084144405861, -1.39, 0.799, -0.802], a = 0.2, v = 0.2, t = 0.2)
movej(p[0.410050573425883, 0.181876353635961, 0.325976924929121, -1.39, 0.799, -0.802], a = 0.2, v = 0.2, t = 0.2)
movej(p[0.410034370375468, 0.181851890950445, 0.327073632478186, -1.39, 0.799, -0.802], a = 0.2, v = 0.2, t = 0.2)
movej(p[0.410016979898881, 0.181825635538728, 0.328250711266831, -1.39, 0.799, -0.802], a = 0.2, v = 0.2, t = 0.2)
movej(p[0.410003465689372, 0.181805232352368, 0.329165423941789, -1.39, 0.799, -0.802], a = 0.2, v = 0.2, t = 0.2)
movej(p[0.409995918739448, 0.181793838284099, 0.329676241148581, -1.39, 0.799, -0.802], a = 0.2, v = 0.2, t = 0.2)
movej(p[0.409995023886814, 0.181792487273147, 0.329736809474529, -1.39, 0.799, -0.802], a = 0.2, v = 0.2, t = 0.2)
movej(p[0.409995827614827, 0.181793700707971, 0.329682408941469, -1.39, 0.799, -0.802], a = 0.2, v = 0.2, t = 0.2)
movej(p[0.410000675607093, 0.181801020003235, 0.329354271363748, -1.39, 0.799, -0.802], a = 0.2, v = 0.2, t = 0.2)
movej(p[0.410010990485823, 0.181816592974254, 0.328656106198422, -1.39, 0.799, -0.802], a = 0.2, v = 0.2, t = 0.2)
movej(p[0.410024684876915, 0.181837268191206, 0.327729197887607, -1.39, 0.799, -0.802], a = 0.2, v = 0.2, t = 0.2)
movej(p[0.41003996486594, 0.181860337277374, 0.326694967981252, -1.39, 0.799, -0.802], a = 0.2, v = 0.2, t = 0.2)
movej(p[0.410052409210376, 0.181879125226345, 0.325852669393301, -1.39, 0.799, -0.802], a = 0.2, v = 0.2, t = 0.2)
movej(p[0.410063451978396, 0.181895797134065, 0.325105236858039, -1.39, 0.799, -0.802], a = 0.2, v = 0.2, t = 0.2)
movej(p[0.410065620064989, 0.181899070420214, 0.324958489370844, -1.39, 0.799, -0.802], a = 0.2, v = 0.2, t = 0.2)
movej(p[0.410059359493417, 0.181889618471996, 0.325382237734756, -1.39, 0.799, -0.802], a = 0.2, v = 0.2, t = 0.2)
movej(p[0.410044952351243, 0.181867867173371, 0.326357388782165, -1.39, 0.799, -0.802], a = 0.2, v = 0.2, t = 0.2)
movej(p[0.410027569259147, 0.181841622910449, 0.327533967749669, -1.39, 0.799, -0.802], a = 0.2, v = 0.2, t = 0.2)
movej(p[0.410011381420783, 0.18181718319145, 0.328629645667181, -1.39, 0.799, -0.802], a = 0.2, v = 0.2, t = 0.2)
movej(p[0.410001614545138, 0.181802437572492, 0.329290719105584, -1.39, 0.799, -0.802], a = 0.2, v = 0.2, t = 0.2)
movej(p[0.409998289751857, 0.181797417939128, 0.329515758576412, -1.39, 0.799, -0.802], a = 0.2, v = 0.2, t = 0.2)
movej(p[0.409997756739288, 0.18179661321912, 0.329551835666418, -1.39, 0.799, -0.802], a = 0.2, v = 0.2, t = 0.2)
movej(p[0.409999458569111, 0.181799182570366, 0.329436646886108, -1.39, 0.799, -0.802], a = 0.2, v = 0.2, t = 0.2)
movej(p[0.410005946139939, 0.181808977232536, 0.3289975340203, -1.39, 0.799, -0.802], a = 0.2, v = 0.2, t = 0.2)
movej(p[0.410016978421983, 0.181825633308969, 0.32825081123106, -1.39, 0.799, -0.802], a = 0.2, v = 0.2, t = 0.2)
movej(p[0.410030884895659, 0.181846628719307, 0.327309548057057, -1.39, 0.799, -0.802], a = 0.2, v = 0.2, t = 0.2)
movej(p[0.410045622863036, 0.181868879483938, 0.326312005022501, -1.39, 0.799, -0.802], a = 0.2, v = 0.2, t = 0.2)
movej(p[0.410058914947052, 0.18188894731455, 0.325412326967485, -1.39, 0.799, -0.802], a = 0.2, v = 0.2, t = 0.2)
movej(p[0.410064914107638, 0.181898004595433, 0.325006272271988, -1.39, 0.799, -0.802], a = 0.2, v = 0.2, t = 0.2)
movej(p[0.410063494808445, 0.181895861797075, 0.325102337895418, -1.39, 0.799, -0.802], a = 0.2, v = 0.2, t = 0.2)
movej(p[0.410055701216517, 0.18188409535906, 0.325629849128342, -1.39, 0.799, -0.802], a = 0.2, v = 0.2, t = 0.2)
movej(p[0.410040818513114, 0.181861626078051, 0.326637188657275, -1.39, 0.799, -0.802], a = 0.2, v = 0.2, t = 0.2)
movej(p[0.410022939183215, 0.181834632616119, 0.327847355605499, -1.39, 0.799, -0.802], a = 0.2, v = 0.2, t = 0.2)
movej(p[0.410007774096871, 0.181811737005197, 0.32887380829489, -1.39, 0.799, -0.802], a = 0.2, v = 0.2, t = 0.2)
movej(p[0.410001263855655, 0.181801908116227, 0.329314455611602, -1.39, 0.799, -0.802], a = 0.2, v = 0.2, t = 0.2)
movej(p[0.409998155206428, 0.181797214808087, 0.329524865317613, -1.39, 0.799, -0.802], a = 0.2, v = 0.2, t = 0.2)
movej(p[0.40999766339932, 0.181796472298354, 0.329558153405649, -1.39, 0.799, -0.802], a = 0.2, v = 0.2, t = 0.2)
movej(p[0.410001158213125, 0.181801748621569, 0.329321606052855, -1.39, 0.799, -0.802], a = 0.2, v = 0.2, t = 0.2)
movej(p[0.41000977957697, 0.181814764794885, 0.328738066869234, -1.39, 0.799, -0.802], a = 0.2, v = 0.2, t = 0.2)
movej(p[0.410023860767706, 0.181836023985708, 0.327784977927018, -1.39, 0.799, -0.802], a = 0.2, v = 0.2, t = 0.2)
movej(p[0.410039159956408, 0.181859122058742, 0.326749448485695, -1.39, 0.799, -0.802], a = 0.2, v = 0.2, t = 0.2)
movej(p[0.410054058905692, 0.181881615867099, 0.325741009350251, -1.39, 0.799, -0.802], a = 0.2, v = 0.2, t = 0.2)
movej(p[0.410063658744147, 0.181896109300319, 0.325091241866073, -1.39, 0.799, -0.802], a = 0.2, v = 0.2, t = 0.2)
movej(p[0.410065739693745, 0.18189925103069, 0.324950392268348, -1.39, 0.799, -0.802], a = 0.2, v = 0.2, t = 0.2)
movej(p[0.410061288322498, 0.181892530537194, 0.32525168445255, -1.39, 0.799, -0.802], a = 0.2, v = 0.2, t = 0.2)
movej(p[0.410046994901486, 0.181870950930009, 0.326219138254377, -1.39, 0.799, -0.802], a = 0.2, v = 0.2, t = 0.2)
movej(p[0.410028083219729, 0.181842398866566, 0.327499180198208, -1.39, 0.799, -0.802], a = 0.2, v = 0.2, t = 0.2)
movej(p[0.410010724496453, 0.181816191394666, 0.328674109755945, -1.39, 0.799, -0.802], a = 0.2, v = 0.2, t = 0.2)
movej(p[0.410002223617966, 0.181803357125086, 0.329249493857819, -1.39, 0.799, -0.802], a = 0.2, v = 0.2, t = 0.2)
movej(p[0.409998352224651, 0.181797512257932, 0.329511530089553, -1.39, 0.799, -0.802], a = 0.2, v = 0.2, t = 0.2)
movej(p[0.409997790264877, 0.181796663834649, 0.329549566478435, -1.39, 0.799, -0.802], a = 0.2, v = 0.2, t = 0.2)
movej(p[0.410001462971074, 0.18180220873233, 0.329300978434338, -1.39, 0.799, -0.802], a = 0.2, v = 0.2, t = 0.2)
movej(p[0.410008489210991, 0.181812816654484, 0.32882540561553, -1.39, 0.799, -0.802], a = 0.2, v = 0.2, t = 0.2)
movej(p[0.410021199397107, 0.181832005960067, 0.327965113466478, -1.39, 0.799, -0.802], a = 0.2, v = 0.2, t = 0.2)
movej(p[0.410035884196148, 0.181854176453376, 0.326971169144142, -1.39, 0.799, -0.802], a = 0.2, v = 0.2, t = 0.2)
movej(p[0.410049787716028, 0.181875167404196, 0.326030105898596, -1.39, 0.799, -0.802], a = 0.2, v = 0.2, t = 0.2)
movej(p[0.410058852917327, 0.181888853664674, 0.325416525465075, -1.39, 0.799, -0.802], a = 0.2, v = 0.2, t = 0.2)
movej(p[0.410063940831708, 0.18189653518428, 0.325072148698461, -1.39, 0.799, -0.802], a = 0.2, v = 0.2, t = 0.2)
movej(p[0.410062449164502, 0.181894283127734, 0.325173112569079, -1.39, 0.799, -0.802], a = 0.2, v = 0.2, t = 0.2)
movej(p[0.410051461041716, 0.181877693721094, 0.325916846427892, -1.39, 0.799, -0.802], a = 0.2, v = 0.2, t = 0.2)
movej(p[0.410033072181929, 0.181849930992322, 0.327161501034892, -1.39, 0.799, -0.802], a = 0.2, v = 0.2, t = 0.2)
movej(p[0.410015386325697, 0.181823229628813, 0.328358572669205, -1.39, 0.799, -0.802], a = 0.2, v = 0.2, t = 0.2)
movej(p[0.410004634802006, 0.181806997429559, 0.329086292258639, -1.39, 0.799, -0.802], a = 0.2, v = 0.2, t = 0.2)
movej(p[0.409999040281996, 0.181798551058035, 0.329464958754857, -1.39, 0.799, -0.802], a = 0.2, v = 0.2, t = 0.2)
movej(p[0.409998179427559, 0.181797251376134, 0.329523225904269, -1.39, 0.799, -0.802], a = 0.2, v = 0.2, t = 0.2)
movej(p[0.410001036753015, 0.181801565246193, 0.329329827110993, -1.39, 0.799, -0.802], a = 0.2, v = 0.2, t = 0.2)
movej(p[0.410008699521298, 0.18181313417216, 0.328811170709415, -1.39, 0.799, -0.802], a = 0.2, v = 0.2, t = 0.2)
movej(p[0.410021135890483, 0.181831910080432, 0.327969411928296, -1.39, 0.799, -0.802], a = 0.2, v = 0.2, t = 0.2)
movej(p[0.410036059947036, 0.181854441794692, 0.32695927340097, -1.39, 0.799, -0.802], a = 0.2, v = 0.2, t = 0.2)
movej(p[0.410049542550923, 0.181874797264209, 0.326046699960499, -1.39, 0.799, -0.802], a = 0.2, v = 0.2, t = 0.2)
movej(p[0.410059199988409, 0.181889377658028, 0.325393033871416, -1.39, 0.799, -0.802], a = 0.2, v = 0.2, t = 0.2)
movej(p[0.410064531590998, 0.181897427087863, 0.325032163007127, -1.39, 0.799, -0.802], a = 0.2, v = 0.2, t = 0.2)
movej(p[0.410066261038818, 0.181900038135601, 0.324915104895746, -1.39, 0.799, -0.802], a = 0.2, v = 0.2, t = 0.2)
movej(p[0.410056470680491, 0.181885257063476, 0.325577767765379, -1.39, 0.799, -0.802], a = 0.2, v = 0.2, t = 0.2)
movej(p[0.410039396260124, 0.181859478820175, 0.326733454209161, -1.39, 0.799, -0.802], a = 0.2, v = 0.2, t = 0.2)
movej(p[0.410019882003891, 0.181830017015078, 0.328054281558153, -1.39, 0.799, -0.802], a = 0.2, v = 0.2, t = 0.2)
movej(p[0.410006001228243, 0.181809060402545, 0.328993805354583, -1.39, 0.799, -0.802], a = 0.2, v = 0.2, t = 0.2)
movej(p[0.409997933376315, 0.181796879898292, 0.329539879944709, -1.39, 0.799, -0.802], a = 0.2, v = 0.2, t = 0.2)
movej(p[0.409996053727946, 0.181794042084067, 0.329667104418111, -1.39, 0.799, -0.802], a = 0.2, v = 0.2, t = 0.2)
movej(p[0.409997172182971, 0.181795730680525, 0.329591401507993, -1.39, 0.799, -0.802], a = 0.2, v = 0.2, t = 0.2)
movej(p[0.410000969554146, 0.18180146379216, 0.329334375483383, -1.39, 0.799, -0.802], a = 0.2, v = 0.2, t = 0.2)
movej(p[0.410010332232285, 0.181815599170687, 0.328700660254991, -1.39, 0.799, -0.802], a = 0.2, v = 0.2, t = 0.2)
movej(p[0.410025421849129, 0.181838380840925, 0.327679315737668, -1.39, 0.799, -0.802], a = 0.2, v = 0.2, t = 0.2)
movej(p[0.410040753529592, 0.181861527968657, 0.326641587083321, -1.39, 0.799, -0.802], a = 0.2, v = 0.2, t = 0.2)
movej(p[0.410053850663042, 0.181881301471087, 0.325755104306446, -1.39, 0.799, -0.802], a = 0.2, v = 0.2, t = 0.2)
movej(p[0.410064202242694, 0.181896929851615, 0.325054455030045, -1.39, 0.799, -0.802], a = 0.2, v = 0.2, t = 0.2)
movej(p[0.410068569430742, 0.181903523248851, 0.324758860806858, -1.39, 0.799, -0.802], a = 0.2, v = 0.2, t = 0.2)
movej(p[0.410063524346409, 0.181895906392254, 0.325100338610851, -1.39, 0.799, -0.802], a = 0.2, v = 0.2, t = 0.2)
movej(p[0.410047180990663, 0.181871231879637, 0.326206542761607, -1.39, 0.799, -0.802], a = 0.2, v = 0.2, t = 0.2)
movej(p[0.410027966544769, 0.181842222715608, 0.327507077372247, -1.39, 0.799, -0.802], a = 0.2, v = 0.2, t = 0.2)
movej(p[0.410011145707827, 0.18181682732192, 0.328645599958024, -1.39, 0.799, -0.802], a = 0.2, v = 0.2, t = 0.2)
movej(p[0.409999969245071, 0.1817999535675, 0.329402081655091, -1.39, 0.799, -0.802], a = 0.2, v = 0.2, t = 0.2)
movej(p[0.409995021819156, 0.181792484151484, 0.329736949424449, -1.39, 0.799, -0.802], a = 0.2, v = 0.2, t = 0.2)
movej(p[0.409995238037056, 0.181792810588195, 0.329722314661421, -1.39, 0.799, -0.802], a = 0.2, v = 0.2, t = 0.2)
movej(p[0.409995873989432, 0.181793770722402, 0.3296792700647, -1.39, 0.799, -0.802], a = 0.2, v = 0.2, t = 0.2)
movej(p[0.40999963446769, 0.181799448134658, 0.329424741146513, -1.39, 0.799, -0.802], a = 0.2, v = 0.2, t = 0.2)
movej(p[0.410008184379198, 0.181812356432236, 0.328846038232258, -1.39, 0.799, -0.802], a = 0.2, v = 0.2, t = 0.2)
movej(p[0.410019879050095, 0.18183001255556, 0.32805448148661, -1.39, 0.799, -0.802], a = 0.2, v = 0.2, t = 0.2)
movej(p[0.41003481787563, 0.181852566567409, 0.327043343317, -1.39, 0.799, -0.802], a = 0.2, v = 0.2, t = 0.2)
movej(p[0.410047709720227, 0.181872030133344, 0.326170755567863, -1.39, 0.799, -0.802], a = 0.2, v = 0.2, t = 0.2)
movej(p[0.410057659583562, 0.181887052019436, 0.32549729656157, -1.39, 0.799, -0.802], a = 0.2, v = 0.2, t = 0.2)
movej(p[0.410058263634935, 0.18188796399085, 0.325456411192181, -1.39, 0.799, -0.802], a = 0.2, v = 0.2, t = 0.2)
movej(p[0.410050772807143, 0.18187665465342, 0.325963429758296, -1.39, 0.799, -0.802], a = 0.2, v = 0.2, t = 0.2)
movej(p[0.410036731935728, 0.181855456335017, 0.326913789677078, -1.39, 0.799, -0.802], a = 0.2, v = 0.2, t = 0.2)
movej(p[0.410019752036847, 0.18182982079629, 0.328063078410246, -1.39, 0.799, -0.802], a = 0.2, v = 0.2, t = 0.2)
movej(p[0.41000667749994, 0.181810081409172, 0.328948031734429, -1.39, 0.799, -0.802], a = 0.2, v = 0.2, t = 0.2)
movej(p[0.409998993434784, 0.181798480330081, 0.329468129620179, -1.39, 0.799, -0.802], a = 0.2, v = 0.2, t = 0.2)
movej(p[0.409997171296832, 0.18179572934267, 0.32959146148653, -1.39, 0.799, -0.802], a = 0.2, v = 0.2, t = 0.2)
movej(p[0.409996237454085, 0.181794319466081, 0.329654668868106, -1.39, 0.799, -0.802], a = 0.2, v = 0.2, t = 0.2)
movej(p[0.409997160220095, 0.181795712619478, 0.329592211218243, -1.39, 0.799, -0.802], a = 0.2, v = 0.2, t = 0.2)
movej(p[0.410000769907044, 0.181801162373344, 0.329347888647769, -1.39, 0.799, -0.802], a = 0.2, v = 0.2, t = 0.2)
movej(p[0.410008143469117, 0.181812294667912, 0.328848807241383, -1.39, 0.799, -0.802], a = 0.2, v = 0.2, t = 0.2)
movej(p[0.410019653084666, 0.181829671402439, 0.328069776013545, -1.39, 0.799, -0.802], a = 0.2, v = 0.2, t = 0.2)
movej(p[0.410034365944773, 0.181851884261168, 0.327073932370871, -1.39, 0.799, -0.802], a = 0.2, v = 0.2, t = 0.2)
movej(p[0.410046477987108, 0.181870170514374, 0.326254125734295, -1.39, 0.799, -0.802], a = 0.2, v = 0.2, t = 0.2)
movej(p[0.410053733988082, 0.181881125320129, 0.325763001480484, -1.39, 0.799, -0.802], a = 0.2, v = 0.2, t = 0.2)
movej(p[0.410056210746404, 0.1818848646259, 0.325595361469566, -1.39, 0.799, -0.802], a = 0.2, v = 0.2, t = 0.2)
movej(p[0.41005437643881, 0.181882095265275, 0.325719517041159, -1.39, 0.799, -0.802], a = 0.2, v = 0.2, t = 0.2)
movej(p[0.410043837293084, 0.181866183705359, 0.326432861774558, -1.39, 0.799, -0.802], a = 0.2, v = 0.2, t = 0.2)
movej(p[0.410028282600989, 0.181842699884025, 0.327485685027383, -1.39, 0.799, -0.802], a = 0.2, v = 0.2, t = 0.2)
movej(p[0.410012957271188, 0.181819562344257, 0.328522983835548, -1.39, 0.799, -0.802], a = 0.2, v = 0.2, t = 0.2)
movej(p[0.410004133838129, 0.18180624109532, 0.32912020012489, -1.39, 0.799, -0.802], a = 0.2, v = 0.2, t = 0.2)
movej(p[0.409998678382855, 0.1817980046779, 0.329489453989368, -1.39, 0.799, -0.802], a = 0.2, v = 0.2, t = 0.2)
movej(p[0.409996835597865, 0.181795222518459, 0.329614183355631, -1.39, 0.799, -0.802], a = 0.2, v = 0.2, t = 0.2)
movej(p[0.409997599449627, 0.181796375749791, 0.329562481856736, -1.39, 0.799, -0.802], a = 0.2, v = 0.2, t = 0.2)
movej(p[0.409998399485395, 0.181797583610218, 0.329508331234247, -1.39, 0.799, -0.802], a = 0.2, v = 0.2, t = 0.2)
movej(p[0.409999469439082, 0.181799198981392, 0.329435911149387, -1.39, 0.799, -0.802], a = 0.2, v = 0.2, t = 0.2)
movej(p[0.410002027042812, 0.181803060344168, 0.32926279909661, -1.39, 0.799, -0.802], a = 0.2, v = 0.2, t = 0.2)
movej(p[0.410010724496453, 0.181816191394666, 0.328674109755945, -1.39, 0.799, -0.802], a = 0.2, v = 0.2, t = 0.2)
movej(p[0.410019923357041, 0.181830079448329, 0.32805148255976, -1.39, 0.799, -0.802], a = 0.2, v = 0.2, t = 0.2)
movej(p[0.410030167123123, 0.181845545056454, 0.327358130672027, -1.39, 0.799, -0.802], a = 0.2, v = 0.2, t = 0.2)
movej(p[0.410039145187426, 0.181859099761153, 0.326750448127978, -1.39, 0.799, -0.802], a = 0.2, v = 0.2, t = 0.2)
movej(p[0.410047718581616, 0.181872043511898, 0.326170155782493, -1.39, 0.799, -0.802], a = 0.2, v = 0.2, t = 0.2)
movej(p[0.410051472856902, 0.181877711559166, 0.325916046714065, -1.39, 0.799, -0.802], a = 0.2, v = 0.2, t = 0.2)
movej(p[0.410050078664978, 0.181875606666711, 0.326010412945614, -1.39, 0.799, -0.802], a = 0.2, v = 0.2, t = 0.2)
movej(p[0.410043196319254, 0.181865215989971, 0.326476246249655, -1.39, 0.799, -0.802], a = 0.2, v = 0.2, t = 0.2)
movej(p[0.410029173170618, 0.181844044428676, 0.327425406597697, -1.39, 0.799, -0.802], a = 0.2, v = 0.2, t = 0.2)
movej(p[0.410014875318912, 0.181822458132214, 0.328393160292209, -1.39, 0.799, -0.802], a = 0.2, v = 0.2, t = 0.2)
movej(p[0.410003850569049, 0.181805813427552, 0.329139373263885, -1.39, 0.799, -0.802], a = 0.2, v = 0.2, t = 0.2)
movej(p[0.40999991011302, 0.18179986429241, 0.329406084022865, -1.39, 0.799, -0.802], a = 0.2, v = 0.2, t = 0.2)
movej(p[0.409998241161905, 0.181797344580058, 0.329519047399524, -1.39, 0.799, -0.802], a = 0.2, v = 0.2, t = 0.2)
movej(p[0.409997855396089, 0.181796762167019, 0.329545158055965, -1.39, 0.799, -0.802], a = 0.2, v = 0.2, t = 0.2)
movej(p[0.409998819899243, 0.181798218333403, 0.329479875417009, -1.39, 0.799, -0.802], a = 0.2, v = 0.2, t = 0.2)
movej(p[0.409999505534475, 0.181799253476701, 0.329433468023647, -1.39, 0.799, -0.802], a = 0.2, v = 0.2, t = 0.2)
movej(p[0.410001500085526, 0.181802264766173, 0.32929846633328, -1.39, 0.799, -0.802], a = 0.2, v = 0.2, t = 0.2)
movej(p[0.410007738208244, 0.181811682822055, 0.328876237425638, -1.39, 0.799, -0.802], a = 0.2, v = 0.2, t = 0.2)
movej(p[0.410018855559625, 0.181828467332603, 0.328123756696846, -1.39, 0.799, -0.802], a = 0.2, v = 0.2, t = 0.2)
movej(p[0.410030029771588, 0.181845337688871, 0.327367427345263, -1.39, 0.799, -0.802], a = 0.2, v = 0.2, t = 0.2)
movej(p[0.410040707745747, 0.181861458846129, 0.3266446859744, -1.39, 0.799, -0.802], a = 0.2, v = 0.2, t = 0.2)
movej(p[0.410050087526367, 0.181875620045264, 0.326009813160244, -1.39, 0.799, -0.802], a = 0.2, v = 0.2, t = 0.2)
movej(p[0.410055919797454, 0.181884425363385, 0.325615054422548, -1.39, 0.799, -0.802], a = 0.2, v = 0.2, t = 0.2)
movej(p[0.410052286627823, 0.181878940156351, 0.325860966424253, -1.39, 0.799, -0.802], a = 0.2, v = 0.2, t = 0.2)
movej(p[0.410042211228139, 0.181863728740747, 0.326542922389955, -1.39, 0.799, -0.802], a = 0.2, v = 0.2, t = 0.2)
movej(p[0.410029288368679, 0.181844218349874, 0.327417609387887, -1.39, 0.799, -0.802], a = 0.2, v = 0.2, t = 0.2)
movej(p[0.410015229774485, 0.181822993274364, 0.328369168877409, -1.39, 0.799, -0.802], a = 0.2, v = 0.2, t = 0.2)
movej(p[0.410004983349987, 0.181807523652672, 0.329062700700752, -1.39, 0.799, -0.802], a = 0.2, v = 0.2, t = 0.2)
movej(p[0.409998916842843, 0.181798364694781, 0.329473313765061, -1.39, 0.799, -0.802], a = 0.2, v = 0.2, t = 0.2)
movej(p[0.409997870755831, 0.181796785356512, 0.329544118427991, -1.39, 0.799, -0.802], a = 0.2, v = 0.2, t = 0.2)
movej(p[0.409997069981613, 0.181795576381205, 0.329598319032594, -1.39, 0.799, -0.802], a = 0.2, v = 0.2, t = 0.2)
movej(p[0.409997751274764, 0.181796604969012, 0.329552205534063, -1.39, 0.799, -0.802], a = 0.2, v = 0.2, t = 0.2)
movej(p[0.409999758408989, 0.18179963525603, 0.329416352148471, -1.39, 0.799, -0.802], a = 0.2, v = 0.2, t = 0.2)
movej(p[0.410005401755254, 0.181808155343385, 0.329034380834864, -1.39, 0.799, -0.802], a = 0.2, v = 0.2, t = 0.2)
movej(p[0.410014572850155, 0.18182200147758, 0.328413632966172, -1.39, 0.799, -0.802], a = 0.2, v = 0.2, t = 0.2)
movej(p[0.41002853071989, 0.181843074483529, 0.327468891037023, -1.39, 0.799, -0.802], a = 0.2, v = 0.2, t = 0.2)
movej(p[0.410041227613922, 0.181862243721282, 0.326609498566026, -1.39, 0.799, -0.802], a = 0.2, v = 0.2, t = 0.2)
movej(p[0.41004986894543, 0.181875290040939, 0.326024607866037, -1.39, 0.799, -0.802], a = 0.2, v = 0.2, t = 0.2)
movej(p[0.410056890119587, 0.18188589031502, 0.325549377924532, -1.39, 0.799, -0.802], a = 0.2, v = 0.2, t = 0.2)
movej(p[0.410061334106343, 0.181892599659721, 0.325248585561472, -1.39, 0.799, -0.802], a = 0.2, v = 0.2, t = 0.2)
movej(p[0.410056429327341, 0.181885194630225, 0.325580566763773, -1.39, 0.799, -0.802], a = 0.2, v = 0.2, t = 0.2)
movej(p[0.410042762111177, 0.181864560440838, 0.326505635732786, -1.39, 0.799, -0.802], a = 0.2, v = 0.2, t = 0.2)
movej(p[0.410025331758337, 0.181838244825629, 0.327685413555596, -1.39, 0.799, -0.802], a = 0.2, v = 0.2, t = 0.2)
movej(p[0.410011002891769, 0.181816611704229, 0.328655266498904, -1.39, 0.799, -0.802], a = 0.2, v = 0.2, t = 0.2)
movej(p[0.410000308612653, 0.181800465930432, 0.329379111474847, -1.39, 0.799, -0.802], a = 0.2, v = 0.2, t = 0.2)
movej(p[0.409995984609109, 0.181793937731348, 0.329671782743997, -1.39, 0.799, -0.802], a = 0.2, v = 0.2, t = 0.2)
movej(p[0.409995936905296, 0.181793865710134, 0.329675011588573, -1.39, 0.799, -0.802], a = 0.2, v = 0.2, t = 0.2)
movej(p[0.409996125652889, 0.181794150673328, 0.329662236160191, -1.39, 0.799, -0.802], a = 0.2, v = 0.2, t = 0.2)
movej(p[0.40999630804982, 0.18179442604856, 0.329649890577992, -1.39, 0.799, -0.802], a = 0.2, v = 0.2, t = 0.2)
movej(p[0.409997304660741, 0.181795930689904, 0.329582434716712, -1.39, 0.799, -0.802], a = 0.2, v = 0.2, t = 0.2)
movej(p[0.410003371315576, 0.181805089870771, 0.329171811655979, -1.39, 0.799, -0.802], a = 0.2, v = 0.2, t = 0.2)
movej(p[0.410012736327214, 0.181819228772317, 0.328537938484107, -1.39, 0.799, -0.802], a = 0.2, v = 0.2, t = 0.2)
movej(p[0.41002509693152, 0.181837890293955, 0.327701307867902, -1.39, 0.799, -0.802], a = 0.2, v = 0.2, t = 0.2)
movej(p[0.410036990392917, 0.181855846542835, 0.326896295937119, -1.39, 0.799, -0.802], a = 0.2, v = 0.2, t = 0.2)
movej(p[0.410045256592277, 0.181868326503716, 0.326336796151128, -1.39, 0.799, -0.802], a = 0.2, v = 0.2, t = 0.2)
movej(p[0.410051146462394, 0.181877218782436, 0.325938138808527, -1.39, 0.799, -0.802], a = 0.2, v = 0.2, t = 0.2)
movej(p[0.410052664713768, 0.181879510974644, 0.325835375581799, -1.39, 0.799, -0.802], a = 0.2, v = 0.2, t = 0.2)
movej(p[0.410050016635253, 0.181875513016834, 0.326014611443204, -1.39, 0.799, -0.802], a = 0.2, v = 0.2, t = 0.2)
movej(p[0.410037979914727, 0.181857340481336, 0.326829319904135, -1.39, 0.799, -0.802], a = 0.2, v = 0.2, t = 0.2)
movej(p[0.410023478251066, 0.181835446478138, 0.327810868662157, -1.39, 0.799, -0.802], a = 0.2, v = 0.2, t = 0.2)
movej(p[0.410010994621138, 0.181816599217579, 0.328655826298582, -1.39, 0.799, -0.802], a = 0.2, v = 0.2, t = 0.2)
movej(p[0.410002514714606, 0.181803796610576, 0.329229790908414, -1.39, 0.799, -0.802], a = 0.2, v = 0.2, t = 0.2)
movej(p[0.409999062834232, 0.181798585106454, 0.32946343230109, -1.39, 0.799, -0.802], a = 0.2, v = 0.2, t = 0.2)
movej(p[0.409998100856574, 0.181797132752957, 0.329528544001216, -1.39, 0.799, -0.802], a = 0.2, v = 0.2, t = 0.2)
movej(p[0.409999209002849, 0.181798805785698, 0.329453538841412, -1.39, 0.799, -0.802], a = 0.2, v = 0.2, t = 0.2)
movej(p[0.409998750425951, 0.181798113445542, 0.32948457773431, -1.39, 0.799, -0.802], a = 0.2, v = 0.2, t = 0.2)
movej(p[0.4099994368144, 0.181799149726017, 0.329438119359191, -1.39, 0.799, -0.802], a = 0.2, v = 0.2, t = 0.2)
movej(p[0.410003691507111, 0.181805573282513, 0.329150139411276, -1.39, 0.799, -0.802], a = 0.2, v = 0.2, t = 0.2)
movej(p[0.410011033611252, 0.181816658083215, 0.328653187242954, -1.39, 0.799, -0.802], a = 0.2, v = 0.2, t = 0.2)
movej(p[0.410021186105023, 0.181831985892237, 0.327966013144533, -1.39, 0.799, -0.802], a = 0.2, v = 0.2, t = 0.2)
movej(p[0.410032057552849, 0.181848399147919, 0.327230176459758, -1.39, 0.799, -0.802], a = 0.2, v = 0.2, t = 0.2)
movej(p[0.41004211079906, 0.181863577117138, 0.326549719957482, -1.39, 0.799, -0.802], a = 0.2, v = 0.2, t = 0.2)
movej(p[0.410049044836221, 0.181874045835441, 0.326080387905448, -1.39, 0.799, -0.802], a = 0.2, v = 0.2, t = 0.2)
movej(p[0.410051777097936, 0.181878170889511, 0.325895454083028, -1.39, 0.799, -0.802], a = 0.2, v = 0.2, t = 0.2)
movej(p[0.410049375661423, 0.181874545301447, 0.326057995918301, -1.39, 0.799, -0.802], a = 0.2, v = 0.2, t = 0.2)
movej(p[0.410039523273371, 0.181859670579446, 0.326724857285525, -1.39, 0.799, -0.802], a = 0.2, v = 0.2, t = 0.2)
movej(p[0.410024987641051, 0.181837725291792, 0.327708705220799, -1.39, 0.799, -0.802], a = 0.2, v = 0.2, t = 0.2)
movej(p[0.410011337704596, 0.181817117190584, 0.32863260460834, -1.39, 0.799, -0.802], a = 0.2, v = 0.2, t = 0.2)
movej(p[0.410004529646853, 0.181806838670721, 0.329093409711696, -1.39, 0.799, -0.802], a = 0.2, v = 0.2, t = 0.2)
movej(p[0.409999951882656, 0.181799927354453, 0.329403256834559, -1.39, 0.799, -0.802], a = 0.2, v = 0.2, t = 0.2)
movej(p[0.409998853336219, 0.181798268815146, 0.329477612226879, -1.39, 0.799, -0.802], a = 0.2, v = 0.2, t = 0.2)
movej(p[0.409997518663294, 0.181796253781977, 0.329567949900026, -1.39, 0.799, -0.802], a = 0.2, v = 0.2, t = 0.2)
movej(p[0.409999175004652, 0.181798754456647, 0.329455840017948, -1.39, 0.799, -0.802], a = 0.2, v = 0.2, t = 0.2)
movej(p[0.410003041376513, 0.18180459174262, 0.32919414366459, -1.39, 0.799, -0.802], a = 0.2, v = 0.2, t = 0.2)
movej(p[0.41001164209332, 0.181817576743905, 0.32861200198088, -1.39, 0.799, -0.802], a = 0.2, v = 0.2, t = 0.2)
movej(p[0.410024510602925, 0.181837005079649, 0.327740993666551, -1.39, 0.799, -0.802], a = 0.2, v = 0.2, t = 0.2)
movej(p[0.410036415879508, 0.1818549791666, 0.326935182021942, -1.39, 0.799, -0.802], a = 0.2, v = 0.2, t = 0.2)
movej(p[0.410046141254313, 0.181869662129332, 0.326276917578355, -1.39, 0.799, -0.802], a = 0.2, v = 0.2, t = 0.2)
movej(p[0.410054165242364, 0.181881776409744, 0.325733811925811, -1.39, 0.799, -0.802], a = 0.2, v = 0.2, t = 0.2)
movej(p[0.410058464493094, 0.181888267238068, 0.325442816057127, -1.39, 0.799, -0.802], a = 0.2, v = 0.2, t = 0.2)
movej(p[0.410052874433316, 0.181879827600416, 0.325821180661375, -1.39, 0.799, -0.802], a = 0.2, v = 0.2, t = 0.2)
movej(p[0.410039827514406, 0.181860129909791, 0.326704264654488, -1.39, 0.799, -0.802], a = 0.2, v = 0.2, t = 0.2)
movej(p[0.410022987920856, 0.181834706198164, 0.327844056785964, -1.39, 0.799, -0.802], a = 0.2, v = 0.2, t = 0.2)
movej(p[0.410009169322623, 0.181813843458484, 0.328779372088382, -1.39, 0.799, -0.802], a = 0.2, v = 0.2, t = 0.2)
movej(p[0.409999588698614, 0.181799379034428, 0.329427839037949, -1.39, 0.799, -0.802], a = 0.2, v = 0.2, t = 0.2)
movej(p[0.409996811376734, 0.181795185950412, 0.329615822768975, -1.39, 0.799, -0.802], a = 0.2, v = 0.2, t = 0.2)
movej(p[0.409997290630208, 0.181795909507194, 0.329583384376881, -1.39, 0.799, -0.802], a = 0.2, v = 0.2, t = 0.2)
movej(p[0.409997083421387, 0.181795596672012, 0.329597409358116, -1.39, 0.799, -0.802], a = 0.2, v = 0.2, t = 0.2)
movej(p[0.409997653947171, 0.181796458027897, 0.32955879317671, -1.39, 0.799, -0.802], a = 0.2, v = 0.2, t = 0.2)
movej(p[0.410001775083975, 0.18180267994729, 0.329279852993964, -1.39, 0.799, -0.802], a = 0.2, v = 0.2, t = 0.2)
movej(p[0.410010162832059, 0.181815343417334, 0.328712126151981, -1.39, 0.799, -0.802], a = 0.2, v = 0.2, t = 0.2)
movej(p[0.41002284318483, 0.181834487681786, 0.327853853280341, -1.39, 0.799, -0.802], a = 0.2, v = 0.2, t = 0.2)
movej(p[0.410036386341544, 0.181854934571421, 0.326937181306508, -1.39, 0.799, -0.802], a = 0.2, v = 0.2, t = 0.2)
movej(p[0.410048907484686, 0.181873838467858, 0.326089684578683, -1.39, 0.799, -0.802], a = 0.2, v = 0.2, t = 0.2)
movej(p[0.410056585878553, 0.181885430984675, 0.325569970555569, -1.39, 0.799, -0.802], a = 0.2, v = 0.2, t = 0.2)
movej(p[0.410058619567407, 0.181888501362758, 0.325432319813152, -1.39, 0.799, -0.802], a = 0.2, v = 0.2, t = 0.2)
movej(p[0.410054242041071, 0.18188189235721, 0.325728613785937, -1.39, 0.799, -0.802], a = 0.2, v = 0.2, t = 0.2)
movej(p[0.410041898125716, 0.181863256031848, 0.326564114806362, -1.39, 0.799, -0.802], a = 0.2, v = 0.2, t = 0.2)
movej(p[0.410025331758337, 0.181838244825629, 0.327685413555596, -1.39, 0.799, -0.802], a = 0.2, v = 0.2, t = 0.2)
movej(p[0.410010504290928, 0.181815858937605, 0.328689014422389, -1.39, 0.799, -0.802], a = 0.2, v = 0.2, t = 0.2)
movej(p[0.410002208701294, 0.18180333460452, 0.329250503496525, -1.39, 0.799, -0.802], a = 0.2, v = 0.2, t = 0.2)
movej(p[0.409997624556897, 0.181796413655694, 0.329560782464854, -1.39, 0.799, -0.802], a = 0.2, v = 0.2, t = 0.2)
movej(p[0.40999679867541, 0.181795166774485, 0.329616682461339, -1.39, 0.799, -0.802], a = 0.2, v = 0.2, t = 0.2)
movej(p[0.409996888175442, 0.181795301897878, 0.329610624629102, -1.39, 0.799, -0.802], a = 0.2, v = 0.2, t = 0.2)
movej(p[0.409997685405103, 0.181796505521763, 0.329556663938647, -1.39, 0.799, -0.802], a = 0.2, v = 0.2, t = 0.2)
movej(p[0.409999701622252, 0.181799549521798, 0.32942019577305, -1.39, 0.799, -0.802], a = 0.2, v = 0.2, t = 0.2)
movej(p[0.410006264411507, 0.181809457745592, 0.328975991729094, -1.39, 0.799, -0.802], a = 0.2, v = 0.2, t = 0.2)
movej(p[0.410016872085311, 0.181825472766324, 0.3282580086555, -1.39, 0.799, -0.802], a = 0.2, v = 0.2, t = 0.2)
movej(p[0.410027863161893, 0.181842066632481, 0.32751407486823, -1.39, 0.799, -0.802], a = 0.2, v = 0.2, t = 0.2)
movej(p[0.410039149618121, 0.18185910645043, 0.326750148235293, -1.39, 0.799, -0.802], a = 0.2, v = 0.2, t = 0.2)
movej(p[0.410049787716028, 0.181875167404196, 0.326030105898596, -1.39, 0.799, -0.802], a = 0.2, v = 0.2, t = 0.2)
movej(p[0.41005712051571, 0.181886238157417, 0.325533783504912, -1.39, 0.799, -0.802], a = 0.2, v = 0.2, t = 0.2)
movej(p[0.410058161728958, 0.181887810137482, 0.325463308723936, -1.39, 0.799, -0.802], a = 0.2, v = 0.2, t = 0.2)
movej(p[0.410051633838808, 0.181877954602892, 0.325905150613177, -1.39, 0.799, -0.802], a = 0.2, v = 0.2, t = 0.2)
movej(p[0.410039697547362, 0.181859933691003, 0.326713061506581, -1.39, 0.799, -0.802], a = 0.2, v = 0.2, t = 0.2)
movej(p[0.410022599496623, 0.181834119771559, 0.327870347378016, -1.39, 0.799, -0.802], a = 0.2, v = 0.2, t = 0.2)
movej(p[0.410008751212736, 0.181813212213723, 0.328807671961423, -1.39, 0.799, -0.802], a = 0.2, v = 0.2, t = 0.2)
movej(p[0.410000960677988, 0.181801450391309, 0.329334976268395, -1.39, 0.799, -0.802], a = 0.2, v = 0.2, t = 0.2)
movej(p[0.40999801268575, 0.181796999636348, 0.329534511865648, -1.39, 0.799, -0.802], a = 0.2, v = 0.2, t = 0.2)
movej(p[0.409996476859287, 0.181794680910008, 0.329638464666693, -1.39, 0.799, -0.802], a = 0.2, v = 0.2, t = 0.2)
movej(p[0.409996566950078, 0.181794816925305, 0.329632366848765, -1.39, 0.799, -0.802], a = 0.2, v = 0.2, t = 0.2)
movej(p[0.409998209408593, 0.181797296640241, 0.329521196630433, -1.39, 0.799, -0.802], a = 0.2, v = 0.2, t = 0.2)
movej(p[0.410002596534768, 0.181803920139222, 0.329224252890164, -1.39, 0.799, -0.802], a = 0.2, v = 0.2, t = 0.2)
movej(p[0.41001156721458, 0.181817463695126, 0.328617070167257, -1.39, 0.799, -0.802], a = 0.2, v = 0.2, t = 0.2)
movej(p[0.410024049810679, 0.181836309394854, 0.327772182505791, -1.39, 0.799, -0.802], a = 0.2, v = 0.2, t = 0.2)
movej(p[0.410034770614887, 0.181852495215122, 0.327046542172307, -1.39, 0.799, -0.802], a = 0.2, v = 0.2, t = 0.2)
movej(p[0.410041635237832, 0.181862859134754, 0.326581908439005, -1.39, 0.799, -0.802], a = 0.2, v = 0.2, t = 0.2)
movej(p[0.410041009032985, 0.181861913716956, 0.32662429327182, -1.39, 0.799, -0.802], a = 0.2, v = 0.2, t = 0.2)
movej(p[0.410034823783223, 0.181852575486445, 0.327042943460087, -1.39, 0.799, -0.802], a = 0.2, v = 0.2, t = 0.2)
movej(p[0.410020937986121, 0.181831611292732, 0.327982807134893, -1.39, 0.799, -0.802], a = 0.2, v = 0.2, t = 0.2)
movej(p[0.410008487881783, 0.181812814647701, 0.328825495583335, -1.39, 0.799, -0.802], a = 0.2, v = 0.2, t = 0.2)
movej(p[0.409999321040348, 0.181798974935212, 0.32944595555505, -1.39, 0.799, -0.802], a = 0.2, v = 0.2, t = 0.2)
movej(p[0.409995814027364, 0.181793680194188, 0.32968332861237, -1.39, 0.799, -0.802], a = 0.2, v = 0.2, t = 0.2)
movej(p[0.409994430764487, 0.181791591801949, 0.329776955108629, -1.39, 0.799, -0.802], a = 0.2, v = 0.2, t = 0.2)
movej(p[0.409995122986685, 0.181792636889973, 0.329730101874808, -1.39, 0.799, -0.802], a = 0.2, v = 0.2, t = 0.2)
movej(p[0.410000691631438, 0.18180104419612, 0.329353186751871, -1.39, 0.799, -0.802], a = 0.2, v = 0.2, t = 0.2)
movej(p[0.410009747528278, 0.181814716409116, 0.328740236092988, -1.39, 0.799, -0.802], a = 0.2, v = 0.2, t = 0.2)
movej(p[0.410024695215203, 0.181837283799518, 0.327728498138009, -1.39, 0.799, -0.802], a = 0.2, v = 0.2, t = 0.2)
movej(p[0.410040543810044, 0.181861211342885, 0.326655782003745, -1.39, 0.799, -0.802], a = 0.2, v = 0.2, t = 0.2)
movej(p[0.4100537192191, 0.181881103022539, 0.325764001122768, -1.39, 0.799, -0.802], a = 0.2, v = 0.2, t = 0.2)
movej(p[0.410061558594873, 0.181892938583083, 0.325233390998765, -1.39, 0.799, -0.802], a = 0.2, v = 0.2, t = 0.2)
movej(p[0.410064494668542, 0.181897371343889, 0.325034662112835, -1.39, 0.799, -0.802], a = 0.2, v = 0.2, t = 0.2)
movej(p[0.410061630962886, 0.181893047841272, 0.325228492751577, -1.39, 0.799, -0.802], a = 0.2, v = 0.2, t = 0.2)
movej(p[0.410050158417482, 0.181875727073694, 0.326005014877284, -1.39, 0.799, -0.802], a = 0.2, v = 0.2, t = 0.2)
movej(p[0.410034553510848, 0.181852167440556, 0.327061236913872, -1.39, 0.799, -0.802], a = 0.2, v = 0.2, t = 0.2)
movej(p[0.410018574948963, 0.181828043678401, 0.32814274990023, -1.39, 0.799, -0.802], a = 0.2, v = 0.2, t = 0.2)
movej(p[0.410006426870311, 0.181809703019077, 0.328964995663977, -1.39, 0.799, -0.802], a = 0.2, v = 0.2, t = 0.2)
movej(p[0.409998076783133, 0.181797096407886, 0.329530173418138, -1.39, 0.799, -0.802], a = 0.2, v = 0.2, t = 0.2)
movej(p[0.409995688047945, 0.181793489995749, 0.329691855561047, -1.39, 0.799, -0.802], a = 0.2, v = 0.2, t = 0.2)
movej(p[0.409997843285524, 0.181796743882995, 0.329545977762638, -1.39, 0.799, -0.802], a = 0.2, v = 0.2, t = 0.2)
movej(p[0.410004240174801, 0.181806401637965, 0.32911300270045, -1.39, 0.799, -0.802], a = 0.2, v = 0.2, t = 0.2)
movej(p[0.410016829255262, 0.181825408103314, 0.328260907618122, -1.39, 0.799, -0.802], a = 0.2, v = 0.2, t = 0.2)
movej(p[0.410033593527002, 0.181850718097234, 0.32712621366229, -1.39, 0.799, -0.802], a = 0.2, v = 0.2, t = 0.2)
movej(p[0.41005101649535, 0.181877022563648, 0.325946935660621, -1.39, 0.799, -0.802], a = 0.2, v = 0.2, t = 0.2)
movej(p[0.410065547696976, 0.181898961162025, 0.324963387618032, -1.39, 0.799, -0.802], a = 0.2, v = 0.2, t = 0.2)
movej(p[0.410073404795527, 0.181910823479676, 0.324431577923289, -1.39, 0.799, -0.802], a = 0.2, v = 0.2, t = 0.2)
movej(p[0.410074447485673, 0.1819123976895, 0.324361003178085, -1.39, 0.799, -0.802], a = 0.2, v = 0.2, t = 0.2)
movej(p[0.410062852357717, 0.181894891851929, 0.325145822334743, -1.39, 0.799, -0.802], a = 0.2, v = 0.2, t = 0.2)
movej(p[0.410045540156736, 0.181868754617436, 0.326317603019287, -1.39, 0.799, -0.802], a = 0.2, v = 0.2, t = 0.2)
movej(p[0.410026981453654, 0.181840735466384, 0.327573753512546, -1.39, 0.799, -0.802], a = 0.2, v = 0.2, t = 0.2)
movej(p[0.41001199920731, 0.181818115899621, 0.328587830630469, -1.39, 0.799, -0.802], a = 0.2, v = 0.2, t = 0.2)
movej(p[0.410001730186269, 0.181802612162618, 0.329282891906505, -1.39, 0.799, -0.802], a = 0.2, v = 0.2, t = 0.2)
movej(p[0.409996741962518, 0.181795081151741, 0.329620521087707, -1.39, 0.799, -0.802], a = 0.2, v = 0.2, t = 0.2)
movej(p[0.409996393119157, 0.181794554482675, 0.32964413263844, -1.39, 0.799, -0.802], a = 0.2, v = 0.2, t = 0.2)
movej(p[0.409996225786589, 0.181794301850986, 0.32965545858551, -1.39, 0.799, -0.802], a = 0.2, v = 0.2, t = 0.2)
movej(p[0.410000065230164, 0.181800098481764, 0.329395584879927, -1.39, 0.799, -0.802], a = 0.2, v = 0.2, t = 0.2)
movej(p[0.410009402377163, 0.181814195314447, 0.32876359773315, -1.39, 0.799, -0.802], a = 0.2, v = 0.2, t = 0.2)
movej(p[0.41002355800357, 0.181835566885122, 0.327805470593827, -1.39, 0.799, -0.802], a = 0.2, v = 0.2, t = 0.2)
movej(p[0.410039442043969, 0.181859547942703, 0.326730355318083, -1.39, 0.799, -0.802], a = 0.2, v = 0.2, t = 0.2)
movej(p[0.410054271579036, 0.181881936952389, 0.32572661450137, -1.39, 0.799, -0.802], a = 0.2, v = 0.2, t = 0.2)
movej(p[0.410066510634618, 0.181900414964865, 0.324898210941158, -1.39, 0.799, -0.802], a = 0.2, v = 0.2, t = 0.2)
movej(p[0.410069733226543, 0.181905280298909, 0.32468008899493, -1.39, 0.799, -0.802], a = 0.2, v = 0.2, t = 0.2)
movej(p[0.410064228826862, 0.181896969987277, 0.325052655673935, -1.39, 0.799, -0.802], a = 0.2, v = 0.2, t = 0.2)
movej(p[0.410051193723137, 0.181877290134723, 0.325934939953221, -1.39, 0.799, -0.802], a = 0.2, v = 0.2, t = 0.2)
movej(p[0.410034399913432, 0.181851935545624, 0.327071633193619, -1.39, 0.799, -0.802], a = 0.2, v = 0.2, t = 0.2)
movej(p[0.410016333017459, 0.181824658904304, 0.328294495598842, -1.39, 0.799, -0.802], a = 0.2, v = 0.2, t = 0.2)
movej(p[0.410002717197352, 0.181804102310529, 0.329216085812709, -1.39, 0.799, -0.802], a = 0.2, v = 0.2, t = 0.2)
movej(p[0.409997665466977, 0.181796475420017, 0.329558013455729, -1.39, 0.799, -0.802], a = 0.2, v = 0.2, t = 0.2)
movej(p[0.409995343930659, 0.181792970461912, 0.329715147226249, -1.39, 0.799, -0.802], a = 0.2, v = 0.2, t = 0.2)
movej(p[0.409996545535054, 0.1817947845938, 0.329633816330076, -1.39, 0.799, -0.802], a = 0.2, v = 0.2, t = 0.2)
movej(p[0.410001442796644, 0.181802178273823, 0.329302343945697, -1.39, 0.799, -0.802], a = 0.2, v = 0.2, t = 0.2)
movej(p[0.410011374774741, 0.181817173157534, 0.328630095506209, -1.39, 0.799, -0.802], a = 0.2, v = 0.2, t = 0.2)
movej(p[0.410025061485962, 0.18183783677974, 0.327703707009382, -1.39, 0.799, -0.802], a = 0.2, v = 0.2, t = 0.2)
movej(p[0.410039957481449, 0.181860326128579, 0.326695467802394, -1.39, 0.799, -0.802], a = 0.2, v = 0.2, t = 0.2)
movej(p[0.410053924507953, 0.181881412959034, 0.325750106095029, -1.39, 0.799, -0.802], a = 0.2, v = 0.2, t = 0.2)
movej(p[0.410061862835907, 0.181893397913428, 0.325212798367728, -1.39, 0.799, -0.802], a = 0.2, v = 0.2, t = 0.2)
movej(p[0.410063614437201, 0.181896042407551, 0.325094240792923, -1.39, 0.799, -0.802], a = 0.2, v = 0.2, t = 0.2)
movej(p[0.410059089221042, 0.181889210426107, 0.325400531188541, -1.39, 0.799, -0.802], a = 0.2, v = 0.2, t = 0.2)
movej(p[0.410048433400357, 0.181873122715233, 0.326121773095979, -1.39, 0.799, -0.802], a = 0.2, v = 0.2, t = 0.2)
movej(p[0.41003357875802, 0.181850695799644, 0.327127213304573, -1.39, 0.799, -0.802], a = 0.2, v = 0.2, t = 0.2)
movej(p[0.410018142217783, 0.181827390359027, 0.328172039419132, -1.39, 0.799, -0.802], a = 0.2, v = 0.2, t = 0.2)
movej(p[0.410007718417808, 0.181811652943285, 0.328877576946298, -1.39, 0.799, -0.802], a = 0.2, v = 0.2, t = 0.2)
movej(p[0.410000257393822, 0.181800388602391, 0.329382578234286, -1.39, 0.799, -0.802], a = 0.2, v = 0.2, t = 0.2)
movej(p[0.409997575819255, 0.181796340073648, 0.329564081284389, -1.39, 0.799, -0.802], a = 0.2, v = 0.2, t = 0.2)
movej(p[0.409998329923488, 0.181797478588572, 0.329513039549401, -1.39, 0.799, -0.802], a = 0.2, v = 0.2, t = 0.2)
movej(p[0.41000355105409, 0.181805361232436, 0.329159646009391, -1.39, 0.799, -0.802], a = 0.2, v = 0.2, t = 0.2)
movej(p[0.41001289730912, 0.181819471816043, 0.328527042383218, -1.39, 0.799, -0.802], a = 0.2, v = 0.2, t = 0.2)
movej(p[0.410026226758661, 0.181839596059557, 0.327624835233225, -1.39, 0.799, -0.802], a = 0.2, v = 0.2, t = 0.2)
movej(p[0.410040812605521, 0.181861617159015, 0.326637588514188, -1.39, 0.799, -0.802], a = 0.2, v = 0.2, t = 0.2)
movej(p[0.410050666470471, 0.181876494110775, 0.325970627182736, -1.39, 0.799, -0.802], a = 0.2, v = 0.2, t = 0.2)
movej(p[0.410057622661106, 0.181886996275462, 0.325499795667278, -1.39, 0.799, -0.802], a = 0.2, v = 0.2, t = 0.2)
movej(p[0.410059716902788, 0.181890158073663, 0.325358046391499, -1.39, 0.799, -0.802], a = 0.2, v = 0.2, t = 0.2)
movej(p[0.410054391207792, 0.181882117562865, 0.325718517398875, -1.39, 0.799, -0.802], a = 0.2, v = 0.2, t = 0.2)
movej(p[0.410040400550916, 0.181860995056266, 0.326665478533894, -1.39, 0.799, -0.802], a = 0.2, v = 0.2, t = 0.2)
movej(p[0.410021457854296, 0.181832396167885, 0.327947619726519, -1.39, 0.799, -0.802], a = 0.2, v = 0.2, t = 0.2)
movej(p[0.410008585061686, 0.181812961365841, 0.328818917937111, -1.39, 0.799, -0.802], a = 0.2, v = 0.2, t = 0.2)
movej(p[0.409998843662536, 0.181798254210225, 0.329478266992575, -1.39, 0.799, -0.802], a = 0.2, v = 0.2, t = 0.2)
movej(p[0.409996125948269, 0.18179415111928, 0.329662216167346, -1.39, 0.799, -0.802], a = 0.2, v = 0.2, t = 0.2)
movej(p[0.409995007197864, 0.18179246207687, 0.32973793907031, -1.39, 0.799, -0.802], a = 0.2, v = 0.2, t = 0.2)
movej(p[0.409997757920806, 0.181796615002928, 0.329551755695035, -1.39, 0.799, -0.802], a = 0.2, v = 0.2, t = 0.2)
movej(p[0.410004371618743, 0.181806600086512, 0.329104105884128, -1.39, 0.799, -0.802], a = 0.2, v = 0.2, t = 0.2)
movej(p[0.410016663842661, 0.181825158370311, 0.328272103611695, -1.39, 0.799, -0.802], a = 0.2, v = 0.2, t = 0.2)
movej(p[0.410031406240733, 0.181847415824219, 0.327274260684454, -1.39, 0.799, -0.802], a = 0.2, v = 0.2, t = 0.2)
movej(p[0.41004410608856, 0.181866589521489, 0.326414668285001, -1.39, 0.799, -0.802], a = 0.2, v = 0.2, t = 0.2)
movej(p[0.410054125366112, 0.181881716206253, 0.325736510959976, -1.39, 0.799, -0.802], a = 0.2, v = 0.2, t = 0.2)
movej(p[0.410062091755132, 0.181893743526066, 0.325197303912336, -1.39, 0.799, -0.802], a = 0.2, v = 0.2, t = 0.2)
movej(p[0.410065784000692, 0.181899317923458, 0.324947393341498, -1.39, 0.799, -0.802], a = 0.2, v = 0.2, t = 0.2)
movej(p[0.410060250063047, 0.181890963016647, 0.32532195930507, -1.39, 0.799, -0.802], a = 0.2, v = 0.2, t = 0.2)
movej(p[0.410046662599386, 0.181870449234243, 0.326241630205753, -1.39, 0.799, -0.802], a = 0.2, v = 0.2, t = 0.2)
movej(p[0.410030425580312, 0.181845935264271, 0.327340636932069, -1.39, 0.799, -0.802], a = 0.2, v = 0.2, t = 0.2)
movej(p[0.410014060661851, 0.181821228197173, 0.328448300560559, -1.39, 0.799, -0.802], a = 0.2, v = 0.2, t = 0.2)
movej(p[0.410002964430115, 0.181804475572178, 0.329199351800886, -1.39, 0.799, -0.802], a = 0.2, v = 0.2, t = 0.2)
movej(p[0.409997717896864, 0.18179655457646, 0.329554464725623, -1.39, 0.799, -0.802], a = 0.2, v = 0.2, t = 0.2)
movej(p[0.409996680228172, 0.181794987947817, 0.329624699592452, -1.39, 0.799, -0.802], a = 0.2, v = 0.2, t = 0.2)
movej(p[0.409996247644682, 0.181794334851418, 0.329653979114931, -1.39, 0.799, -0.802], a = 0.2, v = 0.2, t = 0.2)
movej(p[0.409997768702163, 0.181796631280168, 0.329551025956169, -1.39, 0.799, -0.802], a = 0.2, v = 0.2, t = 0.2)
movej(p[0.410005239887209, 0.181807910961803, 0.32904533691429, -1.39, 0.799, -0.802], a = 0.2, v = 0.2, t = 0.2)
movej(p[0.410015503000657, 0.181823405779771, 0.328350675495167, -1.39, 0.799, -0.802], a = 0.2, v = 0.2, t = 0.2)
movej(p[0.410029684177403, 0.181844815925275, 0.327390818974693, -1.39, 0.799, -0.802], a = 0.2, v = 0.2, t = 0.2)
movej(p[0.41004379003234, 0.181866112353072, 0.326436060629865, -1.39, 0.799, -0.802], a = 0.2, v = 0.2, t = 0.2)
movej(p[0.410055373345111, 0.181883600352571, 0.325652041187032, -1.39, 0.799, -0.802], a = 0.2, v = 0.2, t = 0.2)
movej(p[0.410062443256909, 0.181894274208698, 0.325173512425992, -1.39, 0.799, -0.802], a = 0.2, v = 0.2, t = 0.2)
movej(p[0.410061424197135, 0.181892735675018, 0.325242487743544, -1.39, 0.799, -0.802], a = 0.2, v = 0.2, t = 0.2)
movej(p[0.410053988014577, 0.18188150883867, 0.325745807633211, -1.39, 0.799, -0.802], a = 0.2, v = 0.2, t = 0.2)
movej(p[0.410037424600995, 0.181856502091968, 0.326866906453989, -1.39, 0.799, -0.802], a = 0.2, v = 0.2, t = 0.2)
movej(p[0.410018944173519, 0.18182860111814, 0.328117758843146, -1.39, 0.799, -0.802], a = 0.2, v = 0.2, t = 0.2)
movej(p[0.410003330110115, 0.181805027660496, 0.32917460065795, -1.39, 0.799, -0.802], a = 0.2, v = 0.2, t = 0.2)
movej(p[0.409997236575733, 0.181795827898016, 0.329587043067638, -1.39, 0.799, -0.802], a = 0.2, v = 0.2, t = 0.2)
movej(p[0.409993897456539, 0.18179078663599, 0.329813052191481, -1.39, 0.799, -0.802], a = 0.2, v = 0.2, t = 0.2)
movej(p[0.40999436194103, 0.181791487895182, 0.329781613441669, -1.39, 0.799, -0.802], a = 0.2, v = 0.2, t = 0.2)
movej(p[0.409997934262454, 0.181796881236147, 0.329539819966172, -1.39, 0.799, -0.802], a = 0.2, v = 0.2, t = 0.2)
movej(p[0.410006255993187, 0.181809445035966, 0.328976561525195, -1.39, 0.799, -0.802], a = 0.2, v = 0.2, t = 0.2)
movej(p[0.41002033984234, 0.181830708240354, 0.328023292647369, -1.39, 0.799, -0.802], a = 0.2, v = 0.2, t = 0.2)
movej(p[0.41003682202652, 0.181855592350313, 0.326907691859149, -1.39, 0.799, -0.802], a = 0.2, v = 0.2, t = 0.2)
movej(p[0.410053239227177, 0.181880378350878, 0.325796489496977, -1.39, 0.799, -0.802], a = 0.2, v = 0.2, t = 0.2)
movej(p[0.410064398670158, 0.181897226409557, 0.325041159787677, -1.39, 0.799, -0.802], a = 0.2, v = 0.2, t = 0.2)
movej(p[0.410070606073393, 0.181906598086453, 0.324621010135984, -1.39, 0.799, -0.802], a = 0.2, v = 0.2, t = 0.2)
movej(p[0.410071134802957, 0.181907396340159, 0.32458522294224, -1.39, 0.799, -0.802], a = 0.2, v = 0.2, t = 0.2)
movej(p[0.410060532150607, 0.181891388900608, 0.325302866137458, -1.39, 0.799, -0.802], a = 0.2, v = 0.2, t = 0.2)
movej(p[0.410042946723455, 0.181864839160708, 0.326493140204244, -1.39, 0.799, -0.802], a = 0.2, v = 0.2, t = 0.2)
movej(p[0.410022230272067, 0.181833562331819, 0.3278953384351, -1.39, 0.799, -0.802], a = 0.2, v = 0.2, t = 0.2)
movej(p[0.410007909823818, 0.181811941920045, 0.328864621582306, -1.39, 0.799, -0.802], a = 0.2, v = 0.2, t = 0.2)
movej(p[0.409999276792478, 0.181798908131634, 0.329448950483331, -1.39, 0.799, -0.802], a = 0.2, v = 0.2, t = 0.2)
movej(p[0.409995599286362, 0.181793355987236, 0.32969786341117, -1.39, 0.799, -0.802], a = 0.2, v = 0.2, t = 0.2)
movej(p[0.409996104828624, 0.181794119233727, 0.329663645655811, -1.39, 0.799, -0.802], a = 0.2, v = 0.2, t = 0.2)
movej(p[0.410000251235157, 0.181800379304296, 0.329382995085118, -1.39, 0.799, -0.802], a = 0.2, v = 0.2, t = 0.2)
movej(p[0.410008821365402, 0.181813318127274, 0.328802923660577, -1.39, 0.799, -0.802], a = 0.2, v = 0.2, t = 0.2)
movej(p[0.410021378101792, 0.181832275760901, 0.32795301779485, -1.39, 0.799, -0.802], a = 0.2, v = 0.2, t = 0.2)
movej(p[0.410036166283708, 0.181854602337337, 0.32695207597653, -1.39, 0.799, -0.802], a = 0.2, v = 0.2, t = 0.2)
movej(p[0.410047625537028, 0.181871903037083, 0.326176453528878, -1.39, 0.799, -0.802], a = 0.2, v = 0.2, t = 0.2)
movej(p[0.410057023040427, 0.181886090993326, 0.325540381143982, -1.39, 0.799, -0.802], a = 0.2, v = 0.2, t = 0.2)
movej(p[0.410062481656263, 0.181894332182431, 0.325170913356056, -1.39, 0.799, -0.802], a = 0.2, v = 0.2, t = 0.2)
movej(p[0.410064403100852, 0.181897233098834, 0.325040859894992, -1.39, 0.799, -0.802], a = 0.2, v = 0.2, t = 0.2)
movej(p[0.410057559154482, 0.181886900395827, 0.325504094129096, -1.39, 0.799, -0.802], a = 0.2, v = 0.2, t = 0.2)
movej(p[0.410045142871114, 0.181868154812277, 0.32634449339671, -1.39, 0.799, -0.802], a = 0.2, v = 0.2, t = 0.2)
movej(p[0.410030991232332, 0.181846789261952, 0.327302350632616, -1.39, 0.799, -0.802], a = 0.2, v = 0.2, t = 0.2)
movej(p[0.410016445261724, 0.181824828365985, 0.328286898317489, -1.39, 0.799, -0.802], a = 0.2, v = 0.2, t = 0.2)
movej(p[0.410005614428598, 0.181808476428675, 0.329019985985984, -1.39, 0.799, -0.802], a = 0.2, v = 0.2, t = 0.2)
movej(p[0.409999151078901, 0.181798718334552, 0.329457459438447, -1.39, 0.799, -0.802], a = 0.2, v = 0.2, t = 0.2)
movej(p[0.409997913290499, 0.18179684957357, 0.329541239458215, -1.39, 0.799, -0.802], a = 0.2, v = 0.2, t = 0.2)
movej(p[0.409999238201127, 0.181798849868032, 0.329451562548618, -1.39, 0.799, -0.802], a = 0.2, v = 0.2, t = 0.2)
movej(p[0.410005016727887, 0.181807574045225, 0.329060441509191, -1.39, 0.799, -0.802], a = 0.2, v = 0.2, t = 0.2)
movej(p[0.410016601812936, 0.181825064720435, 0.328276302109285, -1.39, 0.799, -0.802], a = 0.2, v = 0.2, t = 0.2)
movej(p[0.410029115571587, 0.181843957468076, 0.327429305202602, -1.39, 0.799, -0.802], a = 0.2, v = 0.2, t = 0.2)
movej(p[0.410041088785489, 0.18186203412394, 0.326618895203489, -1.39, 0.799, -0.802], a = 0.2, v = 0.2, t = 0.2)
movej(p[0.410051638269503, 0.181877961292169, 0.325904850720492, -1.39, 0.799, -0.802], a = 0.2, v = 0.2, t = 0.2)
movej(p[0.410060976696973, 0.181892060058054, 0.325272776904729, -1.39, 0.799, -0.802], a = 0.2, v = 0.2, t = 0.2)
movej(p[0.410062328058848, 0.181894100287499, 0.325181309635802, -1.39, 0.799, -0.802], a = 0.2, v = 0.2, t = 0.2)
movej(p[0.410055587495353, 0.18188392366762, 0.325637546373924, -1.39, 0.799, -0.802], a = 0.2, v = 0.2, t = 0.2)
movej(p[0.410041382688235, 0.181862477845972, 0.326599002322051, -1.39, 0.799, -0.802], a = 0.2, v = 0.2, t = 0.2)
movej(p[0.410025489786447, 0.181838483409837, 0.327674717383165, -1.39, 0.799, -0.802], a = 0.2, v = 0.2, t = 0.2)
movej(p[0.410009448899457, 0.181814265551854, 0.328760448859958, -1.39, 0.799, -0.802], a = 0.2, v = 0.2, t = 0.2)
movej(p[0.409999276497098, 0.181798907685682, 0.329448970476177, -1.39, 0.799, -0.802], a = 0.2, v = 0.2, t = 0.2)
movej(p[0.409995770754246, 0.181793614862251, 0.32968625756426, -1.39, 0.799, -0.802], a = 0.2, v = 0.2, t = 0.2)
movej(p[0.409994751842161, 0.181792076551547, 0.329755222885389, -1.39, 0.799, -0.802], a = 0.2, v = 0.2, t = 0.2)
movej(p[0.409997193007236, 0.181795762120127, 0.329589992012374, -1.39, 0.799, -0.802], a = 0.2, v = 0.2, t = 0.2)
movej(p[0.410002940208984, 0.181804439004131, 0.32920099121423, -1.39, 0.799, -0.802], a = 0.2, v = 0.2, t = 0.2)
movej(p[0.410014580825406, 0.181822013518278, 0.328413093159339, -1.39, 0.799, -0.802], a = 0.2, v = 0.2, t = 0.2)
movej(p[0.410027260587418, 0.181841156890827, 0.327554860273391, -1.39, 0.799, -0.802], a = 0.2, v = 0.2, t = 0.2)
movej(p[0.410041072539608, 0.181862009596591, 0.326619994810001, -1.39, 0.799, -0.802], a = 0.2, v = 0.2, t = 0.2)
movej(p[0.410053725126693, 0.181881111941575, 0.325763601265854, -1.39, 0.799, -0.802], a = 0.2, v = 0.2, t = 0.2)
movej(p[0.410062689898912, 0.181894646578444, 0.32515681839986, -1.39, 0.799, -0.802], a = 0.2, v = 0.2, t = 0.2)
movej(p[0.410062840542531, 0.181894874013857, 0.32514662204857, -1.39, 0.799, -0.802], a = 0.2, v = 0.2, t = 0.2)
movej(p[0.410054346900845, 0.181882050670096, 0.325721516325725, -1.39, 0.799, -0.802], a = 0.2, v = 0.2, t = 0.2)
movej(p[0.410040731376119, 0.181861494522272, 0.326643086546747, -1.39, 0.799, -0.802], a = 0.2, v = 0.2, t = 0.2)
movej(p[0.410022719125379, 0.181834300382034, 0.327862250275521, -1.39, 0.799, -0.802], a = 0.2, v = 0.2, t = 0.2)
movej(p[0.410007801271799, 0.181811778032762, 0.328871968953088, -1.39, 0.799, -0.802], a = 0.2, v = 0.2, t = 0.2)
movej(p[0.409998509514312, 0.181797749727261, 0.329500883899236, -1.39, 0.799, -0.802], a = 0.2, v = 0.2, t = 0.2)
movej(p[0.409994655253017, 0.181791930725311, 0.329761760545922, -1.39, 0.799, -0.802], a = 0.2, v = 0.2, t = 0.2)
movej(p[0.409993046763162, 0.181789502294831, 0.329870631587002, -1.39, 0.799, -0.802], a = 0.2, v = 0.2, t = 0.2)
movej(p[0.409992988425682, 0.181789414219352, 0.329874580174021, -1.39, 0.799, -0.802], a = 0.2, v = 0.2, t = 0.2)
movej(p[0.409997381902518, 0.181796047306297, 0.32957720658757, -1.39, 0.799, -0.802], a = 0.2, v = 0.2, t = 0.2)
movej(p[0.410005293055545, 0.181807991233126, 0.32904173820207, -1.39, 0.799, -0.802], a = 0.2, v = 0.2, t = 0.2)
movej(p[0.410018922020045, 0.181828567671756, 0.328119258306571, -1.39, 0.799, -0.802], a = 0.2, v = 0.2, t = 0.2)
movej(p[0.410034749938312, 0.181852463998497, 0.327047941671504, -1.39, 0.799, -0.802], a = 0.2, v = 0.2, t = 0.2)
movej(p[0.410047929778062, 0.181872362367428, 0.326155860897841, -1.39, 0.799, -0.802], a = 0.2, v = 0.2, t = 0.2)
movej(p[0.410057723090185, 0.181887147899072, 0.325492998099751, -1.39, 0.799, -0.802], a = 0.2, v = 0.2, t = 0.2)
movej(p[0.410065767754811, 0.18189929339611, 0.32494849294801, -1.39, 0.799, -0.802], a = 0.2, v = 0.2, t = 0.2)
movej(p[0.410073214275656, 0.18191053584077, 0.324444473308744, -1.39, 0.799, -0.802], a = 0.2, v = 0.2, t = 0.2)
movej(p[0.410072910034622, 0.181910076510425, 0.324465065939782, -1.39, 0.799, -0.802], a = 0.2, v = 0.2, t = 0.2)
movej(p[0.410062116862402, 0.181893781431968, 0.325195604520454, -1.39, 0.799, -0.802], a = 0.2, v = 0.2, t = 0.2)
movej(p[0.410045500280484, 0.181868694413944, 0.326320302053452, -1.39, 0.799, -0.802], a = 0.2, v = 0.2, t = 0.2)
movej(p[0.410030288228777, 0.181845727896688, 0.327349933605304, -1.39, 0.799, -0.802], a = 0.2, v = 0.2, t = 0.2)
movej(p[0.410015968223597, 0.181824108153842, 0.328319186763241, -1.39, 0.799, -0.802], a = 0.2, v = 0.2, t = 0.2)
movej(p[0.410005040062879, 0.181807609275416, 0.329058862074384, -1.39, 0.799, -0.802], a = 0.2, v = 0.2, t = 0.2)
movej(p[0.40999819523037, 0.181797275234555, 0.329522156287025, -1.39, 0.799, -0.802], a = 0.2, v = 0.2, t = 0.2)
movej(p[0.409995915047202, 0.181793832709701, 0.329676491059152, -1.39, 0.799, -0.802], a = 0.2, v = 0.2, t = 0.2)
movej(p[0.409994546110239, 0.181791765946124, 0.329769147902396, -1.39, 0.799, -0.802], a = 0.2, v = 0.2, t = 0.2)
movej(p[0.409994590121806, 0.181791832392941, 0.329766168968391, -1.39, 0.799, -0.802], a = 0.2, v = 0.2, t = 0.2)
movej(p[0.409995744908527, 0.181793575841469, 0.329688006938256, -1.39, 0.799, -0.802], a = 0.2, v = 0.2, t = 0.2)
movej(p[0.409999361669819, 0.181799036275881, 0.329443205539129, -1.39, 0.799, -0.802], a = 0.2, v = 0.2, t = 0.2)
movej(p[0.410008018080458, 0.181812105361377, 0.328857294204369, -1.39, 0.799, -0.802], a = 0.2, v = 0.2, t = 0.2)
movej(p[0.410022289347996, 0.181833651522178, 0.327891339865967, -1.39, 0.799, -0.802], a = 0.2, v = 0.2, t = 0.2)
movej(p[0.41003668024429, 0.181855378293454, 0.32691728842507, -1.39, 0.799, -0.802], a = 0.2, v = 0.2, t = 0.2)
movej(p[0.410047569414896, 0.181871818306243, 0.326180252169555, -1.39, 0.799, -0.802], a = 0.2, v = 0.2, t = 0.2)
movej(p[0.410055767676937, 0.181884195698213, 0.325625350738067, -1.39, 0.799, -0.802], a = 0.2, v = 0.2, t = 0.2)
movej(p[0.410060992942853, 0.181892084585402, 0.325271677298217, -1.39, 0.799, -0.802], a = 0.2, v = 0.2, t = 0.2)
movej(p[0.410057658106663, 0.181887049789677, 0.325497396525798, -1.39, 0.799, -0.802], a = 0.2, v = 0.2, t = 0.2)
movej(p[0.410046309620711, 0.181869916321853, 0.326265521656325, -1.39, 0.799, -0.802], a = 0.2, v = 0.2, t = 0.2)
movej(p[0.410029673839116, 0.181844800316962, 0.327391518724291, -1.39, 0.799, -0.802], a = 0.2, v = 0.2, t = 0.2)
movej(p[0.410016324156069, 0.181824645525751, 0.328295095384212, -1.39, 0.799, -0.802], a = 0.2, v = 0.2, t = 0.2)
movej(p[0.410003593293379, 0.181805425003542, 0.329156787032461, -1.39, 0.799, -0.802], a = 0.2, v = 0.2, t = 0.2)
movej(p[0.409997046646622, 0.181795541151014, 0.329599898467402, -1.39, 0.799, -0.802], a = 0.2, v = 0.2, t = 0.2)
movej(p[0.409994875753922, 0.181792263628323, 0.329746835886631, -1.39, 0.799, -0.802], a = 0.2, v = 0.2, t = 0.2)
movej(p[0.409999779971703, 0.181799667810511, 0.329414892670737, -1.39, 0.799, -0.802], a = 0.2, v = 0.2, t = 0.2)
movej(p[0.410010273599425, 0.181815510649256, 0.328704628834855, -1.39, 0.799, -0.802], a = 0.2, v = 0.2, t = 0.2)
movej(p[0.410026259250422, 0.181839645114254, 0.327622636020202, -1.39, 0.799, -0.802], a = 0.2, v = 0.2, t = 0.2)
movej(p[0.410043352870466, 0.181865452344421, 0.326465650041452, -1.39, 0.799, -0.802], a = 0.2, v = 0.2, t = 0.2)
movej(p[0.410055535803916, 0.181883845626056, 0.325641045121916, -1.39, 0.799, -0.802], a = 0.2, v = 0.2, t = 0.2)
movej(p[0.410062812481465, 0.181894831648437, 0.325148521368909, -1.39, 0.799, -0.802], a = 0.2, v = 0.2, t = 0.2)
movej(p[0.410063869940593, 0.18189642815585, 0.325076946981421, -1.39, 0.799, -0.802], a = 0.2, v = 0.2, t = 0.2)
movej(p[0.410060442059816, 0.181891252885311, 0.325308963955386, -1.39, 0.799, -0.802], a = 0.2, v = 0.2, t = 0.2)
movej(p[0.410049557319905, 0.181874819561799, 0.326045700318216, -1.39, 0.799, -0.802], a = 0.2, v = 0.2, t = 0.2)
movej(p[0.410037440846876, 0.181856526619316, 0.326865806847477, -1.39, 0.799, -0.802], a = 0.2, v = 0.2, t = 0.2)
movej(p[0.410027801132168, 0.181841972982605, 0.32751827336582, -1.39, 0.799, -0.802], a = 0.2, v = 0.2, t = 0.2)
movej(p[0.410021719265282, 0.18183279083522, 0.327929926058104, -1.39, 0.799, -0.802], a = 0.2, v = 0.2, t = 0.2)
movej(p[0.410020816880467, 0.181831428452498, 0.327991004201617, -1.39, 0.799, -0.802], a = 0.2, v = 0.2, t = 0.2)
movej(p[0.410028771454301, 0.181843437934239, 0.327452596867804, -1.39, 0.799, -0.802], a = 0.2, v = 0.2, t = 0.2)
movej(p[0.410044030766751, 0.181866475803782, 0.326419766460646, -1.39, 0.799, -0.802], a = 0.2, v = 0.2, t = 0.2)
movej(p[0.410060118619105, 0.1818907645681, 0.325330856121392, -1.39, 0.799, -0.802], a = 0.2, v = 0.2, t = 0.2)
movej(p[0.410074446008775, 0.181912395459741, 0.324361103142313, -1.39, 0.799, -0.802], a = 0.2, v = 0.2, t = 0.2)
movej(p[0.410089124900223, 0.181934557034013, 0.323367558676891, -1.39, 0.799, -0.802], a = 0.2, v = 0.2, t = 0.2)
movej(p[0.410101176389731, 0.181952751867101, 0.322551850573676, -1.39, 0.799, -0.802], a = 0.2, v = 0.2, t = 0.2)
movej(p[0.41010884444531, 0.181964328775606, 0.32203283630016, -1.39, 0.799, -0.802], a = 0.2, v = 0.2, t = 0.2)
movej(p[0.410106268734807, 0.181960440075985, 0.322207173914377, -1.39, 0.799, -0.802], a = 0.2, v = 0.2, t = 0.2)
movej(p[0.410098885720585, 0.181949293510959, 0.322706895091824, -1.39, 0.799, -0.802], a = 0.2, v = 0.2, t = 0.2)
movej(p[0.410085036845939, 0.18192838506122, 0.323644259660922, -1.39, 0.799, -0.802], a = 0.2, v = 0.2, t = 0.2)
movej(p[0.410072495026221, 0.181909449948158, 0.324493155887944, -1.39, 0.799, -0.802], a = 0.2, v = 0.2, t = 0.2)
movej(p[0.410060381506988, 0.181891161465194, 0.325313062488748, -1.39, 0.799, -0.802], a = 0.2, v = 0.2, t = 0.2)
movej(p[0.410049954605527, 0.181875419366958, 0.326018809940794, -1.39, 0.799, -0.802], a = 0.2, v = 0.2, t = 0.2)
movej(p[0.410038585442999, 0.181858254682508, 0.326788334570517, -1.39, 0.799, -0.802], a = 0.2, v = 0.2, t = 0.2)
movej(p[0.410028399275949, 0.181842876034982, 0.327477787853345, -1.39, 0.799, -0.802], a = 0.2, v = 0.2, t = 0.2)
movej(p[0.410020372334101, 0.181830757295052, 0.328021093434346, -1.39, 0.799, -0.802], a = 0.2, v = 0.2, t = 0.2)
movej(p[0.410014891564792, 0.181822482659562, 0.328392060685697, -1.39, 0.799, -0.802], a = 0.2, v = 0.2, t = 0.2)
movej(p[0.410013458235066, 0.181820318678495, 0.328489075969296, -1.39, 0.799, -0.802], a = 0.2, v = 0.2, t = 0.2)
movej(p[0.410018391813583, 0.18182776718829, 0.328155145464543, -1.39, 0.799, -0.802], a = 0.2, v = 0.2, t = 0.2)
movej(p[0.410027488029744, 0.181841500273706, 0.327539465782227, -1.39, 0.799, -0.802], a = 0.2, v = 0.2, t = 0.2)
movej(p[0.410038591350592, 0.181858263601544, 0.326787934713604, -1.39, 0.799, -0.802], a = 0.2, v = 0.2, t = 0.2)
movej(p[0.41004786479454, 0.181872264258034, 0.326160259323888, -1.39, 0.799, -0.802], a = 0.2, v = 0.2, t = 0.2)
movej(p[0.410055717462397, 0.181884119886408, 0.32562874952183, -1.39, 0.799, -0.802], a = 0.2, v = 0.2, t = 0.2)
movej(p[0.410052810926692, 0.181879731720781, 0.325825479123194, -1.39, 0.799, -0.802], a = 0.2, v = 0.2, t = 0.2)
movej(p[0.410042713373535, 0.181864486858793, 0.326508934552321, -1.39, 0.799, -0.802], a = 0.2, v = 0.2, t = 0.2)
movej(p[0.41002615291375, 0.181839484571609, 0.327629833444642, -1.39, 0.799, -0.802], a = 0.2, v = 0.2, t = 0.2)
movej(p[0.410012932311608, 0.18181952466133, 0.328524673231007, -1.39, 0.799, -0.802], a = 0.2, v = 0.2, t = 0.2)
movej(p[0.410003410896448, 0.181805149628311, 0.32916913261466, -1.39, 0.799, -0.802], a = 0.2, v = 0.2, t = 0.2)
movej(p[0.409999007258552, 0.181798501200624, 0.329467193955002, -1.39, 0.799, -0.802], a = 0.2, v = 0.2, t = 0.2)
movej(p[0.409999512786045, 0.181799264424818, 0.329432977199285, -1.39, 0.799, -0.802], a = 0.2, v = 0.2, t = 0.2)
movej(p[0.410004091894219, 0.181806177770166, 0.329123039108975, -1.39, 0.799, -0.802], a = 0.2, v = 0.2, t = 0.2)
movej(p[0.410013754943919, 0.181820766637069, 0.328468993155824, -1.39, 0.799, -0.802], a = 0.2, v = 0.2, t = 0.2)
movej(p[0.410026408417143, 0.181839870319908, 0.32761253963314, -1.39, 0.799, -0.802], a = 0.2, v = 0.2, t = 0.2)
movej(p[0.410039672440092, 0.1818598957851, 0.326714760898463, -1.39, 0.799, -0.802], a = 0.2, v = 0.2, t = 0.2)
movej(p[0.410049406676286, 0.181874592126385, 0.326055896669506, -1.39, 0.799, -0.802], a = 0.2, v = 0.2, t = 0.2)
movej(p[0.410055235993576, 0.181883392984988, 0.325661337860268, -1.39, 0.799, -0.802], a = 0.2, v = 0.2, t = 0.2)
movej(p[0.410055899120879, 0.18188439414676, 0.325616453921745, -1.39, 0.799, -0.802], a = 0.2, v = 0.2, t = 0.2)
movej(p[0.410049790669824, 0.181875171863714, 0.326029905970139, -1.39, 0.799, -0.802], a = 0.2, v = 0.2, t = 0.2)
movej(p[0.410034974426842, 0.181852802921858, 0.327032747108797, -1.39, 0.799, -0.802], a = 0.2, v = 0.2, t = 0.2)
movej(p[0.410018882143793, 0.181828507468264, 0.328121957340736, -1.39, 0.799, -0.802], a = 0.2, v = 0.2, t = 0.2)
movej(p[0.410007900962429, 0.181811928541492, 0.328865221367676, -1.39, 0.799, -0.802], a = 0.2, v = 0.2, t = 0.2)
movej(p[0.410001689719258, 0.181802551067223, 0.329285630926362, -1.39, 0.799, -0.802], a = 0.2, v = 0.2, t = 0.2)
movej(p[0.40999924874618, 0.181798865788511, 0.329450848804027, -1.39, 0.799, -0.802], a = 0.2, v = 0.2, t = 0.2)
movej(p[0.410000008631436, 0.18180001303138, 0.32939941577906, -1.39, 0.799, -0.802], a = 0.2, v = 0.2, t = 0.2)
movej(p[0.410005073293089, 0.181807659444993, 0.329056612879246, -1.39, 0.799, -0.802], a = 0.2, v = 0.2, t = 0.2)
movej(p[0.410013773700526, 0.181820794955008, 0.328467723610124, -1.39, 0.799, -0.802], a = 0.2, v = 0.2, t = 0.2)
movej(p[0.410025311081762, 0.181838213609003, 0.327686813054793, -1.39, 0.799, -0.802], a = 0.2, v = 0.2, t = 0.2)
movej(p[0.410039019651077, 0.181858910231641, 0.326758945087387, -1.39, 0.799, -0.802], a = 0.2, v = 0.2, t = 0.2)
movej(p[0.410048390570308, 0.181873058052223, 0.326124672058601, -1.39, 0.799, -0.802], a = 0.2, v = 0.2, t = 0.2)
movej(p[0.410052158137677, 0.181878746167322, 0.325869663312118, -1.39, 0.799, -0.802], a = 0.2, v = 0.2, t = 0.2)
movej(p[0.410048359555445, 0.181873011227285, 0.326126771307396, -1.39, 0.799, -0.802], a = 0.2, v = 0.2, t = 0.2)
movej(p[0.410039839329591, 0.181860147747862, 0.326703464940661, -1.39, 0.799, -0.802], a = 0.2, v = 0.2, t = 0.2)
movej(p[0.410026321280147, 0.18183973876413, 0.327618437522612, -1.39, 0.799, -0.802], a = 0.2, v = 0.2, t = 0.2)
movej(p[0.410012253676874, 0.18181850008709, 0.328570606793927, -1.39, 0.799, -0.802], a = 0.2, v = 0.2, t = 0.2)
movej(p[0.410001503334702, 0.181802269671642, 0.329298246411978, -1.39, 0.799, -0.802], a = 0.2, v = 0.2, t = 0.2)
movej(p[0.409998587671766, 0.181797867726105, 0.329495593792272, -1.39, 0.799, -0.802], a = 0.2, v = 0.2, t = 0.2)
movej(p[0.409995812255086, 0.181793677518478, 0.329683448569444, -1.39, 0.799, -0.802], a = 0.2, v = 0.2, t = 0.2)
movej(p[0.409995170395118, 0.181792708465235, 0.329726893023079, -1.39, 0.799, -0.802], a = 0.2, v = 0.2, t = 0.2)
movej(p[0.409994472708397, 0.181791655127104, 0.329774116124544, -1.39, 0.799, -0.802], a = 0.2, v = 0.2, t = 0.2)
movej(p[0.409995614941483, 0.181793379622681, 0.32969680379035, -1.39, 0.799, -0.802], a = 0.2, v = 0.2, t = 0.2)
movej(p[0.409997769292922, 0.181796632172072, 0.329550985970477, -1.39, 0.799, -0.802], a = 0.2, v = 0.2, t = 0.2)
movej(p[0.410004851610666, 0.181807324758173, 0.329071617509919, -1.39, 0.799, -0.802], a = 0.2, v = 0.2, t = 0.2)
movej(p[0.410017101004535, 0.181825818378962, 0.328242514200108, -1.39, 0.799, -0.802], a = 0.2, v = 0.2, t = 0.2)
movej(p[0.410029713715368, 0.181844860520454, 0.327388819690126, -1.39, 0.799, -0.802], a = 0.2, v = 0.2, t = 0.2)
movej(p[0.410041152292112, 0.181862130003575, 0.326614596741671, -1.39, 0.799, -0.802], a = 0.2, v = 0.2, t = 0.2)
movej(p[0.410050245554477, 0.181875858629473, 0.325999116987812, -1.39, 0.799, -0.802], a = 0.2, v = 0.2, t = 0.2)
movej(p[0.410059037529605, 0.181889132384543, 0.325404029936533, -1.39, 0.799, -0.802], a = 0.2, v = 0.2, t = 0.2)
movej(p[0.410058660920558, 0.181888563796009, 0.325429520814759, -1.39, 0.799, -0.802], a = 0.2, v = 0.2, t = 0.2)
movej(p[0.41005043459745, 0.181876144038619, 0.325986321566585, -1.39, 0.799, -0.802], a = 0.2, v = 0.2, t = 0.2)
movej(p[0.410034648032334, 0.181852310145129, 0.327054839203259, -1.39, 0.799, -0.802], a = 0.2, v = 0.2, t = 0.2)
movej(p[0.410019198200013, 0.181828984636681, 0.328100564995872, -1.39, 0.799, -0.802], a = 0.2, v = 0.2, t = 0.2)
movej(p[0.410005365866627, 0.181808101160242, 0.329036809965613, -1.39, 0.799, -0.802], a = 0.2, v = 0.2, t = 0.2)
movej(p[0.409997312488302, 0.181795942507626, 0.329581904906301, -1.39, 0.799, -0.802], a = 0.2, v = 0.2, t = 0.2)
movej(p[0.40999489391977, 0.181792291054358, 0.329745606326623, -1.39, 0.799, -0.802], a = 0.2, v = 0.2, t = 0.2)
movej(p[0.409994800136733, 0.181792149464665, 0.329751954055122, -1.39, 0.799, -0.802], a = 0.2, v = 0.2, t = 0.2)
movej(p[0.409994563537638, 0.18179179225728, 0.329767968324501, -1.39, 0.799, -0.802], a = 0.2, v = 0.2, t = 0.2)
movej(p[0.409994946349657, 0.181792370210801, 0.329742057596517, -1.39, 0.799, -0.802], a = 0.2, v = 0.2, t = 0.2)
movej(p[0.409998425035734, 0.181797622185048, 0.329506601853096, -1.39, 0.799, -0.802], a = 0.2, v = 0.2, t = 0.2)
movej(p[0.410005374580327, 0.18180811431582, 0.329036220176666, -1.39, 0.799, -0.802], a = 0.2, v = 0.2, t = 0.2)
movej(p[0.410016383231998, 0.181824734716109, 0.328291096815079, -1.39, 0.799, -0.802], a = 0.2, v = 0.2, t = 0.2)
movej(p[0.410029588179019, 0.181844670990943, 0.327397316649535, -1.39, 0.799, -0.802], a = 0.2, v = 0.2, t = 0.2)
movej(p[0.410041644099221, 0.181862872513308, 0.326581308653635, -1.39, 0.799, -0.802], a = 0.2, v = 0.2, t = 0.2)
movej(p[0.410049130496318, 0.18187417516146, 0.326074589980205, -1.39, 0.799, -0.802], a = 0.2, v = 0.2, t = 0.2)
movej(p[0.410051660422976, 0.181877994738553, 0.325903351257067, -1.39, 0.799, -0.802], a = 0.2, v = 0.2, t = 0.2)
movej(p[0.410051314828792, 0.181877472974958, 0.325926742886497, -1.39, 0.799, -0.802], a = 0.2, v = 0.2, t = 0.2)
movej(p[0.410042409132501, 0.181864027528447, 0.326529527183358, -1.39, 0.799, -0.802], a = 0.2, v = 0.2, t = 0.2)
movej(p[0.41002826487821, 0.181842673126917, 0.327486884598123, -1.39, 0.799, -0.802], a = 0.2, v = 0.2, t = 0.2)
movej(p[0.410012162109184, 0.181818361842034, 0.328576804576083, -1.39, 0.799, -0.802], a = 0.2, v = 0.2, t = 0.2)
movej(p[0.410003153030018, 0.181804760312397, 0.329186586368927, -1.39, 0.799, -0.802], a = 0.2, v = 0.2, t = 0.2)
movej(p[0.409996828508754, 0.181795211815616, 0.329614663183927, -1.39, 0.799, -0.802], a = 0.2, v = 0.2, t = 0.2)
movej(p[0.409994698969205, 0.181791996726176, 0.329758801604763, -1.39, 0.799, -0.802], a = 0.2, v = 0.2, t = 0.2)
movej(p[0.409993356468719, 0.181789969875284, 0.32984966908832, -1.39, 0.799, -0.802], a = 0.2, v = 0.2, t = 0.2)
movej(p[0.409993891548946, 0.181790777716954, 0.329813452048394, -1.39, 0.799, -0.802], a = 0.2, v = 0.2, t = 0.2)
movej(p[0.409994233598574, 0.181791294129129, 0.329790300333112, -1.39, 0.799, -0.802], a = 0.2, v = 0.2, t = 0.2)
movej(p[0.409998274096735, 0.181797394303683, 0.329516818197232, -1.39, 0.799, -0.802], a = 0.2, v = 0.2, t = 0.2)
movej(p[0.410007514753543, 0.181811345459525, 0.328891362013385, -1.39, 0.799, -0.802], a = 0.2, v = 0.2, t = 0.2)
movej(p[0.410017783331515, 0.1818268485276, 0.328196330726617, -1.39, 0.799, -0.802], a = 0.2, v = 0.2, t = 0.2)
movej(p[0.410028836437823, 0.181843536043634, 0.327448198441757, -1.39, 0.799, -0.802], a = 0.2, v = 0.2, t = 0.2)
movej(p[0.410039719700835, 0.181859967137387, 0.326711562043156, -1.39, 0.799, -0.802], a = 0.2, v = 0.2, t = 0.2)
movej(p[0.410049329877579, 0.181874476178919, 0.32606109480938, -1.39, 0.799, -0.802], a = 0.2, v = 0.2, t = 0.2)
movej(p[0.41005307086078, 0.181880124158357, 0.325807885419007, -1.39, 0.799, -0.802], a = 0.2, v = 0.2, t = 0.2)
movej(p[0.410049876329921, 0.181875301189734, 0.326024108044896, -1.39, 0.799, -0.802], a = 0.2, v = 0.2, t = 0.2)
movej(p[0.410041220229431, 0.181862232572487, 0.326609998387168, -1.39, 0.799, -0.802], a = 0.2, v = 0.2, t = 0.2)
movej(p[0.410026396601957, 0.181839852481837, 0.327613339346967, -1.39, 0.799, -0.802], a = 0.2, v = 0.2, t = 0.2)
movej(p[0.410011031691284, 0.181816655184529, 0.328653317196451, -1.39, 0.799, -0.802], a = 0.2, v = 0.2, t = 0.2)
movej(p[0.41000049134927, 0.181800741818507, 0.329366742900875, -1.39, 0.799, -0.802], a = 0.2, v = 0.2, t = 0.2)
movej(p[0.40999672320591, 0.181795052833802, 0.329621790633407, -1.39, 0.799, -0.802], a = 0.2, v = 0.2, t = 0.2)
movej(p[0.409995054015538, 0.181792532760229, 0.329734770204271, -1.39, 0.799, -0.802], a = 0.2, v = 0.2, t = 0.2)
movej(p[0.409995986972146, 0.181793941298962, 0.329671622801232, -1.39, 0.799, -0.802], a = 0.2, v = 0.2, t = 0.2)
movej(p[0.410000802605571, 0.181801211740208, 0.329345675439754, -1.39, 0.799, -0.802], a = 0.2, v = 0.2, t = 0.2)
movej(p[0.410009870258521, 0.181814901702085, 0.328731929065614, -1.39, 0.799, -0.802], a = 0.2, v = 0.2, t = 0.2)
movej(p[0.410021160997753, 0.181831947986335, 0.327967712536415, -1.39, 0.799, -0.802], a = 0.2, v = 0.2, t = 0.2)
movej(p[0.410033100242995, 0.181849973357742, 0.327159601714554, -1.39, 0.799, -0.802], a = 0.2, v = 0.2, t = 0.2)
movej(p[0.410045494372891, 0.181868685494908, 0.326320701910366, -1.39, 0.799, -0.802], a = 0.2, v = 0.2, t = 0.2)
movej(p[0.410051570332184, 0.181877858723257, 0.325909449074995, -1.39, 0.799, -0.802], a = 0.2, v = 0.2, t = 0.2)
movej(p[0.410050408013282, 0.181876103902958, 0.325988120922695, -1.39, 0.799, -0.802], a = 0.2, v = 0.2, t = 0.2)
movej(p[0.410040750575796, 0.181861523509139, 0.326641787011778, -1.39, 0.799, -0.802], a = 0.2, v = 0.2, t = 0.2)
movej(p[0.410027470306966, 0.181841473516598, 0.327540665352967, -1.39, 0.799, -0.802], a = 0.2, v = 0.2, t = 0.2)
movej(p[0.410012322943401, 0.181818604662785, 0.328565918471618, -1.39, 0.799, -0.802], a = 0.2, v = 0.2, t = 0.2)
movej(p[0.410001349589597, 0.181802037553735, 0.329308652688147, -1.39, 0.799, -0.802], a = 0.2, v = 0.2, t = 0.2)
movej(p[0.409997300377736, 0.181795924223603, 0.329582724612974, -1.39, 0.799, -0.802], a = 0.2, v = 0.2, t = 0.2)
movej(p[0.409995890383002, 0.181793795472727, 0.329678160461765, -1.39, 0.799, -0.802], a = 0.2, v = 0.2, t = 0.2)
movej(p[0.409995251181451, 0.18179283043305, 0.329721424979789, -1.39, 0.799, -0.802], a = 0.2, v = 0.2, t = 0.2)
movej(p[0.409996858785167, 0.181795257525675, 0.329612613917246, -1.39, 0.799, -0.802], a = 0.2, v = 0.2, t = 0.2)
movej(p[0.410003188770955, 0.181804814272564, 0.329184167234602, -1.39, 0.799, -0.802], a = 0.2, v = 0.2, t = 0.2)
movej(p[0.410013233451156, 0.181819979309182, 0.328504290524849, -1.39, 0.799, -0.802], a = 0.2, v = 0.2, t = 0.2)
movej(p[0.410026389217466, 0.181839841333042, 0.327613839168109, -1.39, 0.799, -0.802], a = 0.2, v = 0.2, t = 0.2)
movej(p[0.410039477489526, 0.181859601456918, 0.326727956176603, -1.39, 0.799, -0.802], a = 0.2, v = 0.2, t = 0.2)
movej(p[0.410049659225882, 0.181874973415167, 0.326038802786461, -1.39, 0.799, -0.802], a = 0.2, v = 0.2, t = 0.2)
movej(p[0.410054304070797, 0.181881986007086, 0.325724415288347, -1.39, 0.799, -0.802], a = 0.2, v = 0.2, t = 0.2)
movej(p[0.410051617592927, 0.181877930075544, 0.325906250219689, -1.39, 0.799, -0.802], a = 0.2, v = 0.2, t = 0.2)
movej(p[0.410043214042033, 0.181865242747079, 0.326475046678915, -1.39, 0.799, -0.802], a = 0.2, v = 0.2, t = 0.2)
movej(p[0.410027027237498, 0.181840804588911, 0.327570654621468, -1.39, 0.799, -0.802], a = 0.2, v = 0.2, t = 0.2)
movej(p[0.410011792884628, 0.181817804402295, 0.328601795633167, -1.39, 0.799, -0.802], a = 0.2, v = 0.2, t = 0.2)
movej(p[0.410001137891006, 0.181801717940086, 0.329322981560637, -1.39, 0.799, -0.802], a = 0.2, v = 0.2, t = 0.2)
movej(p[0.409997361964392, 0.181796017204551, 0.329578556104652, -1.39, 0.799, -0.802], a = 0.2, v = 0.2, t = 0.2)
movej(p[0.409996083856669, 0.18179408757115, 0.329665065147853, -1.39, 0.799, -0.802], a = 0.2, v = 0.2, t = 0.2)
movej(p[0.409995650387041, 0.181793433136896, 0.32969440464887, -1.39, 0.799, -0.802], a = 0.2, v = 0.2, t = 0.2)
movej(p[0.409996960543455, 0.181795411156067, 0.329605726381914, -1.39, 0.799, -0.802], a = 0.2, v = 0.2, t = 0.2)
movej(p[0.409997050191177, 0.181795546502435, 0.329599658553254, -1.39, 0.799, -0.802], a = 0.2, v = 0.2, t = 0.2)
movej(p[0.41000105525855, 0.181801593185072, 0.329328574559212, -1.39, 0.799, -0.802], a = 0.2, v = 0.2, t = 0.2)
movej(p[0.410008688001492, 0.18181311678004, 0.328811950430396, -1.39, 0.799, -0.802], a = 0.2, v = 0.2, t = 0.2)
movej(p[0.410019622069804, 0.181829624577501, 0.32807187526234, -1.39, 0.799, -0.802], a = 0.2, v = 0.2, t = 0.2)
movej(p[0.410029839251717, 0.181845050049965, 0.327380322730718, -1.39, 0.799, -0.802], a = 0.2, v = 0.2, t = 0.2)
movej(p[0.41003945828985, 0.181859572470052, 0.326729255711571, -1.39, 0.799, -0.802], a = 0.2, v = 0.2, t = 0.2)
movej(p[0.410048140974508, 0.181872681222959, 0.326141566013189, -1.39, 0.799, -0.802], a = 0.2, v = 0.2, t = 0.2)
movej(p[0.41005134141296, 0.181877513110619, 0.325924943530387, -1.39, 0.799, -0.802], a = 0.2, v = 0.2, t = 0.2)
movej(p[0.410047920916673, 0.181872348988875, 0.326156460683211, -1.39, 0.799, -0.802], a = 0.2, v = 0.2, t = 0.2)
movej(p[0.410037291680155, 0.181856301413662, 0.326875903234539, -1.39, 0.799, -0.802], a = 0.2, v = 0.2, t = 0.2)
movej(p[0.410024516510518, 0.181837013998685, 0.327740593809637, -1.39, 0.799, -0.802], a = 0.2, v = 0.2, t = 0.2)
movej(p[0.410010505915516, 0.18181586139034, 0.328688904461738, -1.39, 0.799, -0.802], a = 0.2, v = 0.2, t = 0.2)
movej(p[0.410001718666463, 0.181802594770498, 0.329283671627486, -1.39, 0.799, -0.802], a = 0.2, v = 0.2, t = 0.2)
movej(p[0.409997750831695, 0.181796604300085, 0.329552235523331, -1.39, 0.799, -0.802], a = 0.2, v = 0.2, t = 0.2)
movej(p[0.409995906185813, 0.181793819331147, 0.329677090844522, -1.39, 0.799, -0.802], a = 0.2, v = 0.2, t = 0.2)
movej(p[0.409994959937121, 0.181792390724584, 0.329741137925616, -1.39, 0.799, -0.802], a = 0.2, v = 0.2, t = 0.2)
movej(p[0.409995441110562, 0.181793117180052, 0.329708569580025, -1.39, 0.799, -0.802], a = 0.2, v = 0.2, t = 0.2)
movej(p[0.409997747139449, 0.181796598725687, 0.329552485433902, -1.39, 0.799, -0.802], a = 0.2, v = 0.2, t = 0.2)
movej(p[0.410002920566238, 0.181804409348337, 0.329202320738467, -1.39, 0.799, -0.802], a = 0.2, v = 0.2, t = 0.2)
movej(p[0.410012155463142, 0.181818351808119, 0.328577254415111, -1.39, 0.799, -0.802], a = 0.2, v = 0.2, t = 0.2)
movej(p[0.410024676015526, 0.181837254812652, 0.327729797672977, -1.39, 0.799, -0.802], a = 0.2, v = 0.2, t = 0.2)
movej(p[0.410034079426518, 0.181851451687931, 0.327093325431168, -1.39, 0.799, -0.802], a = 0.2, v = 0.2, t = 0.2)
movej(p[0.410042169874989, 0.181863666307496, 0.326545721388348, -1.39, 0.799, -0.802], a = 0.2, v = 0.2, t = 0.2)
movej(p[0.410048296048822, 0.18187291534765, 0.326131069769214, -1.39, 0.799, -0.802], a = 0.2, v = 0.2, t = 0.2)
movej(p[0.410050406536384, 0.181876101673199, 0.325988220886923, -1.39, 0.799, -0.802], a = 0.2, v = 0.2, t = 0.2)
movej(p[0.410043816616508, 0.181866152488733, 0.326434261273755, -1.39, 0.799, -0.802], a = 0.2, v = 0.2, t = 0.2)
movej(p[0.410030565885643, 0.181846147091372, 0.327331140330377, -1.39, 0.799, -0.802], a = 0.2, v = 0.2, t = 0.2)
movej(p[0.410016860270125, 0.181825454928252, 0.328258808369327, -1.39, 0.799, -0.802], a = 0.2, v = 0.2, t = 0.2)
movej(p[0.410005995025271, 0.181809051037558, 0.328994225204342, -1.39, 0.799, -0.802], a = 0.2, v = 0.2, t = 0.2)
movej(p[0.409999551406933, 0.181799322733014, 0.329430363134714, -1.39, 0.799, -0.802], a = 0.2, v = 0.2, t = 0.2)
movej(p[0.409995693512469, 0.181793498245858, 0.329691485693402, -1.39, 0.799, -0.802], a = 0.2, v = 0.2, t = 0.2)
movej(p[0.409996159326169, 0.181794201511833, 0.329659956975785, -1.39, 0.799, -0.802], a = 0.2, v = 0.2, t = 0.2)
movej(p[0.409998190356606, 0.18179726787635, 0.329522486168979, -1.39, 0.799, -0.802], a = 0.2, v = 0.2, t = 0.2)
movej(p[0.410006416827403, 0.181809687856716, 0.32896567542073, -1.39, 0.799, -0.802], a = 0.2, v = 0.2, t = 0.2)
movej(p[0.410018873282404, 0.18182849408971, 0.328122557126106, -1.39, 0.799, -0.802], a = 0.2, v = 0.2, t = 0.2)
movej(p[0.410031552453657, 0.181847636570355, 0.327264364225849, -1.39, 0.799, -0.802], a = 0.2, v = 0.2, t = 0.2)
movej(p[0.410042490361903, 0.18186415016519, 0.326524029150799, -1.39, 0.799, -0.802], a = 0.2, v = 0.2, t = 0.2)
movej(p[0.410051941033639, 0.181878418392755, 0.325884358053683, -1.39, 0.799, -0.802], a = 0.2, v = 0.2, t = 0.2)
movej(p[0.410058773164823, 0.18188873325769, 0.325421923533405, -1.39, 0.799, -0.802], a = 0.2, v = 0.2, t = 0.2)
movej(p[0.410057559154482, 0.181886900395827, 0.325504094129096, -1.39, 0.799, -0.802], a = 0.2, v = 0.2, t = 0.2)
movej(p[0.410048016915057, 0.181872493923207, 0.32614996300837, -1.39, 0.799, -0.802], a = 0.2, v = 0.2, t = 0.2)
movej(p[0.410032993906323, 0.181849812815097, 0.327166799138994, -1.39, 0.799, -0.802], a = 0.2, v = 0.2, t = 0.2)
movej(p[0.410017882283696, 0.18182699792145, 0.328189633123319, -1.39, 0.799, -0.802], a = 0.2, v = 0.2, t = 0.2)
movej(p[0.410005010672604, 0.181807564903213, 0.329060851362528, -1.39, 0.799, -0.802], a = 0.2, v = 0.2, t = 0.2)
movej(p[0.409998174701485, 0.181797244240905, 0.329523545789799, -1.39, 0.799, -0.802], a = 0.2, v = 0.2, t = 0.2)
movej(p[0.409995994356637, 0.181793952447757, 0.32967112298009, -1.39, 0.799, -0.802], a = 0.2, v = 0.2, t = 0.2)
movej(p[0.40999538498843, 0.181793032449211, 0.329712368220701, -1.39, 0.799, -0.802], a = 0.2, v = 0.2, t = 0.2)
movej(p[0.409995188560966, 0.18179273589127, 0.32972566346307, -1.39, 0.799, -0.802], a = 0.2, v = 0.2, t = 0.2)
movej(p[0.409997027594634, 0.181795512387123, 0.329601188005947, -1.39, 0.799, -0.802], a = 0.2, v = 0.2, t = 0.2)
movej(p[0.410004085248177, 0.181806167736251, 0.329123488948002, -1.39, 0.799, -0.802], a = 0.2, v = 0.2, t = 0.2)
movej(p[0.410013118548474, 0.181819805833935, 0.328512067741814, -1.39, 0.799, -0.802], a = 0.2, v = 0.2, t = 0.2)
movej(p[0.410025519324412, 0.181838528005016, 0.327672718098598, -1.39, 0.799, -0.802], a = 0.2, v = 0.2, t = 0.2)
movej(p[0.410038062621028, 0.181857465347837, 0.326823721907348, -1.39, 0.799, -0.802], a = 0.2, v = 0.2, t = 0.2)
movej(p[0.410048222203911, 0.181872803859702, 0.326136067980631, -1.39, 0.799, -0.802], a = 0.2, v = 0.2, t = 0.2)
movej(p[0.410054803262397, 0.181882739665614, 0.32569062737917, -1.39, 0.799, -0.802], a = 0.2, v = 0.2, t = 0.2)
movej(p[0.410055594879845, 0.181883934816415, 0.325637046552782, -1.39, 0.799, -0.802], a = 0.2, v = 0.2, t = 0.2)
movej(p[0.410049436214251, 0.181874636721564, 0.326053897384939, -1.39, 0.799, -0.802], a = 0.2, v = 0.2, t = 0.2)
movej(p[0.410034466373853, 0.181852035884777, 0.327067134803344, -1.39, 0.799, -0.802], a = 0.2, v = 0.2, t = 0.2)
movej(p[0.410016832209058, 0.181825412562832, 0.328260707689665, -1.39, 0.799, -0.802], a = 0.2, v = 0.2, t = 0.2)
movej(p[0.410003115664493, 0.181804703899495, 0.329189115463904, -1.39, 0.799, -0.802], a = 0.2, v = 0.2, t = 0.2)
movej(p[0.409997356204489, 0.181796008508491, 0.329578945965143, -1.39, 0.799, -0.802], a = 0.2, v = 0.2, t = 0.2)
movej(p[0.409994464142387, 0.181791642194502, 0.329774695917068, -1.39, 0.799, -0.802], a = 0.2, v = 0.2, t = 0.2)
movej(p[0.409995576985199, 0.181793322317876, 0.329699372871018, -1.39, 0.799, -0.802], a = 0.2, v = 0.2, t = 0.2)
movej(p[0.410000291554478, 0.181800440176716, 0.329380266061684, -1.39, 0.799, -0.802], a = 0.2, v = 0.2, t = 0.2)
movej(p[0.410008970975192, 0.181813544001856, 0.328792797284247, -1.39, 0.799, -0.802], a = 0.2, v = 0.2, t = 0.2)
movej(p[0.410021484438464, 0.181832436303546, 0.327945820370409, -1.39, 0.799, -0.802], a = 0.2, v = 0.2, t = 0.2)
movej(p[0.41003537466626, 0.181853407186536, 0.327005656802918, -1.39, 0.799, -0.802], a = 0.2, v = 0.2, t = 0.2)
movej(p[0.410048366939937, 0.18187302237608, 0.326126271486254, -1.39, 0.799, -0.802], a = 0.2, v = 0.2, t = 0.2)
movej(p[0.410056042380006, 0.181884610433379, 0.325606757391597, -1.39, 0.799, -0.802], a = 0.2, v = 0.2, t = 0.2)
movej(p[0.410057621184208, 0.181886994045704, 0.325499895631506, -1.39, 0.799, -0.802], a = 0.2, v = 0.2, t = 0.2)
movej(p[0.41005406038259, 0.181881618096858, 0.325740909386022, -1.39, 0.799, -0.802], a = 0.2, v = 0.2, t = 0.2)
movej(p[0.41004082146691, 0.181861630537569, 0.326636988728818, -1.39, 0.799, -0.802], a = 0.2, v = 0.2, t = 0.2)
movej(p[0.410024674538628, 0.181837252582893, 0.327729897637206, -1.39, 0.799, -0.802], a = 0.2, v = 0.2, t = 0.2)
movej(p[0.410009760524983, 0.181814736030994, 0.328739356407779, -1.39, 0.799, -0.802], a = 0.2, v = 0.2, t = 0.2)
movej(p[0.41000176326879, 0.181802662109219, 0.329280652707791, -1.39, 0.799, -0.802], a = 0.2, v = 0.2, t = 0.2)
movej(p[0.409997385447074, 0.181796052657719, 0.329576966673422, -1.39, 0.799, -0.802], a = 0.2, v = 0.2, t = 0.2)
movej(p[0.409996497388172, 0.181794711903658, 0.329637075163919, -1.39, 0.799, -0.802], a = 0.2, v = 0.2, t = 0.2)
movej(p[0.409999569543244, 0.181799350114454, 0.329429135573991, -1.39, 0.799, -0.802], a = 0.2, v = 0.2, t = 0.2)
movej(p[0.410007233256742, 0.181810920467467, 0.328910415195306, -1.39, 0.799, -0.802], a = 0.2, v = 0.2, t = 0.2)
movej(p[0.410019057894682, 0.18182877280958, 0.328110061597564, -1.39, 0.799, -0.802], a = 0.2, v = 0.2, t = 0.2)
movej(p[0.410032612866581, 0.181849237537286, 0.327192589909905, -1.39, 0.799, -0.802], a = 0.2, v = 0.2, t = 0.2)
movej(p[0.410045687846558, 0.181868977593332, 0.326307606596454, -1.39, 0.799, -0.802], a = 0.2, v = 0.2, t = 0.2)
movej(p[0.410053821125078, 0.181881256875907, 0.325757103591013, -1.39, 0.799, -0.802], a = 0.2, v = 0.2, t = 0.2)
movej(p[0.410057576877261, 0.181886927152935, 0.325502894558356, -1.39, 0.799, -0.802], a = 0.2, v = 0.2, t = 0.2)
movej(p[0.410055060242688, 0.181883127643672, 0.325673233603439, -1.39, 0.799, -0.802], a = 0.2, v = 0.2, t = 0.2)
movej(p[0.410046263836866, 0.181869847199325, 0.326268620547403, -1.39, 0.799, -0.802], a = 0.2, v = 0.2, t = 0.2)
movej(p[0.410029842205513, 0.181845054509483, 0.327380122802261, -1.39, 0.799, -0.802], a = 0.2, v = 0.2, t = 0.2)
movej(p[0.410013393989993, 0.18182022168398, 0.328493424413229, -1.39, 0.799, -0.802], a = 0.2, v = 0.2, t = 0.2)
movej(p[0.410003074015963, 0.181804641020293, 0.329191934455143, -1.39, 0.799, -0.802], a = 0.2, v = 0.2, t = 0.2)
movej(p[0.409997168638415, 0.181795725329104, 0.329591641422141, -1.39, 0.799, -0.802], a = 0.2, v = 0.2, t = 0.2)
movej(p[0.40999491105179, 0.181792316919562, 0.329744446741574, -1.39, 0.799, -0.802], a = 0.2, v = 0.2, t = 0.2)
movej(p[0.409994641222484, 0.181791909542601, 0.329762710206091, -1.39, 0.799, -0.802], a = 0.2, v = 0.2, t = 0.2)
movej(p[0.409995653783907, 0.181793438265342, 0.329694174731144, -1.39, 0.799, -0.802], a = 0.2, v = 0.2, t = 0.2)
movej(p[0.409999388091528, 0.181799076166269, 0.329441417179084, -1.39, 0.799, -0.802], a = 0.2, v = 0.2, t = 0.2)
movej(p[0.410007992973188, 0.181812067455475, 0.32885899359625, -1.39, 0.799, -0.802], a = 0.2, v = 0.2, t = 0.2)
movej(p[0.410021107829417, 0.181831867715012, 0.327971311248635, -1.39, 0.799, -0.802], a = 0.2, v = 0.2, t = 0.2)
movej(p[0.410032717726355, 0.181849395850172, 0.327185492449693, -1.39, 0.799, -0.802], a = 0.2, v = 0.2, t = 0.2)
movej(p[0.410042669066588, 0.181864419966024, 0.326511933479171, -1.39, 0.799, -0.802], a = 0.2, v = 0.2, t = 0.2)
movej(p[0.410051047510213, 0.181877069388586, 0.325944836411826, -1.39, 0.799, -0.802], a = 0.2, v = 0.2, t = 0.2)
movej(p[0.410056860581623, 0.181885845719841, 0.325551377209099, -1.39, 0.799, -0.802], a = 0.2, v = 0.2, t = 0.2)
movej(p[0.410054977536387, 0.181883002777171, 0.325678831600226, -1.39, 0.799, -0.802], a = 0.2, v = 0.2, t = 0.2)
movej(p[0.41004593596546, 0.181869352192837, 0.326290812606094, -1.39, 0.799, -0.802], a = 0.2, v = 0.2, t = 0.2)
movej(p[0.410032865416178, 0.181849618826068, 0.327175496026859, -1.39, 0.799, -0.802], a = 0.2, v = 0.2, t = 0.2)
movej(p[0.410018066895974, 0.18182727664132, 0.328177137594777, -1.39, 0.799, -0.802], a = 0.2, v = 0.2, t = 0.2)
movej(p[0.41000582946498, 0.181808801081579, 0.329005431194339, -1.39, 0.799, -0.802], a = 0.2, v = 0.2, t = 0.2)
movej(p[0.409997135851274, 0.181795675828455, 0.32959386062801, -1.39, 0.799, -0.802], a = 0.2, v = 0.2, t = 0.2)
movej(p[0.40999511043305, 0.181792617937021, 0.329730951570749, -1.39, 0.799, -0.802], a = 0.2, v = 0.2, t = 0.2)
movej(p[0.409993808842645, 0.181790652850453, 0.329819050045181, -1.39, 0.799, -0.802], a = 0.2, v = 0.2, t = 0.2)
movej(p[0.409994458973243, 0.181791634390346, 0.329775045791868, -1.39, 0.799, -0.802], a = 0.2, v = 0.2, t = 0.2)
movej(p[0.409997916982745, 0.181796855147967, 0.329540989547644, -1.39, 0.799, -0.802], a = 0.2, v = 0.2, t = 0.2)
movej(p[0.410004645583363, 0.181807013706799, 0.329085562519772, -1.39, 0.799, -0.802], a = 0.2, v = 0.2, t = 0.2)
movej(p[0.410014776366731, 0.181822308738364, 0.328399857895507, -1.39, 0.799, -0.802], a = 0.2, v = 0.2, t = 0.2)
movej(p[0.410027244341537, 0.181841132363478, 0.327555959879903, -1.39, 0.799, -0.802], a = 0.2, v = 0.2, t = 0.2)
movej(p[0.410039114172563, 0.181859052936215, 0.326752547376773, -1.39, 0.799, -0.802], a = 0.2, v = 0.2, t = 0.2)
movej(p[0.410047697905041, 0.181872012295272, 0.32617155528169, -1.39, 0.799, -0.802], a = 0.2, v = 0.2, t = 0.2)
movej(p[0.410052234936385, 0.181878862114788, 0.325864465172244, -1.39, 0.799, -0.802], a = 0.2, v = 0.2, t = 0.2)
movej(p[0.410051238030084, 0.181877357027492, 0.325931941026371, -1.39, 0.799, -0.802], a = 0.2, v = 0.2, t = 0.2)
movej(p[0.410044143011016, 0.181866645265463, 0.326412169179292, -1.39, 0.799, -0.802], a = 0.2, v = 0.2, t = 0.2)
movej(p[0.410030081463026, 0.181845415730434, 0.327363928597271, -1.39, 0.799, -0.802], a = 0.2, v = 0.2, t = 0.2)
movej(p[0.410015790995811, 0.181823840582767, 0.328331182470641, -1.39, 0.799, -0.802], a = 0.2, v = 0.2, t = 0.2)
movej(p[0.410005113612411, 0.181807720317412, 0.329053883855813, -1.39, 0.799, -0.802], a = 0.2, v = 0.2, t = 0.2)
movej(p[0.409998977174135, 0.181798455780434, 0.329469230226333, -1.39, 0.799, -0.802], a = 0.2, v = 0.2, t = 0.2)
movej(p[0.40999624099864, 0.181794324817503, 0.329654428953958, -1.39, 0.799, -0.802], a = 0.2, v = 0.2, t = 0.2)
movej(p[0.409995919330207, 0.181793839176002, 0.32967620116289, -1.39, 0.799, -0.802], a = 0.2, v = 0.2, t = 0.2)
movej(p[0.409997729268981, 0.181796571745604, 0.329553695001065, -1.39, 0.799, -0.802], a = 0.2, v = 0.2, t = 0.2)
movej(p[0.410002176357223, 0.181803285772799, 0.329252692713125, -1.39, 0.799, -0.802], a = 0.2, v = 0.2, t = 0.2)
movej(p[0.410012528675324, 0.181818915268207, 0.328551993454611, -1.39, 0.799, -0.802], a = 0.2, v = 0.2, t = 0.2)
movej(p[0.410027324094041, 0.181841252770462, 0.327550561811572, -1.39, 0.799, -0.802], a = 0.2, v = 0.2, t = 0.2)
movej(p[0.410040862820061, 0.18186169297082, 0.326634189730425, -1.39, 0.799, -0.802], a = 0.2, v = 0.2, t = 0.2)
movej(p[0.410051853896643, 0.181878286836977, 0.325890255943155, -1.39, 0.799, -0.802], a = 0.2, v = 0.2, t = 0.2)
movej(p[0.410060331292449, 0.181891085653389, 0.325316461272512, -1.39, 0.799, -0.802], a = 0.2, v = 0.2, t = 0.2)
movej(p[0.41006488752347, 0.181897964459771, 0.325008071628098, -1.39, 0.799, -0.802], a = 0.2, v = 0.2, t = 0.2)
movej(p[0.410059313709572, 0.181889549349468, 0.325385336625834, -1.39, 0.799, -0.802], a = 0.2, v = 0.2, t = 0.2)
movej(p[0.410044528481452, 0.181867227232551, 0.326386078515697, -1.39, 0.799, -0.802], a = 0.2, v = 0.2, t = 0.2)
movej(p[0.410025309604864, 0.181838211379244, 0.327686913019022, -1.39, 0.799, -0.802], a = 0.2, v = 0.2, t = 0.2)
movej(p[0.410009631296388, 0.181814540927086, 0.328748103277758, -1.39, 0.799, -0.802], a = 0.2, v = 0.2, t = 0.2)
movej(p[0.409998798528526, 0.181798186068791, 0.329481321899393, -1.39, 0.799, -0.802], a = 0.2, v = 0.2, t = 0.2)
movej(p[0.409994429287589, 0.18179158957219, 0.329777055072857, -1.39, 0.799, -0.802], a = 0.2, v = 0.2, t = 0.2)
movej(p[0.409994233155505, 0.181791293460201, 0.32979033032238, -1.39, 0.799, -0.802], a = 0.2, v = 0.2, t = 0.2)
movej(p[0.409994445681159, 0.181791614322515, 0.329775945469923, -1.39, 0.799, -0.802], a = 0.2, v = 0.2, t = 0.2)
movej(p[0.409998794068293, 0.181798179334919, 0.329481623791362, -1.39, 0.799, -0.802], a = 0.2, v = 0.2, t = 0.2)
movej(p[0.410007112298777, 0.181810737850209, 0.328918602265607, -1.39, 0.799, -0.802], a = 0.2, v = 0.2, t = 0.2)
movej(p[0.410019415304052, 0.181829312411247, 0.328085870254307, -1.39, 0.799, -0.802], a = 0.2, v = 0.2, t = 0.2)
movej(p[0.410032475515047, 0.181849030169703, 0.32720188658314, -1.39, 0.799, -0.802], a = 0.2, v = 0.2, t = 0.2)
movej(p[0.410044853399062, 0.181867717779521, 0.326364086385463, -1.39, 0.799, -0.802], a = 0.2, v = 0.2, t = 0.2)
movej(p[0.410056986117972, 0.181886035249352, 0.32554288024969, -1.39, 0.799, -0.802], a = 0.2, v = 0.2, t = 0.2)
movej(p[0.410060885129283, 0.181891921812998, 0.325278974686886, -1.39, 0.799, -0.802], a = 0.2, v = 0.2, t = 0.2)
movej(p[0.410058526522819, 0.181888360887944, 0.325438617559537, -1.39, 0.799, -0.802], a = 0.2, v = 0.2, t = 0.2)
movej(p[0.410048493953184, 0.18187321413535, 0.326117674562617, -1.39, 0.799, -0.802], a = 0.2, v = 0.2, t = 0.2)
movej(p[0.410033478328941, 0.181850544176035, 0.3271340108721, -1.39, 0.799, -0.802], a = 0.2, v = 0.2, t = 0.2)
movej(p[0.410016907530868, 0.181825526280539, 0.32825560951402, -1.39, 0.799, -0.802], a = 0.2, v = 0.2, t = 0.2)
movej(p[0.410005028986142, 0.181807592552224, 0.329059611806096, -1.39, 0.799, -0.802], a = 0.2, v = 0.2, t = 0.2)
movej(p[0.409999190261011, 0.181798777490057, 0.329454807387469, -1.39, 0.799, -0.802], a = 0.2, v = 0.2, t = 0.2)
movej(p[0.40999621633444, 0.181794287580528, 0.329656098356572, -1.39, 0.799, -0.802], a = 0.2, v = 0.2, t = 0.2)
movej(p[0.409996172322873, 0.181794221133711, 0.329659077290576, -1.39, 0.799, -0.802], a = 0.2, v = 0.2, t = 0.2)
movej(p[0.410000557588155, 0.181800841823197, 0.329362259505234, -1.39, 0.799, -0.802], a = 0.2, v = 0.2, t = 0.2)
movej(p[0.410009664231218, 0.18181459065071, 0.328745874075466, -1.39, 0.799, -0.802], a = 0.2, v = 0.2, t = 0.2)
movej(p[0.410022333654943, 0.181833718414946, 0.327888340939117, -1.39, 0.799, -0.802], a = 0.2, v = 0.2, t = 0.2)
movej(p[0.410037217835244, 0.181856189925714, 0.326880901445956, -1.39, 0.799, -0.802], a = 0.2, v = 0.2, t = 0.2)
movej(p[0.410052234936385, 0.181878862114788, 0.325864465172244, -1.39, 0.799, -0.802], a = 0.2, v = 0.2, t = 0.2)
movej(p[0.41006173582266, 0.181893206154157, 0.325221395291365, -1.39, 0.799, -0.802], a = 0.2, v = 0.2, t = 0.2)
movej(p[0.410065934644311, 0.181899545358872, 0.324937196990208, -1.39, 0.799, -0.802], a = 0.2, v = 0.2, t = 0.2)
movej(p[0.410062740113452, 0.181894722390248, 0.325153419616097, -1.39, 0.799, -0.802], a = 0.2, v = 0.2, t = 0.2)
movej(p[0.41005183174317, 0.181878253390592, 0.32589175540658, -1.39, 0.799, -0.802], a = 0.2, v = 0.2, t = 0.2)
movej(p[0.410035260945097, 0.181853235495096, 0.3270133540485, -1.39, 0.799, -0.802], a = 0.2, v = 0.2, t = 0.2)
movej(p[0.410018037358009, 0.181827232046141, 0.328179136879344, -1.39, 0.799, -0.802], a = 0.2, v = 0.2, t = 0.2)
movej(p[0.41000755078986, 0.181811399865643, 0.328888922886214, -1.39, 0.799, -0.802], a = 0.2, v = 0.2, t = 0.2)
movej(p[0.409999723066814, 0.181799581897898, 0.329418744292455, -1.39, 0.799, -0.802], a = 0.2, v = 0.2, t = 0.2)
movej(p[0.409996969552534, 0.181795424757596, 0.329605116600121, -1.39, 0.799, -0.802], a = 0.2, v = 0.2, t = 0.2)
movej(p[0.409996406411241, 0.181794574550506, 0.329643232960385, -1.39, 0.799, -0.802], a = 0.2, v = 0.2, t = 0.2)
movej(p[0.410001030948805, 0.18180155648324, 0.329330219970411, -1.39, 0.799, -0.802], a = 0.2, v = 0.2, t = 0.2)
movej(p[0.410010149835354, 0.181815323795455, 0.32871300583719, -1.39, 0.799, -0.802], a = 0.2, v = 0.2, t = 0.2)
movej(p[0.410024718845574, 0.181837319475662, 0.327726898710356, -1.39, 0.799, -0.802], a = 0.2, v = 0.2, t = 0.2)
movej(p[0.410041285212953, 0.181862330681881, 0.326605599961121, -1.39, 0.799, -0.802], a = 0.2, v = 0.2, t = 0.2)
movej(p[0.410053314548987, 0.181880492068585, 0.325791391321332, -1.39, 0.799, -0.802], a = 0.2, v = 0.2, t = 0.2)
movej(p[0.410062604238816, 0.181894517252424, 0.325162616325104, -1.39, 0.799, -0.802], a = 0.2, v = 0.2, t = 0.2)
movej(p[0.41006694927339, 0.181901077203275, 0.324868521565342, -1.39, 0.799, -0.802], a = 0.2, v = 0.2, t = 0.2)
movej(p[0.410066535741888, 0.181900452870767, 0.324896511549276, -1.39, 0.799, -0.802], a = 0.2, v = 0.2, t = 0.2)
movej(p[0.4100548003086, 0.181882735206096, 0.325690827307626, -1.39, 0.799, -0.802], a = 0.2, v = 0.2, t = 0.2)
movej(p[0.410038651903419, 0.181858355021661, 0.326783836180242, -1.39, 0.799, -0.802], a = 0.2, v = 0.2, t = 0.2)
movej(p[0.410022648234264, 0.181834193353604, 0.327867048558481, -1.39, 0.799, -0.802], a = 0.2, v = 0.2, t = 0.2)
movej(p[0.410009568232834, 0.181814445716378, 0.328752371750308, -1.39, 0.799, -0.802], a = 0.2, v = 0.2, t = 0.2)
movej(p[0.410001142809077, 0.181801725365183, 0.329322648679757, -1.39, 0.799, -0.802], a = 0.2, v = 0.2, t = 0.2)
movej(p[0.409997387514732, 0.181796055779381, 0.329576826723502, -1.39, 0.799, -0.802], a = 0.2, v = 0.2, t = 0.2)
movej(p[0.40999807058016, 0.181797087042899, 0.329530593267897, -1.39, 0.799, -0.802], a = 0.2, v = 0.2, t = 0.2)
movej(p[0.41000001643197, 0.181800024808298, 0.329398887797996, -1.39, 0.799, -0.802], a = 0.2, v = 0.2, t = 0.2)
movej(p[0.410005966668825, 0.181809008226186, 0.328996144517526, -1.39, 0.799, -0.802], a = 0.2, v = 0.2, t = 0.2)
movej(p[0.410017114296619, 0.181825838446793, 0.328241614522053, -1.39, 0.799, -0.802], a = 0.2, v = 0.2, t = 0.2)
movej(p[0.410028933913106, 0.181843683207725, 0.327441600802687, -1.39, 0.799, -0.802], a = 0.2, v = 0.2, t = 0.2)
movej(p[0.410040428611983, 0.181861037421686, 0.326663579213555, -1.39, 0.799, -0.802], a = 0.2, v = 0.2, t = 0.2)
movej(p[0.410049165941876, 0.181874228675675, 0.326072190838725, -1.39, 0.799, -0.802], a = 0.2, v = 0.2, t = 0.2)
movej(p[0.410057043717002, 0.181886122209951, 0.325538981644785, -1.39, 0.799, -0.802], a = 0.2, v = 0.2, t = 0.2)
movej(p[0.410056918180653, 0.18188593268044, 0.325547478604194, -1.39, 0.799, -0.802], a = 0.2, v = 0.2, t = 0.2)
movej(p[0.410048864654638, 0.181873773804848, 0.326092583541305, -1.39, 0.799, -0.802], a = 0.2, v = 0.2, t = 0.2)
movej(p[0.410035153131527, 0.181853072722692, 0.327020651437168, -1.39, 0.799, -0.802], a = 0.2, v = 0.2, t = 0.2)
movej(p[0.410021366286606, 0.18183225792283, 0.327953817508676, -1.39, 0.799, -0.802], a = 0.2, v = 0.2, t = 0.2)
movej(p[0.410008034769408, 0.181812130557653, 0.328856164608589, -1.39, 0.799, -0.802], a = 0.2, v = 0.2, t = 0.2)
movej(p[0.410000025996363, 0.181800039248217, 0.329398240429653, -1.39, 0.799, -0.802], a = 0.2, v = 0.2, t = 0.2)
movej(p[0.409996604167914, 0.18179487311523, 0.329629847750211, -1.39, 0.799, -0.802], a = 0.2, v = 0.2, t = 0.2)
movej(p[0.409995741807041, 0.181793571158975, 0.329688216863136, -1.39, 0.799, -0.802], a = 0.2, v = 0.2, t = 0.2)
movej(p[0.409995339204585, 0.181792963326684, 0.32971546711178, -1.39, 0.799, -0.802], a = 0.2, v = 0.2, t = 0.2)
movej(p[0.409996719070595, 0.181795046590477, 0.329622070533246, -1.39, 0.799, -0.802], a = 0.2, v = 0.2, t = 0.2)
movej(p[0.410001976385203, 0.181802983863436, 0.329266227869642, -1.39, 0.799, -0.802], a = 0.2, v = 0.2, t = 0.2)
movej(p[0.410010388059038, 0.181815683455575, 0.328696881607159, -1.39, 0.799, -0.802], a = 0.2, v = 0.2, t = 0.2)
movej(p[0.410021434223924, 0.181832360491742, 0.327949219154173, -1.39, 0.799, -0.802], a = 0.2, v = 0.2, t = 0.2)
movej(p[0.410035003964806, 0.181852847517038, 0.32703074782423, -1.39, 0.799, -0.802], a = 0.2, v = 0.2, t = 0.2)
movej(p[0.410045058687915, 0.181868027716016, 0.326350191357725, -1.39, 0.799, -0.802], a = 0.2, v = 0.2, t = 0.2)
movej(p[0.41005241364107, 0.181879131915621, 0.325852369500616, -1.39, 0.799, -0.802], a = 0.2, v = 0.2, t = 0.2)
movej(p[0.410055108980329, 0.181883201225718, 0.325669934783904, -1.39, 0.799, -0.802], a = 0.2, v = 0.2, t = 0.2)
movej(p[0.410055405836872, 0.181883649407268, 0.325649841974009, -1.39, 0.799, -0.802], a = 0.2, v = 0.2, t = 0.2)
movej(p[0.410046003902778, 0.181869454761749, 0.32628621425159, -1.39, 0.799, -0.802], a = 0.2, v = 0.2, t = 0.2)
movej(p[0.410030924771912, 0.181846688922799, 0.327306849022891, -1.39, 0.799, -0.802], a = 0.2, v = 0.2, t = 0.2)
movej(p[0.410015584230059, 0.181823528416513, 0.328345177462608, -1.39, 0.799, -0.802], a = 0.2, v = 0.2, t = 0.2)
movej(p[0.410005926054124, 0.181808946907815, 0.328998893533805, -1.39, 0.799, -0.802], a = 0.2, v = 0.2, t = 0.2)
movej(p[0.409999790487218, 0.181799683686394, 0.329414180925432, -1.39, 0.799, -0.802], a = 0.2, v = 0.2, t = 0.2)
movej(p[0.409996549670369, 0.181794790837125, 0.329633536430236, -1.39, 0.799, -0.802], a = 0.2, v = 0.2, t = 0.2)
movej(p[0.40999710601793, 0.181795630787324, 0.329595879905423, -1.39, 0.799, -0.802], a = 0.2, v = 0.2, t = 0.2)
movej(p[0.409998818437114, 0.181798216125942, 0.329479974381595, -1.39, 0.799, -0.802], a = 0.2, v = 0.2, t = 0.2)
movej(p[0.41000622852288, 0.181809403562449, 0.328978420859842, -1.39, 0.799, -0.802], a = 0.2, v = 0.2, t = 0.2)
movej(p[0.410017566227476, 0.181826520753033, 0.328211025468182, -1.39, 0.799, -0.802], a = 0.2, v = 0.2, t = 0.2)
movej(p[0.410032109244287, 0.181848477189482, 0.327226677711767, -1.39, 0.799, -0.802], a = 0.2, v = 0.2, t = 0.2)
movej(p[0.410044332053989, 0.181866930674609, 0.326399373758066, -1.39, 0.799, -0.802], a = 0.2, v = 0.2, t = 0.2)
movej(p[0.410055519558035, 0.181883821098708, 0.325642144728427, -1.39, 0.799, -0.802], a = 0.2, v = 0.2, t = 0.2)
movej(p[0.41006400581523, 0.181896633293674, 0.325067750272414, -1.39, 0.799, -0.802], a = 0.2, v = 0.2, t = 0.2)
movej(p[0.410064951030093, 0.181898060339407, 0.325003773166279, -1.39, 0.799, -0.802], a = 0.2, v = 0.2, t = 0.2)
movej(p[0.410057368634612, 0.181886612756922, 0.325516989514552, -1.39, 0.799, -0.802], a = 0.2, v = 0.2, t = 0.2)
