def moving():
set_payload_mass(0)
set_tcp(p[0,0,0,0,0,0])
movej(p[-0.2741, -0.2689, 0.406, -0.162999999999999, -2.146, 2.175], a = 0.2, v = 0.2, t = 0.2)
movej(p[-0.274106615311929, -0.268894190341192, 0.406399903095153, -0.162999999999999, -2.146, 2.175], a = 0.2, v = 0.2, t = 0.2)
movej(p[-0.2741, -0.2689, 0.406, -0.162999999999999, -2.146, 2.175], a = 0.2, v = 0.2, t = 0.2)
movej(p[-0.274106615311929, -0.268894190341192, 0.406399903095153, -0.162999999999999, -2.146, 2.175], a = 0.2, v = 0.2, t = 0.2)
movej(p[-0.2741, -0.2689, 0.406, -0.162999999999999, -2.146, 2.175], a = 0.2, v = 0.2, t = 0.2)
movej(p[-0.274106615311929, -0.268894190341192, 0.406399903095153, -0.162999999999999, -2.146, 2.175], a = 0.2, v = 0.2, t = 0.2)
movej(p[-0.2741, -0.2689, 0.406, -0.162999999999999, -2.146, 2.175], a = 0.2, v = 0.2, t = 0.2)
movej(p[-0.274106615311929, -0.268894190341192, 0.406399903095153, -0.162999999999999, -2.146, 2.175], a = 0.2, v = 0.2, t = 0.2)
movej(p[-0.2741, -0.2689, 0.406, -0.162999999999999, -2.146, 2.175], a = 0.2, v = 0.2, t = 0.2)
movej(p[-0.274106615311929, -0.268894190341192, 0.406399903095153, -0.162999999999999, -2.146, 2.175], a = 0.2, v = 0.2, t = 0.2)
movej(p[-0.2741, -0.2689, 0.406, -0.162999999999999, -2.146, 2.175], a = 0.2, v = 0.2, t = 0.2)
movej(p[-0.274102217783324, -0.268898052311885, 0.40613406751265, -0.162999999999999, -2.146, 2.175], a = 0.2, v = 0.2, t = 0.2)
movej(p[-0.274104437220476, -0.268896103171355, 0.406268235001074, -0.162999999999999, -2.146, 2.175], a = 0.2, v = 0.2, t = 0.2)
movej(p[-0.274104587718823, -0.268895971001617, 0.406277332796488, -0.162999999999999, -2.146, 2.175], a = 0.2, v = 0.2, t = 0.2)
movej(p[-0.274106241546805, -0.268894518586915, 0.406377308570276, -0.162999999999999, -2.146, 2.175], a = 0.2, v = 0.2, t = 0.2)
movej(p[-0.274095007093322, -0.268904384839985, 0.405698173138934, -0.162999999999999, -2.146, 2.175], a = 0.2, v = 0.2, t = 0.2)
movej(p[-0.274096660921304, -0.268902932425283, 0.405798148912722, -0.162999999999999, -2.146, 2.175], a = 0.2, v = 0.2, t = 0.2)
movej(p[-0.274098246942339, -0.268901539559584, 0.405894025679785, -0.162999999999999, -2.146, 2.175], a = 0.2, v = 0.2, t = 0.2)
movej(p[-0.274099900770321, -0.268900087144882, 0.405994001453573, -0.162999999999999, -2.146, 2.175], a = 0.2, v = 0.2, t = 0.2)
movej(p[-0.274098246942339, -0.268901539559584, 0.405894025679785, -0.162999999999999, -2.146, 2.175], a = 0.2, v = 0.2, t = 0.2)
movej(p[-0.274102968621228, -0.26889739291561, 0.40617945651395, -0.162999999999999, -2.146, 2.175], a = 0.2, v = 0.2, t = 0.2)
movej(p[-0.274113900424191, -0.26888779245443, 0.406840296378689, -0.162999999999999, -2.146, 2.175], a = 0.2, v = 0.2, t = 0.2)
movej(p[-0.274116430781004, -0.268885570259936, 0.406993259312585, -0.162999999999999, -2.146, 2.175], a = 0.2, v = 0.2, t = 0.2)
movej(p[-0.274116678855201, -0.268885352397731, 0.407008255678654, -0.162999999999999, -2.146, 2.175], a = 0.2, v = 0.2, t = 0.2)
movej(p[-0.274116692085825, -0.268885340778413, 0.407009055484844, -0.162999999999999, -2.146, 2.175], a = 0.2, v = 0.2, t = 0.2)
movej(p[-0.274120939116084, -0.268881610977459, 0.407265793271932, -0.162999999999999, -2.146, 2.175], a = 0.2, v = 0.2, t = 0.2)
movej(p[-0.274122033950208, -0.268880649478926, 0.40733197723418, -0.162999999999999, -2.146, 2.175], a = 0.2, v = 0.2, t = 0.2)
movej(p[-0.27412368777819, -0.268879197064224, 0.407431953007968, -0.162999999999999, -2.146, 2.175], a = 0.2, v = 0.2, t = 0.2)
movej(p[-0.274121183882625, -0.268881396020083, 0.407280589686452, -0.162999999999999, -2.146, 2.175], a = 0.2, v = 0.2, t = 0.2)
movej(p[-0.274111669410243, -0.268889751761863, 0.406705429059849, -0.162999999999999, -2.146, 2.175], a = 0.2, v = 0.2, t = 0.2)
movej(p[-0.274084356441116, -0.268913738390665, 0.405054329155738, -0.162999999999999, -2.146, 2.175], a = 0.2, v = 0.2, t = 0.2)
movej(p[-0.274058692338487, -0.26893627696201, 0.403502905098094, -0.162999999999999, -2.146, 2.175], a = 0.2, v = 0.2, t = 0.2)
movej(p[-0.27402504355436, -0.268965827791535, 0.4014687980046, -0.162999999999999, -2.146, 2.175], a = 0.2, v = 0.2, t = 0.2)
movej(p[-0.273955147822345, -0.269027211194083, 0.397243521876991, -0.162999999999999, -2.146, 2.175], a = 0.2, v = 0.2, t = 0.2)
movej(p[-0.273915665986924, -0.269061884690262, 0.394856800229347, -0.162999999999999, -2.146, 2.175], a = 0.2, v = 0.2, t = 0.2)
movej(p[-0.273917319814907, -0.26906043227556, 0.394956776003135, -0.162999999999999, -2.146, 2.175], a = 0.2, v = 0.2, t = 0.2)
movej(p[-0.273929817792969, -0.269049456377657, 0.395712292925652, -0.162999999999999, -2.146, 2.175], a = 0.2, v = 0.2, t = 0.2)
movej(p[-0.273967189343884, -0.269016636162638, 0.397971445485943, -0.162999999999999, -2.146, 2.175], a = 0.2, v = 0.2, t = 0.2)
movej(p[-0.274005695420795, -0.268982819591133, 0.400299181427052, -0.162999999999999, -2.146, 2.175], a = 0.2, v = 0.2, t = 0.2)
movej(p[-0.274039865160737, -0.268952811250977, 0.402364780889289, -0.162999999999999, -2.146, 2.175], a = 0.2, v = 0.2, t = 0.2)
movej(p[-0.274070260865223, -0.26892611732117, 0.404202235635742, -0.162999999999999, -2.146, 2.175], a = 0.2, v = 0.2, t = 0.2)
movej(p[-0.274082353655429, -0.26891549726487, 0.404933258493681, -0.162999999999999, -2.146, 2.175], a = 0.2, v = 0.2, t = 0.2)
movej(p[-0.274091972318974, -0.268907050020963, 0.405514717594032, -0.162999999999999, -2.146, 2.175], a = 0.2, v = 0.2, t = 0.2)
movej(p[-0.274102710624063, -0.268897619492304, 0.406163860293239, -0.162999999999999, -2.146, 2.175], a = 0.2, v = 0.2, t = 0.2)
movej(p[-0.274110192541855, -0.268891048768192, 0.406616150693856, -0.162999999999999, -2.146, 2.175], a = 0.2, v = 0.2, t = 0.2)
movej(p[-0.274113807809824, -0.268887873789654, 0.406834697735357, -0.162999999999999, -2.146, 2.175], a = 0.2, v = 0.2, t = 0.2)
movej(p[-0.274116487011155, -0.268885520877837, 0.406996658488894, -0.162999999999999, -2.146, 2.175], a = 0.2, v = 0.2, t = 0.2)
movej(p[-0.274118140839137, -0.268884068463135, 0.407096634262682, -0.162999999999999, -2.146, 2.175], a = 0.2, v = 0.2, t = 0.2)
movej(p[-0.274111639641339, -0.268889777905328, 0.406703629495921, -0.162999999999999, -2.146, 2.175], a = 0.2, v = 0.2, t = 0.2)
movej(p[-0.274092043433577, -0.268906987567131, 0.405519016552305, -0.162999999999999, -2.146, 2.175], a = 0.2, v = 0.2, t = 0.2)
movej(p[-0.274066270178302, -0.268929621997846, 0.403960994093591, -0.162999999999999, -2.146, 2.175], a = 0.2, v = 0.2, t = 0.2)
movej(p[-0.274052743519235, -0.268941501297693, 0.403143292239778, -0.162999999999999, -2.146, 2.175], a = 0.2, v = 0.2, t = 0.2)
movej(p[-0.274010542790611, -0.268978562563642, 0.400592210420025, -0.162999999999999, -2.146, 2.175], a = 0.2, v = 0.2, t = 0.2)
movej(p[-0.273972804089884, -0.269011705214725, 0.398310863237954, -0.162999999999999, -2.146, 2.175], a = 0.2, v = 0.2, t = 0.2)
movej(p[-0.273930442939946, -0.2690489073649, 0.395750083768144, -0.162999999999999, -2.146, 2.175], a = 0.2, v = 0.2, t = 0.2)
movej(p[-0.273932096767928, -0.269047454950198, 0.395850059541932, -0.162999999999999, -2.146, 2.175], a = 0.2, v = 0.2, t = 0.2)
movej(p[-0.273946174151713, -0.269035091996255, 0.396701053328417, -0.162999999999999, -2.146, 2.175], a = 0.2, v = 0.2, t = 0.2)
movej(p[-0.273997408088776, -0.268990097641204, 0.3997982028246, -0.162999999999999, -2.146, 2.175], a = 0.2, v = 0.2, t = 0.2)
movej(p[-0.274027856715757, -0.268963357234127, 0.401638856795814, -0.162999999999999, -2.146, 2.175], a = 0.2, v = 0.2, t = 0.2)
movej(p[-0.274053701085636, -0.26894066034958, 0.403201178212801, -0.162999999999999, -2.146, 2.175], a = 0.2, v = 0.2, t = 0.2)
movej(p[-0.274072195843962, -0.268924417995969, 0.404319207291074, -0.162999999999999, -2.146, 2.175], a = 0.2, v = 0.2, t = 0.2)
movej(p[-0.274089794227521, -0.268908962851126, 0.405383049499953, -0.162999999999999, -2.146, 2.175], a = 0.2, v = 0.2, t = 0.2)
movej(p[-0.274098033598529, -0.268901726921081, 0.405881128804966, -0.162999999999999, -2.146, 2.175], a = 0.2, v = 0.2, t = 0.2)
movej(p[-0.274104165992687, -0.268896341367366, 0.406251838974172, -0.162999999999999, -2.146, 2.175], a = 0.2, v = 0.2, t = 0.2)
movej(p[-0.274108284024363, -0.268892724854758, 0.406500778650905, -0.162999999999999, -2.146, 2.175], a = 0.2, v = 0.2, t = 0.2)
movej(p[-0.274108697481359, -0.268892361751083, 0.406525772594352, -0.162999999999999, -2.146, 2.175], a = 0.2, v = 0.2, t = 0.2)
movej(p[-0.274109545895114, -0.26889161666234, 0.406577060166305, -0.162999999999999, -2.146, 2.175], a = 0.2, v = 0.2, t = 0.2)
movej(p[-0.274111199723096, -0.268890164247639, 0.406677035940093, -0.162999999999999, -2.146, 2.175], a = 0.2, v = 0.2, t = 0.2)
movej(p[-0.274095342820402, -0.268904089999801, 0.405718468221013, -0.162999999999999, -2.146, 2.175], a = 0.2, v = 0.2, t = 0.2)
movej(p[-0.274051615608551, -0.268942491844519, 0.403075108762054, -0.162999999999999, -2.146, 2.175], a = 0.2, v = 0.2, t = 0.2)
movej(p[-0.274019301463605, -0.26897087057538, 0.401121682118007, -0.162999999999999, -2.146, 2.175], a = 0.2, v = 0.2, t = 0.2)
movej(p[-0.273980416660086, -0.269005019749852, 0.398771051724701, -0.162999999999999, -2.146, 2.175], a = 0.2, v = 0.2, t = 0.2)
movej(p[-0.273940170756138, -0.269040364261623, 0.396338141269566, -0.162999999999999, -2.146, 2.175], a = 0.2, v = 0.2, t = 0.2)
movej(p[-0.273911387533934, -0.269065642087096, 0.394598162902557, -0.162999999999999, -2.146, 2.175], a = 0.2, v = 0.2, t = 0.2)
movej(p[-0.273913041361916, -0.269064189672394, 0.394698138676345, -0.162999999999999, -2.146, 2.175], a = 0.2, v = 0.2, t = 0.2)
movej(p[-0.273929536642212, -0.269049703288157, 0.395695297044108, -0.162999999999999, -2.146, 2.175], a = 0.2, v = 0.2, t = 0.2)
movej(p[-0.273972665168333, -0.26901182721756, 0.398302465272955, -0.162999999999999, -2.146, 2.175], a = 0.2, v = 0.2, t = 0.2)
movej(p[-0.274018496049378, -0.26897157790134, 0.401072993916173, -0.162999999999999, -2.146, 2.175], a = 0.2, v = 0.2, t = 0.2)
movej(p[-0.274058336765471, -0.268936589231171, 0.403481410306729, -0.162999999999999, -2.146, 2.175], a = 0.2, v = 0.2, t = 0.2)
movej(p[-0.274073456060885, -0.268923311255966, 0.4043953888307, -0.162999999999999, -2.146, 2.175], a = 0.2, v = 0.2, t = 0.2)
movej(p[-0.274087490445142, -0.268910986064805, 0.405243783247067, -0.162999999999999, -2.146, 2.175], a = 0.2, v = 0.2, t = 0.2)
movej(p[-0.274096717151455, -0.268902883043183, 0.405801548089031, -0.162999999999999, -2.146, 2.175], a = 0.2, v = 0.2, t = 0.2)
movej(p[-0.274102183052937, -0.268898082812593, 0.4061319680214, -0.162999999999999, -2.146, 2.175], a = 0.2, v = 0.2, t = 0.2)
movej(p[-0.274111346913786, -0.26889003498273, 0.406685933783961, -0.162999999999999, -2.146, 2.175], a = 0.2, v = 0.2, t = 0.2)
movej(p[-0.274113000741769, -0.268888582568028, 0.406785909557749, -0.162999999999999, -2.146, 2.175], a = 0.2, v = 0.2, t = 0.2)
movej(p[-0.274107824260184, -0.268893128626045, 0.406472985385792, -0.162999999999999, -2.146, 2.175], a = 0.2, v = 0.2, t = 0.2)
movej(p[-0.274099950385161, -0.268900043572441, 0.405997000726786, -0.162999999999999, -2.146, 2.175], a = 0.2, v = 0.2, t = 0.2)
movej(p[-0.274090086955074, -0.268908705773723, 0.405400745211914, -0.162999999999999, -2.146, 2.175], a = 0.2, v = 0.2, t = 0.2)
movej(p[-0.274055101877937, -0.268939430154328, 0.403285857693199, -0.162999999999999, -2.146, 2.175], a = 0.2, v = 0.2, t = 0.2)
movej(p[-0.274024044642258, -0.268966705050015, 0.401408412637232, -0.162999999999999, -2.146, 2.175], a = 0.2, v = 0.2, t = 0.2)
movej(p[-0.273987281700041, -0.268998990776424, 0.399186051161695, -0.162999999999999, -2.146, 2.175], a = 0.2, v = 0.2, t = 0.2)
movej(p[-0.273946443725674, -0.269034855252659, 0.396717349379544, -0.162999999999999, -2.146, 2.175], a = 0.2, v = 0.2, t = 0.2)
movej(p[-0.273929164530916, -0.269050030081465, 0.395672802495006, -0.162999999999999, -2.146, 2.175], a = 0.2, v = 0.2, t = 0.2)
movej(p[-0.273930818358898, -0.269048577666763, 0.395772778268794, -0.162999999999999, -2.146, 2.175], a = 0.2, v = 0.2, t = 0.2)
movej(p[-0.27398121711283, -0.269004316781136, 0.398819439999214, -0.162999999999999, -2.146, 2.175], a = 0.2, v = 0.2, t = 0.2)
movej(p[-0.274013496527387, -0.268975968550984, 0.400770767152011, -0.162999999999999, -2.146, 2.175], a = 0.2, v = 0.2, t = 0.2)
movej(p[-0.274045941324744, -0.268947475079362, 0.402732091882187, -0.162999999999999, -2.146, 2.175], a = 0.2, v = 0.2, t = 0.2)
movej(p[-0.274068335809452, -0.268927807931883, 0.404085863835052, -0.162999999999999, -2.146, 2.175], a = 0.2, v = 0.2, t = 0.2)
movej(p[-0.274082752227973, -0.268915147232926, 0.404957352655163, -0.162999999999999, -2.146, 2.175], a = 0.2, v = 0.2, t = 0.2)
movej(p[-0.274101184140835, -0.268898960071073, 0.406071582654032, -0.162999999999999, -2.146, 2.175], a = 0.2, v = 0.2, t = 0.2)
movej(p[-0.274106054664243, -0.268894682709776, 0.406366011307838, -0.162999999999999, -2.146, 2.175], a = 0.2, v = 0.2, t = 0.2)
movej(p[-0.274108115333909, -0.268892873001058, 0.406490581121978, -0.162999999999999, -2.146, 2.175], a = 0.2, v = 0.2, t = 0.2)
movej(p[-0.274109307743884, -0.268891825810058, 0.40656266365488, -0.162999999999999, -2.146, 2.175], a = 0.2, v = 0.2, t = 0.2)
movej(p[-0.274110961571866, -0.268890373395356, 0.406662639428668, -0.162999999999999, -2.146, 2.175], a = 0.2, v = 0.2, t = 0.2)
movej(p[-0.274109168822334, -0.268891947812893, 0.406554265689882, -0.162999999999999, -2.146, 2.175], a = 0.2, v = 0.2, t = 0.2)
movej(p[-0.274089964571804, -0.268908813252411, 0.405393347004654, -0.162999999999999, -2.146, 2.175], a = 0.2, v = 0.2, t = 0.2)
movej(p[-0.27405990294057, -0.268935213794448, 0.403576087364506, -0.162999999999999, -2.146, 2.175], a = 0.2, v = 0.2, t = 0.2)
movej(p[-0.274031650597149, -0.268960025394801, 0.401868201220884, -0.162999999999999, -2.146, 2.175], a = 0.2, v = 0.2, t = 0.2)
movej(p[-0.273995163844204, -0.268992068567955, 0.399662535699569, -0.162999999999999, -2.146, 2.175], a = 0.2, v = 0.2, t = 0.2)
movej(p[-0.273955768007838, -0.269026666538569, 0.397281012792162, -0.162999999999999, -2.146, 2.175], a = 0.2, v = 0.2, t = 0.2)
movej(p[-0.273950746986084, -0.269031076069605, 0.396977486342941, -0.162999999999999, -2.146, 2.175], a = 0.2, v = 0.2, t = 0.2)
movej(p[-0.273952400814066, -0.269029623654903, 0.397077462116729, -0.162999999999999, -2.146, 2.175], a = 0.2, v = 0.2, t = 0.2)
movej(p[-0.273981617339201, -0.269003965296778, 0.398843634136471, -0.162999999999999, -2.146, 2.175], a = 0.2, v = 0.2, t = 0.2)
movej(p[-0.274013132685231, -0.268976288082219, 0.400748772481778, -0.162999999999999, -2.146, 2.175], a = 0.2, v = 0.2, t = 0.2)
movej(p[-0.274043999730692, -0.268949180214222, 0.40261472032376, -0.162999999999999, -2.146, 2.175], a = 0.2, v = 0.2, t = 0.2)
movej(p[-0.274078379506788, -0.268918987417398, 0.404693016709268, -0.162999999999999, -2.146, 2.175], a = 0.2, v = 0.2, t = 0.2)
movej(p[-0.274087998170333, -0.268910540173492, 0.405274475809619, -0.162999999999999, -2.146, 2.175], a = 0.2, v = 0.2, t = 0.2)
movej(p[-0.274095916698712, -0.268903586011899, 0.405753159814517, -0.162999999999999, -2.146, 2.175], a = 0.2, v = 0.2, t = 0.2)
movej(p[-0.274102523741501, -0.268897783615165, 0.406152563030801, -0.162999999999999, -2.146, 2.175], a = 0.2, v = 0.2, t = 0.2)
movej(p[-0.274108189756168, -0.268892807642396, 0.406495080031799, -0.162999999999999, -2.146, 2.175], a = 0.2, v = 0.2, t = 0.2)
movej(p[-0.274113372853065, -0.26888825577472, 0.406808404106851, -0.162999999999999, -2.146, 2.175], a = 0.2, v = 0.2, t = 0.2)
movej(p[-0.274113452236808, -0.268888186058815, 0.406813202943993, -0.162999999999999, -2.146, 2.175], a = 0.2, v = 0.2, t = 0.2)
movej(p[-0.274113372853065, -0.26888825577472, 0.406808404106851, -0.162999999999999, -2.146, 2.175], a = 0.2, v = 0.2, t = 0.2)
movej(p[-0.274109069592655, -0.268892034957775, 0.406548267143454, -0.162999999999999, -2.146, 2.175], a = 0.2, v = 0.2, t = 0.2)
movej(p[-0.274091266134426, -0.268907670202041, 0.405472027938625, -0.162999999999999, -2.146, 2.175], a = 0.2, v = 0.2, t = 0.2)
movej(p[-0.274076145185184, -0.268920949629661, 0.40455794943888, -0.162999999999999, -2.146, 2.175], a = 0.2, v = 0.2, t = 0.2)
movej(p[-0.274044490917603, -0.268948748847055, 0.402644413128575, -0.162999999999999, -2.146, 2.175], a = 0.2, v = 0.2, t = 0.2)
movej(p[-0.274018320743612, -0.268971731857299, 0.401062396484151, -0.162999999999999, -2.146, 2.175], a = 0.2, v = 0.2, t = 0.2)
movej(p[-0.274011991543924, -0.268977290248363, 0.400679789197864, -0.162999999999999, -2.146, 2.175], a = 0.2, v = 0.2, t = 0.2)
movej(p[-0.273987989538417, -0.268998369142932, 0.399228840792876, -0.162999999999999, -2.146, 2.175], a = 0.2, v = 0.2, t = 0.2)
movej(p[-0.273946625646752, -0.269034695487042, 0.396728346714661, -0.162999999999999, -2.146, 2.175], a = 0.2, v = 0.2, t = 0.2)
movej(p[-0.273948279474735, -0.26903324307234, 0.396828322488449, -0.162999999999999, -2.146, 2.175], a = 0.2, v = 0.2, t = 0.2)
movej(p[-0.273996108179982, -0.26899123923916, 0.399719621866402, -0.162999999999999, -2.146, 2.175], a = 0.2, v = 0.2, t = 0.2)
movej(p[-0.274030532609433, -0.26896100722714, 0.401800617597803, -0.162999999999999, -2.146, 2.175], a = 0.2, v = 0.2, t = 0.2)
movej(p[-0.27405900160432, -0.268936005360461, 0.403521600567792, -0.162999999999999, -2.146, 2.175], a = 0.2, v = 0.2, t = 0.2)
movej(p[-0.274077651822476, -0.268919626479867, 0.404649027368801, -0.162999999999999, -2.146, 2.175], a = 0.2, v = 0.2, t = 0.2)
movej(p[-0.274094125603007, -0.268905158977021, 0.405644886051505, -0.162999999999999, -2.146, 2.175], a = 0.2, v = 0.2, t = 0.2)
movej(p[-0.274099004395555, -0.268900874353651, 0.40593981458418, -0.162999999999999, -2.146, 2.175], a = 0.2, v = 0.2, t = 0.2)
movej(p[-0.274102505549393, -0.268897799591727, 0.406151463297289, -0.162999999999999, -2.146, 2.175], a = 0.2, v = 0.2, t = 0.2)
movej(p[-0.274103588806722, -0.268896848260097, 0.40621694742912, -0.162999999999999, -2.146, 2.175], a = 0.2, v = 0.2, t = 0.2)
movej(p[-0.274104041955589, -0.268896450298468, 0.406244340791138, -0.162999999999999, -2.146, 2.175], a = 0.2, v = 0.2, t = 0.2)
movej(p[-0.274113192585815, -0.268888414087923, 0.406797506747508, -0.162999999999999, -2.146, 2.175], a = 0.2, v = 0.2, t = 0.2)
movej(p[-0.274114846413797, -0.268886961673221, 0.406897482521296, -0.162999999999999, -2.146, 2.175], a = 0.2, v = 0.2, t = 0.2)
movej(p[-0.274104346259937, -0.268896183054163, 0.406262736333515, -0.162999999999999, -2.146, 2.175], a = 0.2, v = 0.2, t = 0.2)
movej(p[-0.274085117201988, -0.268913070279903, 0.405100318011681, -0.162999999999999, -2.146, 2.175], a = 0.2, v = 0.2, t = 0.2)
movej(p[-0.274059949247753, -0.268935173126836, 0.403578886686172, -0.162999999999999, -2.146, 2.175], a = 0.2, v = 0.2, t = 0.2)
movej(p[-0.274038654558654, -0.268953874418538, 0.402291598622876, -0.162999999999999, -2.146, 2.175], a = 0.2, v = 0.2, t = 0.2)
movej(p[-0.274031941670874, -0.268959769769814, 0.40188579695707, -0.162999999999999, -2.146, 2.175], a = 0.2, v = 0.2, t = 0.2)
movej(p[-0.274024529213857, -0.268966279492508, 0.401437705538952, -0.162999999999999, -2.146, 2.175], a = 0.2, v = 0.2, t = 0.2)
movej(p[-0.273992684756059, -0.268994245737593, 0.399512672014661, -0.162999999999999, -2.146, 2.175], a = 0.2, v = 0.2, t = 0.2)
movej(p[-0.273988384803305, -0.268998022015818, 0.399252735002812, -0.162999999999999, -2.146, 2.175], a = 0.2, v = 0.2, t = 0.2)
movej(p[-0.273990038631287, -0.268996569601116, 0.3993527107766, -0.162999999999999, -2.146, 2.175], a = 0.2, v = 0.2, t = 0.2)
movej(p[-0.274044687723133, -0.268948576009706, 0.402656310245655, -0.162999999999999, -2.146, 2.175], a = 0.2, v = 0.2, t = 0.2)
movej(p[-0.274065100921918, -0.26893064885504, 0.403890311221523, -0.162999999999999, -2.146, 2.175], a = 0.2, v = 0.2, t = 0.2)
movej(p[-0.274080972709064, -0.268916710031146, 0.404849778722567, -0.162999999999999, -2.146, 2.175], a = 0.2, v = 0.2, t = 0.2)
movej(p[-0.274091562169634, -0.268907410219809, 0.405489923602133, -0.162999999999999, -2.146, 2.175], a = 0.2, v = 0.2, t = 0.2)
movej(p[-0.27409663942154, -0.268902951306674, 0.405796849227663, -0.162999999999999, -2.146, 2.175], a = 0.2, v = 0.2, t = 0.2)
movej(p[-0.274106931193074, -0.268893912929984, 0.406418998467946, -0.162999999999999, -2.146, 2.175], a = 0.2, v = 0.2, t = 0.2)
movej(p[-0.274110586152915, -0.268890703093493, 0.406639944928018, -0.162999999999999, -2.146, 2.175], a = 0.2, v = 0.2, t = 0.2)
movej(p[-0.274111312183399, -0.268890065483439, 0.406683834292711, -0.162999999999999, -2.146, 2.175], a = 0.2, v = 0.2, t = 0.2)
movej(p[-0.274111667756415, -0.268889753214278, 0.406705329084075, -0.162999999999999, -2.146, 2.175], a = 0.2, v = 0.2, t = 0.2)
movej(p[-0.274112590592429, -0.268888942766874, 0.406761115565849, -0.162999999999999, -2.146, 2.175], a = 0.2, v = 0.2, t = 0.2)
movej(p[-0.274113166124567, -0.268888437326558, 0.406795907135127, -0.162999999999999, -2.146, 2.175], a = 0.2, v = 0.2, t = 0.2)
movej(p[-0.274115966055341, -0.268885978388468, 0.406965166120151, -0.162999999999999, -2.146, 2.175], a = 0.2, v = 0.2, t = 0.2)
movej(p[-0.274117619883323, -0.268884525973766, 0.407065141893939, -0.162999999999999, -2.146, 2.175], a = 0.2, v = 0.2, t = 0.2)
movej(p[-0.274098648822538, -0.268901186622811, 0.405918319792815, -0.162999999999999, -2.146, 2.175], a = 0.2, v = 0.2, t = 0.2)
movej(p[-0.274077119289865, -0.268920094157401, 0.404616835169641, -0.162999999999999, -2.146, 2.175], a = 0.2, v = 0.2, t = 0.2)
movej(p[-0.27405918187157, -0.268935847047258, 0.403532497927135, -0.162999999999999, -2.146, 2.175], a = 0.2, v = 0.2, t = 0.2)
movej(p[-0.274038896017539, -0.268953662365992, 0.402306195085849, -0.162999999999999, -2.146, 2.175], a = 0.2, v = 0.2, t = 0.2)
movej(p[-0.274024211678885, -0.26896655835613, 0.401418510190384, -0.162999999999999, -2.146, 2.175], a = 0.2, v = 0.2, t = 0.2)
movej(p[-0.273996372792459, -0.268991006852808, 0.399735617990209, -0.162999999999999, -2.146, 2.175], a = 0.2, v = 0.2, t = 0.2)
movej(p[-0.273990734892868, -0.268995958134527, 0.399394800577365, -0.162999999999999, -2.146, 2.175], a = 0.2, v = 0.2, t = 0.2)
movej(p[-0.27399238872085, -0.268994505719825, 0.399494776351153, -0.162999999999999, -2.146, 2.175], a = 0.2, v = 0.2, t = 0.2)
movej(p[-0.273999878907781, -0.26898792773364, 0.399947566630639, -0.162999999999999, -2.146, 2.175], a = 0.2, v = 0.2, t = 0.2)
movej(p[-0.274027989021996, -0.268963241040951, 0.401646854857717, -0.162999999999999, -2.146, 2.175], a = 0.2, v = 0.2, t = 0.2)
movej(p[-0.274063713360241, -0.268931867430975, 0.403806431547314, -0.162999999999999, -2.146, 2.175], a = 0.2, v = 0.2, t = 0.2)
movej(p[-0.274076022801913, -0.268921057108348, 0.404550551231619, -0.162999999999999, -2.146, 2.175], a = 0.2, v = 0.2, t = 0.2)
movej(p[-0.274081306782316, -0.268916416643376, 0.404869973828873, -0.162999999999999, -2.146, 2.175], a = 0.2, v = 0.2, t = 0.2)
movej(p[-0.274082960610299, -0.268914964228674, 0.404969949602661, -0.162999999999999, -2.146, 2.175], a = 0.2, v = 0.2, t = 0.2)
movej(p[-0.27404128083749, -0.268951567983992, 0.402450360151652, -0.162999999999999, -2.146, 2.175], a = 0.2, v = 0.2, t = 0.2)
movej(p[-0.274040143003838, -0.268952567245307, 0.402381576819286, -0.162999999999999, -2.146, 2.175], a = 0.2, v = 0.2, t = 0.2)
movej(p[-0.274039003516358, -0.268953567959036, 0.402312693511146, -0.162999999999999, -2.146, 2.175], a = 0.2, v = 0.2, t = 0.2)
movej(p[-0.274037864028878, -0.268954568672766, 0.402243810203006, -0.162999999999999, -2.146, 2.175], a = 0.2, v = 0.2, t = 0.2)
movej(p[-0.274036726195226, -0.268955567934081, 0.402175026870639, -0.162999999999999, -2.146, 2.175], a = 0.2, v = 0.2, t = 0.2)
movej(p[-0.274035586707747, -0.268956568647811, 0.402106143562499, -0.162999999999999, -2.146, 2.175], a = 0.2, v = 0.2, t = 0.2)
movej(p[-0.274034447220267, -0.26895756936154, 0.402037260254359, -0.162999999999999, -2.146, 2.175], a = 0.2, v = 0.2, t = 0.2)
movej(p[-0.274033307732787, -0.26895857007527, 0.401968376946219, -0.162999999999999, -2.146, 2.175], a = 0.2, v = 0.2, t = 0.2)
movej(p[-0.274032169899135, -0.268959569336585, 0.401899593613853, -0.162999999999999, -2.146, 2.175], a = 0.2, v = 0.2, t = 0.2)
movej(p[-0.274031030411655, -0.268960570050314, 0.401830710305713, -0.162999999999999, -2.146, 2.175], a = 0.2, v = 0.2, t = 0.2)
movej(p[-0.274029890924176, -0.268961570764044, 0.401761826997573, -0.162999999999999, -2.146, 2.175], a = 0.2, v = 0.2, t = 0.2)
movej(p[-0.274028751436696, -0.268962571477774, 0.401692943689433, -0.162999999999999, -2.146, 2.175], a = 0.2, v = 0.2, t = 0.2)
movej(p[-0.274027613603044, -0.268963570739089, 0.401624160357067, -0.162999999999999, -2.146, 2.175], a = 0.2, v = 0.2, t = 0.2)
movej(p[-0.274026474115564, -0.268964571452818, 0.401555277048927, -0.162999999999999, -2.146, 2.175], a = 0.2, v = 0.2, t = 0.2)
movej(p[-0.274025334628085, -0.268965572166548, 0.401486393740787, -0.162999999999999, -2.146, 2.175], a = 0.2, v = 0.2, t = 0.2)
movej(p[-0.274024195140605, -0.268966572880277, 0.401417510432647, -0.162999999999999, -2.146, 2.175], a = 0.2, v = 0.2, t = 0.2)
movej(p[-0.274023057306953, -0.268967572141592, 0.40134872710028, -0.162999999999999, -2.146, 2.175], a = 0.2, v = 0.2, t = 0.2)
movej(p[-0.274021917819473, -0.268968572855322, 0.40127984379214, -0.162999999999999, -2.146, 2.175], a = 0.2, v = 0.2, t = 0.2)
movej(p[-0.274020778331993, -0.268969573569052, 0.401210960484, -0.162999999999999, -2.146, 2.175], a = 0.2, v = 0.2, t = 0.2)
movej(p[-0.274019640498342, -0.268970572830366, 0.401142177151634, -0.162999999999999, -2.146, 2.175], a = 0.2, v = 0.2, t = 0.2)
movej(p[-0.274018501010862, -0.268971573544096, 0.401073293843494, -0.162999999999999, -2.146, 2.175], a = 0.2, v = 0.2, t = 0.2)
movej(p[-0.274017361523382, -0.268972574257826, 0.401004410535354, -0.162999999999999, -2.146, 2.175], a = 0.2, v = 0.2, t = 0.2)
movej(p[-0.274016222035902, -0.268973574971555, 0.400935527227214, -0.162999999999999, -2.146, 2.175], a = 0.2, v = 0.2, t = 0.2)
movej(p[-0.27401508420225, -0.26897457423287, 0.400866743894848, -0.162999999999999, -2.146, 2.175], a = 0.2, v = 0.2, t = 0.2)
movej(p[-0.274016738030233, -0.268973121818168, 0.400966719668636, -0.162999999999999, -2.146, 2.175], a = 0.2, v = 0.2, t = 0.2)
movej(p[-0.274019585922018, -0.268970620760052, 0.401138877951099, -0.162999999999999, -2.146, 2.175], a = 0.2, v = 0.2, t = 0.2)
movej(p[-0.274044376803472, -0.26894884906367, 0.402637514800183, -0.162999999999999, -2.146, 2.175], a = 0.2, v = 0.2, t = 0.2)
movej(p[-0.274057996076906, -0.268936888428599, 0.403460815297329, -0.162999999999999, -2.146, 2.175], a = 0.2, v = 0.2, t = 0.2)
movej(p[-0.274074375589243, -0.268922503713392, 0.404450975360927, -0.162999999999999, -2.146, 2.175], a = 0.2, v = 0.2, t = 0.2)
movej(p[-0.274085626581006, -0.268912622936174, 0.405131110550007, -0.162999999999999, -2.146, 2.175], a = 0.2, v = 0.2, t = 0.2)
movej(p[-0.274094335639161, -0.268904974520354, 0.405657582974776, -0.162999999999999, -2.146, 2.175], a = 0.2, v = 0.2, t = 0.2)
movej(p[-0.274109441703951, -0.268891708164467, 0.406570761692557, -0.162999999999999, -2.146, 2.175], a = 0.2, v = 0.2, t = 0.2)
movej(p[-0.274112253211521, -0.268889239059473, 0.406740720507996, -0.162999999999999, -2.146, 2.175], a = 0.2, v = 0.2, t = 0.2)
movej(p[-0.274115051488467, -0.268886781573798, 0.406909879517246, -0.162999999999999, -2.146, 2.175], a = 0.2, v = 0.2, t = 0.2)
movej(p[-0.274116705316449, -0.268885329159096, 0.407009855291034, -0.162999999999999, -2.146, 2.175], a = 0.2, v = 0.2, t = 0.2)
movej(p[-0.274111676025555, -0.268889745952204, 0.406705828962944, -0.162999999999999, -2.146, 2.175], a = 0.2, v = 0.2, t = 0.2)
movej(p[-0.274104329721658, -0.26889619757831, 0.406261736575777, -0.162999999999999, -2.146, 2.175], a = 0.2, v = 0.2, t = 0.2)
movej(p[-0.274085322276657, -0.26891289018048, 0.40511271500763, -0.162999999999999, -2.146, 2.175], a = 0.2, v = 0.2, t = 0.2)
movej(p[-0.274056727590844, -0.268938002430676, 0.403384133878833, -0.162999999999999, -2.146, 2.175], a = 0.2, v = 0.2, t = 0.2)
movej(p[-0.274032892621964, -0.26895893463136, 0.401943283026998, -0.162999999999999, -2.146, 2.175], a = 0.2, v = 0.2, t = 0.2)
movej(p[-0.274004301243806, -0.268984043976727, 0.400214901849749, -0.162999999999999, -2.146, 2.175], a = 0.2, v = 0.2, t = 0.2)
movej(p[-0.273986486208781, -0.268999689387896, 0.399137962814503, -0.162999999999999, -2.146, 2.175], a = 0.2, v = 0.2, t = 0.2)
movej(p[-0.273984065004615, -0.26900181572302, 0.398991598281677, -0.162999999999999, -2.146, 2.175], a = 0.2, v = 0.2, t = 0.2)
movej(p[-0.273985718832597, -0.269000363308318, 0.399091574055465, -0.162999999999999, -2.146, 2.175], a = 0.2, v = 0.2, t = 0.2)
movej(p[-0.274004112707416, -0.268984209552003, 0.400203504611537, -0.162999999999999, -2.146, 2.175], a = 0.2, v = 0.2, t = 0.2)
movej(p[-0.274021952549861, -0.268968542354613, 0.40128194328339, -0.162999999999999, -2.146, 2.175], a = 0.2, v = 0.2, t = 0.2)
movej(p[-0.274037796221931, -0.268954628221769, 0.40223971119628, -0.162999999999999, -2.146, 2.175], a = 0.2, v = 0.2, t = 0.2)
movej(p[-0.274059678019964, -0.268935411322848, 0.403562490659271, -0.162999999999999, -2.146, 2.175], a = 0.2, v = 0.2, t = 0.2)
movej(p[-0.274063121289823, -0.268932387395438, 0.403770640220298, -0.162999999999999, -2.146, 2.175], a = 0.2, v = 0.2, t = 0.2)
movej(p[-0.274072132998499, -0.268924473187727, 0.40431540821167, -0.162999999999999, -2.146, 2.175], a = 0.2, v = 0.2, t = 0.2)
movej(p[-0.274084073636531, -0.26891398675358, 0.40503723329842, -0.162999999999999, -2.146, 2.175], a = 0.2, v = 0.2, t = 0.2)
movej(p[-0.274091067675068, -0.268907844491805, 0.40546003084577, -0.162999999999999, -2.146, 2.175], a = 0.2, v = 0.2, t = 0.2)
movej(p[-0.274102207860356, -0.268898061026373, 0.406133467658007, -0.162999999999999, -2.146, 2.175], a = 0.2, v = 0.2, t = 0.2)
movej(p[-0.274111097185761, -0.26889025429735, 0.406670837442119, -0.162999999999999, -2.146, 2.175], a = 0.2, v = 0.2, t = 0.2)
movej(p[-0.274117087350713, -0.2688849936513, 0.407032949694779, -0.162999999999999, -2.146, 2.175], a = 0.2, v = 0.2, t = 0.2)
movej(p[-0.274118741178695, -0.268883541236598, 0.407132925468567, -0.162999999999999, -2.146, 2.175], a = 0.2, v = 0.2, t = 0.2)
movej(p[-0.274107301650542, -0.268893587589091, 0.406441393041275, -0.162999999999999, -2.146, 2.175], a = 0.2, v = 0.2, t = 0.2)
movej(p[-0.274095099707689, -0.268904303504762, 0.405703771782266, -0.162999999999999, -2.146, 2.175], a = 0.2, v = 0.2, t = 0.2)
movej(p[-0.274086003653786, -0.268912291785622, 0.405153905026431, -0.162999999999999, -2.146, 2.175], a = 0.2, v = 0.2, t = 0.2)
movej(p[-0.274057934885271, -0.268936942167943, 0.403457116193699, -0.162999999999999, -2.146, 2.175], a = 0.2, v = 0.2, t = 0.2)
movej(p[-0.274036349122446, -0.268955899084633, 0.402152232394216, -0.162999999999999, -2.146, 2.175], a = 0.2, v = 0.2, t = 0.2)
movej(p[-0.273996723403991, -0.268990698940891, 0.399756812854252, -0.162999999999999, -2.146, 2.175], a = 0.2, v = 0.2, t = 0.2)
movej(p[-0.273962436242263, -0.269020810402491, 0.397684115112076, -0.162999999999999, -2.146, 2.175], a = 0.2, v = 0.2, t = 0.2)
movej(p[-0.273964090070245, -0.269019357987789, 0.397784090885864, -0.162999999999999, -2.146, 2.175], a = 0.2, v = 0.2, t = 0.2)
movej(p[-0.273993291710928, -0.268993712701397, 0.399549363123641, -0.162999999999999, -2.146, 2.175], a = 0.2, v = 0.2, t = 0.2)
movej(p[-0.274012431462167, -0.268976903906052, 0.400706382753691, -0.162999999999999, -2.146, 2.175], a = 0.2, v = 0.2, t = 0.2)
movej(p[-0.274028098174643, -0.268963145181581, 0.401653453258787, -0.162999999999999, -2.146, 2.175], a = 0.2, v = 0.2, t = 0.2)
movej(p[-0.274045082988021, -0.268948228882592, 0.402680204455591, -0.162999999999999, -2.146, 2.175], a = 0.2, v = 0.2, t = 0.2)
movej(p[-0.274064421198617, -0.268931245797482, 0.403849221178496, -0.162999999999999, -2.146, 2.175], a = 0.2, v = 0.2, t = 0.2)
movej(p[-0.274080334331463, -0.268917270663221, 0.404811188073885, -0.162999999999999, -2.146, 2.175], a = 0.2, v = 0.2, t = 0.2)
movej(p[-0.274088173476099, -0.268910386217533, 0.405285073241641, -0.162999999999999, -2.146, 2.175], a = 0.2, v = 0.2, t = 0.2)
movej(p[-0.274097150454387, -0.268902502510531, 0.405827741741763, -0.162999999999999, -2.146, 2.175], a = 0.2, v = 0.2, t = 0.2)
movej(p[-0.274103266310265, -0.268897131480964, 0.406197452153232, -0.162999999999999, -2.146, 2.175], a = 0.2, v = 0.2, t = 0.2)
movej(p[-0.274105771859658, -0.26889493107269, 0.406348915450521, -0.162999999999999, -2.146, 2.175], a = 0.2, v = 0.2, t = 0.2)
movej(p[-0.2741208514632, -0.268881687955438, 0.407260494555921, -0.162999999999999, -2.146, 2.175], a = 0.2, v = 0.2, t = 0.2)
movej(p[-0.274122505291183, -0.268880235540736, 0.407360470329709, -0.162999999999999, -2.146, 2.175], a = 0.2, v = 0.2, t = 0.2)
movej(p[-0.274115557559829, -0.268886337134899, 0.406940472104025, -0.162999999999999, -2.146, 2.175], a = 0.2, v = 0.2, t = 0.2)
movej(p[-0.274103011620756, -0.268897355152828, 0.406182055884068, -0.162999999999999, -2.146, 2.175], a = 0.2, v = 0.2, t = 0.2)
movej(p[-0.274087599597789, -0.268910890205435, 0.405250381648136, -0.162999999999999, -2.146, 2.175], a = 0.2, v = 0.2, t = 0.2)
movej(p[-0.27406528780448, -0.268930484732179, 0.403901608483961, -0.162999999999999, -2.146, 2.175], a = 0.2, v = 0.2, t = 0.2)
movej(p[-0.274046971659577, -0.268946570225002, 0.402794376789257, -0.162999999999999, -2.146, 2.175], a = 0.2, v = 0.2, t = 0.2)
movej(p[-0.27402030533719, -0.268969988959656, 0.401182367412697, -0.162999999999999, -2.146, 2.175], a = 0.2, v = 0.2, t = 0.2)
movej(p[-0.273992272952891, -0.268994607388854, 0.399487778046988, -0.162999999999999, -2.146, 2.175], a = 0.2, v = 0.2, t = 0.2)
movej(p[-0.273982153179468, -0.269003494714415, 0.398876026287178, -0.162999999999999, -2.146, 2.175], a = 0.2, v = 0.2, t = 0.2)
movej(p[-0.27398380700745, -0.269002042299713, 0.398976002060966, -0.162999999999999, -2.146, 2.175], a = 0.2, v = 0.2, t = 0.2)
movej(p[-0.274012808534947, -0.2689765727555, 0.400729177230115, -0.162999999999999, -2.146, 2.175], a = 0.2, v = 0.2, t = 0.2)
movej(p[-0.274037572955153, -0.268954824297754, 0.402226214466819, -0.162999999999999, -2.146, 2.175], a = 0.2, v = 0.2, t = 0.2)
movej(p[-0.274050844924711, -0.268943168669771, 0.403028520051469, -0.162999999999999, -2.146, 2.175], a = 0.2, v = 0.2, t = 0.2)
movej(p[-0.274063404094408, -0.268932139032524, 0.403787736077616, -0.162999999999999, -2.146, 2.175], a = 0.2, v = 0.2, t = 0.2)
movej(p[-0.274073603251575, -0.268923181991057, 0.404404286674567, -0.162999999999999, -2.146, 2.175], a = 0.2, v = 0.2, t = 0.2)
movej(p[-0.274084544977506, -0.268913572815389, 0.40506572639395, -0.162999999999999, -2.146, 2.175], a = 0.2, v = 0.2, t = 0.2)
movej(p[-0.274094681289209, -0.268904670965681, 0.405678477911497, -0.162999999999999, -2.146, 2.175], a = 0.2, v = 0.2, t = 0.2)
movej(p[-0.274099204508741, -0.268900698611472, 0.405951911652808, -0.162999999999999, -2.146, 2.175], a = 0.2, v = 0.2, t = 0.2)
movej(p[-0.274101610828455, -0.26889858534808, 0.40609737640367, -0.162999999999999, -2.146, 2.175], a = 0.2, v = 0.2, t = 0.2)
movej(p[-0.274109112592182, -0.268891997194992, 0.406550866513573, -0.162999999999999, -2.146, 2.175], a = 0.2, v = 0.2, t = 0.2)
movej(p[-0.274115000219799, -0.268886826598654, 0.406906780268258, -0.162999999999999, -2.146, 2.175], a = 0.2, v = 0.2, t = 0.2)
movej(p[-0.274122282024405, -0.268880431616721, 0.407346973600248, -0.162999999999999, -2.146, 2.175], a = 0.2, v = 0.2, t = 0.2)
movej(p[-0.274123935852387, -0.268878979202019, 0.407446949374036, -0.162999999999999, -2.146, 2.175], a = 0.2, v = 0.2, t = 0.2)
movej(p[-0.274112641861096, -0.268888897742018, 0.406764214814837, -0.162999999999999, -2.146, 2.175], a = 0.2, v = 0.2, t = 0.2)
movej(p[-0.274090473950822, -0.268908365908683, 0.40542413954298, -0.162999999999999, -2.146, 2.175], a = 0.2, v = 0.2, t = 0.2)
movej(p[-0.274071755925719, -0.268924804338279, 0.404292613735246, -0.162999999999999, -2.146, 2.175], a = 0.2, v = 0.2, t = 0.2)
movej(p[-0.274061298771387, -0.26893398795644, 0.403660466917584, -0.162999999999999, -2.146, 2.175], a = 0.2, v = 0.2, t = 0.2)
movej(p[-0.274038687635213, -0.268953845370244, 0.402293598138352, -0.162999999999999, -2.146, 2.175], a = 0.2, v = 0.2, t = 0.2)
movej(p[-0.274011072015565, -0.268978097790937, 0.400624202667638, -0.162999999999999, -2.146, 2.175], a = 0.2, v = 0.2, t = 0.2)
movej(p[-0.273996414138159, -0.26899097054244, 0.399738117384553, -0.162999999999999, -2.146, 2.175], a = 0.2, v = 0.2, t = 0.2)
movej(p[-0.273998067966141, -0.268989518127738, 0.399838093158341, -0.162999999999999, -2.146, 2.175], a = 0.2, v = 0.2, t = 0.2)
movej(p[-0.274015563812365, -0.268974153032607, 0.400895736869246, -0.162999999999999, -2.146, 2.175], a = 0.2, v = 0.2, t = 0.2)
movej(p[-0.274040131427042, -0.26895257741221, 0.402380876988869, -0.162999999999999, -2.146, 2.175], a = 0.2, v = 0.2, t = 0.2)
movej(p[-0.274056175212298, -0.268938487537186, 0.403350741970388, -0.162999999999999, -2.146, 2.175], a = 0.2, v = 0.2, t = 0.2)
movej(p[-0.274068866688234, -0.268927341706764, 0.404117956058438, -0.162999999999999, -2.146, 2.175], a = 0.2, v = 0.2, t = 0.2)
movej(p[-0.274081081861711, -0.268916614171775, 0.404856377123637, -0.162999999999999, -2.146, 2.175], a = 0.2, v = 0.2, t = 0.2)
movej(p[-0.274085839924816, -0.268912435574678, 0.405144007424826, -0.162999999999999, -2.146, 2.175], a = 0.2, v = 0.2, t = 0.2)
movej(p[-0.274091502631827, -0.268907462506738, 0.405486324474277, -0.162999999999999, -2.146, 2.175], a = 0.2, v = 0.2, t = 0.2)
movej(p[-0.27409716368501, -0.268902490891214, 0.405828541547953, -0.162999999999999, -2.146, 2.175], a = 0.2, v = 0.2, t = 0.2)
movej(p[-0.274103826957951, -0.26889663911238, 0.406231343940546, -0.162999999999999, -2.146, 2.175], a = 0.2, v = 0.2, t = 0.2)
movej(p[-0.274110854073048, -0.268890467802311, 0.406656141003372, -0.162999999999999, -2.146, 2.175], a = 0.2, v = 0.2, t = 0.2)
movej(p[-0.274112056405991, -0.268889411896823, 0.406728823390916, -0.162999999999999, -2.146, 2.175], a = 0.2, v = 0.2, t = 0.2)
movej(p[-0.274116295167109, -0.268885689357942, 0.406985061299135, -0.162999999999999, -2.146, 2.175], a = 0.2, v = 0.2, t = 0.2)
movej(p[-0.274117948995092, -0.26888423694324, 0.407085037072923, -0.162999999999999, -2.146, 2.175], a = 0.2, v = 0.2, t = 0.2)
movej(p[-0.274108355138966, -0.268892662400926, 0.406505077609178, -0.162999999999999, -2.146, 2.175], a = 0.2, v = 0.2, t = 0.2)
movej(p[-0.274086006961442, -0.268912288880793, 0.405154104977978, -0.162999999999999, -2.146, 2.175], a = 0.2, v = 0.2, t = 0.2)
movej(p[-0.274063554592755, -0.268932006862786, 0.403796833873031, -0.162999999999999, -2.146, 2.175], a = 0.2, v = 0.2, t = 0.2)
movej(p[-0.274045281447379, -0.268948054592828, 0.402692201548445, -0.162999999999999, -2.146, 2.175], a = 0.2, v = 0.2, t = 0.2)
movej(p[-0.27402423152482, -0.268966540927154, 0.40141970989967, -0.162999999999999, -2.146, 2.175], a = 0.2, v = 0.2, t = 0.2)
movej(p[-0.274004749431189, -0.268983650372343, 0.400241995284445, -0.162999999999999, -2.146, 2.175], a = 0.2, v = 0.2, t = 0.2)
movej(p[-0.27398283124894, -0.269002899224387, 0.398917016354431, -0.162999999999999, -2.146, 2.175], a = 0.2, v = 0.2, t = 0.2)
movej(p[-0.273984485076923, -0.269001446809685, 0.399016992128219, -0.162999999999999, -2.146, 2.175], a = 0.2, v = 0.2, t = 0.2)
movej(p[-0.274005582960492, -0.268982918355333, 0.400292383074435, -0.162999999999999, -2.146, 2.175], a = 0.2, v = 0.2, t = 0.2)
movej(p[-0.274032229436943, -0.268959517049655, 0.401903192741709, -0.162999999999999, -2.146, 2.175], a = 0.2, v = 0.2, t = 0.2)
movej(p[-0.274056042906059, -0.268938603730362, 0.403342743908485, -0.162999999999999, -2.146, 2.175], a = 0.2, v = 0.2, t = 0.2)
movej(p[-0.274068896457138, -0.268927315563299, 0.404119755622366, -0.162999999999999, -2.146, 2.175], a = 0.2, v = 0.2, t = 0.2)
movej(p[-0.27408204935108, -0.268915764509175, 0.404914862951303, -0.162999999999999, -2.146, 2.175], a = 0.2, v = 0.2, t = 0.2)
movej(p[-0.274089835573221, -0.268908926540758, 0.405385548894298, -0.162999999999999, -2.146, 2.175], a = 0.2, v = 0.2, t = 0.2)
movej(p[-0.274098308133974, -0.26890148582024, 0.405897724783415, -0.162999999999999, -2.146, 2.175], a = 0.2, v = 0.2, t = 0.2)
movej(p[-0.274101848979684, -0.268898376200363, 0.406111772915095, -0.162999999999999, -2.146, 2.175], a = 0.2, v = 0.2, t = 0.2)
movej(p[-0.274108513906453, -0.268892522969114, 0.406514675283461, -0.162999999999999, -2.146, 2.175], a = 0.2, v = 0.2, t = 0.2)
movej(p[-0.274111150108256, -0.26889020782008, 0.40667403666688, -0.162999999999999, -2.146, 2.175], a = 0.2, v = 0.2, t = 0.2)
movej(p[-0.27411771249769, -0.268884444638542, 0.407070740537271, -0.162999999999999, -2.146, 2.175], a = 0.2, v = 0.2, t = 0.2)
movej(p[-0.274119366325672, -0.26888299222384, 0.407170716311059, -0.162999999999999, -2.146, 2.175], a = 0.2, v = 0.2, t = 0.2)
movej(p[-0.274113667234445, -0.268887997244903, 0.406826199794585, -0.162999999999999, -2.146, 2.175], a = 0.2, v = 0.2, t = 0.2)
movej(p[-0.274087872479406, -0.268910650557009, 0.405266877650812, -0.162999999999999, -2.146, 2.175], a = 0.2, v = 0.2, t = 0.2)
movej(p[-0.274063708398757, -0.268931871788219, 0.403806131619993, -0.162999999999999, -2.146, 2.175], a = 0.2, v = 0.2, t = 0.2)
movej(p[-0.274036807232798, -0.26895549676576, 0.402179925683555, -0.162999999999999, -2.146, 2.175], a = 0.2, v = 0.2, t = 0.2)
movej(p[-0.274013499835043, -0.268975965646155, 0.400770967103559, -0.162999999999999, -2.146, 2.175], a = 0.2, v = 0.2, t = 0.2)
movej(p[-0.273995478071521, -0.268991792609162, 0.399681531096589, -0.162999999999999, -2.146, 2.175], a = 0.2, v = 0.2, t = 0.2)
movej(p[-0.273997131899503, -0.26899034019446, 0.399781506870377, -0.162999999999999, -2.146, 2.175], a = 0.2, v = 0.2, t = 0.2)
movej(p[-0.27400133923789, -0.268986645251458, 0.400035845238894, -0.162999999999999, -2.146, 2.175], a = 0.2, v = 0.2, t = 0.2)
movej(p[-0.274019478423199, -0.268970715167007, 0.401132379525803, -0.162999999999999, -2.146, 2.175], a = 0.2, v = 0.2, t = 0.2)
movej(p[-0.274034857369606, -0.268957209162694, 0.402062054246259, -0.162999999999999, -2.146, 2.175], a = 0.2, v = 0.2, t = 0.2)
movej(p[-0.27405968132762, -0.268935408418018, 0.403562690610819, -0.162999999999999, -2.146, 2.175], a = 0.2, v = 0.2, t = 0.2)
movej(p[-0.274072820990939, -0.268923868983211, 0.404356998133566, -0.162999999999999, -2.146, 2.175], a = 0.2, v = 0.2, t = 0.2)
movej(p[-0.274080425292002, -0.268917190780412, 0.404816686741444, -0.162999999999999, -2.146, 2.175], a = 0.2, v = 0.2, t = 0.2)
movej(p[-0.274090237453421, -0.268908573603985, 0.405409843007329, -0.162999999999999, -2.146, 2.175], a = 0.2, v = 0.2, t = 0.2)
movej(p[-0.274098162597112, -0.268901613632734, 0.405888926915321, -0.162999999999999, -2.146, 2.175], a = 0.2, v = 0.2, t = 0.2)
movej(p[-0.274109886583678, -0.268891317464912, 0.406597655175706, -0.162999999999999, -2.146, 2.175], a = 0.2, v = 0.2, t = 0.2)
movej(p[-0.274112952780757, -0.268888624688055, 0.406783010260309, -0.162999999999999, -2.146, 2.175], a = 0.2, v = 0.2, t = 0.2)
movej(p[-0.274116166168527, -0.268885802646289, 0.406977263188779, -0.162999999999999, -2.146, 2.175], a = 0.2, v = 0.2, t = 0.2)
movej(p[-0.274117819996509, -0.268884350231587, 0.407077238962567, -0.162999999999999, -2.146, 2.175], a = 0.2, v = 0.2, t = 0.2)
movej(p[-0.274113351353301, -0.268888274656111, 0.406807104421792, -0.162999999999999, -2.146, 2.175], a = 0.2, v = 0.2, t = 0.2)
movej(p[-0.274099545197305, -0.268900399414043, 0.405972506662208, -0.162999999999999, -2.146, 2.175], a = 0.2, v = 0.2, t = 0.2)
movej(p[-0.274086003653786, -0.268912291785622, 0.405153905026431, -0.162999999999999, -2.146, 2.175], a = 0.2, v = 0.2, t = 0.2)
movej(p[-0.274060764584949, -0.268934457086388, 0.40362817474265, -0.162999999999999, -2.146, 2.175], a = 0.2, v = 0.2, t = 0.2)
movej(p[-0.274035069059588, -0.268957023253612, 0.402074851145304, -0.162999999999999, -2.146, 2.175], a = 0.2, v = 0.2, t = 0.2)
movej(p[-0.274005586268148, -0.268982915450503, 0.400292583025982, -0.162999999999999, -2.146, 2.175], a = 0.2, v = 0.2, t = 0.2)
movej(p[-0.273963747727853, -0.269019658637633, 0.39776339590069, -0.162999999999999, -2.146, 2.175], a = 0.2, v = 0.2, t = 0.2)
movej(p[-0.273965401555835, -0.269018206222931, 0.397863371674478, -0.162999999999999, -2.146, 2.175], a = 0.2, v = 0.2, t = 0.2)
movej(p[-0.273983494433961, -0.269002316806092, 0.39895710663972, -0.162999999999999, -2.146, 2.175], a = 0.2, v = 0.2, t = 0.2)
movej(p[-0.274003327139125, -0.268984899448986, 0.400156016118988, -0.162999999999999, -2.146, 2.175], a = 0.2, v = 0.2, t = 0.2)
movej(p[-0.274021443170842, -0.268968989698341, 0.401251150745063, -0.162999999999999, -2.146, 2.175], a = 0.2, v = 0.2, t = 0.2)
movej(p[-0.274036327622683, -0.268955917966024, 0.402150932709156, -0.162999999999999, -2.146, 2.175], a = 0.2, v = 0.2, t = 0.2)
movej(p[-0.274045352561982, -0.268947992138996, 0.402696500506718, -0.162999999999999, -2.146, 2.175], a = 0.2, v = 0.2, t = 0.2)
movej(p[-0.274066556290543, -0.268929370730102, 0.403978289902456, -0.162999999999999, -2.146, 2.175], a = 0.2, v = 0.2, t = 0.2)
movej(p[-0.274077180481501, -0.268920040418057, 0.404620534273271, -0.162999999999999, -2.146, 2.175], a = 0.2, v = 0.2, t = 0.2)
movej(p[-0.274085581927651, -0.268912662151371, 0.405128411204115, -0.162999999999999, -2.146, 2.175], a = 0.2, v = 0.2, t = 0.2)
movej(p[-0.274089489923173, -0.268909230095431, 0.405364653957576, -0.162999999999999, -2.146, 2.175], a = 0.2, v = 0.2, t = 0.2)
movej(p[-0.274089491577001, -0.268909228643016, 0.40536475393335, -0.162999999999999, -2.146, 2.175], a = 0.2, v = 0.2, t = 0.2)
movej(p[-0.274099454236766, -0.268900479296852, 0.40596700799465, -0.162999999999999, -2.146, 2.175], a = 0.2, v = 0.2, t = 0.2)
movej(p[-0.274110930149135, -0.268890400991235, 0.406660739888966, -0.162999999999999, -2.146, 2.175], a = 0.2, v = 0.2, t = 0.2)
movej(p[-0.274112583977117, -0.268888948576533, 0.406760715662754, -0.162999999999999, -2.146, 2.175], a = 0.2, v = 0.2, t = 0.2)
movej(p[-0.274102917352561, -0.268897437940466, 0.406176357264962, -0.162999999999999, -2.146, 2.175], a = 0.2, v = 0.2, t = 0.2)
movej(p[-0.274084368017912, -0.268913728223763, 0.405055028986154, -0.162999999999999, -2.146, 2.175], a = 0.2, v = 0.2, t = 0.2)
movej(p[-0.274067742085206, -0.268928329348761, 0.404049972532262, -0.162999999999999, -2.146, 2.175], a = 0.2, v = 0.2, t = 0.2)
movej(p[-0.274045552675168, -0.268947816396817, 0.402708597575347, -0.162999999999999, -2.146, 2.175], a = 0.2, v = 0.2, t = 0.2)
movej(p[-0.274013776024316, -0.268975723092899, 0.400787663057781, -0.162999999999999, -2.146, 2.175], a = 0.2, v = 0.2, t = 0.2)
movej(p[-0.27397874133234, -0.269006491045945, 0.398669776265853, -0.162999999999999, -2.146, 2.175], a = 0.2, v = 0.2, t = 0.2)
movej(p[-0.273968254409104, -0.26901570080757, 0.398035829884262, -0.162999999999999, -2.146, 2.175], a = 0.2, v = 0.2, t = 0.2)
movej(p[-0.273969908237087, -0.269014248392868, 0.398135805658051, -0.162999999999999, -2.146, 2.175], a = 0.2, v = 0.2, t = 0.2)
movej(p[-0.273996586136269, -0.268990819491311, 0.399748514865027, -0.162999999999999, -2.146, 2.175], a = 0.2, v = 0.2, t = 0.2)
movej(p[-0.274014616168931, -0.268974985266231, 0.400838450750866, -0.162999999999999, -2.146, 2.175], a = 0.2, v = 0.2, t = 0.2)
movej(p[-0.274031205717422, -0.268960416094356, 0.401841307737734, -0.162999999999999, -2.146, 2.175], a = 0.2, v = 0.2, t = 0.2)
movej(p[-0.274046424242514, -0.268947050974269, 0.402761284808133, -0.162999999999999, -2.146, 2.175], a = 0.2, v = 0.2, t = 0.2)
movej(p[-0.274063500016431, -0.268932054792471, 0.403793534672496, -0.162999999999999, -2.146, 2.175], a = 0.2, v = 0.2, t = 0.2)
movej(p[-0.274079687684722, -0.268917838557369, 0.404772097546334, -0.162999999999999, -2.146, 2.175], a = 0.2, v = 0.2, t = 0.2)
movej(p[-0.27408318056942, -0.268914771057519, 0.404983246380575, -0.162999999999999, -2.146, 2.175], a = 0.2, v = 0.2, t = 0.2)
movej(p[-0.274086076422217, -0.268912227879375, 0.405158303960478, -0.162999999999999, -2.146, 2.175], a = 0.2, v = 0.2, t = 0.2)
movej(p[-0.274087879094718, -0.26891064474735, 0.405267277553907, -0.162999999999999, -2.146, 2.175], a = 0.2, v = 0.2, t = 0.2)
movej(p[-0.274095867083872, -0.26890362958434, 0.405750160541303, -0.162999999999999, -2.146, 2.175], a = 0.2, v = 0.2, t = 0.2)
movej(p[-0.274109312705368, -0.268891821452813, 0.406562963582201, -0.162999999999999, -2.146, 2.175], a = 0.2, v = 0.2, t = 0.2)
movej(p[-0.274113756541156, -0.268887918814509, 0.40683159848637, -0.162999999999999, -2.146, 2.175], a = 0.2, v = 0.2, t = 0.2)
movej(p[-0.274115410369139, -0.268886466399807, 0.406931574260158, -0.162999999999999, -2.146, 2.175], a = 0.2, v = 0.2, t = 0.2)
movej(p[-0.27410931932068, -0.268891815643155, 0.406563363485296, -0.162999999999999, -2.146, 2.175], a = 0.2, v = 0.2, t = 0.2)
movej(p[-0.274096697305519, -0.26890290047216, 0.405800348379745, -0.162999999999999, -2.146, 2.175], a = 0.2, v = 0.2, t = 0.2)
movej(p[-0.274082072504672, -0.268915744175369, 0.404916262612137, -0.162999999999999, -2.146, 2.175], a = 0.2, v = 0.2, t = 0.2)
movej(p[-0.274063930011707, -0.268931677164649, 0.403819528373681, -0.162999999999999, -2.146, 2.175], a = 0.2, v = 0.2, t = 0.2)
movej(p[-0.274038800095516, -0.268953746606045, 0.40230039649097, -0.162999999999999, -2.146, 2.175], a = 0.2, v = 0.2, t = 0.2)
movej(p[-0.274032060746488, -0.268959665195955, 0.401892995212783, -0.162999999999999, -2.146, 2.175], a = 0.2, v = 0.2, t = 0.2)
movej(p[-0.274013073147424, -0.268976340369148, 0.400745173353921, -0.162999999999999, -2.146, 2.175], a = 0.2, v = 0.2, t = 0.2)
movej(p[-0.274003146871874, -0.268985057762189, 0.400145118759645, -0.162999999999999, -2.146, 2.175], a = 0.2, v = 0.2, t = 0.2)
movej(p[-0.274004800699857, -0.268983605347487, 0.400245094533433, -0.162999999999999, -2.146, 2.175], a = 0.2, v = 0.2, t = 0.2)
movej(p[-0.274024307600908, -0.268966474116078, 0.401424308785264, -0.162999999999999, -2.146, 2.175], a = 0.2, v = 0.2, t = 0.2)
movej(p[-0.274037417495323, -0.268954960824735, 0.402216816744083, -0.162999999999999, -2.146, 2.175], a = 0.2, v = 0.2, t = 0.2)
movej(p[-0.2740570500873, -0.268937719209809, 0.403403629154722, -0.162999999999999, -2.146, 2.175], a = 0.2, v = 0.2, t = 0.2)
movej(p[-0.274068496230766, -0.268927667047657, 0.40409556148511, -0.162999999999999, -2.146, 2.175], a = 0.2, v = 0.2, t = 0.2)
movej(p[-0.274088464549824, -0.268910130592546, 0.405302668977828, -0.162999999999999, -2.146, 2.175], a = 0.2, v = 0.2, t = 0.2)
movej(p[-0.274097112416343, -0.26890253591607, 0.405825442298966, -0.162999999999999, -2.146, 2.175], a = 0.2, v = 0.2, t = 0.2)
movej(p[-0.274101554598303, -0.26889863473018, 0.406093977227361, -0.162999999999999, -2.146, 2.175], a = 0.2, v = 0.2, t = 0.2)
movej(p[-0.274107099883528, -0.268893764783685, 0.406429195996873, -0.162999999999999, -2.146, 2.175], a = 0.2, v = 0.2, t = 0.2)
movej(p[-0.274110490230892, -0.268890787333546, 0.406634146333138, -0.162999999999999, -2.146, 2.175], a = 0.2, v = 0.2, t = 0.2)
movej(p[-0.274117467731149, -0.268884659595918, 0.40705594412275, -0.162999999999999, -2.146, 2.175], a = 0.2, v = 0.2, t = 0.2)
movej(p[-0.274119121559131, -0.268883207181216, 0.407155919896539, -0.162999999999999, -2.146, 2.175], a = 0.2, v = 0.2, t = 0.2)
movej(p[-0.274093636069924, -0.268905588891773, 0.405615293222463, -0.162999999999999, -2.146, 2.175], a = 0.2, v = 0.2, t = 0.2)
movej(p[-0.274068466461862, -0.268927693191122, 0.404093761921181, -0.162999999999999, -2.146, 2.175], a = 0.2, v = 0.2, t = 0.2)
movej(p[-0.274040199233989, -0.268952517863207, 0.402384975995594, -0.162999999999999, -2.146, 2.175], a = 0.2, v = 0.2, t = 0.2)
movej(p[-0.274009646415845, -0.26897934977241, 0.400538023550632, -0.162999999999999, -2.146, 2.175], a = 0.2, v = 0.2, t = 0.2)
movej(p[-0.273983671393555, -0.269002161397719, 0.398967804047516, -0.162999999999999, -2.146, 2.175], a = 0.2, v = 0.2, t = 0.2)
movej(p[-0.273952285046108, -0.269029725323932, 0.397070463812564, -0.162999999999999, -2.146, 2.175], a = 0.2, v = 0.2, t = 0.2)
movej(p[-0.27395393887409, -0.26902827290923, 0.397170439586352, -0.162999999999999, -2.146, 2.175], a = 0.2, v = 0.2, t = 0.2)
movej(p[-0.273970040543325, -0.269014132199692, 0.398143803719954, -0.162999999999999, -2.146, 2.175], a = 0.2, v = 0.2, t = 0.2)
movej(p[-0.273989530906096, -0.26899701549243, 0.399322018214047, -0.162999999999999, -2.146, 2.175], a = 0.2, v = 0.2, t = 0.2)
movej(p[-0.274019771150752, -0.268970458089605, 0.401150075237763, -0.162999999999999, -2.146, 2.175], a = 0.2, v = 0.2, t = 0.2)
movej(p[-0.274033641806039, -0.2689582766875, 0.401988572052524, -0.162999999999999, -2.146, 2.175], a = 0.2, v = 0.2, t = 0.2)
movej(p[-0.274044267650826, -0.26894894492304, 0.402630916399113, -0.162999999999999, -2.146, 2.175], a = 0.2, v = 0.2, t = 0.2)
movej(p[-0.274051976143051, -0.268942175218114, 0.40309690348074, -0.162999999999999, -2.146, 2.175], a = 0.2, v = 0.2, t = 0.2)
movej(p[-0.27407036174873, -0.268926028723873, 0.404208334157943, -0.162999999999999, -2.146, 2.175], a = 0.2, v = 0.2, t = 0.2)
movej(p[-0.274088798623076, -0.268909837204776, 0.405322864084133, -0.162999999999999, -2.146, 2.175], a = 0.2, v = 0.2, t = 0.2)
movej(p[-0.274096351655471, -0.268903204026832, 0.405779453443023, -0.162999999999999, -2.146, 2.175], a = 0.2, v = 0.2, t = 0.2)
movej(p[-0.27410052426347, -0.268899539584539, 0.406031692320291, -0.162999999999999, -2.146, 2.175], a = 0.2, v = 0.2, t = 0.2)
movej(p[-0.274105288941887, -0.268895355177783, 0.406319722524575, -0.162999999999999, -2.146, 2.175], a = 0.2, v = 0.2, t = 0.2)
movej(p[-0.27410618035517, -0.268894572326259, 0.406373609466646, -0.162999999999999, -2.146, 2.175], a = 0.2, v = 0.2, t = 0.2)
movej(p[-0.274107883797992, -0.268893076339116, 0.406476584513648, -0.162999999999999, -2.146, 2.175], a = 0.2, v = 0.2, t = 0.2)
movej(p[-0.274109537625974, -0.268891623924414, 0.406576560287436, -0.162999999999999, -2.146, 2.175], a = 0.2, v = 0.2, t = 0.2)
movej(p[-0.274101951517019, -0.268898286150652, 0.40611797141307, -0.162999999999999, -2.146, 2.175], a = 0.2, v = 0.2, t = 0.2)
movej(p[-0.274070193058276, -0.268926176870173, 0.404198136629016, -0.162999999999999, -2.146, 2.175], a = 0.2, v = 0.2, t = 0.2)
movej(p[-0.274031237140153, -0.268960388498477, 0.401843207277436, -0.162999999999999, -2.146, 2.175], a = 0.2, v = 0.2, t = 0.2)
movej(p[-0.273997950544354, -0.268989621249182, 0.399830994878402, -0.162999999999999, -2.146, 2.175], a = 0.2, v = 0.2, t = 0.2)
movej(p[-0.273969099515203, -0.269014958623657, 0.398086917504668, -0.162999999999999, -2.146, 2.175], a = 0.2, v = 0.2, t = 0.2)
movej(p[-0.273956707382132, -0.269025841567019, 0.397337799031674, -0.162999999999999, -2.146, 2.175], a = 0.2, v = 0.2, t = 0.2)
movej(p[-0.273958361210115, -0.269024389152317, 0.397437774805462, -0.162999999999999, -2.146, 2.175], a = 0.2, v = 0.2, t = 0.2)
movej(p[-0.273988245881754, -0.268998144018653, 0.399244337037814, -0.162999999999999, -2.146, 2.175], a = 0.2, v = 0.2, t = 0.2)
movej(p[-0.274009649723501, -0.268979346867581, 0.40053822350218, -0.162999999999999, -2.146, 2.175], a = 0.2, v = 0.2, t = 0.2)
movej(p[-0.274033898149377, -0.268958051563221, 0.402004068297462, -0.162999999999999, -2.146, 2.175], a = 0.2, v = 0.2, t = 0.2)
movej(p[-0.27404386246297, -0.268949300764642, 0.402606422334535, -0.162999999999999, -2.146, 2.175], a = 0.2, v = 0.2, t = 0.2)
movej(p[-0.274044153536695, -0.268949045139655, 0.402624018070722, -0.162999999999999, -2.146, 2.175], a = 0.2, v = 0.2, t = 0.2)
movej(p[-0.274044446264248, -0.268948788062252, 0.402641713782682, -0.162999999999999, -2.146, 2.175], a = 0.2, v = 0.2, t = 0.2)
movej(p[-0.2740447389918, -0.26894853098485, 0.402659409494643, -0.162999999999999, -2.146, 2.175], a = 0.2, v = 0.2, t = 0.2)
movej(p[-0.274045031719353, -0.268948273907448, 0.402677105206603, -0.162999999999999, -2.146, 2.175], a = 0.2, v = 0.2, t = 0.2)
movej(p[-0.274045322793078, -0.26894801828246, 0.40269470094279, -0.162999999999999, -2.146, 2.175], a = 0.2, v = 0.2, t = 0.2)
movej(p[-0.274045615520631, -0.268947761205058, 0.402712396654751, -0.162999999999999, -2.146, 2.175], a = 0.2, v = 0.2, t = 0.2)
movej(p[-0.274045908248184, -0.268947504127656, 0.402730092366711, -0.162999999999999, -2.146, 2.175], a = 0.2, v = 0.2, t = 0.2)
movej(p[-0.274046199321909, -0.268947248502668, 0.402747688102898, -0.162999999999999, -2.146, 2.175], a = 0.2, v = 0.2, t = 0.2)
movej(p[-0.274046492049462, -0.268946991425266, 0.402765383814858, -0.162999999999999, -2.146, 2.175], a = 0.2, v = 0.2, t = 0.2)
movej(p[-0.274046784777015, -0.268946734347864, 0.402783079526819, -0.162999999999999, -2.146, 2.175], a = 0.2, v = 0.2, t = 0.2)
movej(p[-0.274047077504567, -0.268946477270462, 0.402800775238779, -0.162999999999999, -2.146, 2.175], a = 0.2, v = 0.2, t = 0.2)
movej(p[-0.274047368578292, -0.268946221645474, 0.402818370974966, -0.162999999999999, -2.146, 2.175], a = 0.2, v = 0.2, t = 0.2)
movej(p[-0.274047661305845, -0.268945964568072, 0.402836066686927, -0.162999999999999, -2.146, 2.175], a = 0.2, v = 0.2, t = 0.2)
movej(p[-0.274047954033398, -0.26894570749067, 0.402853762398887, -0.162999999999999, -2.146, 2.175], a = 0.2, v = 0.2, t = 0.2)
movej(p[-0.274048245107123, -0.268945451865682, 0.402871358135074, -0.162999999999999, -2.146, 2.175], a = 0.2, v = 0.2, t = 0.2)
movej(p[-0.274048537834676, -0.26894519478828, 0.402889053847034, -0.162999999999999, -2.146, 2.175], a = 0.2, v = 0.2, t = 0.2)
movej(p[-0.274048830562229, -0.268944937710878, 0.402906749558995, -0.162999999999999, -2.146, 2.175], a = 0.2, v = 0.2, t = 0.2)
movej(p[-0.274049123289781, -0.268944680633475, 0.402924445270955, -0.162999999999999, -2.146, 2.175], a = 0.2, v = 0.2, t = 0.2)
movej(p[-0.274049414363506, -0.268944425008488, 0.402942041007142, -0.162999999999999, -2.146, 2.175], a = 0.2, v = 0.2, t = 0.2)
movej(p[-0.274049707091059, -0.268944167931086, 0.402959736719102, -0.162999999999999, -2.146, 2.175], a = 0.2, v = 0.2, t = 0.2)
movej(p[-0.2740544850001, -0.268939971905012, 0.403248566729576, -0.162999999999999, -2.146, 2.175], a = 0.2, v = 0.2, t = 0.2)
movej(p[-0.274067083861669, -0.268928907409812, 0.404010182174295, -0.162999999999999, -2.146, 2.175], a = 0.2, v = 0.2, t = 0.2)
movej(p[-0.274079454494976, -0.268918043347842, 0.40475800096223, -0.162999999999999, -2.146, 2.175], a = 0.2, v = 0.2, t = 0.2)
movej(p[-0.274086833875433, -0.268911562673442, 0.405204092864873, -0.162999999999999, -2.146, 2.175], a = 0.2, v = 0.2, t = 0.2)
movej(p[-0.274101562867443, -0.268898627468107, 0.40609447710623, -0.162999999999999, -2.146, 2.175], a = 0.2, v = 0.2, t = 0.2)
movej(p[-0.274104948253323, -0.268895654375212, 0.406299127515174, -0.162999999999999, -2.146, 2.175], a = 0.2, v = 0.2, t = 0.2)
movej(p[-0.274107536494115, -0.268893381346203, 0.406455589601153, -0.162999999999999, -2.146, 2.175], a = 0.2, v = 0.2, t = 0.2)
movej(p[-0.2741115900265, -0.268889821477769, 0.406700630222707, -0.162999999999999, -2.146, 2.175], a = 0.2, v = 0.2, t = 0.2)
movej(p[-0.274112987511145, -0.268888594187346, 0.406785109751558, -0.162999999999999, -2.146, 2.175], a = 0.2, v = 0.2, t = 0.2)
movej(p[-0.274114641339127, -0.268887141772644, 0.406885085525346, -0.162999999999999, -2.146, 2.175], a = 0.2, v = 0.2, t = 0.2)
movej(p[-0.274100640031429, -0.26889943791551, 0.406038690624456, -0.162999999999999, -2.146, 2.175], a = 0.2, v = 0.2, t = 0.2)
movej(p[-0.274090662487212, -0.268908200333407, 0.405435536781192, -0.162999999999999, -2.146, 2.175], a = 0.2, v = 0.2, t = 0.2)
movej(p[-0.274080924748053, -0.268916752151172, 0.404846879425128, -0.162999999999999, -2.146, 2.175], a = 0.2, v = 0.2, t = 0.2)
movej(p[-0.274049025713931, -0.268944766325943, 0.402918546700302, -0.162999999999999, -2.146, 2.175], a = 0.2, v = 0.2, t = 0.2)
movej(p[-0.274015282661608, -0.268974399943106, 0.400878740987702, -0.162999999999999, -2.146, 2.175], a = 0.2, v = 0.2, t = 0.2)
movej(p[-0.273998241618079, -0.268989365624195, 0.399848590614589, -0.162999999999999, -2.146, 2.175], a = 0.2, v = 0.2, t = 0.2)
movej(p[-0.273999895446061, -0.268987913209493, 0.399948566388377, -0.162999999999999, -2.146, 2.175], a = 0.2, v = 0.2, t = 0.2)
movej(p[-0.274011520202949, -0.268977704186553, 0.400651296102334, -0.162999999999999, -2.146, 2.175], a = 0.2, v = 0.2, t = 0.2)
movej(p[-0.274020001032842, -0.268970256203961, 0.40116397187032, -0.162999999999999, -2.146, 2.175], a = 0.2, v = 0.2, t = 0.2)
movej(p[-0.274034809408595, -0.26895725128272, 0.402059154948819, -0.162999999999999, -2.146, 2.175], a = 0.2, v = 0.2, t = 0.2)
movej(p[-0.274061720497522, -0.268933617590691, 0.4036859607399, -0.162999999999999, -2.146, 2.175], a = 0.2, v = 0.2, t = 0.2)
movej(p[-0.27406850119225, -0.268927662690413, 0.404095861412431, -0.162999999999999, -2.146, 2.175], a = 0.2, v = 0.2, t = 0.2)
movej(p[-0.27407724663462, -0.268919982321469, 0.404624533304223, -0.162999999999999, -2.146, 2.175], a = 0.2, v = 0.2, t = 0.2)
movej(p[-0.274087386253979, -0.268911077566932, 0.405237484773318, -0.162999999999999, -2.146, 2.175], a = 0.2, v = 0.2, t = 0.2)
movej(p[-0.274095241936895, -0.268904178597097, 0.405712369698812, -0.162999999999999, -2.146, 2.175], a = 0.2, v = 0.2, t = 0.2)
movej(p[-0.274105978588156, -0.268894749520853, 0.406361412422244, -0.162999999999999, -2.146, 2.175], a = 0.2, v = 0.2, t = 0.2)
movej(p[-0.274106057971899, -0.268894679804947, 0.406366211259386, -0.162999999999999, -2.146, 2.175], a = 0.2, v = 0.2, t = 0.2)
movej(p[-0.274107548070911, -0.2688933711793, 0.406456289431569, -0.162999999999999, -2.146, 2.175], a = 0.2, v = 0.2, t = 0.2)
movej(p[-0.27410840971529, -0.268892614471241, 0.406508376809713, -0.162999999999999, -2.146, 2.175], a = 0.2, v = 0.2, t = 0.2)
movej(p[-0.274110063543272, -0.268891162056539, 0.406608352583501, -0.162999999999999, -2.146, 2.175], a = 0.2, v = 0.2, t = 0.2)
movej(p[-0.274104799408805, -0.268895785092535, 0.406290129695533, -0.162999999999999, -2.146, 2.175], a = 0.2, v = 0.2, t = 0.2)
movej(p[-0.274101430561205, -0.268898743661283, 0.406086479044327, -0.162999999999999, -2.146, 2.175], a = 0.2, v = 0.2, t = 0.2)
movej(p[-0.274072121421703, -0.26892448335463, 0.404314708381253, -0.162999999999999, -2.146, 2.175], a = 0.2, v = 0.2, t = 0.2)
movej(p[-0.274039350820234, -0.268953262951949, 0.402333688423641, -0.162999999999999, -2.146, 2.175], a = 0.2, v = 0.2, t = 0.2)
movej(p[-0.274013944714771, -0.2689755749466, 0.400797860586708, -0.162999999999999, -2.146, 2.175], a = 0.2, v = 0.2, t = 0.2)
movej(p[-0.274003831556659, -0.268984456462502, 0.400186508729993, -0.162999999999999, -2.146, 2.175], a = 0.2, v = 0.2, t = 0.2)
movej(p[-0.274005485384641, -0.2689830040478, 0.400286484503781, -0.162999999999999, -2.146, 2.175], a = 0.2, v = 0.2, t = 0.2)
movej(p[-0.274004144130148, -0.268984181956124, 0.400205404151239, -0.162999999999999, -2.146, 2.175], a = 0.2, v = 0.2, t = 0.2)
movej(p[-0.274025205629502, -0.268965685454894, 0.401478595630431, -0.162999999999999, -2.146, 2.175], a = 0.2, v = 0.2, t = 0.2)
movej(p[-0.274038606597642, -0.268953916538565, 0.402288699325436, -0.162999999999999, -2.146, 2.175], a = 0.2, v = 0.2, t = 0.2)
movej(p[-0.274056464632195, -0.268938233364613, 0.403368237730801, -0.162999999999999, -2.146, 2.175], a = 0.2, v = 0.2, t = 0.2)
movej(p[-0.274068669882704, -0.268927514544113, 0.404106058941357, -0.162999999999999, -2.146, 2.175], a = 0.2, v = 0.2, t = 0.2)
movej(p[-0.274077956126824, -0.268919359235562, 0.404667422911178, -0.162999999999999, -2.146, 2.175], a = 0.2, v = 0.2, t = 0.2)
movej(p[-0.27408522139315, -0.268912978777776, 0.405106616485429, -0.162999999999999, -2.146, 2.175], a = 0.2, v = 0.2, t = 0.2)
movej(p[-0.274091031290852, -0.268907876444929, 0.405457831378747, -0.162999999999999, -2.146, 2.175], a = 0.2, v = 0.2, t = 0.2)
movej(p[-0.274103443269859, -0.268896976072591, 0.406208149561027, -0.162999999999999, -2.146, 2.175], a = 0.2, v = 0.2, t = 0.2)
movej(p[-0.274108976978288, -0.268892116292998, 0.406542668500122, -0.162999999999999, -2.146, 2.175], a = 0.2, v = 0.2, t = 0.2)
movej(p[-0.274109626932685, -0.26889154549402, 0.406581958979221, -0.162999999999999, -2.146, 2.175], a = 0.2, v = 0.2, t = 0.2)
movej(p[-0.274111280760667, -0.268890093079318, 0.406681934753009, -0.162999999999999, -2.146, 2.175], a = 0.2, v = 0.2, t = 0.2)
movej(p[-0.274097669756373, -0.268902046452315, 0.405859134134733, -0.162999999999999, -2.146, 2.175], a = 0.2, v = 0.2, t = 0.2)
movej(p[-0.274085684464985, -0.26891257210166, 0.40513460970209, -0.162999999999999, -2.146, 2.175], a = 0.2, v = 0.2, t = 0.2)
movej(p[-0.274068962610257, -0.268927257466711, 0.404123754653318, -0.162999999999999, -2.146, 2.175], a = 0.2, v = 0.2, t = 0.2)
movej(p[-0.274035555285015, -0.26895659624369, 0.402104244022797, -0.162999999999999, -2.146, 2.175], a = 0.2, v = 0.2, t = 0.2)
movej(p[-0.273995504532768, -0.268991769370526, 0.39968313070897, -0.162999999999999, -2.146, 2.175], a = 0.2, v = 0.2, t = 0.2)
movej(p[-0.273956793381187, -0.269025766041454, 0.397342997771911, -0.162999999999999, -2.146, 2.175], a = 0.2, v = 0.2, t = 0.2)
movej(p[-0.273928149080534, -0.269050921864092, 0.3956114173699, -0.162999999999999, -2.146, 2.175], a = 0.2, v = 0.2, t = 0.2)
movej(p[-0.273929802908517, -0.26904946944939, 0.395711393143688, -0.162999999999999, -2.146, 2.175], a = 0.2, v = 0.2, t = 0.2)
movej(p[-0.273965724052292, -0.269017923002064, 0.397882866950367, -0.162999999999999, -2.146, 2.175], a = 0.2, v = 0.2, t = 0.2)
movej(p[-0.27398974094225, -0.268996831035763, 0.399334715137318, -0.162999999999999, -2.146, 2.175], a = 0.2, v = 0.2, t = 0.2)
movej(p[-0.274009001422932, -0.268979916214144, 0.400499032998855, -0.162999999999999, -2.146, 2.175], a = 0.2, v = 0.2, t = 0.2)
movej(p[-0.274021383633035, -0.268969041985271, 0.401247551617207, -0.162999999999999, -2.146, 2.175], a = 0.2, v = 0.2, t = 0.2)
movej(p[-0.27403510048232, -0.268956995657733, 0.402076750685006, -0.162999999999999, -2.146, 2.175], a = 0.2, v = 0.2, t = 0.2)
movej(p[-0.274051278227642, -0.268942788137119, 0.403054713704201, -0.162999999999999, -2.146, 2.175], a = 0.2, v = 0.2, t = 0.2)
movej(p[-0.274056307518536, -0.26893837134401, 0.403358740032291, -0.162999999999999, -2.146, 2.175], a = 0.2, v = 0.2, t = 0.2)
movej(p[-0.274065554070785, -0.268930250893412, 0.40391770458354, -0.162999999999999, -2.146, 2.175], a = 0.2, v = 0.2, t = 0.2)
movej(p[-0.274073803364761, -0.268923006248878, 0.404416383743196, -0.162999999999999, -2.146, 2.175], a = 0.2, v = 0.2, t = 0.2)
movej(p[-0.274079730684249, -0.268917800794587, 0.404774696916453, -0.162999999999999, -2.146, 2.175], a = 0.2, v = 0.2, t = 0.2)
movej(p[-0.274087439176475, -0.268911031089661, 0.405240683998079, -0.162999999999999, -2.146, 2.175], a = 0.2, v = 0.2, t = 0.2)
movej(p[-0.274089093004457, -0.268909578674959, 0.405340659771867, -0.162999999999999, -2.146, 2.175], a = 0.2, v = 0.2, t = 0.2)
movej(p[-0.274083073070601, -0.268914865464474, 0.404976747955278, -0.162999999999999, -2.146, 2.175], a = 0.2, v = 0.2, t = 0.2)
movej(p[-0.27408150028019, -0.268916246710856, 0.404881670994406, -0.162999999999999, -2.146, 2.175], a = 0.2, v = 0.2, t = 0.2)
movej(p[-0.274079927489779, -0.268917627957237, 0.404786594033533, -0.162999999999999, -2.146, 2.175], a = 0.2, v = 0.2, t = 0.2)
movej(p[-0.27406402593373, -0.268931592924596, 0.40382532696856, -0.162999999999999, -2.146, 2.175], a = 0.2, v = 0.2, t = 0.2)
movej(p[-0.274065679761712, -0.268930140509894, 0.403925302742348, -0.162999999999999, -2.146, 2.175], a = 0.2, v = 0.2, t = 0.2)
movej(p[-0.27406404247201, -0.268931578400449, 0.403826326726298, -0.162999999999999, -2.146, 2.175], a = 0.2, v = 0.2, t = 0.2)
movej(p[-0.274075098312071, -0.268921869008167, 0.404494664774072, -0.162999999999999, -2.146, 2.175], a = 0.2, v = 0.2, t = 0.2)
movej(p[-0.274097717717385, -0.268902004332289, 0.405862033432172, -0.162999999999999, -2.146, 2.175], a = 0.2, v = 0.2, t = 0.2)
movej(p[-0.274110662229002, -0.268890636282417, 0.406644543813612, -0.162999999999999, -2.146, 2.175], a = 0.2, v = 0.2, t = 0.2)
movej(p[-0.274112316056984, -0.268889183867715, 0.4067445195874, -0.162999999999999, -2.146, 2.175], a = 0.2, v = 0.2, t = 0.2)
movej(p[-0.274107959874079, -0.26889300952804, 0.406481183399242, -0.162999999999999, -2.146, 2.175], a = 0.2, v = 0.2, t = 0.2)
movej(p[-0.2740720503071, -0.268924545808462, 0.40431040942298, -0.162999999999999, -2.146, 2.175], a = 0.2, v = 0.2, t = 0.2)
movej(p[-0.274041517334891, -0.268951360288689, 0.402464656687304, -0.162999999999999, -2.146, 2.175], a = 0.2, v = 0.2, t = 0.2)
movej(p[-0.274012122196334, -0.268977175507601, 0.400687687283993, -0.162999999999999, -2.146, 2.175], a = 0.2, v = 0.2, t = 0.2)
movej(p[-0.27395434075429, -0.269027919972457, 0.397194733699383, -0.162999999999999, -2.146, 2.175], a = 0.2, v = 0.2, t = 0.2)
movej(p[-0.273910729310397, -0.269066220148147, 0.394558372544589, -0.162999999999999, -2.146, 2.175], a = 0.2, v = 0.2, t = 0.2)
movej(p[-0.27391238313838, -0.269064767733445, 0.394658348318377, -0.162999999999999, -2.146, 2.175], a = 0.2, v = 0.2, t = 0.2)
movej(p[-0.27392480834801, -0.269053855741789, 0.395409466306848, -0.162999999999999, -2.146, 2.175], a = 0.2, v = 0.2, t = 0.2)
movej(p[-0.273965879512122, -0.269017786475082, 0.397892264673103, -0.162999999999999, -2.146, 2.175], a = 0.2, v = 0.2, t = 0.2)
movej(p[-0.273988722184213, -0.268997725723219, 0.399273130060665, -0.162999999999999, -2.146, 2.175], a = 0.2, v = 0.2, t = 0.2)
movej(p[-0.274010250063058, -0.268978819641044, 0.400574514708065, -0.162999999999999, -2.146, 2.175], a = 0.2, v = 0.2, t = 0.2)
movej(p[-0.274027357259707, -0.268963795863367, 0.401608664112129, -0.162999999999999, -2.146, 2.175], a = 0.2, v = 0.2, t = 0.2)
movej(p[-0.274050069279387, -0.268943849852266, 0.402981631413562, -0.162999999999999, -2.146, 2.175], a = 0.2, v = 0.2, t = 0.2)
movej(p[-0.274072114806391, -0.268924489164289, 0.404314308478158, -0.162999999999999, -2.146, 2.175], a = 0.2, v = 0.2, t = 0.2)
movej(p[-0.27407931226577, -0.268918168255506, 0.404749403045684, -0.162999999999999, -2.146, 2.175], a = 0.2, v = 0.2, t = 0.2)
movej(p[-0.274091810243832, -0.268907192357604, 0.405504919968201, -0.162999999999999, -2.146, 2.175], a = 0.2, v = 0.2, t = 0.2)
movej(p[-0.274096665882788, -0.268902928068039, 0.405798448840043, -0.162999999999999, -2.146, 2.175], a = 0.2, v = 0.2, t = 0.2)
movej(p[-0.274100153806002, -0.268899864925433, 0.406009297746962, -0.162999999999999, -2.146, 2.175], a = 0.2, v = 0.2, t = 0.2)
movej(p[-0.274110784612272, -0.268890528803729, 0.406651942020873, -0.162999999999999, -2.146, 2.175], a = 0.2, v = 0.2, t = 0.2)
movej(p[-0.274112438440255, -0.268889076389027, 0.406751917794661, -0.162999999999999, -2.146, 2.175], a = 0.2, v = 0.2, t = 0.2)
movej(p[-0.274105935588628, -0.268894787283635, 0.406358813052126, -0.162999999999999, -2.146, 2.175], a = 0.2, v = 0.2, t = 0.2)
movej(p[-0.274088021323924, -0.268910519839686, 0.405275875470452, -0.162999999999999, -2.146, 2.175], a = 0.2, v = 0.2, t = 0.2)
movej(p[-0.274065494532978, -0.268930303180341, 0.403914105455684, -0.162999999999999, -2.146, 2.175], a = 0.2, v = 0.2, t = 0.2)
movej(p[-0.274050474467243, -0.268943494010664, 0.40300612547814, -0.162999999999999, -2.146, 2.175], a = 0.2, v = 0.2, t = 0.2)
movej(p[-0.274012825073227, -0.268976558231353, 0.400730176987853, -0.162999999999999, -2.146, 2.175], a = 0.2, v = 0.2, t = 0.2)
movej(p[-0.273973563196928, -0.269011038556377, 0.398356752118122, -0.162999999999999, -2.146, 2.175], a = 0.2, v = 0.2, t = 0.2)
movej(p[-0.273929594526191, -0.269049652453642, 0.395698796196191, -0.162999999999999, -2.146, 2.175], a = 0.2, v = 0.2, t = 0.2)
movej(p[-0.273931248354173, -0.26904820003894, 0.395798771969979, -0.162999999999999, -2.146, 2.175], a = 0.2, v = 0.2, t = 0.2)
movej(p[-0.273949521499549, -0.269032152308899, 0.396903404294564, -0.162999999999999, -2.146, 2.175], a = 0.2, v = 0.2, t = 0.2)
movej(p[-0.273991475807804, -0.26899530745274, 0.399439589724022, -0.162999999999999, -2.146, 2.175], a = 0.2, v = 0.2, t = 0.2)
movej(p[-0.274008009126142, -0.268980787662965, 0.400439047534582, -0.162999999999999, -2.146, 2.175], a = 0.2, v = 0.2, t = 0.2)
movej(p[-0.274031142871958, -0.268960471286115, 0.401837508658331, -0.162999999999999, -2.146, 2.175], a = 0.2, v = 0.2, t = 0.2)
movej(p[-0.274051651992766, -0.268942459891396, 0.403077308229077, -0.162999999999999, -2.146, 2.175], a = 0.2, v = 0.2, t = 0.2)
movej(p[-0.274075149580738, -0.268921823983311, 0.404497764023059, -0.162999999999999, -2.146, 2.175], a = 0.2, v = 0.2, t = 0.2)
movej(p[-0.274093667492656, -0.268905561295894, 0.405617192762165, -0.162999999999999, -2.146, 2.175], a = 0.2, v = 0.2, t = 0.2)
movej(p[-0.274102307090035, -0.268897973881491, 0.406139466204434, -0.162999999999999, -2.146, 2.175], a = 0.2, v = 0.2, t = 0.2)
movej(p[-0.274106989077053, -0.26889386209547, 0.406422497620029, -0.162999999999999, -2.146, 2.175], a = 0.2, v = 0.2, t = 0.2)
movej(p[-0.274110050312648, -0.268891173675856, 0.406607552777311, -0.162999999999999, -2.146, 2.175], a = 0.2, v = 0.2, t = 0.2)
movej(p[-0.274112674937656, -0.268888868693724, 0.406766214330312, -0.162999999999999, -2.146, 2.175], a = 0.2, v = 0.2, t = 0.2)
movej(p[-0.274114370111338, -0.268887379968655, 0.406868689498445, -0.162999999999999, -2.146, 2.175], a = 0.2, v = 0.2, t = 0.2)
movej(p[-0.27411602393932, -0.268885927553953, 0.406968665272233, -0.162999999999999, -2.146, 2.175], a = 0.2, v = 0.2, t = 0.2)
movej(p[-0.27409425460159, -0.268905045688674, 0.40565268416186, -0.162999999999999, -2.146, 2.175], a = 0.2, v = 0.2, t = 0.2)
movej(p[-0.27407559115281, -0.268921436188586, 0.404524457554661, -0.162999999999999, -2.146, 2.175], a = 0.2, v = 0.2, t = 0.2)
movej(p[-0.27405239456153, -0.268941807757195, 0.403122197351508, -0.162999999999999, -2.146, 2.175], a = 0.2, v = 0.2, t = 0.2)
movej(p[-0.274047724151308, -0.268945909376313, 0.402839865766331, -0.162999999999999, -2.146, 2.175], a = 0.2, v = 0.2, t = 0.2)
movej(p[-0.274029864462928, -0.268961594002679, 0.401760227385192, -0.162999999999999, -2.146, 2.175], a = 0.2, v = 0.2, t = 0.2)
movej(p[-0.273991310425005, -0.26899545269421, 0.399429592146643, -0.162999999999999, -2.146, 2.175], a = 0.2, v = 0.2, t = 0.2)
movej(p[-0.273935721958865, -0.269044271257172, 0.396069206438076, -0.162999999999999, -2.146, 2.175], a = 0.2, v = 0.2, t = 0.2)
movej(p[-0.273937375786848, -0.26904281884247, 0.396169182211864, -0.162999999999999, -2.146, 2.175], a = 0.2, v = 0.2, t = 0.2)
movej(p[-0.273962194783377, -0.269021022455038, 0.397669518649103, -0.162999999999999, -2.146, 2.175], a = 0.2, v = 0.2, t = 0.2)
movej(p[-0.274004651855338, -0.26898373606481, 0.400236096713792, -0.162999999999999, -2.146, 2.175], a = 0.2, v = 0.2, t = 0.2)
movej(p[-0.274015616734861, -0.268974106555336, 0.400898936094007, -0.162999999999999, -2.146, 2.175], a = 0.2, v = 0.2, t = 0.2)
movej(p[-0.274031930094078, -0.268959779936716, 0.401885097126654, -0.162999999999999, -2.146, 2.175], a = 0.2, v = 0.2, t = 0.2)
movej(p[-0.274045499752672, -0.268947862874087, 0.402705398350585, -0.162999999999999, -2.146, 2.175], a = 0.2, v = 0.2, t = 0.2)
movej(p[-0.274061743651114, -0.268933597256885, 0.403687360400733, -0.162999999999999, -2.146, 2.175], a = 0.2, v = 0.2, t = 0.2)
movej(p[-0.274080079641954, -0.268917494335085, 0.404795791804722, -0.162999999999999, -2.146, 2.175], a = 0.2, v = 0.2, t = 0.2)
movej(p[-0.274083726332654, -0.268914291760667, 0.405016238385925, -0.162999999999999, -2.146, 2.175], a = 0.2, v = 0.2, t = 0.2)
movej(p[-0.274088629932622, -0.268909985351076, 0.405312666555207, -0.162999999999999, -2.146, 2.175], a = 0.2, v = 0.2, t = 0.2)
movej(p[-0.274094249640106, -0.268905050045919, 0.405652384234539, -0.162999999999999, -2.146, 2.175], a = 0.2, v = 0.2, t = 0.2)
movej(p[-0.27410073760728, -0.268899352223043, 0.40604458919511, -0.162999999999999, -2.146, 2.175], a = 0.2, v = 0.2, t = 0.2)
movej(p[-0.274110766420165, -0.26889054478029, 0.406650842287361, -0.162999999999999, -2.146, 2.175], a = 0.2, v = 0.2, t = 0.2)
movej(p[-0.274112420248147, -0.268889092365589, 0.406750818061149, -0.162999999999999, -2.146, 2.175], a = 0.2, v = 0.2, t = 0.2)
movej(p[-0.274110609306506, -0.268890682759687, 0.406641344588851, -0.162999999999999, -2.146, 2.175], a = 0.2, v = 0.2, t = 0.2)
movej(p[-0.274103946033566, -0.268896534538521, 0.406238542196259, -0.162999999999999, -2.146, 2.175], a = 0.2, v = 0.2, t = 0.2)
movej(p[-0.2740984751706, -0.268901339126355, 0.405907822336567, -0.162999999999999, -2.146, 2.175], a = 0.2, v = 0.2, t = 0.2)
movej(p[-0.274085533966639, -0.268912704271398, 0.405125511906675, -0.162999999999999, -2.146, 2.175], a = 0.2, v = 0.2, t = 0.2)
movej(p[-0.27406138642427, -0.26893391097846, 0.403665765633594, -0.162999999999999, -2.146, 2.175], a = 0.2, v = 0.2, t = 0.2)
movej(p[-0.274020910638232, -0.268969457375875, 0.401218958545903, -0.162999999999999, -2.146, 2.175], a = 0.2, v = 0.2, t = 0.2)
movej(p[-0.273986274518799, -0.268999875296978, 0.399125165915458, -0.162999999999999, -2.146, 2.175], a = 0.2, v = 0.2, t = 0.2)
movej(p[-0.27396620862389, -0.269017497444556, 0.397912159852087, -0.162999999999999, -2.146, 2.175], a = 0.2, v = 0.2, t = 0.2)
movej(p[-0.273967862451873, -0.269016045029854, 0.398012135625875, -0.162999999999999, -2.146, 2.175], a = 0.2, v = 0.2, t = 0.2)
movej(p[-0.273998906456928, -0.268988781753485, 0.399888780875652, -0.162999999999999, -2.146, 2.175], a = 0.2, v = 0.2, t = 0.2)
movej(p[-0.274017000988882, -0.268972890884231, 0.400982615816668, -0.162999999999999, -2.146, 2.175], a = 0.2, v = 0.2, t = 0.2)
movej(p[-0.274032211244835, -0.268959533026217, 0.401902093008198, -0.162999999999999, -2.146, 2.175], a = 0.2, v = 0.2, t = 0.2)
movej(p[-0.274049662437704, -0.268944207146282, 0.40295703737321, -0.162999999999999, -2.146, 2.175], a = 0.2, v = 0.2, t = 0.2)
movej(p[-0.274061457538873, -0.268933848524628, 0.403670064591867, -0.162999999999999, -2.146, 2.175], a = 0.2, v = 0.2, t = 0.2)
movej(p[-0.274079565301451, -0.268917946036057, 0.404764699339074, -0.162999999999999, -2.146, 2.175], a = 0.2, v = 0.2, t = 0.2)
movej(p[-0.274088686162773, -0.268909935968976, 0.405316065731515, -0.162999999999999, -2.146, 2.175], a = 0.2, v = 0.2, t = 0.2)
movej(p[-0.274092683465006, -0.268906425482641, 0.405557707176761, -0.162999999999999, -2.146, 2.175], a = 0.2, v = 0.2, t = 0.2)
movej(p[-0.274099353353259, -0.268900567894148, 0.405960909472449, -0.162999999999999, -2.146, 2.175], a = 0.2, v = 0.2, t = 0.2)
movej(p[-0.274104594334135, -0.268895965191958, 0.406277732699584, -0.162999999999999, -2.146, 2.175], a = 0.2, v = 0.2, t = 0.2)
movej(p[-0.274109054708203, -0.268892048029507, 0.40654736736149, -0.162999999999999, -2.146, 2.175], a = 0.2, v = 0.2, t = 0.2)
movej(p[-0.274117760458702, -0.268884402518516, 0.407073639834711, -0.162999999999999, -2.146, 2.175], a = 0.2, v = 0.2, t = 0.2)
movej(p[-0.274118632026048, -0.268883637095968, 0.407126327067497, -0.162999999999999, -2.146, 2.175], a = 0.2, v = 0.2, t = 0.2)
movej(p[-0.274120285854031, -0.268882184681266, 0.407226302841285, -0.162999999999999, -2.146, 2.175], a = 0.2, v = 0.2, t = 0.2)
movej(p[-0.27411384419404, -0.26888784183653, 0.406836897202381, -0.162999999999999, -2.146, 2.175], a = 0.2, v = 0.2, t = 0.2)
movej(p[-0.274091792051724, -0.268907208334166, 0.405503820234689, -0.162999999999999, -2.146, 2.175], a = 0.2, v = 0.2, t = 0.2)
movej(p[-0.274070351825762, -0.268926037438361, 0.4042077343033, -0.162999999999999, -2.146, 2.175], a = 0.2, v = 0.2, t = 0.2)
movej(p[-0.274046166245349, -0.268947277550962, 0.402745688587422, -0.162999999999999, -2.146, 2.175], a = 0.2, v = 0.2, t = 0.2)
movej(p[-0.274016615646962, -0.268973229296856, 0.400959321461375, -0.162999999999999, -2.146, 2.175], a = 0.2, v = 0.2, t = 0.2)
movej(p[-0.273984218810617, -0.269001680648452, 0.399000896028639, -0.162999999999999, -2.146, 2.175], a = 0.2, v = 0.2, t = 0.2)
movej(p[-0.273981491648275, -0.269004075680296, 0.398836035977663, -0.162999999999999, -2.146, 2.175], a = 0.2, v = 0.2, t = 0.2)
movej(p[-0.273983145476257, -0.269002623265594, 0.398936011751451, -0.162999999999999, -2.146, 2.175], a = 0.2, v = 0.2, t = 0.2)
movej(p[-0.274012332232488, -0.268976991050934, 0.400700384207264, -0.162999999999999, -2.146, 2.175], a = 0.2, v = 0.2, t = 0.2)
movej(p[-0.274025132861071, -0.268965749361141, 0.401474196696384, -0.162999999999999, -2.146, 2.175], a = 0.2, v = 0.2, t = 0.2)
movej(p[-0.274038406484456, -0.268954092280744, 0.402276602256808, -0.162999999999999, -2.146, 2.175], a = 0.2, v = 0.2, t = 0.2)
movej(p[-0.274051724761198, -0.268942395985149, 0.403081707163124, -0.162999999999999, -2.146, 2.175], a = 0.2, v = 0.2, t = 0.2)
movej(p[-0.27406492726998, -0.268930801358584, 0.403879813765275, -0.162999999999999, -2.146, 2.175], a = 0.2, v = 0.2, t = 0.2)
movej(p[-0.274081364666296, -0.268916365808861, 0.404873472980955, -0.162999999999999, -2.146, 2.175], a = 0.2, v = 0.2, t = 0.2)
movej(p[-0.274085375199153, -0.268912843703209, 0.405115914232391, -0.162999999999999, -2.146, 2.175], a = 0.2, v = 0.2, t = 0.2)
movej(p[-0.274092757887266, -0.26890636012398, 0.405562206086582, -0.162999999999999, -2.146, 2.175], a = 0.2, v = 0.2, t = 0.2)
movej(p[-0.274097170300322, -0.268902485081555, 0.405828941451049, -0.162999999999999, -2.146, 2.175], a = 0.2, v = 0.2, t = 0.2)
movej(p[-0.274099465813562, -0.268900469129949, 0.405967707825066, -0.162999999999999, -2.146, 2.175], a = 0.2, v = 0.2, t = 0.2)
movej(p[-0.274104807677944, -0.268895777830461, 0.406290629574402, -0.162999999999999, -2.146, 2.175], a = 0.2, v = 0.2, t = 0.2)
movej(p[-0.274109403665907, -0.268891741570005, 0.406568462249759, -0.162999999999999, -2.146, 2.175], a = 0.2, v = 0.2, t = 0.2)
movej(p[-0.274111057493889, -0.268890289155303, 0.406668438023548, -0.162999999999999, -2.146, 2.175], a = 0.2, v = 0.2, t = 0.2)
movej(p[-0.274095777777161, -0.268903708014734, 0.405744761849519, -0.162999999999999, -2.146, 2.175], a = 0.2, v = 0.2, t = 0.2)
movej(p[-0.274075463808055, -0.268921548024518, 0.404516759420079, -0.162999999999999, -2.146, 2.175], a = 0.2, v = 0.2, t = 0.2)
movej(p[-0.274055229222692, -0.268939318318396, 0.403293555827781, -0.162999999999999, -2.146, 2.175], a = 0.2, v = 0.2, t = 0.2)
movej(p[-0.274040419193111, -0.268952324692051, 0.402398272773508, -0.162999999999999, -2.146, 2.175], a = 0.2, v = 0.2, t = 0.2)
movej(p[-0.274010924824875, -0.268978227055846, 0.40061530482377, -0.162999999999999, -2.146, 2.175], a = 0.2, v = 0.2, t = 0.2)
movej(p[-0.273978541219154, -0.269006666788124, 0.398657679197225, -0.162999999999999, -2.146, 2.175], a = 0.2, v = 0.2, t = 0.2)
movej(p[-0.273980195047137, -0.269005214373422, 0.398757654971013, -0.162999999999999, -2.146, 2.175], a = 0.2, v = 0.2, t = 0.2)
movej(p[-0.27398251206014, -0.269003179540425, 0.39889772103009, -0.162999999999999, -2.146, 2.175], a = 0.2, v = 0.2, t = 0.2)
movej(p[-0.274011234090708, -0.268977955454296, 0.400634000293469, -0.162999999999999, -2.146, 2.175], a = 0.2, v = 0.2, t = 0.2)
movej(p[-0.274033112581085, -0.268958741460205, 0.401956579804912, -0.162999999999999, -2.146, 2.175], a = 0.2, v = 0.2, t = 0.2)
movej(p[-0.274051521340356, -0.268942574632157, 0.403069410142948, -0.162999999999999, -2.146, 2.175], a = 0.2, v = 0.2, t = 0.2)
movej(p[-0.27406328832645, -0.268932240701553, 0.403780737773451, -0.162999999999999, -2.146, 2.175], a = 0.2, v = 0.2, t = 0.2)
movej(p[-0.274075966571762, -0.268921106490448, 0.404547152055311, -0.162999999999999, -2.146, 2.175], a = 0.2, v = 0.2, t = 0.2)
movej(p[-0.274083881792485, -0.268914155233685, 0.405025636108661, -0.162999999999999, -2.146, 2.175], a = 0.2, v = 0.2, t = 0.2)
movej(p[-0.274100380380436, -0.268899665944619, 0.406022994427971, -0.162999999999999, -2.146, 2.175], a = 0.2, v = 0.2, t = 0.2)
movej(p[-0.274104362798217, -0.268896168530016, 0.406263736091253, -0.162999999999999, -2.146, 2.175], a = 0.2, v = 0.2, t = 0.2)
movej(p[-0.274107986335326, -0.268892986289404, 0.406482783011623, -0.162999999999999, -2.146, 2.175], a = 0.2, v = 0.2, t = 0.2)
movej(p[-0.274109658355416, -0.268891517898141, 0.406583858518923, -0.162999999999999, -2.146, 2.175], a = 0.2, v = 0.2, t = 0.2)
movej(p[-0.274111095531933, -0.268890255749765, 0.406670737466345, -0.162999999999999, -2.146, 2.175], a = 0.2, v = 0.2, t = 0.2)
movej(p[-0.274112749359915, -0.268888803335063, 0.406770713240133, -0.162999999999999, -2.146, 2.175], a = 0.2, v = 0.2, t = 0.2)
movej(p[-0.274105666014667, -0.268895024027231, 0.406342517000998, -0.162999999999999, -2.146, 2.175], a = 0.2, v = 0.2, t = 0.2)
movej(p[-0.274078501890059, -0.26891887993871, 0.404700414916528, -0.162999999999999, -2.146, 2.175], a = 0.2, v = 0.2, t = 0.2)
movej(p[-0.274047404962508, -0.268946189692351, 0.402820570441989, -0.162999999999999, -2.146, 2.175], a = 0.2, v = 0.2, t = 0.2)
movej(p[-0.274019347770789, -0.268970829907769, 0.401124481439674, -0.162999999999999, -2.146, 2.175], a = 0.2, v = 0.2, t = 0.2)
movej(p[-0.273989081064885, -0.268997410549229, 0.399294824803577, -0.162999999999999, -2.146, 2.175], a = 0.2, v = 0.2, t = 0.2)
movej(p[-0.273990734892868, -0.268995958134527, 0.399394800577365, -0.162999999999999, -2.146, 2.175], a = 0.2, v = 0.2, t = 0.2)
movej(p[-0.27398941348431, -0.268997118613874, 0.399314919934108, -0.162999999999999, -2.146, 2.175], a = 0.2, v = 0.2, t = 0.2)
movej(p[-0.274010130987444, -0.268978924214903, 0.400567316452352, -0.162999999999999, -2.146, 2.175], a = 0.2, v = 0.2, t = 0.2)
movej(p[-0.274025964736546, -0.268965018796546, 0.4015244845106, -0.162999999999999, -2.146, 2.175], a = 0.2, v = 0.2, t = 0.2)
movej(p[-0.274039259859695, -0.268953342834758, 0.402328189756083, -0.162999999999999, -2.146, 2.175], a = 0.2, v = 0.2, t = 0.2)
movej(p[-0.274056620092025, -0.268938096837631, 0.403377635453537, -0.162999999999999, -2.146, 2.175], a = 0.2, v = 0.2, t = 0.2)
movej(p[-0.274069338029209, -0.268926927768574, 0.404146449153968, -0.162999999999999, -2.146, 2.175], a = 0.2, v = 0.2, t = 0.2)
movej(p[-0.274074104361454, -0.268922741909403, 0.404434579334025, -0.162999999999999, -2.146, 2.175], a = 0.2, v = 0.2, t = 0.2)
movej(p[-0.274081301820832, -0.26891642100062, 0.404869673901551, -0.162999999999999, -2.146, 2.175], a = 0.2, v = 0.2, t = 0.2)
movej(p[-0.274089466769581, -0.268909250429237, 0.405363254296743, -0.162999999999999, -2.146, 2.175], a = 0.2, v = 0.2, t = 0.2)
movej(p[-0.274100570570654, -0.268899498916928, 0.406034491641957, -0.162999999999999, -2.146, 2.175], a = 0.2, v = 0.2, t = 0.2)
movej(p[-0.274106827001911, -0.26889400443211, 0.406412699994197, -0.162999999999999, -2.146, 2.175], a = 0.2, v = 0.2, t = 0.2)
movej(p[-0.274107792837452, -0.268893156221925, 0.40647108584609, -0.162999999999999, -2.146, 2.175], a = 0.2, v = 0.2, t = 0.2)
movej(p[-0.274107900336271, -0.268893061814969, 0.406477584271386, -0.162999999999999, -2.146, 2.175], a = 0.2, v = 0.2, t = 0.2)
movej(p[-0.274109554164254, -0.268891609400267, 0.406577560045174, -0.162999999999999, -2.146, 2.175], a = 0.2, v = 0.2, t = 0.2)
movej(p[-0.274091661399313, -0.268907323074927, 0.40549592214856, -0.162999999999999, -2.146, 2.175], a = 0.2, v = 0.2, t = 0.2)
movej(p[-0.274073029373265, -0.268923685978959, 0.404369595081063, -0.162999999999999, -2.146, 2.175], a = 0.2, v = 0.2, t = 0.2)
movej(p[-0.274046938583017, -0.268946599273297, 0.402792377273781, -0.162999999999999, -2.146, 2.175], a = 0.2, v = 0.2, t = 0.2)
movej(p[-0.274014341633486, -0.268975226367071, 0.400821854772417, -0.162999999999999, -2.146, 2.175], a = 0.2, v = 0.2, t = 0.2)
movej(p[-0.27398606944413, -0.269000055396401, 0.399112768919508, -0.162999999999999, -2.146, 2.175], a = 0.2, v = 0.2, t = 0.2)
movej(p[-0.273974107306334, -0.26901056071194, 0.398389644147699, -0.162999999999999, -2.146, 2.175], a = 0.2, v = 0.2, t = 0.2)
movej(p[-0.273975761134316, -0.269009108297238, 0.398489619921487, -0.162999999999999, -2.146, 2.175], a = 0.2, v = 0.2, t = 0.2)
movej(p[-0.273988576647351, -0.268997853535713, 0.399264332192571, -0.162999999999999, -2.146, 2.175], a = 0.2, v = 0.2, t = 0.2)
movej(p[-0.274013175684759, -0.268976250319436, 0.400751371851896, -0.162999999999999, -2.146, 2.175], a = 0.2, v = 0.2, t = 0.2)
movej(p[-0.274032209591007, -0.268959534478632, 0.401901993032424, -0.162999999999999, -2.146, 2.175], a = 0.2, v = 0.2, t = 0.2)
movej(p[-0.274048327798522, -0.268945379244947, 0.402876356923763, -0.162999999999999, -2.146, 2.175], a = 0.2, v = 0.2, t = 0.2)
movej(p[-0.274059241409377, -0.268935794760329, 0.403536097054991, -0.162999999999999, -2.146, 2.175], a = 0.2, v = 0.2, t = 0.2)
movej(p[-0.274079022845873, -0.268918422428079, 0.404731907285271, -0.162999999999999, -2.146, 2.175], a = 0.2, v = 0.2, t = 0.2)
movej(p[-0.274084248942297, -0.268913832797621, 0.405047830730442, -0.162999999999999, -2.146, 2.175], a = 0.2, v = 0.2, t = 0.2)
movej(p[-0.274094289331977, -0.268905015187966, 0.40565478365311, -0.162999999999999, -2.146, 2.175], a = 0.2, v = 0.2, t = 0.2)
movej(p[-0.274097656525749, -0.268902058071633, 0.405858334328542, -0.162999999999999, -2.146, 2.175], a = 0.2, v = 0.2, t = 0.2)
movej(p[-0.274103562345474, -0.268896871498732, 0.40621534781674, -0.162999999999999, -2.146, 2.175], a = 0.2, v = 0.2, t = 0.2)
movej(p[-0.274111315491055, -0.268890062578609, 0.406684034244259, -0.162999999999999, -2.146, 2.175], a = 0.2, v = 0.2, t = 0.2)
movej(p[-0.274112969319037, -0.268888610163907, 0.406784010018047, -0.162999999999999, -2.146, 2.175], a = 0.2, v = 0.2, t = 0.2)
movej(p[-0.274104453758756, -0.268896088647208, 0.406269234758811, -0.162999999999999, -2.146, 2.175], a = 0.2, v = 0.2, t = 0.2)
movej(p[-0.274085474428832, -0.268912756558327, 0.405121912778819, -0.162999999999999, -2.146, 2.175], a = 0.2, v = 0.2, t = 0.2)
movej(p[-0.27406477181015, -0.268930937885566, 0.403870416042539, -0.162999999999999, -2.146, 2.175], a = 0.2, v = 0.2, t = 0.2)
movej(p[-0.274039430203977, -0.268953193236043, 0.402338487260783, -0.162999999999999, -2.146, 2.175], a = 0.2, v = 0.2, t = 0.2)
movej(p[-0.274016005384437, -0.268973765237881, 0.400922430400848, -0.162999999999999, -2.146, 2.175], a = 0.2, v = 0.2, t = 0.2)
movej(p[-0.273979232519251, -0.269006059678779, 0.398699469070668, -0.162999999999999, -2.146, 2.175], a = 0.2, v = 0.2, t = 0.2)
movej(p[-0.273952404121722, -0.269029620750073, 0.397077662068277, -0.162999999999999, -2.146, 2.175], a = 0.2, v = 0.2, t = 0.2)
movej(p[-0.273954057949705, -0.269028168335371, 0.397177637842065, -0.162999999999999, -2.146, 2.175], a = 0.2, v = 0.2, t = 0.2)
movej(p[-0.273969488164779, -0.269014617306202, 0.398110411811508, -0.162999999999999, -2.146, 2.175], a = 0.2, v = 0.2, t = 0.2)
movej(p[-0.273998582306643, -0.268989066426766, 0.399869185623989, -0.162999999999999, -2.146, 2.175], a = 0.2, v = 0.2, t = 0.2)
movej(p[-0.274018413357979, -0.268971650522075, 0.401067995127483, -0.162999999999999, -2.146, 2.175], a = 0.2, v = 0.2, t = 0.2)
movej(p[-0.274034242145597, -0.268957749460963, 0.40202486325841, -0.162999999999999, -2.146, 2.175], a = 0.2, v = 0.2, t = 0.2)
movej(p[-0.2740492307886, -0.26894458622652, 0.402930943696251, -0.162999999999999, -2.146, 2.175], a = 0.2, v = 0.2, t = 0.2)
movej(p[-0.274058665877239, -0.268936300200645, 0.403501305485713, -0.162999999999999, -2.146, 2.175], a = 0.2, v = 0.2, t = 0.2)
movej(p[-0.274069027109548, -0.268927200822538, 0.404127653708496, -0.162999999999999, -2.146, 2.175], a = 0.2, v = 0.2, t = 0.2)
movej(p[-0.274091957434522, -0.268907063092695, 0.405513817812068, -0.162999999999999, -2.146, 2.175], a = 0.2, v = 0.2, t = 0.2)
movej(p[-0.274095703354902, -0.268903773373396, 0.405740262939698, -0.162999999999999, -2.146, 2.175], a = 0.2, v = 0.2, t = 0.2)
movej(p[-0.274099637811672, -0.26890031807882, 0.40597810530554, -0.162999999999999, -2.146, 2.175], a = 0.2, v = 0.2, t = 0.2)
movej(p[-0.274105489055073, -0.268895179435604, 0.406331819593203, -0.162999999999999, -2.146, 2.175], a = 0.2, v = 0.2, t = 0.2)
movej(p[-0.274108159987265, -0.268892833785861, 0.406493280467871, -0.162999999999999, -2.146, 2.175], a = 0.2, v = 0.2, t = 0.2)
movej(p[-0.274109813815247, -0.268891381371159, 0.406593256241659, -0.162999999999999, -2.146, 2.175], a = 0.2, v = 0.2, t = 0.2)
movej(p[-0.274106350699452, -0.268894422727545, 0.406383906971347, -0.162999999999999, -2.146, 2.175], a = 0.2, v = 0.2, t = 0.2)
movej(p[-0.274089308002095, -0.268909389861048, 0.40535365662246, -0.162999999999999, -2.146, 2.175], a = 0.2, v = 0.2, t = 0.2)
movej(p[-0.274069032071032, -0.268927196465294, 0.404127953635817, -0.162999999999999, -2.146, 2.175], a = 0.2, v = 0.2, t = 0.2)
movej(p[-0.274043639196192, -0.268949496840627, 0.402592925605074, -0.162999999999999, -2.146, 2.175], a = 0.2, v = 0.2, t = 0.2)
movej(p[-0.274012099042742, -0.268977195841407, 0.40068628762316, -0.162999999999999, -2.146, 2.175], a = 0.2, v = 0.2, t = 0.2)
movej(p[-0.273978756216792, -0.269006477974213, 0.398670676047817, -0.162999999999999, -2.146, 2.175], a = 0.2, v = 0.2, t = 0.2)
movej(p[-0.273963747727853, -0.269019658637633, 0.39776339590069, -0.162999999999999, -2.146, 2.175], a = 0.2, v = 0.2, t = 0.2)
movej(p[-0.273965401555835, -0.269018206222931, 0.397863371674478, -0.162999999999999, -2.146, 2.175], a = 0.2, v = 0.2, t = 0.2)
movej(p[-0.273985156531083, -0.269000857129316, 0.399057582292377, -0.162999999999999, -2.146, 2.175], a = 0.2, v = 0.2, t = 0.2)
movej(p[-0.274004605548155, -0.268983776732422, 0.400233297392126, -0.162999999999999, -2.146, 2.175], a = 0.2, v = 0.2, t = 0.2)
movej(p[-0.274027104224026, -0.268964018082817, 0.40159336781874, -0.162999999999999, -2.146, 2.175], a = 0.2, v = 0.2, t = 0.2)
movej(p[-0.274034483604482, -0.268957537408417, 0.402039459721383, -0.162999999999999, -2.146, 2.175], a = 0.2, v = 0.2, t = 0.2)
movej(p[-0.274045574174932, -0.268947797515426, 0.402709897260406, -0.162999999999999, -2.146, 2.175], a = 0.2, v = 0.2, t = 0.2)
movej(p[-0.274055353259791, -0.268939209387293, 0.403301054010815, -0.162999999999999, -2.146, 2.175], a = 0.2, v = 0.2, t = 0.2)
movej(p[-0.2740663942154, -0.268929513066743, 0.403968492276625, -0.162999999999999, -2.146, 2.175], a = 0.2, v = 0.2, t = 0.2)
movej(p[-0.274082181657319, -0.268915648315999, 0.404922861013207, -0.162999999999999, -2.146, 2.175], a = 0.2, v = 0.2, t = 0.2)
movej(p[-0.274085997038474, -0.268912297595281, 0.405153505123336, -0.162999999999999, -2.146, 2.175], a = 0.2, v = 0.2, t = 0.2)
movej(p[-0.274091370325589, -0.268907578699915, 0.405478326412373, -0.162999999999999, -2.146, 2.175], a = 0.2, v = 0.2, t = 0.2)
movej(p[-0.274096761804811, -0.268902843827986, 0.405804247434923, -0.162999999999999, -2.146, 2.175], a = 0.2, v = 0.2, t = 0.2)
movej(p[-0.27410672115692, -0.268894097386651, 0.406406301544675, -0.162999999999999, -2.146, 2.175], a = 0.2, v = 0.2, t = 0.2)
movej(p[-0.274108571790432, -0.2688924721346, 0.406518174435544, -0.162999999999999, -2.146, 2.175], a = 0.2, v = 0.2, t = 0.2)
movej(p[-0.274110225618414, -0.268891019719898, 0.406618150209332, -0.162999999999999, -2.146, 2.175], a = 0.2, v = 0.2, t = 0.2)
movej(p[-0.274099235931472, -0.268900671015592, 0.40595381119251, -0.162999999999999, -2.146, 2.175], a = 0.2, v = 0.2, t = 0.2)
movej(p[-0.274080326062323, -0.268917277925294, 0.404810688195016, -0.162999999999999, -2.146, 2.175], a = 0.2, v = 0.2, t = 0.2)
movej(p[-0.27406102588977, -0.268934227604866, 0.403643970914909, -0.162999999999999, -2.146, 2.175], a = 0.2, v = 0.2, t = 0.2)
movej(p[-0.274033221733732, -0.268958645600834, 0.401963178205982, -0.162999999999999, -2.146, 2.175], a = 0.2, v = 0.2, t = 0.2)
movej(p[-0.274009393380163, -0.26897957199186, 0.400522727257243, -0.162999999999999, -2.146, 2.175], a = 0.2, v = 0.2, t = 0.2)
movej(p[-0.273976654201426, -0.269008323993299, 0.398543606839332, -0.162999999999999, -2.146, 2.175], a = 0.2, v = 0.2, t = 0.2)
movej(p[-0.273978308029409, -0.269006871578597, 0.398643582613121, -0.162999999999999, -2.146, 2.175], a = 0.2, v = 0.2, t = 0.2)
movej(p[-0.27398748677471, -0.268998810677001, 0.399198448157645, -0.162999999999999, -2.146, 2.175], a = 0.2, v = 0.2, t = 0.2)
movej(p[-0.274001512889828, -0.268986492747914, 0.400046342695142, -0.162999999999999, -2.146, 2.175], a = 0.2, v = 0.2, t = 0.2)
movej(p[-0.274029927308391, -0.268961538810921, 0.401764026464596, -0.162999999999999, -2.146, 2.175], a = 0.2, v = 0.2, t = 0.2)
movej(p[-0.274047752266384, -0.268945884685263, 0.402841565354485, -0.162999999999999, -2.146, 2.175], a = 0.2, v = 0.2, t = 0.2)
movej(p[-0.274057220431583, -0.268937569611095, 0.403413926659422, -0.162999999999999, -2.146, 2.175], a = 0.2, v = 0.2, t = 0.2)
movej(p[-0.274069511681147, -0.26892677526503, 0.404156946610216, -0.162999999999999, -2.146, 2.175], a = 0.2, v = 0.2, t = 0.2)
movej(p[-0.274077200327436, -0.268920022989081, 0.404621733982557, -0.162999999999999, -2.146, 2.175], a = 0.2, v = 0.2, t = 0.2)
movej(p[-0.274090391259423, -0.268908438529418, 0.405419140754291, -0.162999999999999, -2.146, 2.175], a = 0.2, v = 0.2, t = 0.2)
movej(p[-0.27409436871572, -0.26890494547206, 0.405659582490251, -0.162999999999999, -2.146, 2.175], a = 0.2, v = 0.2, t = 0.2)
movej(p[-0.274096953648857, -0.268902675347881, 0.405815844624682, -0.162999999999999, -2.146, 2.175], a = 0.2, v = 0.2, t = 0.2)
movej(p[-0.274104552988435, -0.268896001502326, 0.406275233305239, -0.162999999999999, -2.146, 2.175], a = 0.2, v = 0.2, t = 0.2)
movej(p[-0.274105513862493, -0.268895157649384, 0.40633331922981, -0.162999999999999, -2.146, 2.175], a = 0.2, v = 0.2, t = 0.2)
movej(p[-0.274105910781209, -0.268894809069855, 0.406357313415519, -0.162999999999999, -2.146, 2.175], a = 0.2, v = 0.2, t = 0.2)
movej(p[-0.274107600993407, -0.26889332470203, 0.40645948865633, -0.162999999999999, -2.146, 2.175], a = 0.2, v = 0.2, t = 0.2)
movej(p[-0.274109254821389, -0.268891872287328, 0.406559464430118, -0.162999999999999, -2.146, 2.175], a = 0.2, v = 0.2, t = 0.2)
movej(p[-0.274092590850639, -0.268906506817865, 0.405552108533429, -0.162999999999999, -2.146, 2.175], a = 0.2, v = 0.2, t = 0.2)
movej(p[-0.274071535966597, -0.268924997509435, 0.404279316957332, -0.162999999999999, -2.146, 2.175], a = 0.2, v = 0.2, t = 0.2)
movej(p[-0.274048503104288, -0.268945225288989, 0.402886954355785, -0.162999999999999, -2.146, 2.175], a = 0.2, v = 0.2, t = 0.2)
movej(p[-0.27403376418931, -0.268958169208812, 0.401995970259785, -0.162999999999999, -2.146, 2.175], a = 0.2, v = 0.2, t = 0.2)
movej(p[-0.274020669179347, -0.268969669428422, 0.40120436208293, -0.162999999999999, -2.146, 2.175], a = 0.2, v = 0.2, t = 0.2)
movej(p[-0.273996902017413, -0.268990542080103, 0.399767610237821, -0.162999999999999, -2.146, 2.175], a = 0.2, v = 0.2, t = 0.2)
movej(p[-0.273998555845396, -0.268989089665401, 0.399867586011609, -0.162999999999999, -2.146, 2.175], a = 0.2, v = 0.2, t = 0.2)
movej(p[-0.274012370270532, -0.268976957645396, 0.400702683650061, -0.162999999999999, -2.146, 2.175], a = 0.2, v = 0.2, t = 0.2)
movej(p[-0.274030451571862, -0.26896107839546, 0.401795718784887, -0.162999999999999, -2.146, 2.175], a = 0.2, v = 0.2, t = 0.2)
movej(p[-0.274049998164784, -0.268943912306098, 0.402977332455289, -0.162999999999999, -2.146, 2.175], a = 0.2, v = 0.2, t = 0.2)
movej(p[-0.274059777249643, -0.268935324177965, 0.403568489205698, -0.162999999999999, -2.146, 2.175], a = 0.2, v = 0.2, t = 0.2)
movej(p[-0.274068965917913, -0.268927254561882, 0.404123954604865, -0.162999999999999, -2.146, 2.175], a = 0.2, v = 0.2, t = 0.2)
