def moving():
set_payload_mass(0)
set_tcp(p[0,0,0,0,0,0])
movej(p[-0.4025, -0.1161, 0.3402, -1.113, -1.287, 1.334], a = 0.2, v = 0.2, t = 0.2)
movej(p[-0.402554929322023, -0.116057477575295, 0.340251716660558, -1.11260983990136, -1.28658824067133, 1.33570893381171], a = 0.2, v = 0.2, t = 0.2)
movej(p[-0.4025, -0.1161, 0.3402, -1.113, -1.287, 1.334], a = 0.2, v = 0.2, t = 0.2)
movej(p[-0.402554929322023, -0.116057477575295, 0.340251716660558, -1.11260983990136, -1.28658824067133, 1.33570893381171], a = 0.2, v = 0.2, t = 0.2)
movej(p[-0.4025, -0.1161, 0.3402, -1.113, -1.287, 1.334], a = 0.2, v = 0.2, t = 0.2)
movej(p[-0.4025, -0.1161, 0.3402, -1.113, -1.287, 1.334], a = 0.2, v = 0.2, t = 0.2)
movej(p[-0.402558414521727, -0.116252830776114, 0.340059582292698, -1.11246970985296, -1.28350204282374, 1.32651055338353], a = 0.2, v = 0.2, t = 0.2)
movej(p[-0.402808936082662, -0.116347041311837, 0.339933908689403, -1.11361084696253, -1.28525187681909, 1.31931083425349], a = 0.2, v = 0.2, t = 0.2)
movej(p[-0.402836794905098, -0.116355261849543, 0.339846234640378, -1.11709236168448, -1.28450356655983, 1.32020493255275], a = 0.2, v = 0.2, t = 0.2)
movej(p[-0.402847785670527, -0.116202998769917, 0.339872552839445, -1.11510460547394, -1.28653511463752, 1.31351663412333], a = 0.2, v = 0.2, t = 0.2)
movej(p[-0.402794798164305, -0.116169487338971, 0.339827782556876, -1.1169106309919, -1.28335320738523, 1.31399640638164], a = 0.2, v = 0.2, t = 0.2)
movej(p[-0.402662030978513, -0.116182651213012, 0.339689893169242, -1.11460345539298, -1.28242079497552, 1.31173928147722], a = 0.2, v = 0.2, t = 0.2)
movej(p[-0.402202624787143, -0.116023788464687, 0.339583798565111, -1.11729921775444, -1.27815806315285, 1.32159031182468], a = 0.2, v = 0.2, t = 0.2)
movej(p[-0.401330121402954, -0.115816746511406, 0.339514379803848, -1.11045690984189, -1.26956416864344, 1.31578214543933], a = 0.2, v = 0.2, t = 0.2)
movej(p[-0.40037170244712, -0.11582255001971, 0.339415478071955, -1.1020286757073, -1.26563492086735, 1.31193170219503], a = 0.2, v = 0.2, t = 0.2)
movej(p[-0.399381724280072, -0.115984756536804, 0.339375485040039, -1.09045148953947, -1.2628852437762, 1.30697378846865], a = 0.2, v = 0.2, t = 0.2)
movej(p[-0.398520694416424, -0.11597955895613, 0.339468110373298, -1.08901715605343, -1.2610023842977, 1.32479147469298], a = 0.2, v = 0.2, t = 0.2)
movej(p[-0.39798050067161, -0.116048391036785, 0.339550412344944, -1.07985137374545, -1.25751105615489, 1.32614250658071], a = 0.2, v = 0.2, t = 0.2)
movej(p[-0.398137963758375, -0.116228582426047, 0.339562610235837, -1.07243226644124, -1.26284539179134, 1.32523164640744], a = 0.2, v = 0.2, t = 0.2)
movej(p[-0.399015207530683, -0.116389510245619, 0.339629254821768, -1.06882105137585, -1.26831355269023, 1.32186764911569], a = 0.2, v = 0.2, t = 0.2)
movej(p[-0.400106799180595, -0.116485720730657, 0.339735443307078, -1.07346253189164, -1.27117542717939, 1.32260487483322], a = 0.2, v = 0.2, t = 0.2)
movej(p[-0.401266321459213, -0.116697172765168, 0.339744563783452, -1.08266403135537, -1.27239502501871, 1.31694614256961], a = 0.2, v = 0.2, t = 0.2)
movej(p[-0.402171151897515, -0.116850227024017, 0.33969268525349, -1.09474434116547, -1.27550389823765, 1.31415128985746], a = 0.2, v = 0.2, t = 0.2)
movej(p[-0.402699288633893, -0.116772993160371, 0.339690454560029, -1.10278341311726, -1.28285312558156, 1.30822827888163], a = 0.2, v = 0.2, t = 0.2)
movej(p[-0.402785797529071, -0.116606097510306, 0.339667392694437, -1.10793633707454, -1.28207477259737, 1.30843467849701], a = 0.2, v = 0.2, t = 0.2)
movej(p[-0.402741609460899, -0.116556143323071, 0.339568634335253, -1.11204071598562, -1.28160060631795, 1.31109902075348], a = 0.2, v = 0.2, t = 0.2)
movej(p[-0.402435882114608, -0.116399509857644, 0.339475999025227, -1.11438314955699, -1.27760187045584, 1.3203223018511], a = 0.2, v = 0.2, t = 0.2)
movej(p[-0.401767594660946, -0.11613958023218, 0.33947640486773, -1.11219299689077, -1.27379936472178, 1.31805280283475], a = 0.2, v = 0.2, t = 0.2)
movej(p[-0.400855215908639, -0.115983995805426, 0.339404977580286, -1.1021739264265, -1.26792428301129, 1.3104768063911], a = 0.2, v = 0.2, t = 0.2)
movej(p[-0.399803377370328, -0.116032967939496, 0.339360672547746, -1.09269342095505, -1.26482143157142, 1.30552970896542], a = 0.2, v = 0.2, t = 0.2)
movej(p[-0.398951852477489, -0.116011687116579, 0.339431486726775, -1.08701852156906, -1.26375175240384, 1.31524056163762], a = 0.2, v = 0.2, t = 0.2)
movej(p[-0.3981872367781, -0.116040580146061, 0.339550363769111, -1.07591568612515, -1.26410298987945, 1.31390712906548], a = 0.2, v = 0.2, t = 0.2)
movej(p[-0.398020424134828, -0.116158129170495, 0.339582884719272, -1.0686639467901, -1.26683096524243, 1.31577688940994], a = 0.2, v = 0.2, t = 0.2)
movej(p[-0.398423467839119, -0.116336476333393, 0.339570361412282, -1.06774037761421, -1.26800519696804, 1.32051051723716], a = 0.2, v = 0.2, t = 0.2)
movej(p[-0.399400545376164, -0.116379370373722, 0.339658161975525, -1.07053914082871, -1.27094495981595, 1.32200101731986], a = 0.2, v = 0.2, t = 0.2)
movej(p[-0.40056803211904, -0.116528206650656, 0.339686472467851, -1.07858751026931, -1.27054009840155, 1.32019756979604], a = 0.2, v = 0.2, t = 0.2)
movej(p[-0.401649133251005, -0.116720785479418, 0.339663042233599, -1.08457156976985, -1.27822980555171, 1.30924944449419], a = 0.2, v = 0.2, t = 0.2)
movej(p[-0.402317604366275, -0.116723210979166, 0.339661359467878, -1.10184394876118, -1.2793601075594, 1.31790160835147], a = 0.2, v = 0.2, t = 0.2)
movej(p[-0.402558816617051, -0.116625776919832, 0.339680777623238, -1.10446518887205, -1.28205313952747, 1.30923093126071], a = 0.2, v = 0.2, t = 0.2)
movej(p[-0.402607700063396, -0.116558598756323, 0.339609307173953, -1.10550188787857, -1.28293233156554, 1.30516947217087], a = 0.2, v = 0.2, t = 0.2)
movej(p[-0.402502309853559, -0.116510331630849, 0.339495476884622, -1.10325735545475, -1.284060562591, 1.30220734235689], a = 0.2, v = 0.2, t = 0.2)
movej(p[-0.402100645562111, -0.116229480588239, 0.339454120384038, -1.10446666116164, -1.27922769588504, 1.31028738162467], a = 0.2, v = 0.2, t = 0.2)
movej(p[-0.401365881346131, -0.116112694617295, 0.339354598830058, -1.10139653317419, -1.26982439757251, 1.31239383971354], a = 0.2, v = 0.2, t = 0.2)
movej(p[-0.400418167101158, -0.116105955996042, 0.33925650197864, -1.0947459047357, -1.26357757510026, 1.31029850724795], a = 0.2, v = 0.2, t = 0.2)
movej(p[-0.399407263102928, -0.116117962292442, 0.339256440259422, -1.09104865271669, -1.26049370160164, 1.31646562823574], a = 0.2, v = 0.2, t = 0.2)
movej(p[-0.398500730777089, -0.11606833693555, 0.339358109924324, -1.08502025935114, -1.25839261597325, 1.31891937261531], a = 0.2, v = 0.2, t = 0.2)
movej(p[-0.398069824077278, -0.116194507087918, 0.339404825502128, -1.07741610615696, -1.26247973769768, 1.32085225792628], a = 0.2, v = 0.2, t = 0.2)
movej(p[-0.398150394756673, -0.116292671747657, 0.339467764727577, -1.06848372764291, -1.26849853010554, 1.31850734945249], a = 0.2, v = 0.2, t = 0.2)
movej(p[-0.398676976151406, -0.116308376634477, 0.33960088528854, -1.0694834385608, -1.27145808018659, 1.324300655178], a = 0.2, v = 0.2, t = 0.2)
movej(p[-0.399679797490421, -0.116398140607193, 0.3396876887569, -1.07193163108003, -1.27405362605929, 1.31880631327237], a = 0.2, v = 0.2, t = 0.2)
movej(p[-0.400879361509806, -0.116556259980947, 0.339731173406377, -1.08530262654425, -1.27639346747858, 1.32109371727171], a = 0.2, v = 0.2, t = 0.2)
movej(p[-0.401911823968924, -0.11658880737193, 0.339763919741315, -1.09735903909762, -1.28173301748525, 1.32142446708874], a = 0.2, v = 0.2, t = 0.2)
movej(p[-0.402370639168372, -0.116487330107569, 0.3398141701403, -1.10732376968684, -1.28171306817322, 1.32405033291254], a = 0.2, v = 0.2, t = 0.2)
movej(p[-0.402592882179052, -0.11643104857022, 0.339781982537363, -1.1159506479168, -1.28076645063904, 1.32781362469377], a = 0.2, v = 0.2, t = 0.2)
movej(p[-0.402645220271627, -0.116313100505222, 0.339742578723732, -1.11886908851172, -1.2797934075769, 1.32969020928381], a = 0.2, v = 0.2, t = 0.2)
movej(p[-0.402437977998761, -0.116107626193719, 0.339686609557019, -1.12146537572085, -1.27529754423091, 1.33352180803821], a = 0.2, v = 0.2, t = 0.2)
movej(p[-0.40187357484346, -0.115963668223625, 0.33955068509477, -1.10908268618773, -1.27330013859016, 1.31856988530969], a = 0.2, v = 0.2, t = 0.2)
movej(p[-0.400923245174344, -0.115906567234516, 0.339397279828436, -1.10297077194676, -1.26917297491367, 1.31728556051565], a = 0.2, v = 0.2, t = 0.2)
movej(p[-0.399888769203722, -0.115817996874478, 0.339393127148279, -1.09357531095053, -1.27019957824785, 1.31281518403517], a = 0.2, v = 0.2, t = 0.2)
movej(p[-0.398871892648878, -0.11578363847743, 0.339441357010005, -1.09084490517303, -1.2638094394397, 1.32315183134915], a = 0.2, v = 0.2, t = 0.2)
movej(p[-0.398193728733756, -0.115927260958166, 0.339436624689782, -1.08611215263124, -1.26344876582206, 1.32900721670568], a = 0.2, v = 0.2, t = 0.2)
movej(p[-0.398034597524744, -0.116031376961091, 0.339476113595229, -1.08420033316653, -1.26426297332111, 1.33889974033305], a = 0.2, v = 0.2, t = 0.2)
movej(p[-0.398329400425103, -0.11606647911851, 0.339611752774616, -1.07950454694965, -1.26860296882889, 1.33778572943519], a = 0.2, v = 0.2, t = 0.2)
movej(p[-0.399286432212029, -0.116185518678242, 0.339730868035318, -1.07731371761244, -1.27221011752428, 1.32923263038803], a = 0.2, v = 0.2, t = 0.2)
movej(p[-0.400548075077334, -0.116399788775686, 0.339785426795067, -1.08705808428218, -1.27571773452279, 1.32882257168884], a = 0.2, v = 0.2, t = 0.2)
movej(p[-0.401723867440141, -0.116473067215322, 0.339843773555475, -1.10067421379684, -1.28096742806679, 1.33132782920315], a = 0.2, v = 0.2, t = 0.2)
movej(p[-0.402309219514335, -0.116444280785385, 0.339869924482574, -1.11155806314306, -1.28170838945977, 1.33370208695565], a = 0.2, v = 0.2, t = 0.2)
movej(p[-0.402583011908767, -0.1163999603287, 0.339807839192283, -1.11486928375148, -1.28355990969231, 1.32945702636907], a = 0.2, v = 0.2, t = 0.2)
movej(p[-0.402641755170867, -0.116273727263588, 0.339757556294294, -1.11617047933232, -1.28315139545716, 1.32893023842634], a = 0.2, v = 0.2, t = 0.2)
movej(p[-0.402416063742834, -0.116113682117272, 0.33969109936304, -1.11461963419486, -1.27905438976429, 1.32439491742433], a = 0.2, v = 0.2, t = 0.2)
movej(p[-0.401954048387865, -0.116015436664818, 0.339559336898714, -1.10821282103558, -1.27486237187952, 1.31739563455092], a = 0.2, v = 0.2, t = 0.2)
movej(p[-0.401094267028653, -0.1159738720109, 0.339435396128996, -1.10376440454077, -1.26968421116168, 1.31753794428145], a = 0.2, v = 0.2, t = 0.2)
movej(p[-0.400112729297571, -0.115800997362861, 0.339471999476613, -1.10109144281315, -1.26714870743571, 1.32215704076198], a = 0.2, v = 0.2, t = 0.2)
movej(p[-0.399158440948725, -0.115805495090348, 0.339517125481852, -1.09698971177894, -1.26021165949977, 1.3292910480733], a = 0.2, v = 0.2, t = 0.2)
movej(p[-0.398513859444549, -0.115970383056303, 0.339510036105514, -1.08762111641995, -1.26231538873055, 1.32741609177287], a = 0.2, v = 0.2, t = 0.2)
movej(p[-0.398151852749991, -0.116062021043215, 0.339516184060452, -1.08091610746546, -1.26418658845232, 1.33218076734458], a = 0.2, v = 0.2, t = 0.2)
movej(p[-0.398252532389759, -0.116050833519055, 0.339602549168796, -1.06931956238815, -1.27061963091145, 1.31836703693421], a = 0.2, v = 0.2, t = 0.2)
movej(p[-0.398990346916691, -0.116128686096412, 0.339691472710375, -1.06819976750685, -1.27472167492439, 1.31258962865293], a = 0.2, v = 0.2, t = 0.2)
movej(p[-0.400215638813831, -0.11635173727458, 0.339725595635549, -1.0764874655006, -1.27828724829668, 1.31307875330433], a = 0.2, v = 0.2, t = 0.2)
movej(p[-0.401414685009074, -0.116403878886745, 0.339846367029729, -1.08722159561561, -1.28339093036822, 1.3132686346283], a = 0.2, v = 0.2, t = 0.2)
movej(p[-0.402148907378659, -0.116417072806331, 0.339847347380663, -1.10205719116322, -1.28106155019641, 1.32224660026331], a = 0.2, v = 0.2, t = 0.2)
movej(p[-0.402539577499292, -0.116375193964888, 0.339806259369174, -1.10638367668255, -1.28425778617752, 1.31781661065931], a = 0.2, v = 0.2, t = 0.2)
movej(p[-0.402619060697538, -0.116245736036934, 0.339761497716721, -1.11390499818906, -1.28422379776494, 1.32550522460603], a = 0.2, v = 0.2, t = 0.2)
movej(p[-0.402448963163947, -0.11607398585369, 0.339749435026858, -1.10709016062864, -1.28621586411909, 1.31144407911173], a = 0.2, v = 0.2, t = 0.2)
movej(p[-0.401945642664958, -0.115964125277994, 0.339601461739223, -1.10027607711317, -1.28470469417662, 1.30307680426997], a = 0.2, v = 0.2, t = 0.2)
movej(p[-0.401111903770526, -0.115876739639111, 0.339461005318492, -1.0960724014641, -1.27992173119422, 1.30293772400543], a = 0.2, v = 0.2, t = 0.2)
movej(p[-0.400114929520648, -0.115713100720282, 0.339433519901435, -1.09646036107429, -1.27172749063605, 1.31430821261113], a = 0.2, v = 0.2, t = 0.2)
movej(p[-0.399185965426768, -0.115751690505928, 0.339437097068124, -1.09501474796336, -1.26353741595316, 1.32500627960782], a = 0.2, v = 0.2, t = 0.2)
movej(p[-0.398504372853518, -0.11589066562395, 0.339436951601207, -1.0849089103127, -1.26417079089852, 1.3258251497679], a = 0.2, v = 0.2, t = 0.2)
movej(p[-0.398132057495169, -0.115927279980782, 0.339489699814551, -1.08083813532228, -1.26738949954777, 1.33428581841209], a = 0.2, v = 0.2, t = 0.2)
movej(p[-0.398019990148821, -0.115857666195974, 0.33959652489516, -1.07083964447265, -1.27020188849537, 1.32797452925912], a = 0.2, v = 0.2, t = 0.2)
movej(p[-0.39867757680989, -0.115927176958072, 0.339669644014658, -1.06867059863886, -1.27594342378848, 1.32262886703356], a = 0.2, v = 0.2, t = 0.2)
movej(p[-0.39981648093437, -0.116116765672661, 0.339739438552722, -1.07054858914277, -1.27974791698531, 1.31579170275159], a = 0.2, v = 0.2, t = 0.2)
movej(p[-0.401136463448871, -0.116197632314843, 0.339861834334485, -1.0844298266812, -1.28199003348916, 1.31906195512314], a = 0.2, v = 0.2, t = 0.2)
movej(p[-0.402069959257712, -0.11630679515578, 0.339889583163927, -1.09628027472752, -1.28289990180284, 1.31820196782167], a = 0.2, v = 0.2, t = 0.2)
movej(p[-0.402626165311323, -0.116284194293244, 0.339876414005317, -1.10841590573964, -1.28366969470671, 1.32371448151365], a = 0.2, v = 0.2, t = 0.2)
movej(p[-0.402769885514678, -0.116183951453262, 0.339866526051586, -1.11087358969322, -1.28698548587598, 1.31828826433737], a = 0.2, v = 0.2, t = 0.2)
movej(p[-0.402715115336551, -0.116036525535941, 0.339859498940527, -1.11196997169242, -1.28612789814478, 1.31664069273058], a = 0.2, v = 0.2, t = 0.2)
movej(p[-0.402474028403569, -0.115932671950281, 0.339755124171526, -1.10968734191448, -1.28610070688113, 1.31325711589469], a = 0.2, v = 0.2, t = 0.2)
movej(p[-0.401862972635008, -0.115757264142928, 0.339632939441746, -1.10724825672168, -1.28244189593344, 1.31747149458449], a = 0.2, v = 0.2, t = 0.2)
movej(p[-0.400869265735413, -0.115503067748163, 0.339567527237331, -1.10747791603761, -1.27311218976324, 1.32520554898006], a = 0.2, v = 0.2, t = 0.2)
movej(p[-0.399817351096177, -0.115535873306982, 0.339492559710547, -1.10082545305715, -1.26521107604758, 1.32651967857066], a = 0.2, v = 0.2, t = 0.2)
movej(p[-0.398900152215515, -0.115680579100165, 0.339471277475427, -1.0931144184809, -1.26280834582938, 1.32862760848348], a = 0.2, v = 0.2, t = 0.2)
movej(p[-0.398184317270016, -0.115713613335128, 0.339532708820212, -1.08692484521376, -1.26584642544612, 1.3364232140269], a = 0.2, v = 0.2, t = 0.2)
movej(p[-0.397880110640217, -0.115723499272594, 0.339636703121147, -1.07889266253156, -1.26631282224698, 1.33440061300337], a = 0.2, v = 0.2, t = 0.2)
movej(p[-0.398203356284868, -0.115861479059294, 0.339693214329558, -1.07450681638862, -1.27104652044775, 1.33152408105428], a = 0.2, v = 0.2, t = 0.2)
movej(p[-0.399291527745218, -0.116052736966692, 0.339775020257452, -1.07684391221444, -1.27317031108789, 1.33051598029258], a = 0.2, v = 0.2, t = 0.2)
movej(p[-0.400577734345772, -0.11623086225182, 0.339870141682956, -1.08636989291457, -1.27603500978537, 1.32867079239004], a = 0.2, v = 0.2, t = 0.2)
movej(p[-0.401707070957764, -0.116373787873923, 0.339912832946229, -1.09516854923172, -1.28057016789592, 1.32092337987025], a = 0.2, v = 0.2, t = 0.2)
movej(p[-0.402464229215311, -0.11642780869422, 0.339919108032607, -1.10965190692976, -1.28421873111355, 1.32405870576032], a = 0.2, v = 0.2, t = 0.2)
movej(p[-0.402824871785525, -0.116264529298279, 0.339974969959389, -1.11587476409977, -1.29003800228405, 1.3217052429785], a = 0.2, v = 0.2, t = 0.2)
movej(p[-0.402834269314155, -0.11610690914404, 0.339942885694877, -1.12528831001235, -1.28389186641916, 1.33358830660775], a = 0.2, v = 0.2, t = 0.2)
movej(p[-0.402798401632176, -0.11607579708024, 0.339855621302937, -1.12583153663697, -1.28300240290644, 1.33301183623229], a = 0.2, v = 0.2, t = 0.2)
movej(p[-0.402565547267982, -0.115927383006997, 0.33977386923593, -1.12701664128317, -1.28068606696377, 1.34016102507216], a = 0.2, v = 0.2, t = 0.2)
movej(p[-0.402007877932242, -0.115760214524185, 0.339681287645269, -1.12104784361713, -1.27601476139748, 1.33545755948665], a = 0.2, v = 0.2, t = 0.2)
movej(p[-0.401224494579571, -0.115671488469313, 0.339558317011193, -1.11009562615841, -1.27323770684128, 1.32485912432773], a = 0.2, v = 0.2, t = 0.2)
movej(p[-0.400206180876604, -0.115668604132577, 0.339442019523773, -1.1042340264824, -1.26770531788135, 1.32595855624871], a = 0.2, v = 0.2, t = 0.2)
movej(p[-0.399330526826924, -0.115597027215672, 0.339536372275161, -1.09696084696299, -1.26910245015841, 1.32680665505713], a = 0.2, v = 0.2, t = 0.2)
movej(p[-0.398640761557773, -0.115643300626364, 0.33958387140185, -1.09219336267126, -1.26451434946303, 1.33211025414116], a = 0.2, v = 0.2, t = 0.2)
movej(p[-0.398572110228164, -0.115821656457292, 0.339617489067106, -1.08452925049079, -1.26939310783509, 1.33055589582256], a = 0.2, v = 0.2, t = 0.2)
movej(p[-0.399063743436717, -0.115961523142452, 0.339640612983957, -1.08606996300927, -1.27005317559395, 1.33949982466246], a = 0.2, v = 0.2, t = 0.2)
movej(p[-0.400007600961126, -0.116047113450001, 0.339781313358408, -1.08787486825062, -1.27374380320978, 1.33433321393566], a = 0.2, v = 0.2, t = 0.2)
movej(p[-0.401148244786541, -0.116180785648442, 0.339850164942304, -1.09438922596771, -1.27820932704001, 1.32879869769685], a = 0.2, v = 0.2, t = 0.2)
movej(p[-0.402023471603718, -0.116308951395353, 0.339885845951456, -1.10197078821453, -1.28527502667599, 1.32037627820618], a = 0.2, v = 0.2, t = 0.2)
movej(p[-0.402568021286523, -0.116166508891237, 0.339953728417599, -1.11141088620273, -1.2887980442176, 1.32241894446999], a = 0.2, v = 0.2, t = 0.2)
movej(p[-0.40270801183298, -0.116070179874703, 0.339922058175525, -1.11986042032469, -1.28549228579606, 1.32580322924126], a = 0.2, v = 0.2, t = 0.2)
movej(p[-0.402778745008267, -0.116044319063772, 0.339838126040274, -1.12254931137876, -1.28338650903909, 1.32610067284], a = 0.2, v = 0.2, t = 0.2)
movej(p[-0.402728146933161, -0.115976316112558, 0.339764447995899, -1.12572503391223, -1.28163196802034, 1.33199743882496], a = 0.2, v = 0.2, t = 0.2)
movej(p[-0.40250357964316, -0.115823235008826, 0.339758607504351, -1.11422702206564, -1.28519837563238, 1.31621259038595], a = 0.2, v = 0.2, t = 0.2)
movej(p[-0.402010445814351, -0.115773984925635, 0.339631603440281, -1.10705627333031, -1.28358880867461, 1.30990111565527], a = 0.2, v = 0.2, t = 0.2)
movej(p[-0.401230255817147, -0.11574171925554, 0.3395426822516, -1.09623829440822, -1.28297826251033, 1.29900963066526], a = 0.2, v = 0.2, t = 0.2)
movej(p[-0.40024459999962, -0.115584471310513, 0.339576807461614, -1.1023336077611, -1.27284581073056, 1.31920589767604], a = 0.2, v = 0.2, t = 0.2)
movej(p[-0.399409405231714, -0.115614474325629, 0.33961757156523, -1.09692448352184, -1.26632092504798, 1.3218841125064], a = 0.2, v = 0.2, t = 0.2)
movej(p[-0.398888393431937, -0.115784966571004, 0.339596299282887, -1.0888823428826, -1.26646580877509, 1.32302449500891], a = 0.2, v = 0.2, t = 0.2)
movej(p[-0.398699327407629, -0.115913426074383, 0.339615484166101, -1.08026595609756, -1.27107101845932, 1.32241419344307], a = 0.2, v = 0.2, t = 0.2)
movej(p[-0.398828401117416, -0.115858092930274, 0.339744372402589, -1.07498252427314, -1.27408290850956, 1.32071216960329], a = 0.2, v = 0.2, t = 0.2)
movej(p[-0.399533969927508, -0.115957446814089, 0.339787489101163, -1.07929284605263, -1.27495633646189, 1.32411938632312], a = 0.2, v = 0.2, t = 0.2)
movej(p[-0.400572590463947, -0.116132672409469, 0.33981052413991, -1.08922260205092, -1.27610114367479, 1.32949290631276], a = 0.2, v = 0.2, t = 0.2)
movej(p[-0.401606067115602, -0.11622477703392, 0.339878081482519, -1.10303022559802, -1.28014530140906, 1.33350039276383], a = 0.2, v = 0.2, t = 0.2)
movej(p[-0.402206138388544, -0.11624475121176, 0.339910804830597, -1.11310795383945, -1.28056688997602, 1.33421667759864], a = 0.2, v = 0.2, t = 0.2)
movej(p[-0.40257141701351, -0.116321911350244, 0.339826728036131, -1.12015852524613, -1.28247779652619, 1.3329835529928], a = 0.2, v = 0.2, t = 0.2)
movej(p[-0.402709100090746, -0.116266885200241, 0.339730337755839, -1.12394830945165, -1.28129832540878, 1.3396419788814], a = 0.2, v = 0.2, t = 0.2)
movej(p[-0.40267106464876, -0.116185178870856, 0.339665668263222, -1.12188156917721, -1.27954171005474, 1.33328817877809], a = 0.2, v = 0.2, t = 0.2)
movej(p[-0.402619662803803, -0.116184157711645, 0.33957555699886, -1.11385102748088, -1.27979973335483, 1.31833810825974], a = 0.2, v = 0.2, t = 0.2)
movej(p[-0.402539755723098, -0.116258912933266, 0.33945588405628, -1.11028537638778, -1.28000655900852, 1.31077094434984], a = 0.2, v = 0.2, t = 0.2)
movej(p[-0.402386791375923, -0.116118571239971, 0.339410225825904, -1.11290963787413, -1.2789483380245, 1.31860553119064], a = 0.2, v = 0.2, t = 0.2)
movej(p[-0.401812984165358, -0.115988883347256, 0.339333089124466, -1.10689496736178, -1.27037779661422, 1.31456070094661], a = 0.2, v = 0.2, t = 0.2)
movej(p[-0.401181888123678, -0.116031497064469, 0.339193343370596, -1.10013754476651, -1.26597514507245, 1.31011785437201], a = 0.2, v = 0.2, t = 0.2)
movej(p[-0.400463746196676, -0.116175482859921, 0.339072350916327, -1.08941339821298, -1.2641467151981, 1.30224226365398], a = 0.2, v = 0.2, t = 0.2)
movej(p[-0.399853708261298, -0.116121722816508, 0.339160165225135, -1.08629222050525, -1.26423897242592, 1.30562622997706], a = 0.2, v = 0.2, t = 0.2)
movej(p[-0.399253399019938, -0.116206601216046, 0.339183906413612, -1.07959693675916, -1.25993705257613, 1.30689600193903], a = 0.2, v = 0.2, t = 0.2)
movej(p[-0.398965448037425, -0.116417758790116, 0.339183971852675, -1.07403547755117, -1.26132192339324, 1.30738754124942], a = 0.2, v = 0.2, t = 0.2)
movej(p[-0.399037577801222, -0.116570817200514, 0.339210450277496, -1.07199017593151, -1.26292644181861, 1.31560177835447], a = 0.2, v = 0.2, t = 0.2)
movej(p[-0.399506268143219, -0.116559931635291, 0.339326395053957, -1.06567902860422, -1.26960755331147, 1.306574630396], a = 0.2, v = 0.2, t = 0.2)
movej(p[-0.40045093181624, -0.116647530631611, 0.339402544337063, -1.07149756611632, -1.27185178941884, 1.30745057928133], a = 0.2, v = 0.2, t = 0.2)
movej(p[-0.401409751845989, -0.116778285021987, 0.339432421740717, -1.07571672987069, -1.27756043143092, 1.29870779716661], a = 0.2, v = 0.2, t = 0.2)
movej(p[-0.402170524671168, -0.116719528287691, 0.339508215220938, -1.09646535725083, -1.2762585962917, 1.3179358993265], a = 0.2, v = 0.2, t = 0.2)
movej(p[-0.402454601111154, -0.116617712811733, 0.339525757785147, -1.09891033406916, -1.27642804300079, 1.31108051350988], a = 0.2, v = 0.2, t = 0.2)
movej(p[-0.402573492391763, -0.116603939839357, 0.339453235940566, -1.10446935158458, -1.2744684354914, 1.31486226918515], a = 0.2, v = 0.2, t = 0.2)
movej(p[-0.402609757149758, -0.116550259975719, 0.339397449343005, -1.10779488885271, -1.27313173398583, 1.31928082238201], a = 0.2, v = 0.2, t = 0.2)
movej(p[-0.402566454798222, -0.116401864071663, 0.339368534389317, -1.11287247500436, -1.26790730139073, 1.32628997994841], a = 0.2, v = 0.2, t = 0.2)
movej(p[-0.402524439414115, -0.116381261773686, 0.339314994909562, -1.10711815098021, -1.26838889440303, 1.31633931141709], a = 0.2, v = 0.2, t = 0.2)
movej(p[-0.402394619106308, -0.116362164359048, 0.339204525153362, -1.10618995733436, -1.26676985677513, 1.31596073117732], a = 0.2, v = 0.2, t = 0.2)
movej(p[-0.401988780815739, -0.116219135730091, 0.339193783896144, -1.10375539014024, -1.2691565190385, 1.3144493015508], a = 0.2, v = 0.2, t = 0.2)
movej(p[-0.401254550577967, -0.116043953063116, 0.339155142139799, -1.09979916424217, -1.26192193638119, 1.31417507854115], a = 0.2, v = 0.2, t = 0.2)
movej(p[-0.400485741225589, -0.116088569495784, 0.339075735918174, -1.09320698470866, -1.26086481713951, 1.30987036697833], a = 0.2, v = 0.2, t = 0.2)
movej(p[-0.399741201179745, -0.116185096808501, 0.339055406982312, -1.08758982212438, -1.25860245860486, 1.3141756616905], a = 0.2, v = 0.2, t = 0.2)
movej(p[-0.399099786017249, -0.116146584132817, 0.339188997349226, -1.08339762425667, -1.26138201943783, 1.31812851168064], a = 0.2, v = 0.2, t = 0.2)
movej(p[-0.398690129062553, -0.116196944709031, 0.33927101410259, -1.0807349299141, -1.2578154048423, 1.32383294046302], a = 0.2, v = 0.2, t = 0.2)
movej(p[-0.398912122389382, -0.116368295500827, 0.339318983329126, -1.07624523113912, -1.2621030143454, 1.32307962859457], a = 0.2, v = 0.2, t = 0.2)
movej(p[-0.399590243966464, -0.116441173923891, 0.339349973512203, -1.08300694841944, -1.26082971429292, 1.34010115304057], a = 0.2, v = 0.2, t = 0.2)
movej(p[-0.400470810772955, -0.11644119301386, 0.339469816402446, -1.0806571859768, -1.26650568315183, 1.32788260161369], a = 0.2, v = 0.2, t = 0.2)
movej(p[-0.401423471890172, -0.116496460297642, 0.339522479695032, -1.08467780781841, -1.27229886181299, 1.31877475266806], a = 0.2, v = 0.2, t = 0.2)
movej(p[-0.402113296650738, -0.11657420315747, 0.339533824365866, -1.09184552514381, -1.27842668079316, 1.31331586464611], a = 0.2, v = 0.2, t = 0.2)
movej(p[-0.402552059771141, -0.116398241960578, 0.339599755585799, -1.10696379332983, -1.27868936426392, 1.32496921048278], a = 0.2, v = 0.2, t = 0.2)
movej(p[-0.402641822962277, -0.116278541591168, 0.339582235483623, -1.11496583351119, -1.27319274137369, 1.33015878198378], a = 0.2, v = 0.2, t = 0.2)
movej(p[-0.402701566501919, -0.116254119124681, 0.339544836034407, -1.12032970265627, -1.27063102095336, 1.33085429317742], a = 0.2, v = 0.2, t = 0.2)
movej(p[-0.40265963962162, -0.116221885689374, 0.339544587976696, -1.11980984708535, -1.27175213578256, 1.32843661467317], a = 0.2, v = 0.2, t = 0.2)
movej(p[-0.402541329882065, -0.116087295888384, 0.339560213291538, -1.11067087223169, -1.27656077171953, 1.3132148391735], a = 0.2, v = 0.2, t = 0.2)
movej(p[-0.402173173103431, -0.115989451277079, 0.339450031431245, -1.10356173470125, -1.27741553509014, 1.30667223133192], a = 0.2, v = 0.2, t = 0.2)
movej(p[-0.401567303948683, -0.115867051889463, 0.339332838310627, -1.09727994700271, -1.27608754030974, 1.30261449870109], a = 0.2, v = 0.2, t = 0.2)
movej(p[-0.400649779679769, -0.115610230301623, 0.339314727307517, -1.10797781085623, -1.26419629490254, 1.32908561115916], a = 0.2, v = 0.2, t = 0.2)
movej(p[-0.399788006423637, -0.115559603947528, 0.339308740172432, -1.10547706922138, -1.25635839138239, 1.33503499394552], a = 0.2, v = 0.2, t = 0.2)
movej(p[-0.399171963169574, -0.115732475474701, 0.339282612321083, -1.09833915422743, -1.25581222320811, 1.33511032399102], a = 0.2, v = 0.2, t = 0.2)
movej(p[-0.398666552648359, -0.115892818683842, 0.339316093587909, -1.08818223591245, -1.25954534783642, 1.3338558696044], a = 0.2, v = 0.2, t = 0.2)
movej(p[-0.39835829078621, -0.115888648325797, 0.339443872166153, -1.08077833295275, -1.26009193513979, 1.33399568137469], a = 0.2, v = 0.2, t = 0.2)
movej(p[-0.398677970709187, -0.115990187847063, 0.339480521965146, -1.08073875614433, -1.26129310172934, 1.33893248720629], a = 0.2, v = 0.2, t = 0.2)
movej(p[-0.399584994649126, -0.116170772661763, 0.339547419055347, -1.08355387757529, -1.26482045765902, 1.33883259787729], a = 0.2, v = 0.2, t = 0.2)
movej(p[-0.400754080972323, -0.116320945295229, 0.339615938277995, -1.09565812368185, -1.26648887545125, 1.3439783727307], a = 0.2, v = 0.2, t = 0.2)
movej(p[-0.40171582815723, -0.116441425836159, 0.339665322825987, -1.09966280635775, -1.27085195032547, 1.33305140613134], a = 0.2, v = 0.2, t = 0.2)
movej(p[-0.402439560652671, -0.116501691355275, 0.33965753424688, -1.10359372906523, -1.27706207569159, 1.32477484953258], a = 0.2, v = 0.2, t = 0.2)
movej(p[-0.402748588536313, -0.116408264351151, 0.339677428515107, -1.10637942484457, -1.28323514553134, 1.31819443477089], a = 0.2, v = 0.2, t = 0.2)
movej(p[-0.402778304595916, -0.116222822693202, 0.339696181428481, -1.10741823005462, -1.28234983430364, 1.31629464120907], a = 0.2, v = 0.2, t = 0.2)
movej(p[-0.402774481765438, -0.116176447039592, 0.339631487194238, -1.11625357086774, -1.27626244223135, 1.32601620712241], a = 0.2, v = 0.2, t = 0.2)
movej(p[-0.402771484853865, -0.116117540753061, 0.339607016940374, -1.11730832176787, -1.27494031442742, 1.32871630725877], a = 0.2, v = 0.2, t = 0.2)
movej(p[-0.40272357718707, -0.115965328575337, 0.339660831412542, -1.12168237377702, -1.27506538327834, 1.33449139509598], a = 0.2, v = 0.2, t = 0.2)
movej(p[-0.402330046342607, -0.115831756811108, 0.339595689681247, -1.11179152592901, -1.27533074877856, 1.32045282623619], a = 0.2, v = 0.2, t = 0.2)
movej(p[-0.401706013178947, -0.115747730234531, 0.339458233103441, -1.10620776494152, -1.27372555982662, 1.3149366562397], a = 0.2, v = 0.2, t = 0.2)
movej(p[-0.400885109662255, -0.115586628302655, 0.339405217863864, -1.10304388245891, -1.27049369447247, 1.31658546255711], a = 0.2, v = 0.2, t = 0.2)
movej(p[-0.400081971526175, -0.115498154291267, 0.339452624324218, -1.09846211915076, -1.26503923812108, 1.31849495447202], a = 0.2, v = 0.2, t = 0.2)
movej(p[-0.399499208553722, -0.115611749052537, 0.339456507979079, -1.0938885772762, -1.26216951911553, 1.32211409366641], a = 0.2, v = 0.2, t = 0.2)
movej(p[-0.399070753244917, -0.11579315118414, 0.339418235363133, -1.08803245657619, -1.2626250281856, 1.32667966582866], a = 0.2, v = 0.2, t = 0.2)
movej(p[-0.398964010460733, -0.115787676625292, 0.339518251821929, -1.08419363874709, -1.26793655986465, 1.33125906201285], a = 0.2, v = 0.2, t = 0.2)
movej(p[-0.399143181078091, -0.115774839439583, 0.339630651020496, -1.08021731187204, -1.26794550891018, 1.32916515313489], a = 0.2, v = 0.2, t = 0.2)
movej(p[-0.399939670395139, -0.115944201097331, 0.33971237613789, -1.08063325891314, -1.27435543786094, 1.32559469327631], a = 0.2, v = 0.2, t = 0.2)
movej(p[-0.400910590913874, -0.116083468310443, 0.339759275410283, -1.0920453196038, -1.2741657921405, 1.33486472558967], a = 0.2, v = 0.2, t = 0.2)
movej(p[-0.40175257095044, -0.116154292788254, 0.339827662191663, -1.09334063491578, -1.28291093384761, 1.31999423185271], a = 0.2, v = 0.2, t = 0.2)
movej(p[-0.40232622629211, -0.116206416368098, 0.339809929453628, -1.09928226942948, -1.28555101024961, 1.31509330746897], a = 0.2, v = 0.2, t = 0.2)
movej(p[-0.402558819368272, -0.116250925261556, 0.339733400848195, -1.10117947113071, -1.28885339714987, 1.30682891955186], a = 0.2, v = 0.2, t = 0.2)
movej(p[-0.402644486892518, -0.116122065943907, 0.33970684041982, -1.1158785328819, -1.28212342261304, 1.32525569978898], a = 0.2, v = 0.2, t = 0.2)
movej(p[-0.402578900620432, -0.116071451179249, 0.339626230882883, -1.12047038142514, -1.27344713878351, 1.32995766075664], a = 0.2, v = 0.2, t = 0.2)
movej(p[-0.402605210062089, -0.116126305689271, 0.339544417537334, -1.12115190872393, -1.27133182734495, 1.32892967777047], a = 0.2, v = 0.2, t = 0.2)
movej(p[-0.40256107403336, -0.116126029541141, 0.339465661865384, -1.12092730116844, -1.27115028716006, 1.33048644938616], a = 0.2, v = 0.2, t = 0.2)
movej(p[-0.402300607052088, -0.115917212265794, 0.339456640745839, -1.11861253992678, -1.26910620867451, 1.32906675082989], a = 0.2, v = 0.2, t = 0.2)
movej(p[-0.401810813410045, -0.115863252662395, 0.33931575847685, -1.11106643904902, -1.26559526536494, 1.32139433869473], a = 0.2, v = 0.2, t = 0.2)
movej(p[-0.401119667816537, -0.115868732865959, 0.339181106325866, -1.10208003311406, -1.26336474563057, 1.31554591657754], a = 0.2, v = 0.2, t = 0.2)
movej(p[-0.400383986574859, -0.115809311956672, 0.339180356097411, -1.0952943896002, -1.26378539267223, 1.31520378189204], a = 0.2, v = 0.2, t = 0.2)
movej(p[-0.399699470735574, -0.11577091184024, 0.339229405569654, -1.09405675115815, -1.25990180915767, 1.32331943741967], a = 0.2, v = 0.2, t = 0.2)
movej(p[-0.399207683420291, -0.115894025267732, 0.339201176277095, -1.09290461405015, -1.25969723587722, 1.33074527309165], a = 0.2, v = 0.2, t = 0.2)
movej(p[-0.399001114038316, -0.11601597005823, 0.339247178943337, -1.0915262388651, -1.26039021276463, 1.33920285908832], a = 0.2, v = 0.2, t = 0.2)
movej(p[-0.399164131708313, -0.115981484656229, 0.339427404172475, -1.08862239346386, -1.264918959772, 1.3412902251185], a = 0.2, v = 0.2, t = 0.2)
movej(p[-0.399826139421198, -0.116032709386734, 0.3395702994179, -1.08302116132288, -1.26990237459861, 1.32792499358066], a = 0.2, v = 0.2, t = 0.2)
movej(p[-0.400793563065997, -0.116208336595935, 0.339631288852006, -1.08713415778818, -1.27662416696943, 1.32168679571561], a = 0.2, v = 0.2, t = 0.2)
movej(p[-0.401721553480917, -0.116235921933361, 0.339704526587334, -1.09865596543006, -1.27987791887079, 1.32725775966565], a = 0.2, v = 0.2, t = 0.2)
movej(p[-0.40219371501116, -0.116182340063277, 0.339755923104304, -1.10739844524109, -1.27743616685855, 1.32912266650086], a = 0.2, v = 0.2, t = 0.2)
movej(p[-0.402508958522875, -0.116177531769935, 0.339725569778211, -1.10941506544908, -1.27826778291213, 1.32515667449685], a = 0.2, v = 0.2, t = 0.2)
movej(p[-0.402585876570191, -0.116190606090232, 0.339624851666603, -1.11111815985374, -1.27950271874124, 1.32320175764077], a = 0.2, v = 0.2, t = 0.2)
movej(p[-0.402698475311029, -0.116038783889266, 0.339652609247631, -1.11511390117071, -1.28189062147526, 1.32718809910558], a = 0.2, v = 0.2, t = 0.2)
movej(p[-0.40260096850279, -0.115937205011436, 0.339623279292861, -1.12028975236743, -1.27448725077001, 1.33466319451428], a = 0.2, v = 0.2, t = 0.2)
movej(p[-0.402344213710795, -0.115912593768796, 0.339500868777695, -1.12039150817228, -1.27174040646702, 1.33565144813556], a = 0.2, v = 0.2, t = 0.2)
movej(p[-0.401775106632073, -0.115805290844507, 0.339386058299566, -1.11870059914464, -1.26688136416689, 1.33932963614335], a = 0.2, v = 0.2, t = 0.2)
movej(p[-0.400924908183551, -0.115601114559232, 0.339355840835065, -1.10441890488342, -1.26761950918049, 1.3241383647986], a = 0.2, v = 0.2, t = 0.2)
movej(p[-0.400110729337837, -0.115609363240675, 0.339294024120119, -1.09721771630849, -1.26302626308127, 1.32208385985778], a = 0.2, v = 0.2, t = 0.2)
movej(p[-0.39942221398817, -0.115776102624121, 0.339243940535175, -1.08805268179547, -1.26342296470745, 1.32071364754873], a = 0.2, v = 0.2, t = 0.2)
movej(p[-0.398866727193596, -0.115808236083488, 0.339281943871123, -1.09507343512355, -1.26037556579822, 1.34552889180995], a = 0.2, v = 0.2, t = 0.2)
movej(p[-0.398571530149572, -0.115782489423547, 0.339409758834649, -1.08936237838893, -1.25994152917842, 1.34593603294226], a = 0.2, v = 0.2, t = 0.2)
movej(p[-0.398940042170258, -0.115858898339636, 0.339495697812138, -1.08388284933218, -1.26655829595395, 1.34050318837167], a = 0.2, v = 0.2, t = 0.2)
movej(p[-0.399809980098836, -0.115994131489593, 0.339597344762286, -1.08111725180437, -1.27181330950109, 1.33365465433544], a = 0.2, v = 0.2, t = 0.2)
movej(p[-0.400956023987579, -0.116005782588198, 0.339745411537342, -1.09411949906458, -1.27207350447284, 1.34296696397402], a = 0.2, v = 0.2, t = 0.2)
movej(p[-0.401885043870493, -0.116118094000342, 0.339766407116718, -1.10595358041817, -1.27127969509704, 1.34499141968589], a = 0.2, v = 0.2, t = 0.2)
movej(p[-0.402532034024364, -0.11617528457086, 0.339784761960409, -1.11970361891634, -1.27412068286975, 1.34834089734503], a = 0.2, v = 0.2, t = 0.2)
movej(p[-0.4027351388365, -0.116081762693185, 0.339805529221024, -1.12376426835039, -1.2785358307265, 1.34416239355389], a = 0.2, v = 0.2, t = 0.2)
movej(p[-0.402722497942042, -0.115931219464932, 0.339856945778966, -1.12498563865548, -1.2791347498305, 1.33804599102321], a = 0.2, v = 0.2, t = 0.2)
movej(p[-0.402740129292788, -0.115921424981328, 0.339800842710763, -1.12762531591498, -1.27848213651138, 1.33988525452906], a = 0.2, v = 0.2, t = 0.2)
movej(p[-0.402713201440203, -0.115850261437727, 0.339752581324363, -1.12922666957675, -1.27788539108088, 1.34224881990572], a = 0.2, v = 0.2, t = 0.2)
movej(p[-0.402460394927006, -0.115665437519139, 0.339687067218224, -1.12957429065143, -1.27403973356874, 1.34595481253902], a = 0.2, v = 0.2, t = 0.2)
movej(p[-0.401903579268464, -0.115584248907276, 0.339529616409696, -1.12447473502529, -1.2693608845261, 1.34022863967279], a = 0.2, v = 0.2, t = 0.2)
movej(p[-0.401050869851028, -0.115518238186553, 0.339365110704432, -1.11459570734811, -1.26710088296873, 1.33195522619018], a = 0.2, v = 0.2, t = 0.2)
movej(p[-0.400137647128238, -0.115423856028557, 0.339356416152562, -1.10969470327832, -1.26665222178031, 1.33456571963535], a = 0.2, v = 0.2, t = 0.2)
movej(p[-0.399288612491247, -0.115357597664888, 0.339394564994401, -1.10309044667573, -1.26222178505416, 1.33874669509084], a = 0.2, v = 0.2, t = 0.2)
movej(p[-0.398737497350954, -0.115532316995186, 0.339388992720078, -1.09882458360863, -1.26285941440452, 1.34512051098892], a = 0.2, v = 0.2, t = 0.2)
movej(p[-0.398578398451475, -0.115664767559532, 0.339402245003291, -1.09301118314686, -1.26446465817792, 1.34983047530528], a = 0.2, v = 0.2, t = 0.2)
movej(p[-0.398868885188901, -0.115695085192364, 0.339536755616328, -1.08596191202746, -1.27119867990172, 1.3417735264531], a = 0.2, v = 0.2, t = 0.2)
movej(p[-0.399701416009049, -0.115751025877602, 0.339662604423879, -1.08351278977162, -1.27501469327524, 1.33204053871261], a = 0.2, v = 0.2, t = 0.2)
movej(p[-0.400806181555916, -0.115926415094194, 0.339772229682187, -1.09122148968159, -1.28088483461899, 1.3310244240211], a = 0.2, v = 0.2, t = 0.2)
movej(p[-0.401808481488187, -0.115981000056481, 0.339911610862786, -1.10984577085739, -1.28311885074985, 1.34330610303848], a = 0.2, v = 0.2, t = 0.2)
movej(p[-0.402372336340112, -0.115988610272211, 0.33999684045886, -1.12234863009807, -1.28146780797519, 1.34900617367706], a = 0.2, v = 0.2, t = 0.2)
movej(p[-0.402686579483482, -0.115997088844748, 0.339952367684927, -1.13096571665354, -1.27974005373079, 1.35085243766976], a = 0.2, v = 0.2, t = 0.2)
movej(p[-0.402757295580118, -0.115918117110472, 0.339879384301463, -1.13119867142657, -1.27933784451264, 1.34989432104188], a = 0.2, v = 0.2, t = 0.2)
movej(p[-0.402775154272501, -0.115752606201919, 0.339885515961646, -1.12696433028856, -1.28303916338228, 1.34100891797935], a = 0.2, v = 0.2, t = 0.2)
movej(p[-0.402732293992145, -0.115678666618922, 0.33986000572578, -1.12370702365665, -1.28337059078085, 1.33339536413419], a = 0.2, v = 0.2, t = 0.2)
movej(p[-0.402599194398284, -0.115672147613266, 0.339748310898378, -1.12560783988303, -1.28327249663937, 1.33510085956041], a = 0.2, v = 0.2, t = 0.2)
movej(p[-0.40217784277756, -0.11549944295796, 0.339671238794365, -1.1310690621149, -1.27776483013088, 1.34484492630828], a = 0.2, v = 0.2, t = 0.2)
movej(p[-0.401471704313446, -0.115382228722575, 0.339585975624573, -1.12505253193719, -1.27001147941343, 1.34211061485612], a = 0.2, v = 0.2, t = 0.2)
movej(p[-0.400719768213064, -0.115398015258393, 0.339503306365299, -1.11845570140434, -1.26483488981423, 1.34140956594957], a = 0.2, v = 0.2, t = 0.2)
movej(p[-0.399939853599526, -0.115459630941634, 0.339449943082342, -1.11208206610833, -1.26190978011775, 1.34428013499476], a = 0.2, v = 0.2, t = 0.2)
movej(p[-0.399220831652891, -0.115382842499287, 0.339501061179723, -1.1048348754582, -1.26265424144933, 1.34554094278849], a = 0.2, v = 0.2, t = 0.2)
movej(p[-0.398709137575681, -0.115446073111685, 0.339510793588852, -1.10081027018859, -1.26187852795643, 1.34915623636878], a = 0.2, v = 0.2, t = 0.2)
movej(p[-0.398610734574518, -0.115620659305926, 0.339554715381436, -1.09326591581869, -1.26676148649211, 1.34771290747537], a = 0.2, v = 0.2, t = 0.2)
movej(p[-0.399043338788033, -0.115688999056319, 0.339677035068543, -1.09802455557165, -1.26780207971517, 1.35985154353124], a = 0.2, v = 0.2, t = 0.2)
movej(p[-0.399844352906178, -0.115763422841736, 0.339828060236963, -1.09692794228451, -1.27008272708278, 1.35135118915444], a = 0.2, v = 0.2, t = 0.2)
movej(p[-0.400983128384302, -0.115968930306922, 0.339881629255819, -1.10048581242734, -1.27857870993942, 1.34356701294345], a = 0.2, v = 0.2, t = 0.2)
movej(p[-0.401907951353642, -0.116116452629367, 0.339932754137482, -1.10608659515345, -1.28566907157456, 1.33520025479894], a = 0.2, v = 0.2, t = 0.2)
movej(p[-0.402456107981852, -0.11598877125155, 0.340043172254463, -1.10990314835716, -1.29042180953894, 1.3324035217225], a = 0.2, v = 0.2, t = 0.2)
movej(p[-0.402666277782341, -0.115939647355522, 0.340011702669938, -1.11747262308725, -1.28601194544, 1.33610380807254], a = 0.2, v = 0.2, t = 0.2)
movej(p[-0.402779324971862, -0.11590183214211, 0.339946015906613, -1.1188028542458, -1.28608086890391, 1.33406552119511], a = 0.2, v = 0.2, t = 0.2)
movej(p[-0.40278350566735, -0.115839416319616, 0.33991195116109, -1.12170530484565, -1.28671564670976, 1.33546130757255], a = 0.2, v = 0.2, t = 0.2)
movej(p[-0.402689202597933, -0.115718186938303, 0.339899944129614, -1.12176991852874, -1.28658412771981, 1.33193098270631], a = 0.2, v = 0.2, t = 0.2)
movej(p[-0.402401945014621, -0.115663777845643, 0.339755305203437, -1.12433826934846, -1.28283456844242, 1.33504585400838], a = 0.2, v = 0.2, t = 0.2)
movej(p[-0.40181336805815, -0.115513164690007, 0.339653658976942, -1.12246598095887, -1.27846349712685, 1.33585496584332], a = 0.2, v = 0.2, t = 0.2)
movej(p[-0.400991028793114, -0.11529610891768, 0.339635972231042, -1.12356718380123, -1.26843083597112, 1.34569241068614], a = 0.2, v = 0.2, t = 0.2)
movej(p[-0.400256267299237, -0.115302566979656, 0.339628529042828, -1.11505694397718, -1.26333511783582, 1.34260828767869], a = 0.2, v = 0.2, t = 0.2)
movej(p[-0.399763428037455, -0.115462965040681, 0.339610117973731, -1.11039505936878, -1.26242280732968, 1.34563040287891], a = 0.2, v = 0.2, t = 0.2)
movej(p[-0.39979705631523, -0.115500000951656, 0.339717069547502, -1.10489053068599, -1.267528563515, 1.3449656560058], a = 0.2, v = 0.2, t = 0.2)
movej(p[-0.400214075323844, -0.115499179948812, 0.33990185560003, -1.10554627536891, -1.26775304815496, 1.34772685538966], a = 0.2, v = 0.2, t = 0.2)
movej(p[-0.401136892994578, -0.11567051622763, 0.339983422835139, -1.11455315717153, -1.26805457456263, 1.35475202061558], a = 0.2, v = 0.2, t = 0.2)
movej(p[-0.401967355208221, -0.115807952010261, 0.34003730056675, -1.12539171315248, -1.26968350622335, 1.36150332325677], a = 0.2, v = 0.2, t = 0.2)
movej(p[-0.402591711088261, -0.115819374497998, 0.340083424323719, -1.12918294590596, -1.27585682740991, 1.35790069539305], a = 0.2, v = 0.2, t = 0.2)
movej(p[-0.402839035998201, -0.115768035513235, 0.340092318019842, -1.13066499634225, -1.27899427274491, 1.35288377337058], a = 0.2, v = 0.2, t = 0.2)
movej(p[-0.402931123445529, -0.1158065187322, 0.340008613828174, -1.12992873911719, -1.28211501858839, 1.34795624466876], a = 0.2, v = 0.2, t = 0.2)
movej(p[-0.402902883877408, -0.115685780296204, 0.339966752836005, -1.13436065220712, -1.28191205145819, 1.354980863505], a = 0.2, v = 0.2, t = 0.2)
movej(p[-0.402545245936502, -0.115547113714859, 0.33987238035356, -1.13091473760355, -1.27628381000686, 1.35130666689478], a = 0.2, v = 0.2, t = 0.2)
movej(p[-0.401943794477478, -0.115452350320989, 0.339739236636772, -1.12458057854188, -1.27314906505214, 1.34566620445577], a = 0.2, v = 0.2, t = 0.2)
movej(p[-0.40093735340895, -0.115366299875012, 0.339614123220913, -1.11946027006918, -1.26834011983987, 1.34431339158116], a = 0.2, v = 0.2, t = 0.2)
movej(p[-0.399875838189148, -0.115196633104289, 0.339645702384001, -1.10888338617603, -1.26841077053044, 1.3399776487186], a = 0.2, v = 0.2, t = 0.2)
movej(p[-0.398969386386461, -0.115224956728076, 0.339649940324464, -1.10114818305102, -1.26393841533085, 1.34258421562992], a = 0.2, v = 0.2, t = 0.2)
movej(p[-0.398408388592788, -0.115399639477308, 0.339612702083157, -1.0935242077578, -1.26456860023179, 1.34575461031165], a = 0.2, v = 0.2, t = 0.2)
movej(p[-0.398197767435542, -0.115458609016048, 0.339639358002689, -1.09294313856029, -1.26430120464894, 1.3568305516741], a = 0.2, v = 0.2, t = 0.2)
movej(p[-0.398395365765896, -0.115417553604729, 0.339764702175616, -1.09067134355935, -1.2656444389904, 1.35549506772808], a = 0.2, v = 0.2, t = 0.2)
movej(p[-0.399162769966684, -0.115511727691626, 0.339886913625156, -1.0908605329332, -1.27119593554686, 1.34992759004304], a = 0.2, v = 0.2, t = 0.2)
movej(p[-0.400196915827484, -0.115731136515836, 0.339950435015839, -1.09438643319182, -1.27554855180815, 1.34532750585959], a = 0.2, v = 0.2, t = 0.2)
movej(p[-0.401273453441981, -0.115827843631877, 0.340045742595839, -1.10108316253563, -1.2806328881213, 1.34294835388909], a = 0.2, v = 0.2, t = 0.2)
movej(p[-0.402086653458371, -0.115959770877224, 0.340026719534367, -1.11335535903989, -1.27878504360389, 1.34830521670382], a = 0.2, v = 0.2, t = 0.2)
movej(p[-0.402647404286323, -0.116043354829539, 0.339992641145207, -1.11938953670444, -1.2823373104915, 1.34406578531239], a = 0.2, v = 0.2, t = 0.2)
movej(p[-0.402824419653731, -0.115960218503091, 0.339956567812533, -1.12679431711458, -1.28201577001542, 1.34742419535279], a = 0.2, v = 0.2, t = 0.2)
movej(p[-0.402696307768423, -0.115831914994618, 0.339937083235136, -1.12310002108501, -1.28255149888015, 1.33433254391853], a = 0.2, v = 0.2, t = 0.2)
movej(p[-0.402281203038672, -0.115708126751395, 0.339803047997686, -1.11999454417785, -1.28165666428541, 1.3295533872454], a = 0.2, v = 0.2, t = 0.2)
movej(p[-0.401444961621407, -0.115556537748575, 0.339702659499969, -1.11859468905425, -1.27905796524883, 1.32975757208811], a = 0.2, v = 0.2, t = 0.2)
movej(p[-0.400340649542272, -0.115259938244918, 0.339696916355503, -1.11525130650233, -1.2726960338289, 1.33660421860647], a = 0.2, v = 0.2, t = 0.2)
movej(p[-0.399155303239089, -0.115220318345268, 0.339645047859471, -1.11109680843214, -1.26505626577863, 1.34568990107195], a = 0.2, v = 0.2, t = 0.2)
movej(p[-0.398151611730023, -0.115293023406608, 0.339591074722773, -1.09753146138184, -1.26488111992531, 1.34721829863096], a = 0.2, v = 0.2, t = 0.2)
movej(p[-0.39760387260452, -0.115355769164096, 0.339606826717375, -1.08772512038384, -1.26930139024504, 1.34977211723655], a = 0.2, v = 0.2, t = 0.2)
movej(p[-0.397529641421088, -0.115351451830647, 0.339703555412508, -1.07305559071809, -1.27305859406998, 1.33811960587846], a = 0.2, v = 0.2, t = 0.2)
movej(p[-0.39829978645069, -0.115500184097681, 0.339760847632434, -1.07511521939826, -1.27715366691806, 1.33963635031008], a = 0.2, v = 0.2, t = 0.2)
movej(p[-0.399453150460281, -0.115697108875168, 0.339851532450049, -1.0801716263871, -1.27964036748857, 1.34001366293042], a = 0.2, v = 0.2, t = 0.2)
movej(p[-0.40069965014781, -0.115833579217679, 0.339971726640056, -1.09589122470791, -1.27861963494077, 1.34842800845533], a = 0.2, v = 0.2, t = 0.2)
movej(p[-0.401696925589849, -0.116021130527118, 0.340004399815665, -1.10169575503663, -1.28162828928715, 1.33517265722722], a = 0.2, v = 0.2, t = 0.2)
movej(p[-0.40238571541621, -0.116131939832157, 0.339952853992333, -1.11304878170707, -1.28455532278828, 1.33457109182228], a = 0.2, v = 0.2, t = 0.2)
movej(p[-0.402738814790221, -0.116053051020352, 0.339952749523457, -1.11897849995556, -1.29066532000705, 1.33161806149922], a = 0.2, v = 0.2, t = 0.2)
movej(p[-0.402782447553843, -0.11591684662871, 0.339957606582776, -1.12551751933686, -1.28651309022444, 1.3382648063026], a = 0.2, v = 0.2, t = 0.2)
movej(p[-0.402799784571855, -0.115892257401365, 0.339893905559197, -1.1311966418032, -1.28258337263463, 1.34211742559326], a = 0.2, v = 0.2, t = 0.2)
movej(p[-0.402558818630076, -0.115755841989653, 0.339838653475444, -1.13085997563675, -1.28041654163354, 1.34322197534763], a = 0.2, v = 0.2, t = 0.2)
movej(p[-0.401953091252659, -0.115535704895376, 0.339799106570796, -1.12790952192999, -1.27661393663956, 1.33892417670979], a = 0.2, v = 0.2, t = 0.2)
movej(p[-0.40100621317514, -0.115410254478002, 0.339686104589866, -1.11318689460993, -1.27353278966393, 1.32268731068038], a = 0.2, v = 0.2, t = 0.2)
movej(p[-0.399921859748001, -0.11541479414905, 0.33957629155221, -1.10258305135233, -1.26961406165563, 1.31964268097711], a = 0.2, v = 0.2, t = 0.2)
movej(p[-0.398917173999618, -0.115334181102676, 0.339605747143389, -1.10047351148932, -1.26789905568866, 1.33381532208982], a = 0.2, v = 0.2, t = 0.2)
movej(p[-0.398080329744865, -0.115306665549717, 0.339684595225997, -1.09002730616717, -1.2649232092619, 1.33950717310853], a = 0.2, v = 0.2, t = 0.2)
movej(p[-0.397837571432313, -0.115452953575588, 0.339704211169456, -1.08227223720648, -1.26771421686712, 1.34206798260354], a = 0.2, v = 0.2, t = 0.2)
movej(p[-0.398187779448277, -0.11563187476738, 0.33971887905431, -1.07886624629516, -1.26952671800117, 1.34643425220082], a = 0.2, v = 0.2, t = 0.2)
movej(p[-0.399066006296837, -0.115699262223163, 0.339843540480068, -1.07841565255713, -1.27522833358696, 1.34360879096994], a = 0.2, v = 0.2, t = 0.2)
movej(p[-0.400190056810212, -0.115861050357074, 0.339905114276372, -1.08813962266127, -1.27581351602879, 1.34416350977824], a = 0.2, v = 0.2, t = 0.2)
movej(p[-0.401390953390219, -0.116106602224644, 0.339912972978687, -1.0979028004407, -1.28181450782655, 1.33806701599458], a = 0.2, v = 0.2, t = 0.2)
movej(p[-0.402314122975895, -0.116163376979738, 0.339936424237561, -1.1172417628174, -1.28166355115992, 1.34979492299271], a = 0.2, v = 0.2, t = 0.2)
movej(p[-0.402669242398013, -0.116088300044081, 0.339985732865277, -1.11934172764797, -1.28525774731208, 1.3367127977047], a = 0.2, v = 0.2, t = 0.2)
movej(p[-0.40283538580823, -0.116055019764242, 0.339921170439175, -1.11763500272452, -1.28682820653817, 1.3271565616185], a = 0.2, v = 0.2, t = 0.2)
movej(p[-0.402756734935429, -0.116051621432906, 0.339833853970553, -1.11390932945743, -1.28959629811447, 1.3171830349724], a = 0.2, v = 0.2, t = 0.2)
movej(p[-0.402465287895498, -0.115757607745028, 0.339809261574557, -1.11921515812656, -1.2836581050996, 1.3300688497741], a = 0.2, v = 0.2, t = 0.2)
movej(p[-0.401810644358024, -0.115608194362967, 0.339709521112729, -1.11849611863662, -1.27417818881297, 1.33285048637036], a = 0.2, v = 0.2, t = 0.2)
movej(p[-0.400889113694323, -0.115539207016816, 0.339554736280042, -1.11401447738802, -1.26818391567819, 1.3350588375098], a = 0.2, v = 0.2, t = 0.2)
movej(p[-0.399872837557226, -0.115526155752251, 0.339504904906792, -1.10586596649328, -1.26516261479674, 1.33502501468906], a = 0.2, v = 0.2, t = 0.2)
movej(p[-0.398918555363971, -0.115496125543268, 0.339569429888842, -1.09947172737878, -1.26076466555696, 1.33881807261559], a = 0.2, v = 0.2, t = 0.2)
movej(p[-0.398353122323982, -0.115641570695565, 0.339586206572875, -1.09069678445174, -1.26288238998675, 1.3381742437634], a = 0.2, v = 0.2, t = 0.2)
movej(p[-0.398212175028403, -0.115782276885983, 0.339598239596048, -1.08304056468454, -1.26603505842414, 1.33936546750172], a = 0.2, v = 0.2, t = 0.2)
movej(p[-0.39852402184052, -0.115748222668426, 0.339681615012921, -1.08736350282561, -1.26704798338764, 1.35404270903382], a = 0.2, v = 0.2, t = 0.2)
movej(p[-0.399246019346029, -0.115771770817346, 0.339798598415251, -1.08832599678394, -1.2687983530506, 1.35240969789684], a = 0.2, v = 0.2, t = 0.2)
movej(p[-0.40023981332787, -0.115910028665663, 0.339885777851103, -1.09484472218583, -1.27279759881443, 1.34968117456767], a = 0.2, v = 0.2, t = 0.2)
movej(p[-0.401277916552983, -0.116018393976253, 0.339970358900369, -1.10152732027683, -1.27928136658459, 1.34370831814056], a = 0.2, v = 0.2, t = 0.2)
movej(p[-0.401989795132904, -0.116017237522347, 0.340027211991542, -1.11068246857842, -1.27978784915736, 1.3442282314748], a = 0.2, v = 0.2, t = 0.2)
movej(p[-0.402492867232643, -0.11608247490837, 0.339978773200147, -1.11829003768431, -1.28117313449283, 1.34449894667066], a = 0.2, v = 0.2, t = 0.2)
movej(p[-0.402683360971515, -0.116048419186637, 0.339925815917918, -1.11791750814846, -1.28421043744629, 1.33696827694039], a = 0.2, v = 0.2, t = 0.2)
movej(p[-0.402650781314125, -0.115927830092594, 0.339886215291012, -1.11696813044766, -1.28491843517608, 1.33134249073523], a = 0.2, v = 0.2, t = 0.2)
movej(p[-0.402318773851443, -0.115786939791636, 0.339749710878193, -1.10921373456849, -1.28172328596876, 1.31839196165072], a = 0.2, v = 0.2, t = 0.2)
movej(p[-0.401697288173151, -0.115700711288471, 0.339585994621455, -1.10338147106821, -1.27784801196424, 1.31397712215638], a = 0.2, v = 0.2, t = 0.2)
movej(p[-0.400812600910149, -0.115530741226979, 0.339497855373224, -1.10060805080556, -1.27401082421712, 1.31729161479841], a = 0.2, v = 0.2, t = 0.2)
movej(p[-0.39982558245333, -0.115449146036332, 0.339503939085971, -1.09685712890109, -1.26581455452452, 1.3218652352755], a = 0.2, v = 0.2, t = 0.2)
movej(p[-0.399129269465032, -0.11560673378285, 0.339463287262587, -1.09301915572403, -1.26323063780244, 1.32673211286579], a = 0.2, v = 0.2, t = 0.2)
movej(p[-0.398629917357894, -0.115767259782403, 0.339451132909079, -1.09161679621839, -1.26151691741537, 1.33607511141987], a = 0.2, v = 0.2, t = 0.2)
movej(p[-0.398479377562755, -0.115790810511186, 0.339554281157989, -1.08603215917992, -1.26697393293336, 1.33687437582238], a = 0.2, v = 0.2, t = 0.2)
movej(p[-0.398842166952164, -0.115777405414726, 0.339661329980126, -1.0816491525606, -1.26957641635035, 1.33217826162819], a = 0.2, v = 0.2, t = 0.2)
movej(p[-0.399773228316888, -0.115940465722493, 0.339746991932875, -1.08563168867206, -1.27404736149984, 1.33189390505208], a = 0.2, v = 0.2, t = 0.2)
movej(p[-0.401053631299814, -0.116027474685619, 0.339856688967703, -1.10255545960833, -1.27383640388914, 1.34770511164854], a = 0.2, v = 0.2, t = 0.2)
movej(p[-0.401921878778167, -0.116101645602938, 0.339922011861258, -1.11353525832344, -1.27323413931768, 1.34877376941249], a = 0.2, v = 0.2, t = 0.2)
movej(p[-0.402580945663477, -0.116155620173991, 0.339923690864785, -1.11567073853023, -1.27977029614305, 1.33728044446681], a = 0.2, v = 0.2, t = 0.2)
movej(p[-0.402769184597266, -0.116156096995116, 0.3398617724929, -1.11639208121044, -1.28445853859703, 1.32767229303473], a = 0.2, v = 0.2, t = 0.2)
movej(p[-0.402874419450296, -0.115955440535235, 0.33988175390028, -1.12267602409315, -1.2869361443855, 1.33353896040482], a = 0.2, v = 0.2, t = 0.2)
movej(p[-0.402710321840748, -0.115808236745467, 0.339805778545601, -1.12861813853441, -1.28016303875214, 1.34302478704764], a = 0.2, v = 0.2, t = 0.2)
movej(p[-0.40227680061239, -0.115713022013942, 0.339654778190754, -1.12798279628449, -1.276605412788, 1.34475974525802], a = 0.2, v = 0.2, t = 0.2)
movej(p[-0.401464067501209, -0.115540932001191, 0.339549274359536, -1.12423116276368, -1.27180242863883, 1.34619897811239], a = 0.2, v = 0.2, t = 0.2)
movej(p[-0.400475340258335, -0.115411178672948, 0.339500463995793, -1.11337524741654, -1.266115339947, 1.33712137772491], a = 0.2, v = 0.2, t = 0.2)
movej(p[-0.399598797836594, -0.115474219017121, 0.339437070676789, -1.10146956057349, -1.26481849852106, 1.33151633799298], a = 0.2, v = 0.2, t = 0.2)
movej(p[-0.398887020876458, -0.115658477492667, 0.33940303122072, -1.08841674173839, -1.26652675497296, 1.32532720094366], a = 0.2, v = 0.2, t = 0.2)
movej(p[-0.398347360488788, -0.115598288845962, 0.339486239648595, -1.08890329314658, -1.26649090411044, 1.33811101853498], a = 0.2, v = 0.2, t = 0.2)
movej(p[-0.398091578646061, -0.115601145144215, 0.33955726859545, -1.08456608306527, -1.26563748696749, 1.34067294230762], a = 0.2, v = 0.2, t = 0.2)
movej(p[-0.39845241235889, -0.115721419046868, 0.339571219356249, -1.08254031659321, -1.26787012636466, 1.34282920659475], a = 0.2, v = 0.2, t = 0.2)
movej(p[-0.399359399422269, -0.115863561104769, 0.339643653276745, -1.07907751062081, -1.27383575416131, 1.33522265920046], a = 0.2, v = 0.2, t = 0.2)
movej(p[-0.400455167322888, -0.115938485047586, 0.339785080812131, -1.08120655179369, -1.27836972078598, 1.32472027852879], a = 0.2, v = 0.2, t = 0.2)
movej(p[-0.401552363637039, -0.116083715400403, 0.339844100421032, -1.09383332985188, -1.28210847723144, 1.32369019953798], a = 0.2, v = 0.2, t = 0.2)
movej(p[-0.402301062557419, -0.116154980534817, 0.339862753833796, -1.10373639036075, -1.28556930567153, 1.32278160460993], a = 0.2, v = 0.2, t = 0.2)
movej(p[-0.402676647712191, -0.11604008072114, 0.339875712779779, -1.12034835171885, -1.28198290996313, 1.33960418309449], a = 0.2, v = 0.2, t = 0.2)
movej(p[-0.402760405437782, -0.115960469063254, 0.33984607947027, -1.11805717823584, -1.28159365785597, 1.32813022902375], a = 0.2, v = 0.2, t = 0.2)
movej(p[-0.40279376660442, -0.115949581517995, 0.339786128362534, -1.11681636539806, -1.28327335532815, 1.32324931316722], a = 0.2, v = 0.2, t = 0.2)
movej(p[-0.402706918108904, -0.115847012492572, 0.33972191395566, -1.11943190891131, -1.28283379959389, 1.32832475960186], a = 0.2, v = 0.2, t = 0.2)
movej(p[-0.402231997941212, -0.115607708728864, 0.339675773438818, -1.11949128591714, -1.27639021638701, 1.33262028265662], a = 0.2, v = 0.2, t = 0.2)
movej(p[-0.401541500772466, -0.115565255249375, 0.339507294201124, -1.11891562797235, -1.26750512890306, 1.33668180168122], a = 0.2, v = 0.2, t = 0.2)
movej(p[-0.400573895772564, -0.115566320776028, 0.339407513887847, -1.11132874389653, -1.26391379655479, 1.33360843532996], a = 0.2, v = 0.2, t = 0.2)
movej(p[-0.399610777294992, -0.115546698503158, 0.339410879503081, -1.10331233087261, -1.26421777105034, 1.33188410179893], a = 0.2, v = 0.2, t = 0.2)
movej(p[-0.398812123389371, -0.115578556804015, 0.339434662163315, -1.09502254913325, -1.2621104941028, 1.33178413395438], a = 0.2, v = 0.2, t = 0.2)
movej(p[-0.398303993713945, -0.115750423527608, 0.339403872441041, -1.09020218781265, -1.26469097406814, 1.3356598252841], a = 0.2, v = 0.2, t = 0.2)
movej(p[-0.398362993519961, -0.11580967842219, 0.33946279624657, -1.09214297176745, -1.26639766482156, 1.35039767405468], a = 0.2, v = 0.2, t = 0.2)
movej(p[-0.398867771070076, -0.115800867231623, 0.3396214924602, -1.09148095575876, -1.26966949375373, 1.35045261150473], a = 0.2, v = 0.2, t = 0.2)
movej(p[-0.399978286791806, -0.115935600693486, 0.339730941093106, -1.08936546732758, -1.27453353810981, 1.33730953607761], a = 0.2, v = 0.2, t = 0.2)
movej(p[-0.401207546013363, -0.116168771650922, 0.339788013974806, -1.09528419453768, -1.27994530228089, 1.328224397603], a = 0.2, v = 0.2, t = 0.2)
movej(p[-0.402272051095385, -0.116176595416067, 0.33988538381586, -1.10889437890825, -1.2834658476474, 1.33306454890552], a = 0.2, v = 0.2, t = 0.2)
movej(p[-0.402694780765969, -0.116127720239588, 0.339931703527112, -1.1155040841063, -1.28113344613302, 1.33089840727515], a = 0.2, v = 0.2, t = 0.2)
movej(p[-0.402925882368562, -0.116121772580174, 0.339887260223468, -1.12143121407319, -1.28049242828724, 1.33291340288383], a = 0.2, v = 0.2, t = 0.2)
movej(p[-0.402904044799857, -0.116071797241914, 0.339813099408108, -1.12372589530536, -1.27999836530481, 1.33495597932671], a = 0.2, v = 0.2, t = 0.2)
movej(p[-0.40268938917155, -0.115868987132719, 0.339805025811286, -1.11962903573779, -1.28133977446996, 1.32917342971129], a = 0.2, v = 0.2, t = 0.2)
movej(p[-0.402147448950085, -0.115704672168828, 0.339697871527192, -1.11756812799528, -1.27628611779085, 1.3294648412416], a = 0.2, v = 0.2, t = 0.2)
movej(p[-0.401200468656804, -0.115617325576795, 0.33956935968339, -1.11184285445092, -1.27186226248715, 1.3265652419472], a = 0.2, v = 0.2, t = 0.2)
movej(p[-0.40010227924475, -0.115412572496278, 0.339556911130347, -1.11229454774678, -1.26537249165901, 1.34070944004758], a = 0.2, v = 0.2, t = 0.2)
movej(p[-0.398990062259816, -0.115318129386963, 0.339609860700002, -1.09653214063606, -1.26417340489852, 1.3319324444737], a = 0.2, v = 0.2, t = 0.2)
movej(p[-0.398211610878834, -0.115415309196869, 0.339613203486123, -1.08329615537874, -1.26726832402053, 1.32915748825233], a = 0.2, v = 0.2, t = 0.2)
movej(p[-0.397774215674281, -0.115503133346516, 0.339599589262788, -1.07870371233509, -1.26838318826197, 1.33818691449398], a = 0.2, v = 0.2, t = 0.2)
movej(p[-0.397748933571626, -0.115391610066439, 0.339749964178616, -1.08171863505931, -1.26768754681259, 1.35153122183273], a = 0.2, v = 0.2, t = 0.2)
movej(p[-0.398457569712955, -0.115488078791852, 0.339840601920066, -1.08777756027747, -1.26461798881315, 1.35909466356017], a = 0.2, v = 0.2, t = 0.2)
movej(p[-0.399623094221607, -0.115734531351543, 0.339911877584644, -1.09030195670446, -1.26905790199991, 1.35204562663266], a = 0.2, v = 0.2, t = 0.2)
movej(p[-0.401005829954474, -0.115966968037618, 0.33996163302343, -1.10375179507528, -1.27289887000554, 1.3541153080577], a = 0.2, v = 0.2, t = 0.2)
movej(p[-0.401976897990004, -0.116016183222885, 0.340025683759575, -1.11283014935904, -1.27567173615955, 1.34895575748311], a = 0.2, v = 0.2, t = 0.2)
movej(p[-0.402560033352614, -0.116086556218905, 0.33996151585593, -1.12148012318991, -1.27904010298286, 1.34570417091083], a = 0.2, v = 0.2, t = 0.2)
movej(p[-0.402817244818888, -0.116068384223778, 0.339884937656354, -1.12512790191973, -1.28061908162353, 1.34281362415819], a = 0.2, v = 0.2, t = 0.2)
movej(p[-0.402803597038294, -0.115936866291393, 0.339836582870581, -1.12958299078757, -1.27927156992263, 1.34484415411419], a = 0.2, v = 0.2, t = 0.2)
movej(p[-0.402542696560874, -0.115792237673255, 0.339784599174114, -1.12374913156336, -1.27827742146412, 1.33392764980795], a = 0.2, v = 0.2, t = 0.2)
movej(p[-0.40197240030843, -0.115711581392842, 0.3396526655953, -1.12132104393824, -1.27536316246259, 1.33260938167145], a = 0.2, v = 0.2, t = 0.2)
movej(p[-0.401140876714105, -0.115523604468776, 0.339630927778026, -1.11592502407937, -1.27396011703247, 1.3309895226051], a = 0.2, v = 0.2, t = 0.2)
movej(p[-0.400147040480894, -0.115396599673643, 0.339625981570305, -1.1089830154007, -1.26641300975391, 1.33144950549787], a = 0.2, v = 0.2, t = 0.2)
movej(p[-0.39934943906593, -0.115493366096372, 0.339592538728327, -1.09803392711273, -1.26454625365779, 1.32752238124182], a = 0.2, v = 0.2, t = 0.2)
movej(p[-0.398688270709065, -0.115630584355857, 0.339526296684274, -1.09165513042126, -1.2632792063172, 1.33394798620657], a = 0.2, v = 0.2, t = 0.2)
movej(p[-0.39831328907452, -0.115627341842521, 0.339573424774165, -1.08413178978151, -1.26776826640291, 1.33587222387428], a = 0.2, v = 0.2, t = 0.2)
movej(p[-0.398185389574458, -0.115592778250203, 0.339612149337044, -1.08283585084872, -1.26545450818047, 1.34108692183799], a = 0.2, v = 0.2, t = 0.2)
movej(p[-0.398637202694402, -0.115702971035973, 0.339631541077836, -1.08011693767329, -1.2700265013441, 1.33601322327166], a = 0.2, v = 0.2, t = 0.2)
movej(p[-0.399472278836177, -0.115790433362369, 0.339695996977486, -1.08941957262621, -1.27058510701254, 1.34577785335812], a = 0.2, v = 0.2, t = 0.2)
movej(p[-0.400432058688434, -0.115813658025953, 0.339858558951553, -1.08892242721849, -1.27619127490253, 1.33298312884575], a = 0.2, v = 0.2, t = 0.2)
movej(p[-0.401408570845173, -0.115933115721031, 0.339914928892994, -1.09964679304544, -1.27863925590154, 1.33381790937333], a = 0.2, v = 0.2, t = 0.2)
movej(p[-0.402135657479177, -0.116035366389042, 0.339903110370299, -1.1084540284757, -1.28262571880203, 1.33166229846992], a = 0.2, v = 0.2, t = 0.2)
movej(p[-0.402591423482376, -0.115939158730948, 0.339927347231923, -1.12361903972845, -1.28120178121596, 1.34552792969601], a = 0.2, v = 0.2, t = 0.2)
movej(p[-0.402694165290026, -0.115824831875354, 0.339892020261335, -1.1211340900785, -1.28038359422561, 1.33535450947467], a = 0.2, v = 0.2, t = 0.2)
movej(p[-0.402609415148594, -0.115801909384774, 0.339818979929094, -1.12076020507467, -1.28032521537473, 1.33102011685263], a = 0.2, v = 0.2, t = 0.2)
movej(p[-0.402230358411189, -0.115711490953058, 0.339724357977332, -1.11454770239093, -1.28203323351555, 1.32328307279739], a = 0.2, v = 0.2, t = 0.2)
movej(p[-0.401476560920112, -0.115434218381588, 0.339754672832693, -1.11668328540018, -1.2762532717593, 1.33021237663177], a = 0.2, v = 0.2, t = 0.2)
movej(p[-0.400632856738252, -0.115365647004914, 0.339667636615444, -1.11466111745065, -1.26673116711896, 1.33428125268702], a = 0.2, v = 0.2, t = 0.2)
movej(p[-0.39980083897466, -0.115474888324555, 0.339561633588832, -1.11186007261872, -1.26047900191516, 1.33981237548503], a = 0.2, v = 0.2, t = 0.2)
movej(p[-0.399074116059851, -0.115503169935353, 0.339568152758311, -1.10620036202818, -1.26132369115351, 1.34642175617004], a = 0.2, v = 0.2, t = 0.2)
movej(p[-0.39843811284527, -0.11545965149213, 0.33965017208459, -1.09631615434772, -1.26106673659325, 1.34623920379468], a = 0.2, v = 0.2, t = 0.2)
movej(p[-0.398326686726503, -0.115582965504873, 0.339674148342302, -1.08914916711323, -1.2649044617516, 1.34393982376128], a = 0.2, v = 0.2, t = 0.2)
movej(p[-0.398764121613984, -0.115741634928447, 0.339699382121982, -1.08639390093724, -1.26715298898033, 1.34398580391557], a = 0.2, v = 0.2, t = 0.2)
movej(p[-0.399713111351695, -0.115883904120785, 0.339778791118526, -1.08723145929719, -1.27229594484944, 1.33921186742712], a = 0.2, v = 0.2, t = 0.2)
movej(p[-0.400777419099456, -0.116033521618131, 0.339835763005825, -1.09158578079869, -1.27465538862469, 1.33197236822013], a = 0.2, v = 0.2, t = 0.2)
movej(p[-0.401845391320879, -0.11625374436736, 0.339785091041281, -1.10520715841132, -1.27877814102893, 1.33529430242264], a = 0.2, v = 0.2, t = 0.2)
movej(p[-0.402544078777489, -0.116231994084234, 0.339813739389989, -1.11697274488852, -1.28334395269714, 1.33962926463476], a = 0.2, v = 0.2, t = 0.2)
movej(p[-0.402802720535026, -0.116089815432099, 0.339875143249929, -1.12414812088034, -1.28385069410579, 1.33843553764852], a = 0.2, v = 0.2, t = 0.2)
movej(p[-0.402883166189375, -0.116023813210595, 0.339846550921432, -1.11637236494133, -1.28772539074488, 1.32061826843183], a = 0.2, v = 0.2, t = 0.2)
movej(p[-0.402725695843202, -0.115983802039578, 0.3397396485694, -1.11567489206956, -1.28675552418625, 1.32065183049329], a = 0.2, v = 0.2, t = 0.2)
movej(p[-0.40237332208953, -0.115712232006426, 0.339699609926599, -1.11550230275625, -1.28462158155711, 1.32751914980287], a = 0.2, v = 0.2, t = 0.2)
movej(p[-0.401606582861139, -0.11551605654787, 0.339653988454605, -1.11441818703558, -1.27358454772024, 1.3317150638189], a = 0.2, v = 0.2, t = 0.2)
movej(p[-0.400743288463336, -0.115506496617295, 0.339555590077848, -1.11113635985881, -1.26779473229245, 1.33227875274365], a = 0.2, v = 0.2, t = 0.2)
movej(p[-0.39978725330402, -0.115589435551949, 0.339504293798551, -1.10517256553509, -1.26405819831091, 1.33432111339316], a = 0.2, v = 0.2, t = 0.2)
movej(p[-0.398928127556654, -0.115506046330461, 0.339642786556328, -1.09546960981835, -1.26649260292395, 1.33100542401279], a = 0.2, v = 0.2, t = 0.2)
movej(p[-0.398303872239759, -0.115562425340722, 0.339703233103178, -1.08618557443047, -1.26548322415582, 1.33196953744588], a = 0.2, v = 0.2, t = 0.2)
movej(p[-0.398267021809179, -0.115740012252225, 0.339718928146754, -1.07926228060212, -1.26919955422627, 1.3330785799038], a = 0.2, v = 0.2, t = 0.2)
movej(p[-0.398827153147375, -0.115875718653447, 0.339763699610184, -1.08395762793077, -1.27008728471921, 1.3436345183825], a = 0.2, v = 0.2, t = 0.2)
movej(p[-0.399748343961198, -0.115925224165512, 0.339871463868196, -1.08388868890104, -1.27346063950142, 1.33605173575592], a = 0.2, v = 0.2, t = 0.2)
movej(p[-0.400955127461778, -0.116098117709209, 0.339907169057938, -1.09688817872614, -1.27527233857712, 1.33518986932957], a = 0.2, v = 0.2, t = 0.2)
movej(p[-0.401958553263592, -0.116219519979851, 0.339915151396967, -1.10583394996924, -1.27873031451438, 1.33259584542735], a = 0.2, v = 0.2, t = 0.2)
movej(p[-0.402598968171206, -0.11617641938569, 0.339974349951323, -1.12513936033737, -1.27660698019558, 1.3460491700574], a = 0.2, v = 0.2, t = 0.2)
movej(p[-0.4028672187744, -0.116147678410216, 0.339970584632193, -1.12430622883805, -1.27706050608887, 1.33383441030413], a = 0.2, v = 0.2, t = 0.2)
movej(p[-0.40297966464845, -0.11614827475927, 0.339903751287177, -1.12391979431254, -1.2790354109161, 1.32795088630239], a = 0.2, v = 0.2, t = 0.2)
movej(p[-0.402998822520682, -0.11605269493508, 0.339870705556996, -1.1254560905596, -1.28023230482336, 1.32895143591479], a = 0.2, v = 0.2, t = 0.2)
movej(p[-0.40273557188632, -0.115798472746287, 0.339859491278902, -1.12610012668746, -1.27586207405724, 1.33352521658004], a = 0.2, v = 0.2, t = 0.2)
movej(p[-0.402210701465723, -0.115715232845432, 0.339729624307781, -1.12266521291482, -1.27045095841538, 1.33118327414826], a = 0.2, v = 0.2, t = 0.2)
movej(p[-0.40129506007538, -0.115627104799414, 0.339598953507688, -1.11607156595395, -1.26629625431008, 1.32757999836606], a = 0.2, v = 0.2, t = 0.2)
movej(p[-0.400229390642484, -0.115496641750184, 0.339625964034804, -1.10931402141144, -1.26522070066943, 1.32500054691763], a = 0.2, v = 0.2, t = 0.2)
movej(p[-0.399329825883256, -0.115455126459545, 0.339714574773989, -1.10470054560907, -1.26122306957132, 1.3297847982614], a = 0.2, v = 0.2, t = 0.2)
movej(p[-0.398634488251411, -0.115605457705638, 0.339792010628204, -1.09793216383361, -1.26256779452038, 1.3345224195683], a = 0.2, v = 0.2, t = 0.2)
movej(p[-0.398066333748773, -0.115673999016504, 0.339995394494284, -1.09138472831041, -1.26717307121041, 1.34146745739268], a = 0.2, v = 0.2, t = 0.2)
movej(p[-0.397555817003922, -0.115609021530026, 0.340278205453891, -1.08515337396654, -1.27068035735566, 1.34504761085095], a = 0.2, v = 0.2, t = 0.2)
movej(p[-0.397560953141098, -0.115670361035057, 0.340465846725517, -1.07789214296311, -1.27169895831373, 1.34011191987405], a = 0.2, v = 0.2, t = 0.2)
movej(p[-0.398261510402889, -0.115931317542482, 0.340474651779917, -1.07503165145543, -1.2731009939856, 1.33755954995652], a = 0.2, v = 0.2, t = 0.2)
movej(p[-0.399378202515557, -0.116069056262094, 0.340501081245031, -1.0814358812723, -1.27310938313266, 1.34351678804523], a = 0.2, v = 0.2, t = 0.2)
movej(p[-0.400404042316852, -0.116165319081643, 0.340548331854024, -1.08559966497407, -1.27233208534548, 1.33471267438266], a = 0.2, v = 0.2, t = 0.2)
movej(p[-0.401373172453613, -0.116244317042832, 0.340544068691907, -1.09208293022165, -1.27755024387559, 1.32537696406199], a = 0.2, v = 0.2, t = 0.2)
movej(p[-0.402113683765688, -0.116312550634187, 0.340482438135374, -1.10091815334904, -1.28082124244583, 1.31994867123205], a = 0.2, v = 0.2, t = 0.2)
movej(p[-0.402603735662565, -0.116165379117075, 0.340486836945944, -1.10980102583503, -1.284152390539, 1.32095036505114], a = 0.2, v = 0.2, t = 0.2)
movej(p[-0.402769253361252, -0.116120399694917, 0.340408468408222, -1.11883717107059, -1.27985015952549, 1.32734812665919], a = 0.2, v = 0.2, t = 0.2)
movej(p[-0.40286493877698, -0.116135639656622, 0.340291854248987, -1.12002231083139, -1.28070195122038, 1.32382400807184], a = 0.2, v = 0.2, t = 0.2)
movej(p[-0.402872430725067, -0.116079572392916, 0.340227526939519, -1.12578499063747, -1.2797047481977, 1.3309527064391], a = 0.2, v = 0.2, t = 0.2)
movej(p[-0.402818257249824, -0.115910303376321, 0.340223575277827, -1.12339661216354, -1.28079471831473, 1.32645912579535], a = 0.2, v = 0.2, t = 0.2)
movej(p[-0.402585939782738, -0.11583272595718, 0.340112347311035, -1.12474815873038, -1.27875282383226, 1.32741822180471], a = 0.2, v = 0.2, t = 0.2)
movej(p[-0.402015792087134, -0.115709065263864, 0.339986920106767, -1.12017043649733, -1.27614656530786, 1.32529835098252], a = 0.2, v = 0.2, t = 0.2)
movej(p[-0.401074774659675, -0.115465047122012, 0.339973311460085, -1.11845145828248, -1.27161417184084, 1.32982663274803], a = 0.2, v = 0.2, t = 0.2)
movej(p[-0.400098729820015, -0.115398486110024, 0.339984316534275, -1.1056656067987, -1.26658298094592, 1.32184233483719], a = 0.2, v = 0.2, t = 0.2)
movej(p[-0.399330152521483, -0.115560807850579, 0.339962684122859, -1.09525988457807, -1.26767910859877, 1.31798480747628], a = 0.2, v = 0.2, t = 0.2)
movej(p[-0.398749152378952, -0.115687406501226, 0.339994111626049, -1.08822532679394, -1.26794044887655, 1.32280162013295], a = 0.2, v = 0.2, t = 0.2)
movej(p[-0.398392665899954, -0.115648452717671, 0.340116741378343, -1.08870961364307, -1.26807571619394, 1.33567783963321], a = 0.2, v = 0.2, t = 0.2)
movej(p[-0.398612078206926, -0.115687446173244, 0.340206876297396, -1.08452425413379, -1.26908973523024, 1.33323790577854], a = 0.2, v = 0.2, t = 0.2)
movej(p[-0.399363873414339, -0.115851232009952, 0.340243517678436, -1.08365705180427, -1.27368681496758, 1.33135447458957], a = 0.2, v = 0.2, t = 0.2)
movej(p[-0.400488103157963, -0.115928094932478, 0.340344736901865, -1.08782333696294, -1.27797681899317, 1.33046607097153], a = 0.2, v = 0.2, t = 0.2)
movej(p[-0.401387740925626, -0.116018373195288, 0.340379589461351, -1.09526167583365, -1.2766689902202, 1.32737847447137], a = 0.2, v = 0.2, t = 0.2)
movej(p[-0.402239427062566, -0.11616594594815, 0.340336305715213, -1.0994109576523, -1.28235027964285, 1.31464798447536], a = 0.2, v = 0.2, t = 0.2)
movej(p[-0.402681811059693, -0.116228788879955, 0.340244013035277, -1.10964498916526, -1.28397155637598, 1.31695237549254], a = 0.2, v = 0.2, t = 0.2)
movej(p[-0.402855347051405, -0.116060985882107, 0.34023433521178, -1.11463967049287, -1.28730759393212, 1.3183204518913], a = 0.2, v = 0.2, t = 0.2)
movej(p[-0.402546444816443, -0.115906556420964, 0.340113870651063, -1.12278792723175, -1.27754896561832, 1.33285322806204], a = 0.2, v = 0.2, t = 0.2)
movej(p[-0.401847366836616, -0.115821191569262, 0.339919521462673, -1.11838295309951, -1.27251312226729, 1.33177704609944], a = 0.2, v = 0.2, t = 0.2)
movej(p[-0.400777648719744, -0.115676039292129, 0.339818087305813, -1.11649219361184, -1.26547153431459, 1.34071526791321], a = 0.2, v = 0.2, t = 0.2)
movej(p[-0.399621046396467, -0.115565233756269, 0.339883929944838, -1.10116818237259, -1.26476689416962, 1.32617092906956], a = 0.2, v = 0.2, t = 0.2)
movej(p[-0.398766122078849, -0.115690961504962, 0.339949115164434, -1.08839787119565, -1.2679200486715, 1.31800323691949], a = 0.2, v = 0.2, t = 0.2)
movej(p[-0.398235613246247, -0.115903087014399, 0.339983429667464, -1.07495914988849, -1.27213390395395, 1.31176340123732], a = 0.2, v = 0.2, t = 0.2)
movej(p[-0.398164677734862, -0.115864083228222, 0.340101534818124, -1.07844388094637, -1.27328529279767, 1.33091707627383], a = 0.2, v = 0.2, t = 0.2)
movej(p[-0.398401204737381, -0.11583191898195, 0.340182280178055, -1.07715351834225, -1.27089923190244, 1.33312990124022], a = 0.2, v = 0.2, t = 0.2)
movej(p[-0.399130635831999, -0.115930864047361, 0.340221527271388, -1.07864801448224, -1.27462737753217, 1.33085062505417], a = 0.2, v = 0.2, t = 0.2)
movej(p[-0.399947763808463, -0.116003072757671, 0.340276223449819, -1.082205250359, -1.27761191405055, 1.32553298919149], a = 0.2, v = 0.2, t = 0.2)
movej(p[-0.400617026772513, -0.115918149440251, 0.340365956501192, -1.09297302811581, -1.27706838050098, 1.33198645217229], a = 0.2, v = 0.2, t = 0.2)
movej(p[-0.40103580045572, -0.115913544010966, 0.340319707603951, -1.10119107112032, -1.27379357419606, 1.33417152942199], a = 0.2, v = 0.2, t = 0.2)
movej(p[-0.401105950336882, -0.115883565340918, 0.340208753008462, -1.10388163486671, -1.27354016337907, 1.33398159386697], a = 0.2, v = 0.2, t = 0.2)
movej(p[-0.400590848549306, -0.115697949569819, 0.340141141514441, -1.10808933048844, -1.27363160418234, 1.3384769071791], a = 0.2, v = 0.2, t = 0.2)
movej(p[-0.39957412765793, -0.115518756371235, 0.340087584401233, -1.10223273693294, -1.26897196127415, 1.33474204588004], a = 0.2, v = 0.2, t = 0.2)
movej(p[-0.398471024728089, -0.115551008294002, 0.339998443514435, -1.0964896631069, -1.26738901494072, 1.3365664387607], a = 0.2, v = 0.2, t = 0.2)
movej(p[-0.397479883363622, -0.115608436350404, 0.340046028825576, -1.08565305157452, -1.2685033686685, 1.33997701022539], a = 0.2, v = 0.2, t = 0.2)
movej(p[-0.396475330286096, -0.115541983388718, 0.340301810584928, -1.0810648304544, -1.27149901803566, 1.34992303076465], a = 0.2, v = 0.2, t = 0.2)
movej(p[-0.395641989766823, -0.115507867974099, 0.340668184967662, -1.06937626036923, -1.27377058991549, 1.34913245650336], a = 0.2, v = 0.2, t = 0.2)
movej(p[-0.395093580853459, -0.115598241980042, 0.340951056125776, -1.05615407424418, -1.27827045516967, 1.34510780233083], a = 0.2, v = 0.2, t = 0.2)
movej(p[-0.39525072445875, -0.115698004314443, 0.341080295805639, -1.04515589930727, -1.28357363801756, 1.34433114865352], a = 0.2, v = 0.2, t = 0.2)
movej(p[-0.39574859178166, -0.115782453295311, 0.340949640829046, -1.04077094812138, -1.28335129102315, 1.34060808322942], a = 0.2, v = 0.2, t = 0.2)
movej(p[-0.396678175858385, -0.115970238171384, 0.340704741898836, -1.04390388931051, -1.28346033772074, 1.33838828826121], a = 0.2, v = 0.2, t = 0.2)
movej(p[-0.397523572974006, -0.116104673528766, 0.340529371468074, -1.05518619350401, -1.28089380380731, 1.34312554782176], a = 0.2, v = 0.2, t = 0.2)
movej(p[-0.398367391180436, -0.115997130567778, 0.34056724418699, -1.0641759782718, -1.28248621576099, 1.34252062935991], a = 0.2, v = 0.2, t = 0.2)
movej(p[-0.399088287606067, -0.11596301410335, 0.340512908375889, -1.06909398175242, -1.28032992521678, 1.33675251769873], a = 0.2, v = 0.2, t = 0.2)
movej(p[-0.399863092924485, -0.116016846058863, 0.340395722434252, -1.07016991360996, -1.28443106263591, 1.32455123491993], a = 0.2, v = 0.2, t = 0.2)
movej(p[-0.400561134123181, -0.116041530569838, 0.340279207089594, -1.07902052975673, -1.2829171201393, 1.32961205256919], a = 0.2, v = 0.2, t = 0.2)
movej(p[-0.401117443772535, -0.11600801726215, 0.340229518479596, -1.08146621814245, -1.28689638134053, 1.31868147006586], a = 0.2, v = 0.2, t = 0.2)
movej(p[-0.401500125032026, -0.115981188336973, 0.340132595108449, -1.0844113576884, -1.28928000318466, 1.3123534959982], a = 0.2, v = 0.2, t = 0.2)
movej(p[-0.401602398789558, -0.1159819431343, 0.340014288313626, -1.08412177501351, -1.29279663807415, 1.30352799336034], a = 0.2, v = 0.2, t = 0.2)
movej(p[-0.401299426919128, -0.115755543710681, 0.339965956441802, -1.09050441105511, -1.28777202729259, 1.31369727858867], a = 0.2, v = 0.2, t = 0.2)
movej(p[-0.400682250465599, -0.115739508005291, 0.339873268846311, -1.08982679742089, -1.2785971655955, 1.31451311797577], a = 0.2, v = 0.2, t = 0.2)
movej(p[-0.399902583221044, -0.115898962566025, 0.339763626958399, -1.08481150142254, -1.27392258180186, 1.31140087216727], a = 0.2, v = 0.2, t = 0.2)
movej(p[-0.399246691115727, -0.116042567236066, 0.339761125393838, -1.07954336033664, -1.27296440954966, 1.31310332657019], a = 0.2, v = 0.2, t = 0.2)
movej(p[-0.398724773648414, -0.115900739493356, 0.339899692212419, -1.07668125275764, -1.27252186831327, 1.31857651603573], a = 0.2, v = 0.2, t = 0.2)
movej(p[-0.398922013191108, -0.115896378199392, 0.339967133010254, -1.07833029671165, -1.27079317611161, 1.32906406989977], a = 0.2, v = 0.2, t = 0.2)
movej(p[-0.399599429423215, -0.115988079810284, 0.339983314652268, -1.0821755279875, -1.27238847735728, 1.33459696753164], a = 0.2, v = 0.2, t = 0.2)
movej(p[-0.400712117302296, -0.116120044777484, 0.340037809268308, -1.09283503551393, -1.27595952855603, 1.34090188647851], a = 0.2, v = 0.2, t = 0.2)
movej(p[-0.401603262380631, -0.116209976161101, 0.340064427489521, -1.098591735421, -1.279983758052, 1.33169383353531], a = 0.2, v = 0.2, t = 0.2)
movej(p[-0.402242276101538, -0.116311668357881, 0.340010617138227, -1.10708225185125, -1.28327157011146, 1.32823913922026], a = 0.2, v = 0.2, t = 0.2)
movej(p[-0.402554200630586, -0.116254377482515, 0.339954367376433, -1.11321755878407, -1.28386376547582, 1.32937347754829], a = 0.2, v = 0.2, t = 0.2)
movej(p[-0.402546837849755, -0.116069937537423, 0.339946641604617, -1.11860358109549, -1.28119194397245, 1.33033605954007], a = 0.2, v = 0.2, t = 0.2)
movej(p[-0.402256292948067, -0.115931106564407, 0.339871448328642, -1.11201883326035, -1.2802928907819, 1.31891560164995], a = 0.2, v = 0.2, t = 0.2)
movej(p[-0.401609361072202, -0.115859619069399, 0.339752332124679, -1.10568486937873, -1.27776340480458, 1.3113403293496], a = 0.2, v = 0.2, t = 0.2)
movej(p[-0.400766011475984, -0.115702425329334, 0.339750125148709, -1.09973853117939, -1.27740964058578, 1.3072828148201], a = 0.2, v = 0.2, t = 0.2)
movej(p[-0.399861411429517, -0.115668255672902, 0.339788419203091, -1.09459869535413, -1.27075266656075, 1.30814244836134], a = 0.2, v = 0.2, t = 0.2)
movej(p[-0.399172096444618, -0.115821181350256, 0.339800089047496, -1.09002061610284, -1.26911884679085, 1.31151070395129], a = 0.2, v = 0.2, t = 0.2)
movej(p[-0.398752229800939, -0.115962105623271, 0.339803046157725, -1.08633025569114, -1.26784368409281, 1.32402729838313], a = 0.2, v = 0.2, t = 0.2)
movej(p[-0.398713127097405, -0.11588235498675, 0.339952614874544, -1.08365278871466, -1.27280981476321, 1.33067020656929], a = 0.2, v = 0.2, t = 0.2)
movej(p[-0.399132874632221, -0.115841617268209, 0.340077434726651, -1.08050255902477, -1.2741371443243, 1.32656018702483], a = 0.2, v = 0.2, t = 0.2)
movej(p[-0.400124940047339, -0.115987441384136, 0.340108604263065, -1.08174186100418, -1.2792781772485, 1.3200235169611], a = 0.2, v = 0.2, t = 0.2)
movej(p[-0.401210343183872, -0.11610001908661, 0.340109047417454, -1.09382283269154, -1.27972398119181, 1.32784453462708], a = 0.2, v = 0.2, t = 0.2)
movej(p[-0.401965615077485, -0.116062092572755, 0.340170084800317, -1.09601451646712, -1.28573411283331, 1.31745727677744], a = 0.2, v = 0.2, t = 0.2)
movej(p[-0.402394873214975, -0.11604512194516, 0.340128935764852, -1.10274412149625, -1.28857167580364, 1.31628960681113], a = 0.2, v = 0.2, t = 0.2)
movej(p[-0.402566541722851, -0.116036062211125, 0.340039559796663, -1.10438382290923, -1.29128069232432, 1.3120315092468], a = 0.2, v = 0.2, t = 0.2)
movej(p[-0.402540517589127, -0.115871581868518, 0.33998511338748, -1.11038673456074, -1.28790022696728, 1.32187035518307], a = 0.2, v = 0.2, t = 0.2)
movej(p[-0.402218713834759, -0.115727319479707, 0.33987660477626, -1.10325526161856, -1.28422452144074, 1.30981407932404], a = 0.2, v = 0.2, t = 0.2)
movej(p[-0.401631493174496, -0.115704478473226, 0.339732064851382, -1.09543063309306, -1.28181338951378, 1.30053674127612], a = 0.2, v = 0.2, t = 0.2)
movej(p[-0.400846478958543, -0.11569056462655, 0.339649811825167, -1.09277349101312, -1.27755878642788, 1.30116345425279], a = 0.2, v = 0.2, t = 0.2)
movej(p[-0.399923177553096, -0.115561750682876, 0.339746818069373, -1.09869006604717, -1.26962459694629, 1.32119010636781], a = 0.2, v = 0.2, t = 0.2)
movej(p[-0.399265682936368, -0.115662731114834, 0.339776742011268, -1.09591748782388, -1.26317629853083, 1.32667613246572], a = 0.2, v = 0.2, t = 0.2)
movej(p[-0.398975394534775, -0.115885534695176, 0.339769106049553, -1.08856974208824, -1.26671871795377, 1.32503725142494], a = 0.2, v = 0.2, t = 0.2)
movej(p[-0.399221232509182, -0.115966687875295, 0.339835866290687, -1.08402994427418, -1.27175914511703, 1.32482874847832], a = 0.2, v = 0.2, t = 0.2)
movej(p[-0.399801037663406, -0.115959111666366, 0.339967197995515, -1.08191947870911, -1.27448172330129, 1.32126801787962], a = 0.2, v = 0.2, t = 0.2)
movej(p[-0.400710840938736, -0.116059936646662, 0.339997042257072, -1.08582564188769, -1.2761106750256, 1.31745934837624], a = 0.2, v = 0.2, t = 0.2)
movej(p[-0.401650255001407, -0.116231452528251, 0.339962148155603, -1.09380094814738, -1.27989463901434, 1.31676403320245], a = 0.2, v = 0.2, t = 0.2)
movej(p[-0.402392102736398, -0.116184200501725, 0.339994776637684, -1.10477669462104, -1.28495912739622, 1.3208933035455], a = 0.2, v = 0.2, t = 0.2)
movej(p[-0.402601918634672, -0.116115155148333, 0.339992711541414, -1.10793809918544, -1.28367724197282, 1.3183700184047], a = 0.2, v = 0.2, t = 0.2)
movej(p[-0.402793094759017, -0.116126814531834, 0.339913447710453, -1.10568574716536, -1.28577628823414, 1.31033824946104], a = 0.2, v = 0.2, t = 0.2)
movej(p[-0.402840252849738, -0.116126702213435, 0.339824391534895, -1.10684872697198, -1.28556090925212, 1.3095122518395], a = 0.2, v = 0.2, t = 0.2)
movej(p[-0.402917764279885, -0.115915424511771, 0.339856801004377, -1.11476825328631, -1.28262618614505, 1.31962695619917], a = 0.2, v = 0.2, t = 0.2)
movej(p[-0.402853917513733, -0.115829786692439, 0.33980545453077, -1.11848789819846, -1.27613904389987, 1.32303426794097], a = 0.2, v = 0.2, t = 0.2)
movej(p[-0.402710102182645, -0.115827715514066, 0.339710690235467, -1.11599299802122, -1.27788433489016, 1.32028638674323], a = 0.2, v = 0.2, t = 0.2)
movej(p[-0.402246559051269, -0.115693911604899, 0.339659525742454, -1.11150579013446, -1.27898213893945, 1.31601077068116], a = 0.2, v = 0.2, t = 0.2)
movej(p[-0.401450206415651, -0.1153893788397, 0.339719277063483, -1.1079098906341, -1.275208601603, 1.31407893540852], a = 0.2, v = 0.2, t = 0.2)
movej(p[-0.400590286287306, -0.115372995885376, 0.339682677382121, -1.10352239819572, -1.26904888431147, 1.31305700854504], a = 0.2, v = 0.2, t = 0.2)
movej(p[-0.399788086966464, -0.115514110093699, 0.339636053782409, -1.09652382029017, -1.26600148467954, 1.31373900553343], a = 0.2, v = 0.2, t = 0.2)
movej(p[-0.399153655317122, -0.115584024806811, 0.339679719469023, -1.09230413382622, -1.26720950507459, 1.32297078909313], a = 0.2, v = 0.2, t = 0.2)
movej(p[-0.398554140362752, -0.115538952598713, 0.33979399735061, -1.08380116169011, -1.26639392099086, 1.32522781042812], a = 0.2, v = 0.2, t = 0.2)
movej(p[-0.398559104185404, -0.115673767762501, 0.339824865705628, -1.08104114793881, -1.26868999750468, 1.33051720052952], a = 0.2, v = 0.2, t = 0.2)
movej(p[-0.39909511930563, -0.115858174029263, 0.339833073011373, -1.07443714496629, -1.27283855348387, 1.32513304905015], a = 0.2, v = 0.2, t = 0.2)
movej(p[-0.400162673755596, -0.115929302303431, 0.339916595506377, -1.08060516883299, -1.27745846603115, 1.32898303862884], a = 0.2, v = 0.2, t = 0.2)
movej(p[-0.401202379932362, -0.116048668145742, 0.339936953929319, -1.09026838893121, -1.27337528602327, 1.32855511130999], a = 0.2, v = 0.2, t = 0.2)
movej(p[-0.402125433124052, -0.116237255795713, 0.33983940351113, -1.10276573758714, -1.27570962752771, 1.3298578882887], a = 0.2, v = 0.2, t = 0.2)
movej(p[-0.402668677532347, -0.116313928239391, 0.339755122183209, -1.1156591837851, -1.27685241448871, 1.33297319075463], a = 0.2, v = 0.2, t = 0.2)
movej(p[-0.402857370790545, -0.116154307969048, 0.339762326270359, -1.11468645773804, -1.28322899444399, 1.32256869386269], a = 0.2, v = 0.2, t = 0.2)
movej(p[-0.402878334661844, -0.116060328316032, 0.339740079494478, -1.11594115253191, -1.28128749863524, 1.31970929007746], a = 0.2, v = 0.2, t = 0.2)
movej(p[-0.4028935506327, -0.116090200230697, 0.33964565002691, -1.11437593515334, -1.28061584752974, 1.31693713017276], a = 0.2, v = 0.2, t = 0.2)
movej(p[-0.402882310275534, -0.116003137552914, 0.339583189672212, -1.12097951439229, -1.27767799004361, 1.32764060634325], a = 0.2, v = 0.2, t = 0.2)
movej(p[-0.402669770816103, -0.115825511727595, 0.339592191947724, -1.11392182479416, -1.27745594524758, 1.31663733534387], a = 0.2, v = 0.2, t = 0.2)
movej(p[-0.402204897981424, -0.115775269220419, 0.33949079747376, -1.11295695763651, -1.27381363060716, 1.31850371831549], a = 0.2, v = 0.2, t = 0.2)
movej(p[-0.40146206631153, -0.115714890401146, 0.339431334744372, -1.105122985243, -1.27144545801276, 1.31244446270273], a = 0.2, v = 0.2, t = 0.2)
movej(p[-0.400572537703762, -0.115595178565636, 0.339511053074767, -1.10587070065041, -1.26622275224861, 1.32097929897629], a = 0.2, v = 0.2, t = 0.2)
movej(p[-0.399745265400819, -0.115580590122134, 0.33961995745255, -1.09331528058849, -1.26404529707622, 1.30898006556679], a = 0.2, v = 0.2, t = 0.2)
movej(p[-0.399200882420793, -0.115792957094971, 0.339639727612016, -1.08281983607574, -1.26809583796241, 1.30386069805091], a = 0.2, v = 0.2, t = 0.2)
movej(p[-0.399006056618568, -0.115934811880682, 0.339663378765439, -1.07685739021226, -1.26992403907702, 1.30770249711406], a = 0.2, v = 0.2, t = 0.2)
movej(p[-0.399031157714177, -0.115888516199301, 0.33981220139102, -1.07508039459218, -1.2737860121557, 1.31218073215324], a = 0.2, v = 0.2, t = 0.2)
movej(p[-0.399627057800335, -0.115961224015741, 0.339903280839557, -1.07465304498883, -1.27516645375837, 1.30917279045852], a = 0.2, v = 0.2, t = 0.2)
movej(p[-0.400568318478667, -0.11613975938355, 0.339934662328797, -1.07807965722867, -1.28121709795749, 1.30541015565261], a = 0.2, v = 0.2, t = 0.2)
movej(p[-0.401658549166219, -0.11621653377289, 0.339966547617908, -1.08967831717917, -1.28479426232643, 1.31323501839072], a = 0.2, v = 0.2, t = 0.2)
movej(p[-0.402277207878392, -0.11620401096001, 0.339967939741991, -1.10141837579156, -1.28223755305915, 1.31993173514497], a = 0.2, v = 0.2, t = 0.2)
movej(p[-0.402708091241876, -0.116234950698343, 0.339902351625956, -1.11319818466016, -1.28010034936101, 1.32841315154824], a = 0.2, v = 0.2, t = 0.2)
movej(p[-0.402860358453022, -0.116208005417785, 0.339832295607269, -1.11604271243947, -1.28168935196269, 1.32623350624867], a = 0.2, v = 0.2, t = 0.2)
movej(p[-0.40297532019912, -0.116047703766574, 0.339843678096551, -1.12072469799282, -1.28389010674103, 1.32821508355008], a = 0.2, v = 0.2, t = 0.2)
movej(p[-0.402951556944818, -0.115963475022353, 0.339828154840068, -1.12215435735442, -1.28169433551648, 1.3271348115826], a = 0.2, v = 0.2, t = 0.2)
movej(p[-0.402928370873245, -0.115983188422161, 0.339741149159488, -1.1268528133433, -1.27885288017094, 1.33297664805242], a = 0.2, v = 0.2, t = 0.2)
movej(p[-0.402674608233893, -0.115838956305087, 0.339690728471537, -1.12945466525776, -1.27532985897504, 1.34122113600932], a = 0.2, v = 0.2, t = 0.2)
movej(p[-0.402077440037268, -0.11560128521142, 0.339668263621756, -1.11897211012885, -1.2727867104828, 1.32613603899753], a = 0.2, v = 0.2, t = 0.2)
movej(p[-0.401389827337904, -0.11551749680434, 0.339577542627981, -1.1141938655023, -1.26848128565516, 1.32294151965909], a = 0.2, v = 0.2, t = 0.2)
movej(p[-0.400629037286014, -0.115563517771489, 0.339500026116012, -1.10786001147483, -1.26435747163957, 1.32094979053577], a = 0.2, v = 0.2, t = 0.2)
movej(p[-0.399894581838528, -0.115469366977846, 0.339584227603621, -1.10925811149362, -1.26168623216186, 1.33669307469156], a = 0.2, v = 0.2, t = 0.2)
movej(p[-0.399231301673777, -0.11548961181892, 0.339647938010597, -1.10202469639547, -1.25862112674673, 1.33711214718326], a = 0.2, v = 0.2, t = 0.2)
movej(p[-0.398945556899877, -0.115687287736307, 0.339666856981866, -1.09316575766431, -1.26360874970984, 1.33391515638259], a = 0.2, v = 0.2, t = 0.2)
movej(p[-0.399136290201865, -0.115866566805298, 0.339716657756301, -1.0882487042673, -1.26721229384165, 1.33385393675601], a = 0.2, v = 0.2, t = 0.2)
movej(p[-0.399725262533587, -0.115860909507382, 0.339843968511333, -1.09184092671662, -1.26767072751246, 1.34029406899304], a = 0.2, v = 0.2, t = 0.2)
movej(p[-0.400719022781599, -0.11599312494322, 0.339897491770731, -1.09472579335291, -1.26956515932329, 1.33532099476391], a = 0.2, v = 0.2, t = 0.2)
movej(p[-0.401744995492112, -0.116175068465642, 0.339883428494751, -1.10487610262858, -1.27362663663542, 1.33537227108419], a = 0.2, v = 0.2, t = 0.2)
movej(p[-0.402466697668658, -0.116165634793186, 0.339922617918256, -1.11135841261327, -1.28120541359703, 1.33132602620526], a = 0.2, v = 0.2, t = 0.2)
movej(p[-0.402744983190021, -0.116016378252728, 0.339966128364502, -1.11766037805686, -1.28196727179509, 1.33044732208591], a = 0.2, v = 0.2, t = 0.2)
movej(p[-0.402867476296288, -0.115978078306542, 0.339893655203682, -1.12130955429584, -1.28301371478408, 1.33045075280156], a = 0.2, v = 0.2, t = 0.2)
movej(p[-0.402816893097271, -0.115905326751394, 0.33981947075989, -1.12141218823851, -1.28179613946444, 1.33117791795878], a = 0.2, v = 0.2, t = 0.2)
movej(p[-0.402510230357492, -0.11576386521793, 0.339752844048452, -1.11969774620586, -1.28041564685891, 1.32849899616282], a = 0.2, v = 0.2, t = 0.2)
movej(p[-0.401901045493901, -0.115713159984685, 0.339633224996251, -1.10835373110487, -1.27654711435389, 1.31279435405907], a = 0.2, v = 0.2, t = 0.2)
movej(p[-0.401122953285837, -0.115784661026055, 0.33948048843503, -1.10024561965367, -1.2739315683543, 1.30492163754147], a = 0.2, v = 0.2, t = 0.2)
movej(p[-0.400306495254964, -0.115782702874996, 0.339459020126316, -1.10059018276084, -1.26866268027738, 1.31783701048889], a = 0.2, v = 0.2, t = 0.2)
movej(p[-0.399457837955947, -0.115767505595467, 0.339520933151174, -1.09748699037022, -1.26163795700852, 1.32528794682348], a = 0.2, v = 0.2, t = 0.2)
movej(p[-0.399019945949021, -0.11591974709532, 0.339509433738428, -1.09187009848926, -1.25924246608052, 1.33046341088558], a = 0.2, v = 0.2, t = 0.2)
movej(p[-0.399070371604334, -0.116117595484397, 0.339515720806565, -1.08253258592154, -1.26401431105103, 1.32607581989711], a = 0.2, v = 0.2, t = 0.2)
movej(p[-0.399726063886785, -0.116126127175801, 0.339636592023053, -1.08212011346889, -1.26911060136692, 1.32905872581767], a = 0.2, v = 0.2, t = 0.2)
movej(p[-0.400621879041956, -0.116198887971652, 0.339716971271954, -1.08473102903151, -1.26937622394972, 1.3263054556852], a = 0.2, v = 0.2, t = 0.2)
movej(p[-0.401633891352866, -0.116371638730992, 0.339714315088061, -1.09513840831512, -1.27165642355112, 1.3255709010431], a = 0.2, v = 0.2, t = 0.2)
movej(p[-0.402374026494362, -0.116460985072024, 0.339663366352384, -1.10700397177464, -1.27353977173626, 1.3299933067405], a = 0.2, v = 0.2, t = 0.2)
movej(p[-0.402668827776181, -0.116331024291225, 0.339704301283587, -1.1111469795944, -1.2800428602841, 1.32192151259053], a = 0.2, v = 0.2, t = 0.2)
movej(p[-0.40278187189294, -0.116226615423207, 0.339670051103817, -1.11406820050351, -1.28166275032776, 1.3199081065575], a = 0.2, v = 0.2, t = 0.2)
movej(p[-0.402830521893462, -0.116212717311675, 0.339590545913382, -1.11286753556805, -1.2828273496693, 1.31561941505482], a = 0.2, v = 0.2, t = 0.2)
movej(p[-0.402747925869812, -0.116030989614717, 0.339565361403867, -1.1171812881182, -1.28016058747195, 1.3267552965366], a = 0.2, v = 0.2, t = 0.2)
movej(p[-0.402339486847909, -0.115878556423662, 0.33949005587783, -1.11051711268421, -1.27569932423412, 1.31736361645285], a = 0.2, v = 0.2, t = 0.2)
movej(p[-0.401662704233558, -0.115836587352812, 0.339354259861306, -1.10559554430648, -1.27167002466877, 1.31287391558983], a = 0.2, v = 0.2, t = 0.2)
movej(p[-0.400771714787124, -0.115788681842727, 0.339275669863824, -1.10404086207771, -1.26607183367373, 1.31702090327468], a = 0.2, v = 0.2, t = 0.2)
movej(p[-0.399890237472044, -0.115672247015325, 0.339340278832753, -1.10222438676425, -1.26077016214683, 1.32618604685649], a = 0.2, v = 0.2, t = 0.2)
movej(p[-0.39917993773021, -0.115752089248029, 0.339380742941576, -1.09279782047349, -1.25984178101555, 1.32467332265048], a = 0.2, v = 0.2, t = 0.2)
movej(p[-0.398835670869307, -0.115923279526545, 0.339413774289203, -1.07976881576389, -1.26681867109781, 1.31814526524935], a = 0.2, v = 0.2, t = 0.2)
movej(p[-0.399003346938917, -0.116014630597204, 0.339495085343616, -1.07657421910036, -1.27192885598627, 1.31886579597777], a = 0.2, v = 0.2, t = 0.2)
movej(p[-0.399575981714383, -0.116002267788408, 0.339623107210053, -1.07541309033408, -1.27294507186416, 1.316916159051], a = 0.2, v = 0.2, t = 0.2)
movej(p[-0.400661430515946, -0.116147372312618, 0.339670127443338, -1.0848168877141, -1.27579103038614, 1.3179850997934], a = 0.2, v = 0.2, t = 0.2)
movej(p[-0.401691168605097, -0.116232633671304, 0.339696109488425, -1.09525927562989, -1.27796123984581, 1.32275552790586], a = 0.2, v = 0.2, t = 0.2)
movej(p[-0.402426014617704, -0.116180103083755, 0.339763475183436, -1.10510577999718, -1.28376739275721, 1.32199710959316], a = 0.2, v = 0.2, t = 0.2)
movej(p[-0.402696501739826, -0.116098164876885, 0.339764733279627, -1.10494568570914, -1.28651393685113, 1.31121281888904], a = 0.2, v = 0.2, t = 0.2)
movej(p[-0.402789601513852, -0.116073661072708, 0.339708919184039, -1.10572178245271, -1.28906279973726, 1.30536838152715], a = 0.2, v = 0.2, t = 0.2)
movej(p[-0.402835279705641, -0.115965729559204, 0.33970300944897, -1.11551183079839, -1.28659961977126, 1.31759860704757], a = 0.2, v = 0.2, t = 0.2)
movej(p[-0.402760840758742, -0.115861265845006, 0.339703209200147, -1.12414275144631, -1.27802592726252, 1.33059191144378], a = 0.2, v = 0.2, t = 0.2)
movej(p[-0.402755312946125, -0.115867572651132, 0.339660434197118, -1.13507812638834, -1.2713188619445, 1.3437956421736], a = 0.2, v = 0.2, t = 0.2)
movej(p[-0.402494578011822, -0.115796225672558, 0.339574815688351, -1.1340065674571, -1.27094989053388, 1.34338094604967], a = 0.2, v = 0.2, t = 0.2)
movej(p[-0.402000672731585, -0.115595661949723, 0.339591647331674, -1.13053949262248, -1.27274783259246, 1.3387988911679], a = 0.2, v = 0.2, t = 0.2)
movej(p[-0.40126889152566, -0.115492943361274, 0.339539128512728, -1.12428614775376, -1.26664144696917, 1.33564158400555], a = 0.2, v = 0.2, t = 0.2)
movej(p[-0.400563507336434, -0.115547292828613, 0.339478748481353, -1.11703691584428, -1.26422856798454, 1.33182351978662], a = 0.2, v = 0.2, t = 0.2)
movej(p[-0.399906948763245, -0.115541472967794, 0.339444346466985, -1.11862393831967, -1.25926362355207, 1.34749925610395], a = 0.2, v = 0.2, t = 0.2)
movej(p[-0.399308490286841, -0.115561046731309, 0.339474140390967, -1.10915395119303, -1.25992265678261, 1.34169875571822], a = 0.2, v = 0.2, t = 0.2)
movej(p[-0.399068184182708, -0.115702208166013, 0.339488580183649, -1.10208874847938, -1.26316202786804, 1.34081803292313], a = 0.2, v = 0.2, t = 0.2)
movej(p[-0.399274624417331, -0.115876086252005, 0.339553880140315, -1.09255157688554, -1.26836258961307, 1.33322658352603], a = 0.2, v = 0.2, t = 0.2)
movej(p[-0.399997508118533, -0.115872145699159, 0.339707523597643, -1.09148265564675, -1.27334686504376, 1.33337232846201], a = 0.2, v = 0.2, t = 0.2)
movej(p[-0.400861042397094, -0.115931956545572, 0.339776443355984, -1.09324246466803, -1.27360104063751, 1.32722858383437], a = 0.2, v = 0.2, t = 0.2)
movej(p[-0.401800405827587, -0.116068771417955, 0.339775654514234, -1.10007510187874, -1.27941254455356, 1.32081702413105], a = 0.2, v = 0.2, t = 0.2)
movej(p[-0.402399728753179, -0.116082179711158, 0.33978692140881, -1.11265022990051, -1.28265886930942, 1.3274230087213], a = 0.2, v = 0.2, t = 0.2)
movej(p[-0.40269145274075, -0.115921561919346, 0.339883351768627, -1.11730218180161, -1.28621902442846, 1.32598588188323], a = 0.2, v = 0.2, t = 0.2)
movej(p[-0.402824167922986, -0.11589025480293, 0.339832339010754, -1.12908241472828, -1.28122808845604, 1.34013663060169], a = 0.2, v = 0.2, t = 0.2)
movej(p[-0.402895479714063, -0.115857504134799, 0.339784080942099, -1.12668494991196, -1.28335246862535, 1.33416606819679], a = 0.2, v = 0.2, t = 0.2)
movej(p[-0.402878784604739, -0.115755440847259, 0.339747111667543, -1.13487912053632, -1.27746131248475, 1.3452411623588], a = 0.2, v = 0.2, t = 0.2)
movej(p[-0.402735094802592, -0.115672630409834, 0.339688542201843, -1.12278217441443, -1.27863034179014, 1.32468756820686], a = 0.2, v = 0.2, t = 0.2)
movej(p[-0.402392841348297, -0.115622631275862, 0.339558152224371, -1.12091181315981, -1.27797062727313, 1.3231809097762], a = 0.2, v = 0.2, t = 0.2)
movej(p[-0.401779202698956, -0.115511217124453, 0.339491020185076, -1.11595119162503, -1.27717527728112, 1.32035709478377], a = 0.2, v = 0.2, t = 0.2)
movej(p[-0.400951601534647, -0.115295490854122, 0.339542210009507, -1.11716054916944, -1.2692490567107, 1.32951945121943], a = 0.2, v = 0.2, t = 0.2)
movej(p[-0.400295593600806, -0.115390813357725, 0.339491663726321, -1.115987417724, -1.26195130847089, 1.33526496517676], a = 0.2, v = 0.2, t = 0.2)
movej(p[-0.399718961196591, -0.115556957485634, 0.339445825078099, -1.11119125364039, -1.26013252076971, 1.3382161932121], a = 0.2, v = 0.2, t = 0.2)
movej(p[-0.399292519610472, -0.115599266861172, 0.339467511405709, -1.10165441933604, -1.26505167989293, 1.337139828249], a = 0.2, v = 0.2, t = 0.2)
