def moving():
set_payload_mass(0)
set_tcp(p[0,0,0,0,0,0])
movej(p[0.5171, 0.004, 0.4069, -1.274, 1.035, -1.058], a = 0.2, v = 0.2, t = 0.2)
movej(p[0.51711544594259, 0.00400703989831317, 0.406349451619938, -1.274, 1.035, -1.058], a = 0.2, v = 0.2, t = 0.2)
movej(p[0.517143081283204, 0.00401963543831544, 0.405364429701186, -1.274, 1.035, -1.058], a = 0.2, v = 0.2, t = 0.2)
movej(p[0.517186521506995, 0.00403943447333103, 0.403816065482028, -1.274, 1.035, -1.058], a = 0.2, v = 0.2, t = 0.2)
movej(p[0.517233374470594, 0.00406078895509725, 0.402146059067097, -1.274, 1.035, -1.058], a = 0.2, v = 0.2, t = 0.2)
movej(p[0.517283160651809, 0.00408348032864749, 0.400371502334353, -1.274, 1.035, -1.058], a = 0.2, v = 0.2, t = 0.2)
movej(p[0.517328162828002, 0.00410399126492857, 0.398767464571197, -1.274, 1.035, -1.058], a = 0.2, v = 0.2, t = 0.2)
movej(p[0.517363995193867, 0.00412032281676055, 0.397490271491835, -1.274, 1.035, -1.058], a = 0.2, v = 0.2, t = 0.2)
movej(p[0.517384123909016, 0.00412949701296105, 0.396772812427532, -1.274, 1.035, -1.058], a = 0.2, v = 0.2, t = 0.2)
movej(p[0.517391919649907, 0.00413305012879239, 0.396494944470056, -1.274, 1.035, -1.058], a = 0.2, v = 0.2, t = 0.2)
movej(p[0.517390489496002, 0.00413239829819024, 0.396545920246427, -1.274, 1.035, -1.058], a = 0.2, v = 0.2, t = 0.2)
movej(p[0.517362783769383, 0.00411977067789755, 0.397533450972996, -1.274, 1.035, -1.058], a = 0.2, v = 0.2, t = 0.2)
movej(p[0.517325647439664, 0.00410284480992832, 0.398857121966109, -1.274, 1.035, -1.058], a = 0.2, v = 0.2, t = 0.2)
movej(p[0.517281800603488, 0.00408286045052584, 0.400419979298157, -1.274, 1.035, -1.058], a = 0.2, v = 0.2, t = 0.2)
movej(p[0.517241478676053, 0.00406448266184278, 0.401857196334325, -1.274, 1.035, -1.058], a = 0.2, v = 0.2, t = 0.2)
movej(p[0.517204314304101, 0.00404754401288135, 0.403181866852465, -1.274, 1.035, -1.058], a = 0.2, v = 0.2, t = 0.2)
movej(p[0.517180865388514, 0.00403685654720448, 0.404017669679952, -1.274, 1.035, -1.058], a = 0.2, v = 0.2, t = 0.2)
movej(p[0.517169948547044, 0.00403188090694138, 0.404406784772921, -1.274, 1.035, -1.058], a = 0.2, v = 0.2, t = 0.2)
movej(p[0.517161625612165, 0.00402808750845669, 0.404703443800902, -1.274, 1.035, -1.058], a = 0.2, v = 0.2, t = 0.2)
movej(p[0.517151440672986, 0.00402344545208999, 0.40506647129067, -1.274, 1.035, -1.058], a = 0.2, v = 0.2, t = 0.2)
movej(p[0.517147200687293, 0.00402151296606949, 0.405217599474736, -1.274, 1.035, -1.058], a = 0.2, v = 0.2, t = 0.2)
movej(p[0.517147310052004, 0.00402156281193906, 0.405213701327131, -1.274, 1.035, -1.058], a = 0.2, v = 0.2, t = 0.2)
movej(p[0.517142587739896, 0.00401941049285274, 0.405382021341659, -1.274, 1.035, -1.058], a = 0.2, v = 0.2, t = 0.2)
movej(p[0.517143314033741, 0.00401974152055069, 0.405356133643463, -1.274, 1.035, -1.058], a = 0.2, v = 0.2, t = 0.2)
movej(p[0.517145557412415, 0.00402076399992662, 0.405276171641311, -1.274, 1.035, -1.058], a = 0.2, v = 0.2, t = 0.2)
movej(p[0.51714301117762, 0.00401960348583494, 0.405366928513753, -1.274, 1.035, -1.058], a = 0.2, v = 0.2, t = 0.2)
movej(p[0.517128047841867, 0.00401278354839752, 0.405900275068103, -1.274, 1.035, -1.058], a = 0.2, v = 0.2, t = 0.2)
movej(p[0.517117803453154, 0.00400811439632735, 0.406265421550927, -1.274, 1.035, -1.058], a = 0.2, v = 0.2, t = 0.2)
movej(p[0.517117761670226, 0.00400809535264897, 0.406266910843217, -1.274, 1.035, -1.058], a = 0.2, v = 0.2, t = 0.2)
movej(p[0.517118853915218, 0.00400859317229513, 0.406227979343419, -1.274, 1.035, -1.058], a = 0.2, v = 0.2, t = 0.2)
movej(p[0.517127643753284, 0.00401259937429993, 0.40591467822374, -1.274, 1.035, -1.058], a = 0.2, v = 0.2, t = 0.2)
movej(p[0.517157991338713, 0.00402643109186769, 0.404832982244388, -1.274, 1.035, -1.058], a = 0.2, v = 0.2, t = 0.2)
movej(p[0.517207031596519, 0.00404878249102544, 0.403085012877359, -1.274, 1.035, -1.058], a = 0.2, v = 0.2, t = 0.2)
movej(p[0.517252162766986, 0.00406935221987063, 0.401476377299079, -1.274, 1.035, -1.058], a = 0.2, v = 0.2, t = 0.2)
movej(p[0.517288110106008, 0.00408573617377063, 0.400195086167107, -1.274, 1.035, -1.058], a = 0.2, v = 0.2, t = 0.2)
movej(p[0.517307487289301, 0.00409456783938019, 0.399504414373524, -1.274, 1.035, -1.058], a = 0.2, v = 0.2, t = 0.2)
movej(p[0.517299127899519, 0.00409075782560565, 0.399802372784041, -1.274, 1.035, -1.058], a = 0.2, v = 0.2, t = 0.2)
movej(p[0.517260945594493, 0.00407335522662738, 0.401163326060657, -1.274, 1.035, -1.058], a = 0.2, v = 0.2, t = 0.2)
movej(p[0.517220449805211, 0.0040548981957927, 0.402606740151991, -1.274, 1.035, -1.058], a = 0.2, v = 0.2, t = 0.2)
movej(p[0.517194594865997, 0.00404311412098515, 0.403528302226786, -1.274, 1.035, -1.058], a = 0.2, v = 0.2, t = 0.2)
movej(p[0.517173745465449, 0.00403361145328513, 0.40427144908428, -1.274, 1.035, -1.058], a = 0.2, v = 0.2, t = 0.2)
movej(p[0.517157960492257, 0.00402641703277627, 0.404834081721917, -1.274, 1.035, -1.058], a = 0.2, v = 0.2, t = 0.2)
movej(p[0.517147326877344, 0.00402157048053438, 0.405213101612115, -1.274, 1.035, -1.058], a = 0.2, v = 0.2, t = 0.2)
movej(p[0.517142691496159, 0.00401945778252388, 0.40537832309906, -1.274, 1.035, -1.058], a = 0.2, v = 0.2, t = 0.2)
movej(p[0.517135613636444, 0.00401623186009283, 0.405630603215847, -1.274, 1.035, -1.058], a = 0.2, v = 0.2, t = 0.2)
movej(p[0.517144741383422, 0.00402039207305363, 0.405305257819594, -1.274, 1.035, -1.058], a = 0.2, v = 0.2, t = 0.2)
movej(p[0.517175374719211, 0.0040343540289319, 0.404213376680217, -1.274, 1.035, -1.058], a = 0.2, v = 0.2, t = 0.2)
movej(p[0.517218472827755, 0.00405399713584266, 0.402677206666387, -1.274, 1.035, -1.058], a = 0.2, v = 0.2, t = 0.2)
movej(p[0.517258163804938, 0.00407208735220124, 0.401262478943324, -1.274, 1.035, -1.058], a = 0.2, v = 0.2, t = 0.2)
movej(p[0.51729217342563, 0.00408758813954028, 0.40005025499071, -1.274, 1.035, -1.058], a = 0.2, v = 0.2, t = 0.2)
movej(p[0.517307708822945, 0.00409466880921857, 0.399496518125812, -1.274, 1.035, -1.058], a = 0.2, v = 0.2, t = 0.2)
movej(p[0.517288183015815, 0.00408576940435035, 0.400192487402037, -1.274, 1.035, -1.058], a = 0.2, v = 0.2, t = 0.2)
movej(p[0.517249776372922, 0.00406826455743449, 0.401561436878868, -1.274, 1.035, -1.058], a = 0.2, v = 0.2, t = 0.2)
movej(p[0.51721466749668, 0.00405226275520125, 0.402812842212536, -1.274, 1.035, -1.058], a = 0.2, v = 0.2, t = 0.2)
movej(p[0.517194889309448, 0.00404324832140324, 0.403517807214003, -1.274, 1.035, -1.058], a = 0.2, v = 0.2, t = 0.2)
movej(p[0.517174673663375, 0.00403403450412692, 0.40423836480589, -1.274, 1.035, -1.058], a = 0.2, v = 0.2, t = 0.2)
movej(p[0.517161339581384, 0.00402795714233626, 0.404713638956177, -1.274, 1.035, -1.058], a = 0.2, v = 0.2, t = 0.2)
movej(p[0.517152051993675, 0.00402372407771993, 0.405044681645083, -1.274, 1.035, -1.058], a = 0.2, v = 0.2, t = 0.2)
movej(p[0.517145190059157, 0.00402059656892881, 0.405289265419164, -1.274, 1.035, -1.058], a = 0.2, v = 0.2, t = 0.2)
movej(p[0.517135131310029, 0.004016012027027, 0.40564779504631, -1.274, 1.035, -1.058], a = 0.2, v = 0.2, t = 0.2)
movej(p[0.517144132866957, 0.00402011472552291, 0.405326947512678, -1.274, 1.035, -1.058], a = 0.2, v = 0.2, t = 0.2)
movej(p[0.517169864420344, 0.00403184256396478, 0.404409783348002, -1.274, 1.035, -1.058], a = 0.2, v = 0.2, t = 0.2)
movej(p[0.517194449046383, 0.00404304765982571, 0.403533499756925, -1.274, 1.035, -1.058], a = 0.2, v = 0.2, t = 0.2)
movej(p[0.517213206496318, 0.00405159686550768, 0.402864917466437, -1.274, 1.035, -1.058], a = 0.2, v = 0.2, t = 0.2)
movej(p[0.517218725207856, 0.00405411216477245, 0.402668210941145, -1.274, 1.035, -1.058], a = 0.2, v = 0.2, t = 0.2)
movej(p[0.517214673105126, 0.00405226531139969, 0.402812642307531, -1.274, 1.035, -1.058], a = 0.2, v = 0.2, t = 0.2)
movej(p[0.517189087371353, 0.00404060393411725, 0.403724608942067, -1.274, 1.035, -1.058], a = 0.2, v = 0.2, t = 0.2)
movej(p[0.517167592999437, 0.00403080730359666, 0.40449074487518, -1.274, 1.035, -1.058], a = 0.2, v = 0.2, t = 0.2)
movej(p[0.517154026166908, 0.00402462385957074, 0.40497431508319, -1.274, 1.035, -1.058], a = 0.2, v = 0.2, t = 0.2)
movej(p[0.517147809203758, 0.00402179031360021, 0.405195909781652, -1.274, 1.035, -1.058], a = 0.2, v = 0.2, t = 0.2)
movej(p[0.517129234028341, 0.00401332418436754, 0.405857995159465, -1.274, 1.035, -1.058], a = 0.2, v = 0.2, t = 0.2)
movej(p[0.517119651436336, 0.00400895666371327, 0.406199552851655, -1.274, 1.035, -1.058], a = 0.2, v = 0.2, t = 0.2)
movej(p[0.517123344318056, 0.00401063979257597, 0.406067925400863, -1.274, 1.035, -1.058], a = 0.2, v = 0.2, t = 0.2)
movej(p[0.517136199719123, 0.00401649898282979, 0.405609713142785, -1.274, 1.035, -1.058], a = 0.2, v = 0.2, t = 0.2)
movej(p[0.517150347025883, 0.00402294699339422, 0.405105452766718, -1.274, 1.035, -1.058], a = 0.2, v = 0.2, t = 0.2)
movej(p[0.517166917181611, 0.00403049928168466, 0.404514833428328, -1.274, 1.035, -1.058], a = 0.2, v = 0.2, t = 0.2)
movej(p[0.517186291560681, 0.004039329669195, 0.403824261587248, -1.274, 1.035, -1.058], a = 0.2, v = 0.2, t = 0.2)
movej(p[0.517183787389237, 0.00403818832659162, 0.40391351917215, -1.274, 1.035, -1.058], a = 0.2, v = 0.2, t = 0.2)
movej(p[0.517171016956137, 0.00403236786274416, 0.404368702869396, -1.274, 1.035, -1.058], a = 0.2, v = 0.2, t = 0.2)
movej(p[0.517155004840854, 0.00402506991619849, 0.404939431659752, -1.274, 1.035, -1.058], a = 0.2, v = 0.2, t = 0.2)
movej(p[0.517146261272474, 0.00402108480283082, 0.405251083563136, -1.274, 1.035, -1.058], a = 0.2, v = 0.2, t = 0.2)
movej(p[0.517130725875159, 0.00401400413315253, 0.405804820428035, -1.274, 1.035, -1.058], a = 0.2, v = 0.2, t = 0.2)
movej(p[0.517119312686157, 0.0040088022693275, 0.40621162711398, -1.274, 1.035, -1.058], a = 0.2, v = 0.2, t = 0.2)
movej(p[0.517111947954393, 0.00400544559734626, 0.406474132371792, -1.274, 1.035, -1.058], a = 0.2, v = 0.2, t = 0.2)
movej(p[0.517107199002164, 0.00400328113631735, 0.406643401935096, -1.274, 1.035, -1.058], a = 0.2, v = 0.2, t = 0.2)
movej(p[0.517097226454861, 0.00399873588318556, 0.40699885902231, -1.274, 1.035, -1.058], a = 0.2, v = 0.2, t = 0.2)
movej(p[0.517098667180688, 0.00399939253222177, 0.406947506425003, -1.274, 1.035, -1.058], a = 0.2, v = 0.2, t = 0.2)
movej(p[0.517118529466577, 0.00400844529621538, 0.406239543847981, -1.274, 1.035, -1.058], a = 0.2, v = 0.2, t = 0.2)
movej(p[0.517143743079913, 0.00401993706973134, 0.405340840910551, -1.274, 1.035, -1.058], a = 0.2, v = 0.2, t = 0.2)
movej(p[0.517157901603567, 0.00402639019269265, 0.404836180724474, -1.274, 1.035, -1.058], a = 0.2, v = 0.2, t = 0.2)
movej(p[0.517160798366279, 0.00402771046918682, 0.404732929789196, -1.274, 1.035, -1.058], a = 0.2, v = 0.2, t = 0.2)
movej(p[0.51715688086627, 0.00402592496457661, 0.404872563435453, -1.274, 1.035, -1.058], a = 0.2, v = 0.2, t = 0.2)
movej(p[0.517139233888779, 0.00401788188618573, 0.405501564534876, -1.274, 1.035, -1.058], a = 0.2, v = 0.2, t = 0.2)
movej(p[0.517123058006852, 0.00401050929864561, 0.406078130551388, -1.274, 1.035, -1.058], a = 0.2, v = 0.2, t = 0.2)
movej(p[0.517113747424512, 0.00400626575361568, 0.406409992850817, -1.274, 1.035, -1.058], a = 0.2, v = 0.2, t = 0.2)
movej(p[0.517112296799777, 0.00400560459288922, 0.406461698280458, -1.274, 1.035, -1.058], a = 0.2, v = 0.2, t = 0.2)
movej(p[0.517101868145548, 0.00400085145691931, 0.406833412642233, -1.274, 1.035, -1.058], a = 0.2, v = 0.2, t = 0.2)
movej(p[0.51708995779579, 0.00399542299888359, 0.40725793990738, -1.274, 1.035, -1.058], a = 0.2, v = 0.2, t = 0.2)
movej(p[0.517093658809757, 0.00399710983423402, 0.407126022594331, -1.274, 1.035, -1.058], a = 0.2, v = 0.2, t = 0.2)
movej(p[0.517111138655537, 0.0040050767379114, 0.406502978664068, -1.274, 1.035, -1.058], a = 0.2, v = 0.2, t = 0.2)
movej(p[0.517128193661481, 0.00401285000955695, 0.405895077537963, -1.274, 1.035, -1.058], a = 0.2, v = 0.2, t = 0.2)
movej(p[0.517145439635034, 0.00402071031975939, 0.405280369646424, -1.274, 1.035, -1.058], a = 0.2, v = 0.2, t = 0.2)
movej(p[0.517156451820099, 0.00402572941539596, 0.404887856168364, -1.274, 1.035, -1.058], a = 0.2, v = 0.2, t = 0.2)
movej(p[0.517158456839788, 0.0040266432563382, 0.404816390128941, -1.274, 1.035, -1.058], a = 0.2, v = 0.2, t = 0.2)
movej(p[0.51713979753767, 0.00401813878412893, 0.405481474081835, -1.274, 1.035, -1.058], a = 0.2, v = 0.2, t = 0.2)
movej(p[0.517127317902531, 0.00401245085917057, 0.405926292704553, -1.274, 1.035, -1.058], a = 0.2, v = 0.2, t = 0.2)
movej(p[0.517119052734653, 0.00400868378952982, 0.406220892710979, -1.274, 1.035, -1.058], a = 0.2, v = 0.2, t = 0.2)
movej(p[0.517113820053897, 0.00400629885638547, 0.406407404080997, -1.274, 1.035, -1.058], a = 0.2, v = 0.2, t = 0.2)
movej(p[0.517098747269306, 0.00399942903473549, 0.406944651781526, -1.274, 1.035, -1.058], a = 0.2, v = 0.2, t = 0.2)
movej(p[0.517090202324065, 0.00399553444913556, 0.407249224049146, -1.274, 1.035, -1.058], a = 0.2, v = 0.2, t = 0.2)
movej(p[0.517092316988887, 0.0039964982637573, 0.407173849866868, -1.274, 1.035, -1.058], a = 0.2, v = 0.2, t = 0.2)
movej(p[0.517101056715482, 0.00400048162612904, 0.406862334898412, -1.274, 1.035, -1.058], a = 0.2, v = 0.2, t = 0.2)
movej(p[0.517110191669314, 0.00400464512380483, 0.406536732624226, -1.274, 1.035, -1.058], a = 0.2, v = 0.2, t = 0.2)
movej(p[0.517130487516175, 0.00401389549471884, 0.405813316390763, -1.274, 1.035, -1.058], a = 0.2, v = 0.2, t = 0.2)
movej(p[0.517157332346228, 0.00402613073855101, 0.40485647108252, -1.274, 1.035, -1.058], a = 0.2, v = 0.2, t = 0.2)
movej(p[0.517168484742459, 0.00403121373914859, 0.404458959979325, -1.274, 1.035, -1.058], a = 0.2, v = 0.2, t = 0.2)
movej(p[0.517162817407085, 0.00402863070062515, 0.404660963987259, -1.274, 1.035, -1.058], a = 0.2, v = 0.2, t = 0.2)
movej(p[0.517147203491517, 0.00402151424416871, 0.405217499522233, -1.274, 1.035, -1.058], a = 0.2, v = 0.2, t = 0.2)
movej(p[0.517135218240953, 0.00401605164810282, 0.405644696518726, -1.274, 1.035, -1.058], a = 0.2, v = 0.2, t = 0.2)
movej(p[0.51712024537084, 0.00400922736512805, 0.406178382911585, -1.274, 1.035, -1.058], a = 0.2, v = 0.2, t = 0.2)
movej(p[0.517106110683085, 0.0040027851060101, 0.40668219350139, -1.274, 1.035, -1.058], a = 0.2, v = 0.2, t = 0.2)
movej(p[0.517098830049979, 0.00399946676422446, 0.406941701183647, -1.274, 1.035, -1.058], a = 0.2, v = 0.2, t = 0.2)
movej(p[0.517095223566381, 0.00399782301359873, 0.40707024909783, -1.274, 1.035, -1.058], a = 0.2, v = 0.2, t = 0.2)
movej(p[0.517084761289515, 0.00399305455321918, 0.407443161890114, -1.274, 1.035, -1.058], a = 0.2, v = 0.2, t = 0.2)
movej(p[0.517079372413518, 0.00399059842994828, 0.407635240614531, -1.274, 1.035, -1.058], a = 0.2, v = 0.2, t = 0.2)
movej(p[0.517088200669444, 0.00399462214191239, 0.407320570145565, -1.274, 1.035, -1.058], a = 0.2, v = 0.2, t = 0.2)
movej(p[0.517108984731588, 0.00400409502990058, 0.406579752181384, -1.274, 1.035, -1.058], a = 0.2, v = 0.2, t = 0.2)
movej(p[0.517126668163983, 0.00401215472358132, 0.405949451699426, -1.274, 1.035, -1.058], a = 0.2, v = 0.2, t = 0.2)
movej(p[0.517147251163314, 0.00402153597185545, 0.405215800329687, -1.274, 1.035, -1.058], a = 0.2, v = 0.2, t = 0.2)
movej(p[0.517167267709529, 0.00403065904408715, 0.404502339365492, -1.274, 1.035, -1.058], a = 0.2, v = 0.2, t = 0.2)
movej(p[0.517177671378128, 0.004035400792193, 0.404131515580515, -1.274, 1.035, -1.058], a = 0.2, v = 0.2, t = 0.2)
movej(p[0.517164570046674, 0.0040294295126376, 0.404598493673079, -1.274, 1.035, -1.058], a = 0.2, v = 0.2, t = 0.2)
movej(p[0.517146067781063, 0.00402099661398464, 0.405257980285822, -1.274, 1.035, -1.058], a = 0.2, v = 0.2, t = 0.2)
movej(p[0.517133824541952, 0.00401541643279053, 0.405694372912563, -1.274, 1.035, -1.058], a = 0.2, v = 0.2, t = 0.2)
movej(p[0.517123734665945, 0.00401081770398738, 0.406054012012489, -1.274, 1.035, -1.058], a = 0.2, v = 0.2, t = 0.2)
movej(p[0.517110127733022, 0.00400461598314262, 0.406539011541288, -1.274, 1.035, -1.058], a = 0.2, v = 0.2, t = 0.2)
movej(p[0.51710075472867, 0.00400034398762405, 0.406873098783426, -1.274, 1.035, -1.058], a = 0.2, v = 0.2, t = 0.2)
movej(p[0.517095970050635, 0.00399816324361107, 0.407043641741615, -1.274, 1.035, -1.058], a = 0.2, v = 0.2, t = 0.2)
movej(p[0.517085310076023, 0.00399330467723651, 0.407423601185337, -1.274, 1.035, -1.058], a = 0.2, v = 0.2, t = 0.2)
movej(p[0.517076621189997, 0.00398934448680363, 0.40773330401492, -1.274, 1.035, -1.058], a = 0.2, v = 0.2, t = 0.2)
movej(p[0.517082879936074, 0.00399219707645254, 0.407510220024168, -1.274, 1.035, -1.058], a = 0.2, v = 0.2, t = 0.2)
movej(p[0.517106580390494, 0.00400299918762944, 0.40666545145719, -1.274, 1.035, -1.058], a = 0.2, v = 0.2, t = 0.2)
movej(p[0.517126268281734, 0.00401197246663256, 0.405963704926309, -1.274, 1.035, -1.058], a = 0.2, v = 0.2, t = 0.2)
movej(p[0.517133092639659, 0.00401508284889413, 0.405720460515765, -1.274, 1.035, -1.058], a = 0.2, v = 0.2, t = 0.2)
movej(p[0.517133274914177, 0.00401516592534343, 0.40571396360309, -1.274, 1.035, -1.058], a = 0.2, v = 0.2, t = 0.2)
movej(p[0.517128690009013, 0.00401307623311888, 0.405877385944987, -1.274, 1.035, -1.058], a = 0.2, v = 0.2, t = 0.2)
movej(p[0.517114322290297, 0.00400652776395576, 0.406389502587765, -1.274, 1.035, -1.058], a = 0.2, v = 0.2, t = 0.2)
movej(p[0.517102435327761, 0.00400110996526753, 0.40681319624904, -1.274, 1.035, -1.058], a = 0.2, v = 0.2, t = 0.2)
movej(p[0.517094814991041, 0.00399763679454239, 0.407084812177472, -1.274, 1.035, -1.058], a = 0.2, v = 0.2, t = 0.2)
movej(p[0.51709250234805, 0.00399658274611573, 0.40716724300644, -1.274, 1.035, -1.058], a = 0.2, v = 0.2, t = 0.2)
movej(p[0.51707926809641, 0.0039905508846573, 0.407638958847631, -1.274, 1.035, -1.058], a = 0.2, v = 0.2, t = 0.2)
movej(p[0.517075981266231, 0.00398905282456165, 0.407756113176033, -1.274, 1.035, -1.058], a = 0.2, v = 0.2, t = 0.2)
movej(p[0.517088099436981, 0.00399457600253056, 0.407324178430912, -1.274, 1.035, -1.058], a = 0.2, v = 0.2, t = 0.2)
movej(p[0.517113235934174, 0.00400603262831796, 0.406428224187307, -1.274, 1.035, -1.058], a = 0.2, v = 0.2, t = 0.2)
movej(p[0.517129447149315, 0.00401342131990825, 0.405850398769261, -1.274, 1.035, -1.058], a = 0.2, v = 0.2, t = 0.2)
movej(p[0.517138283257066, 0.00401744861055018, 0.405535448433287, -1.274, 1.035, -1.058], a = 0.2, v = 0.2, t = 0.2)
movej(p[0.51714091361856, 0.00401864746761845, 0.405441692985765, -1.274, 1.035, -1.058], a = 0.2, v = 0.2, t = 0.2)
movej(p[0.517132944015822, 0.00401501510963548, 0.405725757998407, -1.274, 1.035, -1.058], a = 0.2, v = 0.2, t = 0.2)
movej(p[0.517115086441158, 0.00400687604599318, 0.406362265530782, -1.274, 1.035, -1.058], a = 0.2, v = 0.2, t = 0.2)
movej(p[0.517102747662157, 0.00400125231995864, 0.40680206353929, -1.274, 1.035, -1.058], a = 0.2, v = 0.2, t = 0.2)
movej(p[0.517097162125978, 0.00399870656358945, 0.407001151932721, -1.274, 1.035, -1.058], a = 0.2, v = 0.2, t = 0.2)
movej(p[0.517088716085694, 0.00399485705654901, 0.407302198875571, -1.274, 1.035, -1.058], a = 0.2, v = 0.2, t = 0.2)
movej(p[0.517076461349267, 0.00398927163514809, 0.407739001307573, -1.274, 1.035, -1.058], a = 0.2, v = 0.2, t = 0.2)
movej(p[0.517073926050943, 0.00398811610564338, 0.407829368365254, -1.274, 1.035, -1.058], a = 0.2, v = 0.2, t = 0.2)
movej(p[0.517087973246931, 0.00399451848806566, 0.407328676293533, -1.274, 1.035, -1.058], a = 0.2, v = 0.2, t = 0.2)
movej(p[0.517103555755198, 0.00400162062981084, 0.40677326022659, -1.274, 1.035, -1.058], a = 0.2, v = 0.2, t = 0.2)
movej(p[0.517122432384625, 0.00401022415470965, 0.406100429954738, -1.274, 1.035, -1.058], a = 0.2, v = 0.2, t = 0.2)
movej(p[0.517151457498326, 0.00402345312068531, 0.405065871575653, -1.274, 1.035, -1.058], a = 0.2, v = 0.2, t = 0.2)
movej(p[0.517193762011665, 0.00404273452551684, 0.403557988120084, -1.274, 1.035, -1.058], a = 0.2, v = 0.2, t = 0.2)
movej(p[0.517237036786279, 0.00406245815267845, 0.402015521098585, -1.274, 1.035, -1.058], a = 0.2, v = 0.2, t = 0.2)
movej(p[0.51727710352939, 0.00408071963433249, 0.400587399740162, -1.274, 1.035, -1.058], a = 0.2, v = 0.2, t = 0.2)
movej(p[0.51730496068407, 0.00409341627198306, 0.399594471578447, -1.274, 1.035, -1.058], a = 0.2, v = 0.2, t = 0.2)
movej(p[0.517312506849083, 0.00409685563698383, 0.399325499393711, -1.274, 1.035, -1.058], a = 0.2, v = 0.2, t = 0.2)
movej(p[0.517282052983589, 0.00408297547945563, 0.400410983572915, -1.274, 1.035, -1.058], a = 0.2, v = 0.2, t = 0.2)
movej(p[0.517240205558656, 0.00406390240479695, 0.401902574770546, -1.274, 1.035, -1.058], a = 0.2, v = 0.2, t = 0.2)
movej(p[0.517200450084335, 0.00404578279215631, 0.403319601401171, -1.274, 1.035, -1.058], a = 0.2, v = 0.2, t = 0.2)
movej(p[0.517178288307263, 0.00403568197402138, 0.404109526029923, -1.274, 1.035, -1.058], a = 0.2, v = 0.2, t = 0.2)
movej(p[0.517156311608932, 0.00402566551043497, 0.404892853793498, -1.274, 1.035, -1.058], a = 0.2, v = 0.2, t = 0.2)
movej(p[0.517141639912406, 0.00401897849531641, 0.405415805287568, -1.274, 1.035, -1.058], a = 0.2, v = 0.2, t = 0.2)
movej(p[0.517134811628568, 0.00401586632371593, 0.405659189631616, -1.274, 1.035, -1.058], a = 0.2, v = 0.2, t = 0.2)
movej(p[0.517134278826133, 0.00401562348486415, 0.405678180607127, -1.274, 1.035, -1.058], a = 0.2, v = 0.2, t = 0.2)
movej(p[0.517134421841524, 0.00401568866792437, 0.40567308302949, -1.274, 1.035, -1.058], a = 0.2, v = 0.2, t = 0.2)
movej(p[0.517151785592458, 0.00402360265829404, 0.405054177132839, -1.274, 1.035, -1.058], a = 0.2, v = 0.2, t = 0.2)
movej(p[0.517179951211705, 0.00403643988685879, 0.404050254195829, -1.274, 1.035, -1.058], a = 0.2, v = 0.2, t = 0.2)
movej(p[0.517208237412556, 0.00404933207369, 0.403042033301203, -1.274, 1.035, -1.058], a = 0.2, v = 0.2, t = 0.2)
movej(p[0.517232569658495, 0.00406042214062114, 0.402174745435369, -1.274, 1.035, -1.058], a = 0.2, v = 0.2, t = 0.2)
movej(p[0.517249596902628, 0.00406818275908442, 0.40156783383904, -1.274, 1.035, -1.058], a = 0.2, v = 0.2, t = 0.2)
movej(p[0.517251915995332, 0.00406923974713928, 0.401485173119316, -1.274, 1.035, -1.058], a = 0.2, v = 0.2, t = 0.2)
movej(p[0.517228570836009, 0.00405859957113355, 0.402317277704203, -1.274, 1.035, -1.058], a = 0.2, v = 0.2, t = 0.2)
movej(p[0.517193680689188, 0.00404269746063946, 0.403560886742662, -1.274, 1.035, -1.058], a = 0.2, v = 0.2, t = 0.2)
movej(p[0.517168689450763, 0.00403130704039164, 0.404451663446628, -1.274, 1.035, -1.058], a = 0.2, v = 0.2, t = 0.2)
movej(p[0.517156695787529, 0.00402584061002809, 0.40487916030063, -1.274, 1.035, -1.058], a = 0.2, v = 0.2, t = 0.2)
movej(p[0.517140860338317, 0.00401862318373328, 0.405443592083316, -1.274, 1.035, -1.058], a = 0.2, v = 0.2, t = 0.2)
movej(p[0.517132952428492, 0.00401501894393314, 0.405725458140899, -1.274, 1.035, -1.058], a = 0.2, v = 0.2, t = 0.2)
movej(p[0.517141017374824, 0.00401869475728959, 0.405437994743165, -1.274, 1.035, -1.058], a = 0.2, v = 0.2, t = 0.2)
movej(p[0.517166336707379, 0.00403023471514614, 0.404535523596385, -1.274, 1.035, -1.058], a = 0.2, v = 0.2, t = 0.2)
movej(p[0.517188055417164, 0.00404013359360432, 0.403761391463057, -1.274, 1.035, -1.058], a = 0.2, v = 0.2, t = 0.2)
movej(p[0.51721158004678, 0.00405085556796013, 0.402922889917997, -1.274, 1.035, -1.058], a = 0.2, v = 0.2, t = 0.2)
movej(p[0.517242081584071, 0.00406475745317506, 0.401835706546247, -1.274, 1.035, -1.058], a = 0.2, v = 0.2, t = 0.2)
movej(p[0.517272482169322, 0.00407861332681808, 0.400752121464593, -1.274, 1.035, -1.058], a = 0.2, v = 0.2, t = 0.2)
movej(p[0.517280625633908, 0.0040823249269527, 0.400461859396784, -1.274, 1.035, -1.058], a = 0.2, v = 0.2, t = 0.2)
movej(p[0.517266382983554, 0.00407583346101479, 0.400969518157942, -1.274, 1.035, -1.058], a = 0.2, v = 0.2, t = 0.2)
movej(p[0.517240034501032, 0.00406382444074453, 0.40190867187321, -1.274, 1.035, -1.058], a = 0.2, v = 0.2, t = 0.2)
movej(p[0.517208237412556, 0.00404933207369, 0.403042033301203, -1.274, 1.035, -1.058], a = 0.2, v = 0.2, t = 0.2)
movej(p[0.517180635442201, 0.00403675174306845, 0.404025865785172, -1.274, 1.035, -1.058], a = 0.2, v = 0.2, t = 0.2)
movej(p[0.517163978355549, 0.0040291598337022, 0.404619583651146, -1.274, 1.035, -1.058], a = 0.2, v = 0.2, t = 0.2)
movej(p[0.517156412560972, 0.00402571152200688, 0.404889255503402, -1.274, 1.035, -1.058], a = 0.2, v = 0.2, t = 0.2)
movej(p[0.517139870447477, 0.00401817201470865, 0.405478875316765, -1.274, 1.035, -1.058], a = 0.2, v = 0.2, t = 0.2)
movej(p[0.5171312474607, 0.00401424185960743, 0.405786229262534, -1.274, 1.035, -1.058], a = 0.2, v = 0.2, t = 0.2)
movej(p[0.517141303405605, 0.00401882512341002, 0.405427799587891, -1.274, 1.035, -1.058], a = 0.2, v = 0.2, t = 0.2)
movej(p[0.5171708683323, 0.00403230012348551, 0.404374000352039, -1.274, 1.035, -1.058], a = 0.2, v = 0.2, t = 0.2)
movej(p[0.517196097929709, 0.00404379918216702, 0.403474727685344, -1.274, 1.035, -1.058], a = 0.2, v = 0.2, t = 0.2)
movej(p[0.517222418369997, 0.00405579542144507, 0.402536573495104, -1.274, 1.035, -1.058], a = 0.2, v = 0.2, t = 0.2)
movej(p[0.517246646859672, 0.00406683819870507, 0.401672983871869, -1.274, 1.035, -1.058], a = 0.2, v = 0.2, t = 0.2)
movej(p[0.517256293387969, 0.00407123486002156, 0.401329147262618, -1.274, 1.035, -1.058], a = 0.2, v = 0.2, t = 0.2)
movej(p[0.517238093978479, 0.00406293999608436, 0.401977839005071, -1.274, 1.035, -1.058], a = 0.2, v = 0.2, t = 0.2)
movej(p[0.51720954978908, 0.00404993022412492, 0.402995255529944, -1.274, 1.035, -1.058], a = 0.2, v = 0.2, t = 0.2)
movej(p[0.517187390816231, 0.0040398306840892, 0.403785080206194, -1.274, 1.035, -1.058], a = 0.2, v = 0.2, t = 0.2)
movej(p[0.517171059019487, 0.00403238703423246, 0.404367203581856, -1.274, 1.035, -1.058], a = 0.2, v = 0.2, t = 0.2)
movej(p[0.517152963366261, 0.0040241394599664, 0.405012197081709, -1.274, 1.035, -1.058], a = 0.2, v = 0.2, t = 0.2)
movej(p[0.517138633784983, 0.00401760837295267, 0.405522954370451, -1.274, 1.035, -1.058], a = 0.2, v = 0.2, t = 0.2)
movej(p[0.517132660789265, 0.00401488602161427, 0.405735853201179, -1.274, 1.035, -1.058], a = 0.2, v = 0.2, t = 0.2)
movej(p[0.517126136483237, 0.00401191239596923, 0.405968402693936, -1.274, 1.035, -1.058], a = 0.2, v = 0.2, t = 0.2)
movej(p[0.517130207093841, 0.00401376768479685, 0.405823311641032, -1.274, 1.035, -1.058], a = 0.2, v = 0.2, t = 0.2)
movej(p[0.51714717264506, 0.00402150018507729, 0.405218598999762, -1.274, 1.035, -1.058], a = 0.2, v = 0.2, t = 0.2)
movej(p[0.517177048840546, 0.00403511705416618, 0.404153705036112, -1.274, 1.035, -1.058], a = 0.2, v = 0.2, t = 0.2)
movej(p[0.517194067672009, 0.0040428738383318, 0.403547093297291, -1.274, 1.035, -1.058], a = 0.2, v = 0.2, t = 0.2)
movej(p[0.517197539300506, 0.00404445612516605, 0.403423352098962, -1.274, 1.035, -1.058], a = 0.2, v = 0.2, t = 0.2)
movej(p[0.517188422770421, 0.00404030102460213, 0.403748297685205, -1.274, 1.035, -1.058], a = 0.2, v = 0.2, t = 0.2)
movej(p[0.517172511607179, 0.00403304908962837, 0.404315428185463, -1.274, 1.035, -1.058], a = 0.2, v = 0.2, t = 0.2)
movej(p[0.517150806918511, 0.00402315660166629, 0.405089060556277, -1.274, 1.035, -1.058], a = 0.2, v = 0.2, t = 0.2)
movej(p[0.517136121200869, 0.00401646319605163, 0.405612511812861, -1.274, 1.035, -1.058], a = 0.2, v = 0.2, t = 0.2)
movej(p[0.517128569427409, 0.00401302127485242, 0.405881683902603, -1.274, 1.035, -1.058], a = 0.2, v = 0.2, t = 0.2)
movej(p[0.517118123975882, 0.00400826048306819, 0.406253996979869, -1.274, 1.035, -1.058], a = 0.2, v = 0.2, t = 0.2)
movej(p[0.517101583825344, 0.0040007218704394, 0.406843546826481, -1.274, 1.035, -1.058], a = 0.2, v = 0.2, t = 0.2)
movej(p[0.517099422133696, 0.00399973662209375, 0.406920597212229, -1.274, 1.035, -1.058], a = 0.2, v = 0.2, t = 0.2)
movej(p[0.517116770938119, 0.00400764380019458, 0.406302224062417, -1.274, 1.035, -1.058], a = 0.2, v = 0.2, t = 0.2)
movej(p[0.517139500289996, 0.00401800330561162, 0.40549206904712, -1.274, 1.035, -1.058], a = 0.2, v = 0.2, t = 0.2)
movej(p[0.517160798366279, 0.00402771046918682, 0.404732929789196, -1.274, 1.035, -1.058], a = 0.2, v = 0.2, t = 0.2)
movej(p[0.51717502979974, 0.00403419682272785, 0.404225670838048, -1.274, 1.035, -1.058], a = 0.2, v = 0.2, t = 0.2)
movej(p[0.517181109355945, 0.00403696774183661, 0.404008973812218, -1.274, 1.035, -1.058], a = 0.2, v = 0.2, t = 0.2)
movej(p[0.51716665638884, 0.00403038041845721, 0.404524129011078, -1.274, 1.035, -1.058], a = 0.2, v = 0.2, t = 0.2)
movej(p[0.517150837764968, 0.00402317066075771, 0.405087961078748, -1.274, 1.035, -1.058], a = 0.2, v = 0.2, t = 0.2)
movej(p[0.517140478963942, 0.00401844936223937, 0.405457185623682, -1.274, 1.035, -1.058], a = 0.2, v = 0.2, t = 0.2)
movej(p[0.517132621530138, 0.00401486812822519, 0.405737252536217, -1.274, 1.035, -1.058], a = 0.2, v = 0.2, t = 0.2)
movej(p[0.517116897969437, 0.00400770169808924, 0.406297696214045, -1.274, 1.035, -1.058], a = 0.2, v = 0.2, t = 0.2)
movej(p[0.51710778003724, 0.00400354595847571, 0.406622691776539, -1.274, 1.035, -1.058], a = 0.2, v = 0.2, t = 0.2)
movej(p[0.517106079836628, 0.00400277104691868, 0.40668329297892, -1.274, 1.035, -1.058], a = 0.2, v = 0.2, t = 0.2)
movej(p[0.517106823797081, 0.00400311012664172, 0.406656775579956, -1.274, 1.035, -1.058], a = 0.2, v = 0.2, t = 0.2)
movej(p[0.517105651631724, 0.0040025758811678, 0.40669855572608, -1.274, 1.035, -1.058], a = 0.2, v = 0.2, t = 0.2)
movej(p[0.517120160122451, 0.00400918851091176, 0.406181421467667, -1.274, 1.035, -1.058], a = 0.2, v = 0.2, t = 0.2)
movej(p[0.517145162016924, 0.00402058378793661, 0.405290264944191, -1.274, 1.035, -1.058], a = 0.2, v = 0.2, t = 0.2)
movej(p[0.517162615503004, 0.00402853867748132, 0.404668160567453, -1.274, 1.035, -1.058], a = 0.2, v = 0.2, t = 0.2)
movej(p[0.517166619933937, 0.00403036380316735, 0.404525428393613, -1.274, 1.035, -1.058], a = 0.2, v = 0.2, t = 0.2)
movej(p[0.517161409686967, 0.00402798909481676, 0.404711140143609, -1.274, 1.035, -1.058], a = 0.2, v = 0.2, t = 0.2)
movej(p[0.517149861895245, 0.00402272588222918, 0.405122744549684, -1.274, 1.035, -1.058], a = 0.2, v = 0.2, t = 0.2)
movej(p[0.517130490320398, 0.00401389677281806, 0.40581321643826, -1.274, 1.035, -1.058], a = 0.2, v = 0.2, t = 0.2)
movej(p[0.517114980441515, 0.00400682773384267, 0.406366043735384, -1.274, 1.035, -1.058], a = 0.2, v = 0.2, t = 0.2)
movej(p[0.517108436225502, 0.00400384503369317, 0.40659930289091, -1.274, 1.035, -1.058], a = 0.2, v = 0.2, t = 0.2)
movej(p[0.517105832504129, 0.00400265831856749, 0.406692108789657, -1.274, 1.035, -1.058], a = 0.2, v = 0.2, t = 0.2)
movej(p[0.517097081644768, 0.00399866988214184, 0.407004020569549, -1.274, 1.035, -1.058], a = 0.2, v = 0.2, t = 0.2)
movej(p[0.517101633712477, 0.00400074460782453, 0.406841768671458, -1.274, 1.035, -1.058], a = 0.2, v = 0.2, t = 0.2)
movej(p[0.517123579311972, 0.00401074689729059, 0.406059549381138, -1.274, 1.035, -1.058], a = 0.2, v = 0.2, t = 0.2)
movej(p[0.517149932000828, 0.00402275783470968, 0.405120245737116, -1.274, 1.035, -1.058], a = 0.2, v = 0.2, t = 0.2)
movej(p[0.517165237451829, 0.00402973370025193, 0.404574704977439, -1.274, 1.035, -1.058], a = 0.2, v = 0.2, t = 0.2)
movej(p[0.517171558171242, 0.00403261453589361, 0.404349412036377, -1.274, 1.035, -1.058], a = 0.2, v = 0.2, t = 0.2)
movej(p[0.517170276641175, 0.00403203044455011, 0.404395090330106, -1.274, 1.035, -1.058], a = 0.2, v = 0.2, t = 0.2)
movej(p[0.517156157376648, 0.00402559521497787, 0.404898351181146, -1.274, 1.035, -1.058], a = 0.2, v = 0.2, t = 0.2)
movej(p[0.517136494162573, 0.00401663318324788, 0.405599218130003, -1.274, 1.035, -1.058], a = 0.2, v = 0.2, t = 0.2)
movej(p[0.517123182233946, 0.00401056591844106, 0.406073702655519, -1.274, 1.035, -1.058], a = 0.2, v = 0.2, t = 0.2)
movej(p[0.51711923136368, 0.00400876520445013, 0.406214525736558, -1.274, 1.035, -1.058], a = 0.2, v = 0.2, t = 0.2)
movej(p[0.51710823768649, 0.0040037545442684, 0.4066063795281, -1.274, 1.035, -1.058], a = 0.2, v = 0.2, t = 0.2)
movej(p[0.517097024719034, 0.00399864393672768, 0.407006049605353, -1.274, 1.035, -1.058], a = 0.2, v = 0.2, t = 0.2)
movej(p[0.517099470618718, 0.00399975872042927, 0.406918869033458, -1.274, 1.035, -1.058], a = 0.2, v = 0.2, t = 0.2)
movej(p[0.517116733361527, 0.00400762667366503, 0.406303563425953, -1.274, 1.035, -1.058], a = 0.2, v = 0.2, t = 0.2)
movej(p[0.517131443756334, 0.00401433132655283, 0.405779232587346, -1.274, 1.035, -1.058], a = 0.2, v = 0.2, t = 0.2)
movej(p[0.517150627448217, 0.00402307480331621, 0.405095457516449, -1.274, 1.035, -1.058], a = 0.2, v = 0.2, t = 0.2)
movej(p[0.517163563330494, 0.00402897067501765, 0.404634376621544, -1.274, 1.035, -1.058], a = 0.2, v = 0.2, t = 0.2)
movej(p[0.517174017475113, 0.00403373542890946, 0.404261753691519, -1.274, 1.035, -1.058], a = 0.2, v = 0.2, t = 0.2)
movej(p[0.517161216195557, 0.00402790090597059, 0.404718036866295, -1.274, 1.035, -1.058], a = 0.2, v = 0.2, t = 0.2)
movej(p[0.517147077301466, 0.00402145672970381, 0.405221997384854, -1.274, 1.035, -1.058], a = 0.2, v = 0.2, t = 0.2)
movej(p[0.517137122308602, 0.00401691947747314, 0.405576828769401, -1.274, 1.035, -1.058], a = 0.2, v = 0.2, t = 0.2)
movej(p[0.51712780667866, 0.00401267363186461, 0.405908870983334, -1.274, 1.035, -1.058], a = 0.2, v = 0.2, t = 0.2)
movej(p[0.517112024229268, 0.00400548036164504, 0.406471413663719, -1.274, 1.035, -1.058], a = 0.2, v = 0.2, t = 0.2)
movej(p[0.517099551744899, 0.0039997956958397, 0.406915977407555, -1.274, 1.035, -1.058], a = 0.2, v = 0.2, t = 0.2)
movej(p[0.517097099591797, 0.00399867806197685, 0.407003380873531, -1.274, 1.035, -1.058], a = 0.2, v = 0.2, t = 0.2)
movej(p[0.517094997265558, 0.00399771987099168, 0.407078315264797, -1.274, 1.035, -1.058], a = 0.2, v = 0.2, t = 0.2)
movej(p[0.517097854376552, 0.00399902207516288, 0.406976477657908, -1.274, 1.035, -1.058], a = 0.2, v = 0.2, t = 0.2)
movej(p[0.517114047756832, 0.00400640263804213, 0.406399287937779, -1.274, 1.035, -1.058], a = 0.2, v = 0.2, t = 0.2)
movej(p[0.517138956270668, 0.00401775535436296, 0.405511459832642, -1.274, 1.035, -1.058], a = 0.2, v = 0.2, t = 0.2)
movej(p[0.517155792827613, 0.00402542906207928, 0.404911345006496, -1.274, 1.035, -1.058], a = 0.2, v = 0.2, t = 0.2)
movej(p[0.517160728260695, 0.00402767851670632, 0.404735428601763, -1.274, 1.035, -1.058], a = 0.2, v = 0.2, t = 0.2)
movej(p[0.517157141659041, 0.00402604382780406, 0.404863267852702, -1.274, 1.035, -1.058], a = 0.2, v = 0.2, t = 0.2)
movej(p[0.517149575864464, 0.00402259551610875, 0.405132939704958, -1.274, 1.035, -1.058], a = 0.2, v = 0.2, t = 0.2)
movej(p[0.517132231743093, 0.00401469047243362, 0.40575114593409, -1.274, 1.035, -1.058], a = 0.2, v = 0.2, t = 0.2)
movej(p[0.517119955133724, 0.00400909508185879, 0.406188727995613, -1.274, 1.035, -1.058], a = 0.2, v = 0.2, t = 0.2)
movej(p[0.517111612008437, 0.00400529248105972, 0.406486106681614, -1.274, 1.035, -1.058], a = 0.2, v = 0.2, t = 0.2)
movej(p[0.517105923360965, 0.00400269972898221, 0.40668887032857, -1.274, 1.035, -1.058], a = 0.2, v = 0.2, t = 0.2)
movej(p[0.517090218308138, 0.00399554173430112, 0.40724865431988, -1.274, 1.035, -1.058], a = 0.2, v = 0.2, t = 0.2)
movej(p[0.517086821552404, 0.00399399357271604, 0.407369726786388, -1.274, 1.035, -1.058], a = 0.2, v = 0.2, t = 0.2)
movej(p[0.517100668610971, 0.004000304737197, 0.406876168324784, -1.274, 1.035, -1.058], a = 0.2, v = 0.2, t = 0.2)
movej(p[0.517126935967312, 0.00401227678205682, 0.405939906235419, -1.274, 1.035, -1.058], a = 0.2, v = 0.2, t = 0.2)
movej(p[0.517142716734169, 0.00401946928541685, 0.405377423526536, -1.274, 1.035, -1.058], a = 0.2, v = 0.2, t = 0.2)
movej(p[0.517152624055237, 0.00402398480996079, 0.405024291334535, -1.274, 1.035, -1.058], a = 0.2, v = 0.2, t = 0.2)
movej(p[0.517153748548797, 0.00402449732774797, 0.404984210380956, -1.274, 1.035, -1.058], a = 0.2, v = 0.2, t = 0.2)
movej(p[0.517146322965387, 0.00402111292101366, 0.405248884608077, -1.274, 1.035, -1.058], a = 0.2, v = 0.2, t = 0.2)
movej(p[0.517129800481456, 0.00401358236040996, 0.405837804753922, -1.274, 1.035, -1.058], a = 0.2, v = 0.2, t = 0.2)
movej(p[0.517119108538697, 0.0040087092237043, 0.406218903656175, -1.274, 1.035, -1.058], a = 0.2, v = 0.2, t = 0.2)
movej(p[0.517115859285111, 0.00400722829013819, 0.406334718621041, -1.274, 1.035, -1.058], a = 0.2, v = 0.2, t = 0.2)
movej(p[0.517110469287425, 0.0040047716556276, 0.40652683732646, -1.274, 1.035, -1.058], a = 0.2, v = 0.2, t = 0.2)
movej(p[0.517098656384428, 0.00399938761153977, 0.406947891242138, -1.274, 1.035, -1.058], a = 0.2, v = 0.2, t = 0.2)
movej(p[0.517094862101993, 0.00399765826660929, 0.407083132975427, -1.274, 1.035, -1.058], a = 0.2, v = 0.2, t = 0.2)
movej(p[0.517102514631198, 0.00400114610991347, 0.406810369592264, -1.274, 1.035, -1.058], a = 0.2, v = 0.2, t = 0.2)
movej(p[0.517114254708515, 0.00400649696176456, 0.40639191144308, -1.274, 1.035, -1.058], a = 0.2, v = 0.2, t = 0.2)
movej(p[0.517132299044454, 0.0040147211468149, 0.405748747074026, -1.274, 1.035, -1.058], a = 0.2, v = 0.2, t = 0.2)
movej(p[0.517151808026244, 0.00402361288308779, 0.405053377512817, -1.274, 1.035, -1.058], a = 0.2, v = 0.2, t = 0.2)
movej(p[0.517170198122921, 0.00403199465777195, 0.404397889000182, -1.274, 1.035, -1.058], a = 0.2, v = 0.2, t = 0.2)
movej(p[0.517165428139017, 0.00402982061099889, 0.404567908207256, -1.274, 1.035, -1.058], a = 0.2, v = 0.2, t = 0.2)
movej(p[0.517153027863398, 0.00402416885624845, 0.405009898174147, -1.274, 1.035, -1.058], a = 0.2, v = 0.2, t = 0.2)
movej(p[0.517138252410609, 0.00401743455145876, 0.405536547910817, -1.274, 1.035, -1.058], a = 0.2, v = 0.2, t = 0.2)
movej(p[0.517128221703714, 0.00401286279054915, 0.405894078012936, -1.274, 1.035, -1.058], a = 0.2, v = 0.2, t = 0.2)
movej(p[0.517112470661624, 0.00400568383504085, 0.406455501225291, -1.274, 1.035, -1.058], a = 0.2, v = 0.2, t = 0.2)
movej(p[0.517104035557812, 0.00400183931258737, 0.40675615835338, -1.274, 1.035, -1.058], a = 0.2, v = 0.2, t = 0.2)
movej(p[0.517102060739607, 0.00400093923677373, 0.406826547904349, -1.274, 1.035, -1.058], a = 0.2, v = 0.2, t = 0.2)
movej(p[0.517103472469764, 0.00400158267026401, 0.40677622881592, -1.274, 1.035, -1.058], a = 0.2, v = 0.2, t = 0.2)
movej(p[0.517104565556023, 0.00400208087333993, 0.406737267330372, -1.274, 1.035, -1.058], a = 0.2, v = 0.2, t = 0.2)
movej(p[0.517124206336311, 0.00401103268027617, 0.406037200001537, -1.274, 1.035, -1.058], a = 0.2, v = 0.2, t = 0.2)
movej(p[0.517161275084247, 0.0040279277460542, 0.404715937863739, -1.274, 1.035, -1.058], a = 0.2, v = 0.2, t = 0.2)
movej(p[0.517208573919357, 0.00404948544559639, 0.40303003900088, -1.274, 1.035, -1.058], a = 0.2, v = 0.2, t = 0.2)
movej(p[0.517256055028985, 0.00407112622158786, 0.401337643225347, -1.274, 1.035, -1.058], a = 0.2, v = 0.2, t = 0.2)
movej(p[0.517304528833675, 0.00409321944470319, 0.399609864263861, -1.274, 1.035, -1.058], a = 0.2, v = 0.2, t = 0.2)
movej(p[0.517347486731052, 0.00411279864665296, 0.398078691875166, -1.274, 1.035, -1.058], a = 0.2, v = 0.2, t = 0.2)
movej(p[0.517359982350264, 0.00411849385677687, 0.397633303523183, -1.274, 1.035, -1.058], a = 0.2, v = 0.2, t = 0.2)
movej(p[0.517344696528827, 0.00411152693792915, 0.398178144615342, -1.274, 1.035, -1.058], a = 0.2, v = 0.2, t = 0.2)
movej(p[0.517304077353717, 0.00409301367072878, 0.399625956616794, -1.274, 1.035, -1.058], a = 0.2, v = 0.2, t = 0.2)
movej(p[0.517262886117046, 0.00407423967128756, 0.401094158928796, -1.274, 1.035, -1.058], a = 0.2, v = 0.2, t = 0.2)
movej(p[0.51722230339684, 0.00405574301937706, 0.402540671547714, -1.274, 1.035, -1.058], a = 0.2, v = 0.2, t = 0.2)
movej(p[0.517195618407517, 0.00404358062720041, 0.403491819563304, -1.274, 1.035, -1.058], a = 0.2, v = 0.2, t = 0.2)
movej(p[0.517177963017356, 0.00403553371451188, 0.404121120520235, -1.274, 1.035, -1.058], a = 0.2, v = 0.2, t = 0.2)
movej(p[0.517169303575675, 0.0040315869441208, 0.404429773848539, -1.274, 1.035, -1.058], a = 0.2, v = 0.2, t = 0.2)
movej(p[0.517156235894901, 0.00402563100175603, 0.404895552511071, -1.274, 1.035, -1.058], a = 0.2, v = 0.2, t = 0.2)
movej(p[0.517164261582106, 0.00402928892172341, 0.404609488448375, -1.274, 1.035, -1.058], a = 0.2, v = 0.2, t = 0.2)
movej(p[0.517194998674158, 0.00404329816727281, 0.403513909066398, -1.274, 1.035, -1.058], a = 0.2, v = 0.2, t = 0.2)
movej(p[0.517237648106968, 0.00406273677830839, 0.401993731452999, -1.274, 1.035, -1.058], a = 0.2, v = 0.2, t = 0.2)
movej(p[0.517270084558365, 0.00407752055198506, 0.400837580854393, -1.274, 1.035, -1.058], a = 0.2, v = 0.2, t = 0.2)
movej(p[0.517299217634666, 0.00409079872478068, 0.399799174303955, -1.274, 1.035, -1.058], a = 0.2, v = 0.2, t = 0.2)
movej(p[0.517331567155139, 0.00410554287738154, 0.398646122232932, -1.274, 1.035, -1.058], a = 0.2, v = 0.2, t = 0.2)
movej(p[0.517352197826267, 0.0041149458533424, 0.397910771670648, -1.274, 1.035, -1.058], a = 0.2, v = 0.2, t = 0.2)
movej(p[0.517354200041733, 0.00411585841618542, 0.397839405583728, -1.274, 1.035, -1.058], a = 0.2, v = 0.2, t = 0.2)
movej(p[0.517334929418926, 0.00410707531834621, 0.398526279182208, -1.274, 1.035, -1.058], a = 0.2, v = 0.2, t = 0.2)
movej(p[0.517300398212693, 0.00409133680455227, 0.399757094300323, -1.274, 1.035, -1.058], a = 0.2, v = 0.2, t = 0.2)
movej(p[0.517255129635282, 0.0040707044488453, 0.401370627551234, -1.274, 1.035, -1.058], a = 0.2, v = 0.2, t = 0.2)
movej(p[0.517214476809492, 0.00405217584445429, 0.402819638982719, -1.274, 1.035, -1.058], a = 0.2, v = 0.2, t = 0.2)
movej(p[0.517190497895694, 0.00404124681802486, 0.403674332833215, -1.274, 1.035, -1.058], a = 0.2, v = 0.2, t = 0.2)
movej(p[0.517177581642981, 0.00403535989301797, 0.404134714060601, -1.274, 1.035, -1.058], a = 0.2, v = 0.2, t = 0.2)
movej(p[0.517161757410662, 0.00402814757912003, 0.404698746033276, -1.274, 1.035, -1.058], a = 0.2, v = 0.2, t = 0.2)
movej(p[0.51715135935051, 0.00402340838721261, 0.405069369913247, -1.274, 1.035, -1.058], a = 0.2, v = 0.2, t = 0.2)
movej(p[0.517148294334397, 0.00402201142476525, 0.405178617998687, -1.274, 1.035, -1.058], a = 0.2, v = 0.2, t = 0.2)
movej(p[0.517148103647209, 0.0040219245140183, 0.40518541476887, -1.274, 1.035, -1.058], a = 0.2, v = 0.2, t = 0.2)
movej(p[0.517138928228434, 0.00401774257337076, 0.405512459357669, -1.274, 1.035, -1.058], a = 0.2, v = 0.2, t = 0.2)
movej(p[0.517141129543758, 0.00401874588125839, 0.405433996643058, -1.274, 1.035, -1.058], a = 0.2, v = 0.2, t = 0.2)
movej(p[0.517144205776764, 0.00402014795610263, 0.405324348747608, -1.274, 1.035, -1.058], a = 0.2, v = 0.2, t = 0.2)
movej(p[0.51714305324097, 0.00401962265732324, 0.405365429226213, -1.274, 1.035, -1.058], a = 0.2, v = 0.2, t = 0.2)
movej(p[0.517128605882312, 0.00401303789014228, 0.405880384520068, -1.274, 1.035, -1.058], a = 0.2, v = 0.2, t = 0.2)
movej(p[0.51712168337657, 0.00400988277440801, 0.406127127268206, -1.274, 1.035, -1.058], a = 0.2, v = 0.2, t = 0.2)
movej(p[0.517120114133188, 0.00400916755008455, 0.406183060688711, -1.274, 1.035, -1.058], a = 0.2, v = 0.2, t = 0.2)
movej(p[0.517114543263096, 0.00400662847817429, 0.406381626330553, -1.274, 1.035, -1.058], a = 0.2, v = 0.2, t = 0.2)
movej(p[0.51711732841772, 0.0040078978863195, 0.406282353504882, -1.274, 1.035, -1.058], a = 0.2, v = 0.2, t = 0.2)
movej(p[0.517136926012968, 0.00401683001052775, 0.405583825444589, -1.274, 1.035, -1.058], a = 0.2, v = 0.2, t = 0.2)
movej(p[0.517174309114341, 0.00403386835122834, 0.404251358631239, -1.274, 1.035, -1.058], a = 0.2, v = 0.2, t = 0.2)
movej(p[0.517206742761515, 0.00404865084680579, 0.403095307985136, -1.274, 1.035, -1.058], a = 0.2, v = 0.2, t = 0.2)
movej(p[0.517240906614491, 0.00406422192960192, 0.401877586644874, -1.274, 1.035, -1.058], a = 0.2, v = 0.2, t = 0.2)
movej(p[0.517266133407676, 0.00407571971018421, 0.400978413930682, -1.274, 1.035, -1.058], a = 0.2, v = 0.2, t = 0.2)
movej(p[0.517269069429515, 0.00407705788006746, 0.400873763660366, -1.274, 1.035, -1.058], a = 0.2, v = 0.2, t = 0.2)
movej(p[0.517243407981712, 0.00406536199410608, 0.401788429012475, -1.274, 1.035, -1.058], a = 0.2, v = 0.2, t = 0.2)
movej(p[0.517211207085076, 0.00405068558076388, 0.402936183600855, -1.274, 1.035, -1.058], a = 0.2, v = 0.2, t = 0.2)
movej(p[0.517190551175938, 0.00404127110191004, 0.403672433735663, -1.274, 1.035, -1.058], a = 0.2, v = 0.2, t = 0.2)
movej(p[0.517171580605029, 0.00403262476068736, 0.404348612416356, -1.274, 1.035, -1.058], a = 0.2, v = 0.2, t = 0.2)
movej(p[0.517157612768562, 0.004026258548473, 0.404846475832251, -1.274, 1.035, -1.058], a = 0.2, v = 0.2, t = 0.2)
movej(p[0.517145470481491, 0.0040207243788508, 0.405279270168895, -1.274, 1.035, -1.058], a = 0.2, v = 0.2, t = 0.2)
movej(p[0.517140902401667, 0.00401864235522157, 0.405442092795775, -1.274, 1.035, -1.058], a = 0.2, v = 0.2, t = 0.2)
movej(p[0.517133877822195, 0.00401544071667571, 0.405692473815012, -1.274, 1.035, -1.058], a = 0.2, v = 0.2, t = 0.2)
movej(p[0.517143213081701, 0.00401969550897878, 0.40535973193356, -1.274, 1.035, -1.058], a = 0.2, v = 0.2, t = 0.2)
movej(p[0.517170144842678, 0.00403197037388677, 0.404399788097733, -1.274, 1.035, -1.058], a = 0.2, v = 0.2, t = 0.2)
movej(p[0.517209922750785, 0.00405010021132116, 0.402981961847087, -1.274, 1.035, -1.058], a = 0.2, v = 0.2, t = 0.2)
movej(p[0.517245819613786, 0.0040664611594352, 0.401702469860162, -1.274, 1.035, -1.058], a = 0.2, v = 0.2, t = 0.2)
movej(p[0.51727691845065, 0.00408063527978398, 0.400593996605339, -1.274, 1.035, -1.058], a = 0.2, v = 0.2, t = 0.2)
movej(p[0.517298297849409, 0.00409037950823656, 0.399831958724837, -1.274, 1.035, -1.058], a = 0.2, v = 0.2, t = 0.2)
movej(p[0.517291733162566, 0.00408738747796275, 0.400065947533632, -1.274, 1.035, -1.058], a = 0.2, v = 0.2, t = 0.2)
movej(p[0.51726406389085, 0.00407477647295992, 0.401052178877666, -1.274, 1.035, -1.058], a = 0.2, v = 0.2, t = 0.2)
movej(p[0.51722759777051, 0.00405815607070424, 0.402351961222637, -1.274, 1.035, -1.058], a = 0.2, v = 0.2, t = 0.2)
movej(p[0.517203949755066, 0.00404737785998276, 0.403194860677815, -1.274, 1.035, -1.058], a = 0.2, v = 0.2, t = 0.2)
movej(p[0.517180870996961, 0.00403685910340292, 0.404017469774947, -1.274, 1.035, -1.058], a = 0.2, v = 0.2, t = 0.2)
movej(p[0.517166347924273, 0.00403023982754302, 0.404535123786374, -1.274, 1.035, -1.058], a = 0.2, v = 0.2, t = 0.2)
movej(p[0.517154620662256, 0.00402489481660536, 0.40495312515262, -1.274, 1.035, -1.058], a = 0.2, v = 0.2, t = 0.2)
movej(p[0.517150324592096, 0.00402293676860046, 0.40510625238674, -1.274, 1.035, -1.058], a = 0.2, v = 0.2, t = 0.2)
movej(p[0.517140840708754, 0.00401861423703874, 0.405444291750835, -1.274, 1.035, -1.058], a = 0.2, v = 0.2, t = 0.2)
movej(p[0.517144261861231, 0.00402017351808702, 0.405322349697554, -1.274, 1.035, -1.058], a = 0.2, v = 0.2, t = 0.2)
movej(p[0.517161555506581, 0.00402805555597619, 0.40470594261347, -1.274, 1.035, -1.058], a = 0.2, v = 0.2, t = 0.2)
movej(p[0.517185966270774, 0.00403918140968549, 0.40383585607756, -1.274, 1.035, -1.058], a = 0.2, v = 0.2, t = 0.2)
movej(p[0.517199176966938, 0.00404520253511048, 0.403364979837392, -1.274, 1.035, -1.058], a = 0.2, v = 0.2, t = 0.2)
movej(p[0.517205811759365, 0.00404822651786478, 0.403128492216029, -1.274, 1.035, -1.058], a = 0.2, v = 0.2, t = 0.2)
movej(p[0.517205189221783, 0.00404794277983796, 0.403150681671626, -1.274, 1.035, -1.058], a = 0.2, v = 0.2, t = 0.2)
movej(p[0.517188728430766, 0.0040404403374171, 0.403737402862411, -1.274, 1.035, -1.058], a = 0.2, v = 0.2, t = 0.2)
movej(p[0.517166448876313, 0.00403028583911493, 0.404531525496277, -1.274, 1.035, -1.058], a = 0.2, v = 0.2, t = 0.2)
movej(p[0.517150781680501, 0.00402314509877331, 0.405089960128802, -1.274, 1.035, -1.058], a = 0.2, v = 0.2, t = 0.2)
movej(p[0.51714397583045, 0.00402004315196659, 0.405332544852828, -1.274, 1.035, -1.058], a = 0.2, v = 0.2, t = 0.2)
movej(p[0.51713206909814, 0.00401461634267886, 0.405756943179246, -1.274, 1.035, -1.058], a = 0.2, v = 0.2, t = 0.2)
movej(p[0.517121669635876, 0.00400987651172184, 0.406127617035469, -1.274, 1.035, -1.058], a = 0.2, v = 0.2, t = 0.2)
movej(p[0.517121686461216, 0.00400988418031716, 0.406127017320453, -1.274, 1.035, -1.058], a = 0.2, v = 0.2, t = 0.2)
movej(p[0.517135504271734, 0.00401618201422325, 0.405634501363452, -1.274, 1.035, -1.058], a = 0.2, v = 0.2, t = 0.2)
movej(p[0.517147842854439, 0.00402180565079085, 0.40519471035162, -1.274, 1.035, -1.058], a = 0.2, v = 0.2, t = 0.2)
movej(p[0.517163843752828, 0.00402909848493964, 0.404624381371275, -1.274, 1.035, -1.058], a = 0.2, v = 0.2, t = 0.2)
movej(p[0.517177895715995, 0.0040355030401306, 0.4041235193803, -1.274, 1.035, -1.058], a = 0.2, v = 0.2, t = 0.2)
movej(p[0.517180803695601, 0.00403682842902164, 0.404019868635011, -1.274, 1.035, -1.058], a = 0.2, v = 0.2, t = 0.2)
movej(p[0.517166636759277, 0.00403037147176267, 0.404524828678597, -1.274, 1.035, -1.058], a = 0.2, v = 0.2, t = 0.2)
movej(p[0.517153100773205, 0.00402420208682817, 0.405007299409078, -1.274, 1.035, -1.058], a = 0.2, v = 0.2, t = 0.2)
movej(p[0.517145950003683, 0.00402094293381741, 0.405262178290935, -1.274, 1.035, -1.058], a = 0.2, v = 0.2, t = 0.2)
movej(p[0.517135860408098, 0.00401634433282418, 0.405621807395611, -1.274, 1.035, -1.058], a = 0.2, v = 0.2, t = 0.2)
movej(p[0.517123915257928, 0.00401090001357714, 0.406047575071316, -1.274, 1.035, -1.058], a = 0.2, v = 0.2, t = 0.2)
movej(p[0.517117592295136, 0.00400801815545609, 0.406272947974379, -1.274, 1.035, -1.058], a = 0.2, v = 0.2, t = 0.2)
movej(p[0.517116509584504, 0.00400752468134729, 0.406311539635668, -1.274, 1.035, -1.058], a = 0.2, v = 0.2, t = 0.2)
movej(p[0.517106097222813, 0.00400277897113385, 0.406682673273403, -1.274, 1.035, -1.058], a = 0.2, v = 0.2, t = 0.2)
movej(p[0.517097536826301, 0.00399887734320722, 0.406987796279312, -1.274, 1.035, -1.058], a = 0.2, v = 0.2, t = 0.2)
movej(p[0.517097656734891, 0.00399893199472986, 0.406983522310297, -1.274, 1.035, -1.058], a = 0.2, v = 0.2, t = 0.2)
movej(p[0.517105823530614, 0.00400265422864998, 0.406692428637665, -1.274, 1.035, -1.058], a = 0.2, v = 0.2, t = 0.2)
movej(p[0.517107653286345, 0.00400348818839097, 0.406627209629661, -1.274, 1.035, -1.058], a = 0.2, v = 0.2, t = 0.2)
movej(p[0.517111137533848, 0.00400507622667171, 0.406503018645069, -1.274, 1.035, -1.058], a = 0.2, v = 0.2, t = 0.2)
movej(p[0.517115665513278, 0.00400713997348209, 0.406341625338977, -1.274, 1.035, -1.058], a = 0.2, v = 0.2, t = 0.2)
movej(p[0.517115298720865, 0.00400697279810413, 0.406354699126329, -1.274, 1.035, -1.058], a = 0.2, v = 0.2, t = 0.2)
movej(p[0.517104428149079, 0.00400201824647816, 0.406742165003003, -1.274, 1.035, -1.058], a = 0.2, v = 0.2, t = 0.2)
movej(p[0.51709646920239, 0.00399839074527221, 0.407025850196136, -1.274, 1.035, -1.058], a = 0.2, v = 0.2, t = 0.2)
movej(p[0.517094810504283, 0.00399763474958364, 0.407084972101477, -1.274, 1.035, -1.058], a = 0.2, v = 0.2, t = 0.2)
movej(p[0.517089789261967, 0.00399534618512047, 0.407263947052792, -1.274, 1.035, -1.058], a = 0.2, v = 0.2, t = 0.2)
movej(p[0.517089959197901, 0.0039954236379332, 0.407257889931129, -1.274, 1.035, -1.058], a = 0.2, v = 0.2, t = 0.2)
movej(p[0.517103305338053, 0.00400150649555051, 0.40678218598508, -1.274, 1.035, -1.058], a = 0.2, v = 0.2, t = 0.2)
movej(p[0.517128611490759, 0.00401304044634072, 0.405880184615062, -1.274, 1.035, -1.058], a = 0.2, v = 0.2, t = 0.2)
movej(p[0.517149861895245, 0.00402272588222918, 0.405122744549684, -1.274, 1.035, -1.058], a = 0.2, v = 0.2, t = 0.2)
movej(p[0.517165798296498, 0.00402998932009592, 0.404554714476901, -1.274, 1.035, -1.058], a = 0.2, v = 0.2, t = 0.2)
movej(p[0.517171661927506, 0.00403266182556474, 0.404345713793778, -1.274, 1.035, -1.058], a = 0.2, v = 0.2, t = 0.2)
movej(p[0.517162954814029, 0.00402869332748693, 0.404656066314628, -1.274, 1.035, -1.058], a = 0.2, v = 0.2, t = 0.2)
movej(p[0.517140529439963, 0.00401847236802533, 0.405455386478633, -1.274, 1.035, -1.058], a = 0.2, v = 0.2, t = 0.2)
movej(p[0.51712267214572, 0.00401033343219295, 0.406091884015758, -1.274, 1.035, -1.058], a = 0.2, v = 0.2, t = 0.2)
movej(p[0.517115732534216, 0.00400717052005345, 0.406339236474163, -1.274, 1.035, -1.058], a = 0.2, v = 0.2, t = 0.2)
movej(p[0.517107343980511, 0.00400334721404702, 0.406638234390707, -1.274, 1.035, -1.058], a = 0.2, v = 0.2, t = 0.2)
movej(p[0.517095678130985, 0.00399803019348228, 0.407054046797145, -1.274, 1.035, -1.058], a = 0.2, v = 0.2, t = 0.2)
movej(p[0.517090260932333, 0.00399556116140926, 0.40724713504184, -1.274, 1.035, -1.058], a = 0.2, v = 0.2, t = 0.2)
movej(p[0.51709799924273, 0.00399908810176858, 0.406971314111619, -1.274, 1.035, -1.058], a = 0.2, v = 0.2, t = 0.2)
movej(p[0.517109160836814, 0.00400417529453159, 0.406573475164215, -1.274, 1.035, -1.058], a = 0.2, v = 0.2, t = 0.2)
movej(p[0.517123195974641, 0.00401057218112723, 0.406073212888256, -1.274, 1.035, -1.058], a = 0.2, v = 0.2, t = 0.2)
movej(p[0.517143199060584, 0.00401968911848268, 0.405360231696073, -1.274, 1.035, -1.058], a = 0.2, v = 0.2, t = 0.2)
movej(p[0.517160259955397, 0.0040274650741366, 0.404752120669712, -1.274, 1.035, -1.058], a = 0.2, v = 0.2, t = 0.2)
movej(p[0.517159073768924, 0.00402692443816658, 0.40479440057835, -1.274, 1.035, -1.058], a = 0.2, v = 0.2, t = 0.2)
movej(p[0.51714734089846, 0.00402157687103048, 0.405212601849601, -1.274, 1.035, -1.058], a = 0.2, v = 0.2, t = 0.2)
movej(p[0.517133821737728, 0.00401541515469131, 0.405694472865066, -1.274, 1.035, -1.058], a = 0.2, v = 0.2, t = 0.2)
movej(p[0.517124032754886, 0.00401095356593445, 0.406043387061453, -1.274, 1.035, -1.058], a = 0.2, v = 0.2, t = 0.2)
movej(p[0.517107577572315, 0.00400345367971203, 0.406629908347233, -1.274, 1.035, -1.058], a = 0.2, v = 0.2, t = 0.2)
movej(p[0.517097368152267, 0.00399880046553914, 0.406993808422349, -1.274, 1.035, -1.058], a = 0.2, v = 0.2, t = 0.2)
movej(p[0.517095466412123, 0.00399793369699118, 0.407061593211098, -1.274, 1.035, -1.058], a = 0.2, v = 0.2, t = 0.2)
movej(p[0.517100702093398, 0.00400031999770169, 0.406874974891902, -1.274, 1.035, -1.058], a = 0.2, v = 0.2, t = 0.2)
movej(p[0.517104126975492, 0.00400188097862194, 0.406752899901792, -1.274, 1.035, -1.058], a = 0.2, v = 0.2, t = 0.2)
movej(p[0.517121756005955, 0.00400991587717781, 0.406124538498386, -1.274, 1.035, -1.058], a = 0.2, v = 0.2, t = 0.2)
movej(p[0.517155927430334, 0.00402549041084184, 0.404906547286367, -1.274, 1.035, -1.058], a = 0.2, v = 0.2, t = 0.2)
movej(p[0.517201299764008, 0.00404617005621995, 0.403289315792856, -1.274, 1.035, -1.058], a = 0.2, v = 0.2, t = 0.2)
movej(p[0.517247964844643, 0.00406743890533843, 0.401626006195605, -1.274, 1.035, -1.058], a = 0.2, v = 0.2, t = 0.2)
movej(p[0.51729861753087, 0.00409052521154762, 0.39982056413953, -1.274, 1.035, -1.058], a = 0.2, v = 0.2, t = 0.2)
movej(p[0.517347716677366, 0.00411290345078899, 0.398070495769945, -1.274, 1.035, -1.058], a = 0.2, v = 0.2, t = 0.2)
movej(p[0.517385245598353, 0.00413000825264901, 0.396732831426456, -1.274, 1.035, -1.058], a = 0.2, v = 0.2, t = 0.2)
movej(p[0.517405912724384, 0.00413942784389973, 0.395996181481637, -1.274, 1.035, -1.058], a = 0.2, v = 0.2, t = 0.2)
movej(p[0.517401734431604, 0.00413752347606207, 0.396145110710643, -1.274, 1.035, -1.058], a = 0.2, v = 0.2, t = 0.2)
movej(p[0.517389059342098, 0.00413174646758809, 0.396596896022799, -1.274, 1.035, -1.058], a = 0.2, v = 0.2, t = 0.2)
movej(p[0.517370573901827, 0.00412332123753046, 0.397255782920526, -1.274, 1.035, -1.058], a = 0.2, v = 0.2, t = 0.2)
movej(p[0.517358930766511, 0.0041180145695694, 0.397670785711691, -1.274, 1.035, -1.058], a = 0.2, v = 0.2, t = 0.2)
movej(p[0.517337599039548, 0.00410829206880356, 0.398431124399648, -1.274, 1.035, -1.058], a = 0.2, v = 0.2, t = 0.2)
movej(p[0.517300586095656, 0.0040914224372, 0.399750397482642, -1.274, 1.035, -1.058], a = 0.2, v = 0.2, t = 0.2)
movej(p[0.517251195309933, 0.00406891127563977, 0.401510860912507, -1.274, 1.035, -1.058], a = 0.2, v = 0.2, t = 0.2)
movej(p[0.517223433498847, 0.00405625809336268, 0.40250039068913, -1.274, 1.035, -1.058], a = 0.2, v = 0.2, t = 0.2)
movej(p[0.517206487577191, 0.00404853453977678, 0.403104403662881, -1.274, 1.035, -1.058], a = 0.2, v = 0.2, t = 0.2)
movej(p[0.517194339681673, 0.00404299781395614, 0.40353739790453, -1.274, 1.035, -1.058], a = 0.2, v = 0.2, t = 0.2)
movej(p[0.517173608058505, 0.00403354882642336, 0.404276346756911, -1.274, 1.035, -1.058], a = 0.2, v = 0.2, t = 0.2)
movej(p[0.517173809962586, 0.00403364084956719, 0.404269150176718, -1.274, 1.035, -1.058], a = 0.2, v = 0.2, t = 0.2)
movej(p[0.517199008713538, 0.00404512584915728, 0.403370976987553, -1.274, 1.035, -1.058], a = 0.2, v = 0.2, t = 0.2)
movej(p[0.517235603828151, 0.00406180504397708, 0.402066596827459, -1.274, 1.035, -1.058], a = 0.2, v = 0.2, t = 0.2)
movej(p[0.517268996519708, 0.00407702464948774, 0.400876362425436, -1.274, 1.035, -1.058], a = 0.2, v = 0.2, t = 0.2)
movej(p[0.517306690889872, 0.00409420485920174, 0.399532800884288, -1.274, 1.035, -1.058], a = 0.2, v = 0.2, t = 0.2)
movej(p[0.51734690625682, 0.00411253408011444, 0.398099382043222, -1.274, 1.035, -1.058], a = 0.2, v = 0.2, t = 0.2)
movej(p[0.517370243003473, 0.00412317042182251, 0.397267577315843, -1.274, 1.035, -1.058], a = 0.2, v = 0.2, t = 0.2)
movej(p[0.517368756765102, 0.00412249302923596, 0.397320552142268, -1.274, 1.035, -1.058], a = 0.2, v = 0.2, t = 0.2)
movej(p[0.517349323497341, 0.004113635801642, 0.398013222985904, -1.274, 1.035, -1.058], a = 0.2, v = 0.2, t = 0.2)
movej(p[0.517313749120024, 0.00409742183493825, 0.399281220435019, -1.274, 1.035, -1.058], a = 0.2, v = 0.2, t = 0.2)
movej(p[0.517268682446694, 0.00407688150237511, 0.400887557105737, -1.274, 1.035, -1.058], a = 0.2, v = 0.2, t = 0.2)
movej(p[0.517231753629503, 0.00406005021374815, 0.402203831613651, -1.274, 1.035, -1.058], a = 0.2, v = 0.2, t = 0.2)
movej(p[0.517210219998459, 0.00405023568983847, 0.402971366881801, -1.274, 1.035, -1.058], a = 0.2, v = 0.2, t = 0.2)
movej(p[0.517196681208164, 0.00404406502680476, 0.403453937564785, -1.274, 1.035, -1.058], a = 0.2, v = 0.2, t = 0.2)
movej(p[0.517175899108976, 0.00403459303348602, 0.404194685562214, -1.274, 1.035, -1.058], a = 0.2, v = 0.2, t = 0.2)
movej(p[0.51716644607209, 0.00403028456101571, 0.40453162544878, -1.274, 1.035, -1.058], a = 0.2, v = 0.2, t = 0.2)
movej(p[0.517175599057078, 0.00403445627686949, 0.404205380480002, -1.274, 1.035, -1.058], a = 0.2, v = 0.2, t = 0.2)
movej(p[0.517195915655191, 0.00404371610571772, 0.403481224598019, -1.274, 1.035, -1.058], a = 0.2, v = 0.2, t = 0.2)
movej(p[0.517218413939065, 0.00405397029575904, 0.402679305668944, -1.274, 1.035, -1.058], a = 0.2, v = 0.2, t = 0.2)
movej(p[0.517250415735844, 0.00406855596405663, 0.401538647708255, -1.274, 1.035, -1.058], a = 0.2, v = 0.2, t = 0.2)
movej(p[0.517293998975026, 0.00408842018213244, 0.399985185911459, -1.274, 1.035, -1.058], a = 0.2, v = 0.2, t = 0.2)
movej(p[0.517331059590714, 0.00410531154142274, 0.398664213635919, -1.274, 1.035, -1.058], a = 0.2, v = 0.2, t = 0.2)
movej(p[0.517358106324848, 0.00411763880839875, 0.397700171747482, -1.274, 1.035, -1.058], a = 0.2, v = 0.2, t = 0.2)
movej(p[0.517365641272969, 0.00412107306100264, 0.397431599372756, -1.274, 1.035, -1.058], a = 0.2, v = 0.2, t = 0.2)
movej(p[0.517352539941515, 0.00411510178144723, 0.39789857746532, -1.274, 1.035, -1.058], a = 0.2, v = 0.2, t = 0.2)
movej(p[0.517312372246363, 0.00409679428822127, 0.39933029711384, -1.274, 1.035, -1.058], a = 0.2, v = 0.2, t = 0.2)
movej(p[0.517271166988575, 0.00407801389828395, 0.400798999188355, -1.274, 1.035, -1.058], a = 0.2, v = 0.2, t = 0.2)
movej(p[0.517238091174256, 0.00406293871798514, 0.401977938957574, -1.274, 1.035, -1.058], a = 0.2, v = 0.2, t = 0.2)
movej(p[0.517215755535336, 0.00405275865769857, 0.402774060641493, -1.274, 1.035, -1.058], a = 0.2, v = 0.2, t = 0.2)
movej(p[0.517193618996274, 0.00404266934245662, 0.403563085697721, -1.274, 1.035, -1.058], a = 0.2, v = 0.2, t = 0.2)
movej(p[0.517186039180581, 0.00403921464026521, 0.40383325731249, -1.274, 1.035, -1.058], a = 0.2, v = 0.2, t = 0.2)
movej(p[0.517198966650187, 0.00404510667766898, 0.403372476275093, -1.274, 1.035, -1.058], a = 0.2, v = 0.2, t = 0.2)
movej(p[0.517225831109804, 0.0040573508681957, 0.402414931299331, -1.274, 1.035, -1.058], a = 0.2, v = 0.2, t = 0.2)
movej(p[0.517258051636004, 0.00407203622823244, 0.401266477043432, -1.274, 1.035, -1.058], a = 0.2, v = 0.2, t = 0.2)
movej(p[0.517292361308594, 0.00408767377218801, 0.40004355817303, -1.274, 1.035, -1.058], a = 0.2, v = 0.2, t = 0.2)
movej(p[0.517327646850907, 0.00410375609467211, 0.398785855831692, -1.274, 1.035, -1.058], a = 0.2, v = 0.2, t = 0.2)
movej(p[0.517344191768625, 0.00411129688006956, 0.398196136065826, -1.274, 1.035, -1.058], a = 0.2, v = 0.2, t = 0.2)
movej(p[0.51733600624069, 0.00410756610844665, 0.398487897421175, -1.274, 1.035, -1.058], a = 0.2, v = 0.2, t = 0.2)
movej(p[0.517312891027681, 0.00409703073657695, 0.399311805900842, -1.274, 1.035, -1.058], a = 0.2, v = 0.2, t = 0.2)
movej(p[0.517279902144286, 0.00408199517735396, 0.400487647142478, -1.274, 1.035, -1.058], a = 0.2, v = 0.2, t = 0.2)
movej(p[0.51724057010769, 0.00406406855769553, 0.401889580945196, -1.274, 1.035, -1.058], a = 0.2, v = 0.2, t = 0.2)
movej(p[0.517212042743631, 0.00405106645433141, 0.402906397755053, -1.274, 1.035, -1.058], a = 0.2, v = 0.2, t = 0.2)
movej(p[0.517193933069289, 0.00404281248956925, 0.40355189101742, -1.274, 1.035, -1.058], a = 0.2, v = 0.2, t = 0.2)
movej(p[0.517185683044216, 0.00403905232166428, 0.403845951280332, -1.274, 1.035, -1.058], a = 0.2, v = 0.2, t = 0.2)
movej(p[0.517164359729923, 0.0040293336551961, 0.40460599011078, -1.274, 1.035, -1.058], a = 0.2, v = 0.2, t = 0.2)
movej(p[0.517153053101408, 0.00402418035914143, 0.405008998601623, -1.274, 1.035, -1.058], a = 0.2, v = 0.2, t = 0.2)
movej(p[0.517151314482936, 0.00402338793762509, 0.405070969153291, -1.274, 1.035, -1.058], a = 0.2, v = 0.2, t = 0.2)
movej(p[0.51715047041171, 0.0040230032297599, 0.4051010548566, -1.274, 1.035, -1.058], a = 0.2, v = 0.2, t = 0.2)
movej(p[0.517142938267813, 0.00401957025525523, 0.405369527278823, -1.274, 1.035, -1.058], a = 0.2, v = 0.2, t = 0.2)
movej(p[0.517140591132876, 0.00401850048620816, 0.405453187523574, -1.274, 1.035, -1.058], a = 0.2, v = 0.2, t = 0.2)
movej(p[0.517142377423145, 0.00401931463541125, 0.405389517779361, -1.274, 1.035, -1.058], a = 0.2, v = 0.2, t = 0.2)
movej(p[0.517140111610685, 0.00401828193124156, 0.405470279401534, -1.274, 1.035, -1.058], a = 0.2, v = 0.2, t = 0.2)
movej(p[0.517132915973589, 0.00401500232864328, 0.405726757523434, -1.274, 1.035, -1.058], a = 0.2, v = 0.2, t = 0.2)
movej(p[0.517131718570222, 0.00401445658027638, 0.405769437242083, -1.274, 1.035, -1.058], a = 0.2, v = 0.2, t = 0.2)
movej(p[0.517140467747049, 0.00401844424984249, 0.405457585433692, -1.274, 1.035, -1.058], a = 0.2, v = 0.2, t = 0.2)
movej(p[0.517156432190535, 0.00402572046870142, 0.404888555835883, -1.274, 1.035, -1.058], a = 0.2, v = 0.2, t = 0.2)
movej(p[0.517193175928986, 0.00404246740277987, 0.403578878193146, -1.274, 1.035, -1.058], a = 0.2, v = 0.2, t = 0.2)
movej(p[0.517251705678581, 0.00406914388969779, 0.401492669557018, -1.274, 1.035, -1.058], a = 0.2, v = 0.2, t = 0.2)
movej(p[0.517306183325447, 0.00409397352324294, 0.399550892287275, -1.274, 1.035, -1.058], a = 0.2, v = 0.2, t = 0.2)
movej(p[0.517342657858457, 0.00411059775979628, 0.398250810084797, -1.274, 1.035, -1.058], a = 0.2, v = 0.2, t = 0.2)
movej(p[0.517363689533523, 0.00412018350394558, 0.397501166314628, -1.274, 1.035, -1.058], a = 0.2, v = 0.2, t = 0.2)
movej(p[0.517373992250081, 0.00412487924047952, 0.397133940819748, -1.274, 1.035, -1.058], a = 0.2, v = 0.2, t = 0.2)
movej(p[0.51735636209793, 0.00411684383068396, 0.397762342204154, -1.274, 1.035, -1.058], a = 0.2, v = 0.2, t = 0.2)
movej(p[0.517318137729554, 0.0040994220602174, 0.399124794768311, -1.274, 1.035, -1.058], a = 0.2, v = 0.2, t = 0.2)
movej(p[0.517272555079129, 0.0040786465573978, 0.400749522699524, -1.274, 1.035, -1.058], a = 0.2, v = 0.2, t = 0.2)
movej(p[0.517239877464524, 0.00406375286718822, 0.401914269213361, -1.274, 1.035, -1.058], a = 0.2, v = 0.2, t = 0.2)
movej(p[0.517206753978408, 0.00404865595920267, 0.403094908175125, -1.274, 1.035, -1.058], a = 0.2, v = 0.2, t = 0.2)
movej(p[0.517186821558893, 0.00403957122994756, 0.40380537056424, -1.274, 1.035, -1.058], a = 0.2, v = 0.2, t = 0.2)
movej(p[0.51717392213152, 0.00403369197353599, 0.40426515207661, -1.274, 1.035, -1.058], a = 0.2, v = 0.2, t = 0.2)
movej(p[0.517166061893492, 0.00403010946142259, 0.404545318941648, -1.274, 1.035, -1.058], a = 0.2, v = 0.2, t = 0.2)
movej(p[0.517149853482575, 0.00402272204793152, 0.405123044407192, -1.274, 1.035, -1.058], a = 0.2, v = 0.2, t = 0.2)
movej(p[0.517140593937099, 0.00401850176430738, 0.405453087571071, -1.274, 1.035, -1.058], a = 0.2, v = 0.2, t = 0.2)
movej(p[0.517146463176554, 0.00402117682597465, 0.405243886982943, -1.274, 1.035, -1.058], a = 0.2, v = 0.2, t = 0.2)
movej(p[0.517161589157261, 0.00402807089316683, 0.404704743183437, -1.274, 1.035, -1.058], a = 0.2, v = 0.2, t = 0.2)
movej(p[0.517175700009119, 0.00403450228844141, 0.404201782189905, -1.274, 1.035, -1.058], a = 0.2, v = 0.2, t = 0.2)
movej(p[0.517200416433655, 0.00404576745496568, 0.403320800831203, -1.274, 1.035, -1.058], a = 0.2, v = 0.2, t = 0.2)
movej(p[0.517227510839586, 0.00405811644962842, 0.40235505975022, -1.274, 1.035, -1.058], a = 0.2, v = 0.2, t = 0.2)
movej(p[0.517235222453777, 0.00406163122248317, 0.402080190367825, -1.274, 1.035, -1.058], a = 0.2, v = 0.2, t = 0.2)
movej(p[0.517223085775152, 0.00405609960905941, 0.402512784799464, -1.274, 1.035, -1.058], a = 0.2, v = 0.2, t = 0.2)
movej(p[0.517200309873168, 0.00404571888719532, 0.403324599026305, -1.274, 1.035, -1.058], a = 0.2, v = 0.2, t = 0.2)
movej(p[0.517183142417868, 0.00403789436377104, 0.403936508247768, -1.274, 1.035, -1.058], a = 0.2, v = 0.2, t = 0.2)
movej(p[0.517162281800427, 0.00402838658367415, 0.404680054915273, -1.274, 1.035, -1.058], a = 0.2, v = 0.2, t = 0.2)
movej(p[0.517147635341911, 0.00402171107144857, 0.405202106836819, -1.274, 1.035, -1.058], a = 0.2, v = 0.2, t = 0.2)
movej(p[0.517141202453565, 0.0040187791118381, 0.405431397877988, -1.274, 1.035, -1.058], a = 0.2, v = 0.2, t = 0.2)
movej(p[0.517138880556637, 0.00401772084568402, 0.405514158550214, -1.274, 1.035, -1.058], a = 0.2, v = 0.2, t = 0.2)
movej(p[0.517127262939754, 0.00401242580842587, 0.405928251773605, -1.274, 1.035, -1.058], a = 0.2, v = 0.2, t = 0.2)
movej(p[0.517126666761871, 0.00401215408453171, 0.405949501675677, -1.274, 1.035, -1.058], a = 0.2, v = 0.2, t = 0.2)
movej(p[0.517144124454287, 0.00402011089122525, 0.405327247370186, -1.274, 1.035, -1.058], a = 0.2, v = 0.2, t = 0.2)
movej(p[0.517172020868094, 0.00403282542226489, 0.404332919873434, -1.274, 1.035, -1.058], a = 0.2, v = 0.2, t = 0.2)
movej(p[0.517193293706366, 0.00404252108294711, 0.403574680188033, -1.274, 1.035, -1.058], a = 0.2, v = 0.2, t = 0.2)
movej(p[0.517207642917208, 0.00404906111665538, 0.403063223231773, -1.274, 1.035, -1.058], a = 0.2, v = 0.2, t = 0.2)
movej(p[0.517209451641263, 0.00404988549065222, 0.402998753867538, -1.274, 1.035, -1.058], a = 0.2, v = 0.2, t = 0.2)
movej(p[0.517192651539221, 0.00404222839822575, 0.403597569311149, -1.274, 1.035, -1.058], a = 0.2, v = 0.2, t = 0.2)
movej(p[0.517166235755339, 0.00403018870357422, 0.404539121886481, -1.274, 1.035, -1.058], a = 0.2, v = 0.2, t = 0.2)
movej(p[0.517150226444279, 0.00402289203512777, 0.405109750724334, -1.274, 1.035, -1.058], a = 0.2, v = 0.2, t = 0.2)
movej(p[0.51714299435228, 0.00401959581723963, 0.405367528228769, -1.274, 1.035, -1.058], a = 0.2, v = 0.2, t = 0.2)
movej(p[0.517132627138585, 0.00401487068442363, 0.405737052631211, -1.274, 1.035, -1.058], a = 0.2, v = 0.2, t = 0.2)
movej(p[0.517120541777248, 0.00400936246021559, 0.406167817932051, -1.274, 1.035, -1.058], a = 0.2, v = 0.2, t = 0.2)
movej(p[0.517117736432216, 0.00400808384975599, 0.406267810415741, -1.274, 1.035, -1.058], a = 0.2, v = 0.2, t = 0.2)
movej(p[0.51712531148073, 0.00401153637917873, 0.405997808720227, -1.274, 1.035, -1.058], a = 0.2, v = 0.2, t = 0.2)
movej(p[0.517130585663992, 0.00401394022819153, 0.405809818053169, -1.274, 1.035, -1.058], a = 0.2, v = 0.2, t = 0.2)
movej(p[0.517143485091365, 0.00401981948460311, 0.405350036540799, -1.274, 1.035, -1.058], a = 0.2, v = 0.2, t = 0.2)
movej(p[0.517163013702719, 0.00402872016757055, 0.404653967312071, -1.274, 1.035, -1.058], a = 0.2, v = 0.2, t = 0.2)
movej(p[0.517175481279698, 0.00403440259670226, 0.404209578485115, -1.274, 1.035, -1.058], a = 0.2, v = 0.2, t = 0.2)
movej(p[0.517169166168732, 0.00403152431725902, 0.404434671521171, -1.274, 1.035, -1.058], a = 0.2, v = 0.2, t = 0.2)
movej(p[0.517157438906715, 0.00402617930632137, 0.404852672887417, -1.274, 1.035, -1.058], a = 0.2, v = 0.2, t = 0.2)
movej(p[0.51714618275422, 0.00402104901605266, 0.405253882233212, -1.274, 1.035, -1.058], a = 0.2, v = 0.2, t = 0.2)
movej(p[0.517135030357989, 0.00401596601545509, 0.405651393336407, -1.274, 1.035, -1.058], a = 0.2, v = 0.2, t = 0.2)
movej(p[0.517117992177385, 0.00400820041240485, 0.406258694747496, -1.274, 1.035, -1.058], a = 0.2, v = 0.2, t = 0.2)
movej(p[0.517108983609899, 0.0040040945186609, 0.406579792162385, -1.274, 1.035, -1.058], a = 0.2, v = 0.2, t = 0.2)
movej(p[0.517107313134054, 0.0040033331549556, 0.406639333868237, -1.274, 1.035, -1.058], a = 0.2, v = 0.2, t = 0.2)
movej(p[0.517099683038636, 0.00399985553644517, 0.406911297631379, -1.274, 1.035, -1.058], a = 0.2, v = 0.2, t = 0.2)
movej(p[0.517089121576389, 0.00399504186969621, 0.407287745743682, -1.274, 1.035, -1.058], a = 0.2, v = 0.2, t = 0.2)
movej(p[0.517095899664629, 0.00399813116332065, 0.407046150549432, -1.274, 1.035, -1.058], a = 0.2, v = 0.2, t = 0.2)
movej(p[0.517117243449753, 0.00400785915991313, 0.406285382065714, -1.274, 1.035, -1.058], a = 0.2, v = 0.2, t = 0.2)
movej(p[0.517135826757418, 0.00401632899563354, 0.405623006825643, -1.274, 1.035, -1.058], a = 0.2, v = 0.2, t = 0.2)
movej(p[0.517147680209485, 0.00402173152103609, 0.405200507596776, -1.274, 1.035, -1.058], a = 0.2, v = 0.2, t = 0.2)
movej(p[0.517149623536261, 0.00402261724379549, 0.405131240512412, -1.274, 1.035, -1.058], a = 0.2, v = 0.2, t = 0.2)
movej(p[0.517144761012986, 0.00402040101974817, 0.405304558152075, -1.274, 1.035, -1.058], a = 0.2, v = 0.2, t = 0.2)
movej(p[0.517125106772426, 0.00401144307793568, 0.406005105252923, -1.274, 1.035, -1.058], a = 0.2, v = 0.2, t = 0.2)
movej(p[0.51711088319079, 0.00400496030307246, 0.406512084337063, -1.274, 1.035, -1.058], a = 0.2, v = 0.2, t = 0.2)
movej(p[0.517103493781862, 0.00400159238381808, 0.4067754691769, -1.274, 1.035, -1.058], a = 0.2, v = 0.2, t = 0.2)
movej(p[0.517098963474926, 0.00399952757618535, 0.406936945443569, -1.274, 1.035, -1.058], a = 0.2, v = 0.2, t = 0.2)
movej(p[0.517085881015895, 0.00399356489823769, 0.40740325085579, -1.274, 1.035, -1.058], a = 0.2, v = 0.2, t = 0.2)
movej(p[0.517081581300245, 0.0039916051887038, 0.407556508028163, -1.274, 1.035, -1.058], a = 0.2, v = 0.2, t = 0.2)
movej(p[0.517094851726366, 0.00399765353764217, 0.407083502799687, -1.274, 1.035, -1.058], a = 0.2, v = 0.2, t = 0.2)
movej(p[0.517115862369757, 0.00400722969604733, 0.406334608673288, -1.274, 1.035, -1.058], a = 0.2, v = 0.2, t = 0.2)
movej(p[0.517130487516175, 0.00401389549471884, 0.405813316390763, -1.274, 1.035, -1.058], a = 0.2, v = 0.2, t = 0.2)
movej(p[0.517137643894144, 0.00401715720392804, 0.4055582376039, -1.274, 1.035, -1.058], a = 0.2, v = 0.2, t = 0.2)
movej(p[0.517137248498652, 0.00401697699193803, 0.40557233090678, -1.274, 1.035, -1.058], a = 0.2, v = 0.2, t = 0.2)
movej(p[0.517127930905754, 0.00401273025166005, 0.405904443087465, -1.274, 1.035, -1.058], a = 0.2, v = 0.2, t = 0.2)
movej(p[0.517110727556395, 0.00400488936856576, 0.406517631700963, -1.274, 1.035, -1.058], a = 0.2, v = 0.2, t = 0.2)
movej(p[0.517101741843329, 0.00400079389133045, 0.406837914502955, -1.274, 1.035, -1.058], a = 0.2, v = 0.2, t = 0.2)
movej(p[0.517098421670934, 0.00399928063463507, 0.406956257266614, -1.274, 1.035, -1.058], a = 0.2, v = 0.2, t = 0.2)
movej(p[0.517090757840709, 0.00399578764059103, 0.407229423458363, -1.274, 1.035, -1.058], a = 0.2, v = 0.2, t = 0.2)
movej(p[0.517078376353387, 0.00399014444910537, 0.407670743743487, -1.274, 1.035, -1.058], a = 0.2, v = 0.2, t = 0.2)
movej(p[0.517078719309902, 0.00399030076063996, 0.407658519552408, -1.274, 1.035, -1.058], a = 0.2, v = 0.2, t = 0.2)
movej(p[0.517092238470634, 0.00399646247697914, 0.407176648536943, -1.274, 1.035, -1.058], a = 0.2, v = 0.2, t = 0.2)
movej(p[0.517108061861686, 0.00400367440744731, 0.406612646550019, -1.274, 1.035, -1.058], a = 0.2, v = 0.2, t = 0.2)
movej(p[0.517117901881393, 0.00400815925760997, 0.406261913218082, -1.274, 1.035, -1.058], a = 0.2, v = 0.2, t = 0.2)
movej(p[0.517125566945476, 0.00401165281401767, 0.405988703047232, -1.274, 1.035, -1.058], a = 0.2, v = 0.2, t = 0.2)
movej(p[0.517127186384456, 0.00401239091631716, 0.405930980476929, -1.274, 1.035, -1.058], a = 0.2, v = 0.2, t = 0.2)
movej(p[0.51711136972354, 0.00400518205328712, 0.406494742577847, -1.274, 1.035, -1.058], a = 0.2, v = 0.2, t = 0.2)
movej(p[0.517097727373277, 0.00399896419004921, 0.406981004506754, -1.274, 1.035, -1.058], a = 0.2, v = 0.2, t = 0.2)
movej(p[0.517087367254266, 0.00399424229082424, 0.407350276029365, -1.274, 1.035, -1.058], a = 0.2, v = 0.2, t = 0.2)
movej(p[0.51708561966228, 0.00399344577939039, 0.40741256642904, -1.274, 1.035, -1.058], a = 0.2, v = 0.2, t = 0.2)
movej(p[0.517075993324391, 0.00398905832038829, 0.407755683380272, -1.274, 1.035, -1.058], a = 0.2, v = 0.2, t = 0.2)
movej(p[0.517068130001718, 0.00398547440236575, 0.408035960193063, -1.274, 1.035, -1.058], a = 0.2, v = 0.2, t = 0.2)
movej(p[0.517068214128418, 0.00398551274534235, 0.408032961617982, -1.274, 1.035, -1.058], a = 0.2, v = 0.2, t = 0.2)
movej(p[0.517075286660109, 0.00398873623938488, 0.40778087141095, -1.274, 1.035, -1.058], a = 0.2, v = 0.2, t = 0.2)
movej(p[0.517078386729014, 0.00399014917807248, 0.407670373919227, -1.274, 1.035, -1.058], a = 0.2, v = 0.2, t = 0.2)
movej(p[0.517086421670156, 0.00399381131576728, 0.407383980013271, -1.274, 1.035, -1.058], a = 0.2, v = 0.2, t = 0.2)
movej(p[0.517096294499276, 0.00399831111969081, 0.407032077237053, -1.274, 1.035, -1.058], a = 0.2, v = 0.2, t = 0.2)
movej(p[0.517102737258489, 0.00400124757821054, 0.406802434363075, -1.274, 1.035, -1.058], a = 0.2, v = 0.2, t = 0.2)
movej(p[0.517096627641009, 0.00399846295787814, 0.407020202879734, -1.274, 1.035, -1.058], a = 0.2, v = 0.2, t = 0.2)
movej(p[0.51708823992857, 0.00399464003530147, 0.407319170810528, -1.274, 1.035, -1.058], a = 0.2, v = 0.2, t = 0.2)
movej(p[0.517084665945921, 0.0039930110978457, 0.407446560275205, -1.274, 1.035, -1.058], a = 0.2, v = 0.2, t = 0.2)
movej(p[0.517080960445197, 0.00399132221753651, 0.407578637512258, -1.274, 1.035, -1.058], a = 0.2, v = 0.2, t = 0.2)
movej(p[0.517069857403296, 0.00398626171148521, 0.407974389451406, -1.274, 1.035, -1.058], a = 0.2, v = 0.2, t = 0.2)
movej(p[0.517063273086889, 0.00398326073451687, 0.40820907792772, -1.274, 1.035, -1.058], a = 0.2, v = 0.2, t = 0.2)
movej(p[0.517062286000273, 0.00398281084359146, 0.408244261208667, -1.274, 1.035, -1.058], a = 0.2, v = 0.2, t = 0.2)
movej(p[0.517065735194984, 0.00398438290563195, 0.408121319630359, -1.274, 1.035, -1.058], a = 0.2, v = 0.2, t = 0.2)
movej(p[0.517065244455899, 0.00398415923826846, 0.40813881131833, -1.274, 1.035, -1.058], a = 0.2, v = 0.2, t = 0.2)
movej(p[0.517072020861605, 0.00398724776503337, 0.407897276095581, -1.274, 1.035, -1.058], a = 0.2, v = 0.2, t = 0.2)
movej(p[0.517085281472945, 0.00399329164062447, 0.407424620700865, -1.274, 1.035, -1.058], a = 0.2, v = 0.2, t = 0.2)
movej(p[0.517092047783447, 0.00399637556623219, 0.407183445307126, -1.274, 1.035, -1.058], a = 0.2, v = 0.2, t = 0.2)
movej(p[0.517085829137763, 0.00399354125340212, 0.40740509997709, -1.274, 1.035, -1.058], a = 0.2, v = 0.2, t = 0.2)
movej(p[0.517078080507825, 0.00399000960963767, 0.40768128873252, -1.274, 1.035, -1.058], a = 0.2, v = 0.2, t = 0.2)
movej(p[0.517074500916728, 0.00398837811598346, 0.407808878102203, -1.274, 1.035, -1.058], a = 0.2, v = 0.2, t = 0.2)
movej(p[0.517069498462709, 0.00398609811478506, 0.40798718337175, -1.274, 1.035, -1.058], a = 0.2, v = 0.2, t = 0.2)
movej(p[0.517059703310575, 0.00398163371420993, 0.408336317463644, -1.274, 1.035, -1.058], a = 0.2, v = 0.2, t = 0.2)
movej(p[0.517056523321305, 0.00398018434969455, 0.408449663601693, -1.274, 1.035, -1.058], a = 0.2, v = 0.2, t = 0.2)
movej(p[0.517059978124462, 0.00398175896793348, 0.40832652211838, -1.274, 1.035, -1.058], a = 0.2, v = 0.2, t = 0.2)
movej(p[0.51706357594301, 0.00398339876923262, 0.40819828305743, -1.274, 1.035, -1.058], a = 0.2, v = 0.2, t = 0.2)
movej(p[0.517061716742934, 0.00398255138944982, 0.408264551566713, -1.274, 1.035, -1.058], a = 0.2, v = 0.2, t = 0.2)
movej(p[0.517067134502431, 0.00398502067714268, 0.408071443331517, -1.274, 1.035, -1.058], a = 0.2, v = 0.2, t = 0.2)
movej(p[0.517084132863064, 0.003992768131184, 0.407465561245966, -1.274, 1.035, -1.058], a = 0.2, v = 0.2, t = 0.2)
movej(p[0.517096619508761, 0.0039984592513904, 0.407020492741992, -1.274, 1.035, -1.058], a = 0.2, v = 0.2, t = 0.2)
movej(p[0.51709908066342, 0.00399958098795175, 0.406932768428482, -1.274, 1.035, -1.058], a = 0.2, v = 0.2, t = 0.2)
movej(p[0.517092319793111, 0.00399649954185652, 0.407173749914365, -1.274, 1.035, -1.058], a = 0.2, v = 0.2, t = 0.2)
movej(p[0.51708670938347, 0.00399394244874725, 0.407373724886495, -1.274, 1.035, -1.058], a = 0.2, v = 0.2, t = 0.2)
movej(p[0.517078733891863, 0.00399030740675591, 0.407657999799394, -1.274, 1.035, -1.058], a = 0.2, v = 0.2, t = 0.2)
movej(p[0.51706685688432, 0.00398489414531991, 0.408081338629283, -1.274, 1.035, -1.058], a = 0.2, v = 0.2, t = 0.2)
movej(p[0.517059397650231, 0.00398149440139496, 0.408347212286437, -1.274, 1.035, -1.058], a = 0.2, v = 0.2, t = 0.2)
movej(p[0.517059445322027, 0.00398151612908169, 0.408345513093891, -1.274, 1.035, -1.058], a = 0.2, v = 0.2, t = 0.2)
movej(p[0.51706251875081, 0.00398291692582671, 0.408235965150944, -1.274, 1.035, -1.058], a = 0.2, v = 0.2, t = 0.2)
movej(p[0.517066907360341, 0.00398491715110587, 0.408079539484235, -1.274, 1.035, -1.058], a = 0.2, v = 0.2, t = 0.2)
movej(p[0.517082031938936, 0.00399181057924844, 0.407540445660981, -1.274, 1.035, -1.058], a = 0.2, v = 0.2, t = 0.2)
movej(p[0.517112474026692, 0.00400568536875992, 0.406455381282288, -1.274, 1.035, -1.058], a = 0.2, v = 0.2, t = 0.2)
movej(p[0.517141093088854, 0.00401872926596853, 0.405435296025593, -1.274, 1.035, -1.058], a = 0.2, v = 0.2, t = 0.2)
movej(p[0.517171165579974, 0.00403243560200282, 0.404363405386754, -1.274, 1.035, -1.058], a = 0.2, v = 0.2, t = 0.2)
movej(p[0.517202513992715, 0.00404672347318217, 0.403246036359191, -1.274, 1.035, -1.058], a = 0.2, v = 0.2, t = 0.2)
movej(p[0.517238208951636, 0.00406299239815237, 0.401973740952461, -1.274, 1.035, -1.058], a = 0.2, v = 0.2, t = 0.2)
movej(p[0.517260320252688, 0.00407307021050134, 0.401185615468756, -1.274, 1.035, -1.058], a = 0.2, v = 0.2, t = 0.2)
movej(p[0.517249717484232, 0.00406823771735087, 0.401563535881424, -1.274, 1.035, -1.058], a = 0.2, v = 0.2, t = 0.2)
movej(p[0.517222020170282, 0.00405561393135585, 0.402550766750485, -1.274, 1.035, -1.058], a = 0.2, v = 0.2, t = 0.2)
movej(p[0.517191914028482, 0.00404189225813092, 0.403623856819356, -1.274, 1.035, -1.058], a = 0.2, v = 0.2, t = 0.2)
movej(p[0.517161247042014, 0.004027914965062, 0.404716937388765, -1.274, 1.035, -1.058], a = 0.2, v = 0.2, t = 0.2)
movej(p[0.517137338233799, 0.00401701789111307, 0.405569132426693, -1.274, 1.035, -1.058], a = 0.2, v = 0.2, t = 0.2)
movej(p[0.517125522077903, 0.00401163236443015, 0.405990302287275, -1.274, 1.035, -1.058], a = 0.2, v = 0.2, t = 0.2)
movej(p[0.517135655699794, 0.00401625103158113, 0.405629103928307, -1.274, 1.035, -1.058], a = 0.2, v = 0.2, t = 0.2)
movej(p[0.517158201655464, 0.00402652694930919, 0.404825485806686, -1.274, 1.035, -1.058], a = 0.2, v = 0.2, t = 0.2)
movej(p[0.517187550656962, 0.00403990353574474, 0.403779382913541, -1.274, 1.035, -1.058], a = 0.2, v = 0.2, t = 0.2)
movej(p[0.517223116621609, 0.00405611366815083, 0.402511685321934, -1.274, 1.035, -1.058], a = 0.2, v = 0.2, t = 0.2)
movej(p[0.517264734100228, 0.00407508193867348, 0.401028290229524, -1.274, 1.035, -1.058], a = 0.2, v = 0.2, t = 0.2)
movej(p[0.5172964106071, 0.00408951934746156, 0.399899226759147, -1.274, 1.035, -1.058], a = 0.2, v = 0.2, t = 0.2)
movej(p[0.517323605965071, 0.00410191435369622, 0.398929887388067, -1.274, 1.035, -1.058], a = 0.2, v = 0.2, t = 0.2)
movej(p[0.51734566398588, 0.00411196788216002, 0.398143661001914, -1.274, 1.035, -1.058], a = 0.2, v = 0.2, t = 0.2)
movej(p[0.517365719791222, 0.0041211088477808, 0.397428800702681, -1.274, 1.035, -1.058], a = 0.2, v = 0.2, t = 0.2)
movej(p[0.517368453908981, 0.00412235499452021, 0.397331347012559, -1.274, 1.035, -1.058], a = 0.2, v = 0.2, t = 0.2)
movej(p[0.517353386816964, 0.00411548776741164, 0.397868391809508, -1.274, 1.035, -1.058], a = 0.2, v = 0.2, t = 0.2)
movej(p[0.517327186958279, 0.00410354648640004, 0.398802248042133, -1.274, 1.035, -1.058], a = 0.2, v = 0.2, t = 0.2)
movej(p[0.517290566605655, 0.00408685578868727, 0.400107527774751, -1.274, 1.035, -1.058], a = 0.2, v = 0.2, t = 0.2)
movej(p[0.51724273496811, 0.0040650552502933, 0.40181241761312, -1.274, 1.035, -1.058], a = 0.2, v = 0.2, t = 0.2)
movej(p[0.517208545877124, 0.00404947266460419, 0.403031038525907, -1.274, 1.035, -1.058], a = 0.2, v = 0.2, t = 0.2)
movej(p[0.517187460921815, 0.0040398626365697, 0.403782581393627, -1.274, 1.035, -1.058], a = 0.2, v = 0.2, t = 0.2)
movej(p[0.517183400406416, 0.00403801194889928, 0.403927312617521, -1.274, 1.035, -1.058], a = 0.2, v = 0.2, t = 0.2)
movej(p[0.517186187804418, 0.00403928237952386, 0.403827959829848, -1.274, 1.035, -1.058], a = 0.2, v = 0.2, t = 0.2)
movej(p[0.517209723650928, 0.00405000946627655, 0.402989058474777, -1.274, 1.035, -1.058], a = 0.2, v = 0.2, t = 0.2)
movej(p[0.517256245716172, 0.00407121313233482, 0.401330846455164, -1.274, 1.035, -1.058], a = 0.2, v = 0.2, t = 0.2)
movej(p[0.517303423969679, 0.00409271587361055, 0.399649245549921, -1.274, 1.035, -1.058], a = 0.2, v = 0.2, t = 0.2)
movej(p[0.517337001739976, 0.00410801983366972, 0.398452414282721, -1.274, 1.035, -1.058], a = 0.2, v = 0.2, t = 0.2)
movej(p[0.517364087733237, 0.00412036499403481, 0.397486973059246, -1.274, 1.035, -1.058], a = 0.2, v = 0.2, t = 0.2)
movej(p[0.517386675752257, 0.00413066008325117, 0.396681855650084, -1.274, 1.035, -1.058], a = 0.2, v = 0.2, t = 0.2)
movej(p[0.517397163547556, 0.00413544017433362, 0.396308033290027, -1.274, 1.035, -1.058], a = 0.2, v = 0.2, t = 0.2)
movej(p[0.517383983697849, 0.00412943310800006, 0.396777810052666, -1.274, 1.035, -1.058], a = 0.2, v = 0.2, t = 0.2)
movej(p[0.517362811811616, 0.00411978345888975, 0.397532451447969, -1.274, 1.035, -1.058], a = 0.2, v = 0.2, t = 0.2)
movej(p[0.517340619188087, 0.0041096685816634, 0.398323475554252, -1.274, 1.035, -1.058], a = 0.2, v = 0.2, t = 0.2)
movej(p[0.517308838924952, 0.00409518388320419, 0.399456237267228, -1.274, 1.035, -1.058], a = 0.2, v = 0.2, t = 0.2)
movej(p[0.517268631970674, 0.00407685849658915, 0.400889356250786, -1.274, 1.035, -1.058], a = 0.2, v = 0.2, t = 0.2)
movej(p[0.517233368862148, 0.00406078639889881, 0.402146258972102, -1.274, 1.035, -1.058], a = 0.2, v = 0.2, t = 0.2)
movej(p[0.517210166718216, 0.0040502114059533, 0.402973265979353, -1.274, 1.035, -1.058], a = 0.2, v = 0.2, t = 0.2)
movej(p[0.517186232671991, 0.00403930282911138, 0.403826360589805, -1.274, 1.035, -1.058], a = 0.2, v = 0.2, t = 0.2)
movej(p[0.517171636689496, 0.00403265032267176, 0.404346613366302, -1.274, 1.035, -1.058], a = 0.2, v = 0.2, t = 0.2)
movej(p[0.517176891804039, 0.00403504548060987, 0.404159302376262, -1.274, 1.035, -1.058], a = 0.2, v = 0.2, t = 0.2)
movej(p[0.51720633614913, 0.0040484655224189, 0.403109801098026, -1.274, 1.035, -1.058], a = 0.2, v = 0.2, t = 0.2)
movej(p[0.517236846099092, 0.0040623712419315, 0.402022317868768, -1.274, 1.035, -1.058], a = 0.2, v = 0.2, t = 0.2)
movej(p[0.517268929218348, 0.00407699397510646, 0.400878761285501, -1.274, 1.035, -1.058], a = 0.2, v = 0.2, t = 0.2)
movej(p[0.51729423733401, 0.00408852882056613, 0.399976689948731, -1.274, 1.035, -1.058], a = 0.2, v = 0.2, t = 0.2)
movej(p[0.517308718343348, 0.00409512892493773, 0.399460535224844, -1.274, 1.035, -1.058], a = 0.2, v = 0.2, t = 0.2)
movej(p[0.517305190630384, 0.00409352107611909, 0.399586275473227, -1.274, 1.035, -1.058], a = 0.2, v = 0.2, t = 0.2)
movej(p[0.51730166291742, 0.00409191322730044, 0.39971201572161, -1.274, 1.035, -1.058], a = 0.2, v = 0.2, t = 0.2)
movej(p[0.517301253500812, 0.00409172662481434, 0.399726608787002, -1.274, 1.035, -1.058], a = 0.2, v = 0.2, t = 0.2)
movej(p[0.517297605206244, 0.00409006381772924, 0.399856646993001, -1.274, 1.035, -1.058], a = 0.2, v = 0.2, t = 0.2)
movej(p[0.517291912632859, 0.00408746927631282, 0.40005955057346, -1.274, 1.035, -1.058], a = 0.2, v = 0.2, t = 0.2)
movej(p[0.517296006798939, 0.00408933530117389, 0.399913619919534, -1.274, 1.035, -1.058], a = 0.2, v = 0.2, t = 0.2)
movej(p[0.517302414449275, 0.00409225575789138, 0.399685228450889, -1.274, 1.035, -1.058], a = 0.2, v = 0.2, t = 0.2)
movej(p[0.517295821720198, 0.00408925094662538, 0.399920216784711, -1.274, 1.035, -1.058], a = 0.2, v = 0.2, t = 0.2)
movej(p[0.517277434427745, 0.00408087045004044, 0.400575605344844, -1.274, 1.035, -1.058], a = 0.2, v = 0.2, t = 0.2)
movej(p[0.517251697265911, 0.00406914005540013, 0.401492969414526, -1.274, 1.035, -1.058], a = 0.2, v = 0.2, t = 0.2)
movej(p[0.517228021208234, 0.00405834906368645, 0.402336868394731, -1.274, 1.035, -1.058], a = 0.2, v = 0.2, t = 0.2)
movej(p[0.517200809024923, 0.00404594638885646, 0.403306807480826, -1.274, 1.035, -1.058], a = 0.2, v = 0.2, t = 0.2)
movej(p[0.517185282040278, 0.00403886955347583, 0.403860244488216, -1.274, 1.035, -1.058], a = 0.2, v = 0.2, t = 0.2)
movej(p[0.517177102120789, 0.00403514133805136, 0.404151805938561, -1.274, 1.035, -1.058], a = 0.2, v = 0.2, t = 0.2)
movej(p[0.517174463346625, 0.00403393864668543, 0.404245861243591, -1.274, 1.035, -1.058], a = 0.2, v = 0.2, t = 0.2)
movej(p[0.517177951800462, 0.004035528602115, 0.404121520330246, -1.274, 1.035, -1.058], a = 0.2, v = 0.2, t = 0.2)
movej(p[0.517199474214612, 0.00404533801362779, 0.403354384872106, -1.274, 1.035, -1.058], a = 0.2, v = 0.2, t = 0.2)
movej(p[0.517238694082274, 0.00406321350931742, 0.401956449169495, -1.274, 1.035, -1.058], a = 0.2, v = 0.2, t = 0.2)
movej(p[0.51727485454227, 0.00407969459875813, 0.400667561647318, -1.274, 1.035, -1.058], a = 0.2, v = 0.2, t = 0.2)
movej(p[0.517307938769259, 0.0040947736133546, 0.399488322020591, -1.274, 1.035, -1.058], a = 0.2, v = 0.2, t = 0.2)
movej(p[0.517321275655474, 0.00410085225324448, 0.399012947917802, -1.274, 1.035, -1.058], a = 0.2, v = 0.2, t = 0.2)
movej(p[0.517310058762106, 0.00409573985636485, 0.399412757928558, -1.274, 1.035, -1.058], a = 0.2, v = 0.2, t = 0.2)
movej(p[0.517272325132815, 0.00407854175326177, 0.400757718804744, -1.274, 1.035, -1.058], a = 0.2, v = 0.2, t = 0.2)
movej(p[0.517239524132383, 0.00406359182668651, 0.401926863228699, -1.274, 1.035, -1.058], a = 0.2, v = 0.2, t = 0.2)
movej(p[0.51721476844872, 0.00405230876677316, 0.40280924392244, -1.274, 1.035, -1.058], a = 0.2, v = 0.2, t = 0.2)
movej(p[0.517195926872085, 0.0040437212181146, 0.403480824788008, -1.274, 1.035, -1.058], a = 0.2, v = 0.2, t = 0.2)
movej(p[0.517175772918925, 0.00403453551902113, 0.404199183424835, -1.274, 1.035, -1.058], a = 0.2, v = 0.2, t = 0.2)
movej(p[0.517165327186976, 0.00402977459942697, 0.404571506497353, -1.274, 1.035, -1.058], a = 0.2, v = 0.2, t = 0.2)
movej(p[0.517158246523038, 0.0040265473988967, 0.404823886566643, -1.274, 1.035, -1.058], a = 0.2, v = 0.2, t = 0.2)
movej(p[0.517147626929241, 0.00402170723715091, 0.405202406694327, -1.274, 1.035, -1.058], a = 0.2, v = 0.2, t = 0.2)
movej(p[0.517141370706965, 0.0040188557977913, 0.405425400727826, -1.274, 1.035, -1.058], a = 0.2, v = 0.2, t = 0.2)
movej(p[0.517155145052021, 0.00402513382115949, 0.404934434034617, -1.274, 1.035, -1.058], a = 0.2, v = 0.2, t = 0.2)
movej(p[0.517183776172344, 0.00403818321419474, 0.403913918982161, -1.274, 1.035, -1.058], a = 0.2, v = 0.2, t = 0.2)
movej(p[0.51721163893547, 0.00405088240804375, 0.402920790915441, -1.274, 1.035, -1.058], a = 0.2, v = 0.2, t = 0.2)
movej(p[0.517235463616984, 0.00406174113901608, 0.402071594452593, -1.274, 1.035, -1.058], a = 0.2, v = 0.2, t = 0.2)
movej(p[0.517240166299529, 0.00406388451140787, 0.401903974105584, -1.274, 1.035, -1.058], a = 0.2, v = 0.2, t = 0.2)
movej(p[0.517228018404011, 0.00405834778558723, 0.402336968347233, -1.274, 1.035, -1.058], a = 0.2, v = 0.2, t = 0.2)
movej(p[0.517196221315536, 0.00404385541853269, 0.403470329775226, -1.274, 1.035, -1.058], a = 0.2, v = 0.2, t = 0.2)
movej(p[0.517178075186289, 0.00403558483848067, 0.404117122420128, -1.274, 1.035, -1.058], a = 0.2, v = 0.2, t = 0.2)
movej(p[0.517165686127564, 0.00402993819612712, 0.404558712577008, -1.274, 1.035, -1.058], a = 0.2, v = 0.2, t = 0.2)
movej(p[0.517157037902777, 0.00402599653813292, 0.404866966095302, -1.274, 1.035, -1.058], a = 0.2, v = 0.2, t = 0.2)
movej(p[0.517137125112825, 0.00401692075557236, 0.405576728816898, -1.274, 1.035, -1.058], a = 0.2, v = 0.2, t = 0.2)
movej(p[0.51712912466363, 0.00401327433849796, 0.40586189330707, -1.274, 1.035, -1.058], a = 0.2, v = 0.2, t = 0.2)
movej(p[0.517136384797863, 0.0040165833373783, 0.405603116277608, -1.274, 1.035, -1.058], a = 0.2, v = 0.2, t = 0.2)
movej(p[0.517152481039846, 0.00402391962690057, 0.405029388912172, -1.274, 1.035, -1.058], a = 0.2, v = 0.2, t = 0.2)
movej(p[0.517165282319403, 0.00402975414983945, 0.404573105737396, -1.274, 1.035, -1.058], a = 0.2, v = 0.2, t = 0.2)
movej(p[0.517183052682721, 0.00403785346459601, 0.403939706727854, -1.274, 1.035, -1.058], a = 0.2, v = 0.2, t = 0.2)
movej(p[0.517204533033521, 0.0040476437046205, 0.403174070557255, -1.274, 1.035, -1.058], a = 0.2, v = 0.2, t = 0.2)
movej(p[0.517208960902178, 0.00404966182328873, 0.403016245555509, -1.274, 1.035, -1.058], a = 0.2, v = 0.2, t = 0.2)
movej(p[0.517196462478743, 0.00404396533506561, 0.403461733859995, -1.274, 1.035, -1.058], a = 0.2, v = 0.2, t = 0.2)
movej(p[0.517178173334106, 0.00403562957195337, 0.404113624082533, -1.274, 1.035, -1.058], a = 0.2, v = 0.2, t = 0.2)
movej(p[0.517166053480822, 0.00403010562712493, 0.404545618799156, -1.274, 1.035, -1.058], a = 0.2, v = 0.2, t = 0.2)
movej(p[0.517148776660811, 0.00402223125783108, 0.405161426168224, -1.274, 1.035, -1.058], a = 0.2, v = 0.2, t = 0.2)
movej(p[0.517134483534437, 0.00401571678610721, 0.405670884074431, -1.274, 1.035, -1.058], a = 0.2, v = 0.2, t = 0.2)
movej(p[0.517125923081841, 0.00401181513261859, 0.40597600907939, -1.274, 1.035, -1.058], a = 0.2, v = 0.2, t = 0.2)
movej(p[0.517127114596339, 0.00401235819697713, 0.405933539260998, -1.274, 1.035, -1.058], a = 0.2, v = 0.2, t = 0.2)
movej(p[0.517123528835951, 0.00401072389150464, 0.406061348526186, -1.274, 1.035, -1.058], a = 0.2, v = 0.2, t = 0.2)
movej(p[0.51712792922322, 0.00401272948480052, 0.405904503058966, -1.274, 1.035, -1.058], a = 0.2, v = 0.2, t = 0.2)
movej(p[0.517148566344061, 0.00402213540038958, 0.405168922605926, -1.274, 1.035, -1.058], a = 0.2, v = 0.2, t = 0.2)
movej(p[0.517180910256088, 0.004036876996792, 0.404016070439909, -1.274, 1.035, -1.058], a = 0.2, v = 0.2, t = 0.2)
movej(p[0.517212811100827, 0.00405141665351767, 0.402879010769317, -1.274, 1.035, -1.058], a = 0.2, v = 0.2, t = 0.2)
movej(p[0.51724708992696, 0.00406704013838182, 0.401657191376444, -1.274, 1.035, -1.058], a = 0.2, v = 0.2, t = 0.2)
movej(p[0.517282268908786, 0.00408307389309556, 0.400403287230208, -1.274, 1.035, -1.058], a = 0.2, v = 0.2, t = 0.2)
movej(p[0.517299427951416, 0.00409089458222218, 0.399791677866253, -1.274, 1.035, -1.058], a = 0.2, v = 0.2, t = 0.2)
movej(p[0.517280519073421, 0.00408227635918234, 0.400465657591886, -1.274, 1.035, -1.058], a = 0.2, v = 0.2, t = 0.2)
movej(p[0.517247894739059, 0.00406740695285793, 0.401628505008172, -1.274, 1.035, -1.058], a = 0.2, v = 0.2, t = 0.2)
movej(p[0.517216686537486, 0.00405318298663958, 0.4027408764106, -1.274, 1.035, -1.058], a = 0.2, v = 0.2, t = 0.2)
movej(p[0.5171977187708, 0.00404453792351612, 0.40341695513879, -1.274, 1.035, -1.058], a = 0.2, v = 0.2, t = 0.2)
movej(p[0.517172668643686, 0.00403312066318469, 0.404309830845312, -1.274, 1.035, -1.058], a = 0.2, v = 0.2, t = 0.2)
movej(p[0.517158695198772, 0.00402675189477189, 0.404807894166213, -1.274, 1.035, -1.058], a = 0.2, v = 0.2, t = 0.2)
movej(p[0.517149099146496, 0.00402237823924136, 0.405149931630415, -1.274, 1.035, -1.058], a = 0.2, v = 0.2, t = 0.2)
movej(p[0.517144822705899, 0.00402042913793101, 0.405302359197016, -1.274, 1.035, -1.058], a = 0.2, v = 0.2, t = 0.2)
movej(p[0.517139817167234, 0.00401814773082347, 0.405480774414316, -1.274, 1.035, -1.058], a = 0.2, v = 0.2, t = 0.2)
movej(p[0.517149096342273, 0.00402237696114214, 0.405150031582918, -1.274, 1.035, -1.058], a = 0.2, v = 0.2, t = 0.2)
movej(p[0.517178066773619, 0.00403558100418301, 0.404117422277636, -1.274, 1.035, -1.058], a = 0.2, v = 0.2, t = 0.2)
movej(p[0.517215407811642, 0.0040526001733953, 0.402786454751827, -1.274, 1.035, -1.058], a = 0.2, v = 0.2, t = 0.2)
movej(p[0.517249753939135, 0.00406825433264073, 0.401562236498889, -1.274, 1.035, -1.058], a = 0.2, v = 0.2, t = 0.2)
movej(p[0.517285395617813, 0.00408449897372576, 0.40029184018971, -1.274, 1.035, -1.058], a = 0.2, v = 0.2, t = 0.2)
movej(p[0.517319480952535, 0.00410003426974374, 0.399076917519523, -1.274, 1.035, -1.058], a = 0.2, v = 0.2, t = 0.2)
movej(p[0.517334576086785, 0.0041069142778445, 0.398538873197547, -1.274, 1.035, -1.058], a = 0.2, v = 0.2, t = 0.2)
movej(p[0.517319079948597, 0.00409985150155529, 0.399091210727407, -1.274, 1.035, -1.058], a = 0.2, v = 0.2, t = 0.2)
movej(p[0.517285176888392, 0.00408439928198661, 0.40029963648492, -1.274, 1.035, -1.058], a = 0.2, v = 0.2, t = 0.2)
movej(p[0.517247754527892, 0.00406734304789694, 0.401633502633307, -1.274, 1.035, -1.058], a = 0.2, v = 0.2, t = 0.2)
movej(p[0.517217140821667, 0.00405339003871321, 0.402724684105165, -1.274, 1.035, -1.058], a = 0.2, v = 0.2, t = 0.2)
movej(p[0.517188952768633, 0.00404054258535469, 0.403729406662196, -1.274, 1.035, -1.058], a = 0.2, v = 0.2, t = 0.2)
movej(p[0.51717293224068, 0.00403324080451136, 0.40430043531006, -1.274, 1.035, -1.058], a = 0.2, v = 0.2, t = 0.2)
movej(p[0.517166704060637, 0.00403040214614394, 0.404522429818532, -1.274, 1.035, -1.058], a = 0.2, v = 0.2, t = 0.2)
movej(p[0.517154026166908, 0.00402462385957074, 0.40497431508319, -1.274, 1.035, -1.058], a = 0.2, v = 0.2, t = 0.2)
movej(p[0.517142217582415, 0.00401924178375571, 0.405395215072014, -1.274, 1.035, -1.058], a = 0.2, v = 0.2, t = 0.2)
movej(p[0.517146303335824, 0.00402110397431912, 0.405249584275596, -1.274, 1.035, -1.058], a = 0.2, v = 0.2, t = 0.2)
movej(p[0.517167873421771, 0.00403093511351865, 0.404480749624911, -1.274, 1.035, -1.058], a = 0.2, v = 0.2, t = 0.2)
movej(p[0.517190811968709, 0.00404138996513749, 0.403663138152913, -1.274, 1.035, -1.058], a = 0.2, v = 0.2, t = 0.2)
movej(p[0.51720946566238, 0.00404989188114832, 0.402998254105025, -1.274, 1.035, -1.058], a = 0.2, v = 0.2, t = 0.2)
movej(p[0.517224058840652, 0.00405654310948872, 0.40247810128103, -1.274, 1.035, -1.058], a = 0.2, v = 0.2, t = 0.2)
movej(p[0.517229210198931, 0.00405889097775569, 0.40229448853359, -1.274, 1.035, -1.058], a = 0.2, v = 0.2, t = 0.2)
movej(p[0.517212648455873, 0.00405134252376291, 0.402884808014473, -1.274, 1.035, -1.058], a = 0.2, v = 0.2, t = 0.2)
movej(p[0.517189897791899, 0.0040409733047918, 0.40369572266879, -1.274, 1.035, -1.058], a = 0.2, v = 0.2, t = 0.2)
movej(p[0.517173313615054, 0.00403341462600527, 0.404286841769694, -1.274, 1.035, -1.058], a = 0.2, v = 0.2, t = 0.2)
movej(p[0.517160649742442, 0.00402764272992816, 0.404738227271838, -1.274, 1.035, -1.058], a = 0.2, v = 0.2, t = 0.2)
movej(p[0.517141724039106, 0.00401901683829301, 0.405412806712488, -1.274, 1.035, -1.058], a = 0.2, v = 0.2, t = 0.2)
movej(p[0.51712899847358, 0.00401321682403307, 0.405866391169691, -1.274, 1.035, -1.058], a = 0.2, v = 0.2, t = 0.2)
movej(p[0.517123890580763, 0.004010888766304, 0.406048454653339, -1.274, 1.035, -1.058], a = 0.2, v = 0.2, t = 0.2)
movej(p[0.517125045359935, 0.00401141508756276, 0.406007294212732, -1.274, 1.035, -1.058], a = 0.2, v = 0.2, t = 0.2)
movej(p[0.517123199900553, 0.00401057397046614, 0.406073072954752, -1.274, 1.035, -1.058], a = 0.2, v = 0.2, t = 0.2)
movej(p[0.517139382512616, 0.00401794962544438, 0.405496267052233, -1.274, 1.035, -1.058], a = 0.2, v = 0.2, t = 0.2)
movej(p[0.51716539729256, 0.00402980655190747, 0.404569007684785, -1.274, 1.035, -1.058], a = 0.2, v = 0.2, t = 0.2)
movej(p[0.517190910116526, 0.00404143469861019, 0.403659639815319, -1.274, 1.035, -1.058], a = 0.2, v = 0.2, t = 0.2)
movej(p[0.517202786002379, 0.0040468474488065, 0.403236340966431, -1.274, 1.035, -1.058], a = 0.2, v = 0.2, t = 0.2)
movej(p[0.517207132548559, 0.00404882850259736, 0.403081414587262, -1.274, 1.035, -1.058], a = 0.2, v = 0.2, t = 0.2)
movej(p[0.517200295852052, 0.00404571249669922, 0.403325098788819, -1.274, 1.035, -1.058], a = 0.2, v = 0.2, t = 0.2)
movej(p[0.517179740894954, 0.0040363440294173, 0.40405775063353, -1.274, 1.035, -1.058], a = 0.2, v = 0.2, t = 0.2)
movej(p[0.517157823085313, 0.0040263544059145, 0.404838979394549, -1.274, 1.035, -1.058], a = 0.2, v = 0.2, t = 0.2)
movej(p[0.517143729058796, 0.00401993067923524, 0.405341340673065, -1.274, 1.035, -1.058], a = 0.2, v = 0.2, t = 0.2)
movej(p[0.517137186805739, 0.0040169488737552, 0.405574529861839, -1.274, 1.035, -1.058], a = 0.2, v = 0.2, t = 0.2)
movej(p[0.517122867039243, 0.00401042226008874, 0.406084937316821, -1.274, 1.035, -1.058], a = 0.2, v = 0.2, t = 0.2)
movej(p[0.517113502335392, 0.00400615404774386, 0.406418728699552, -1.274, 1.035, -1.058], a = 0.2, v = 0.2, t = 0.2)
movej(p[0.517114103000032, 0.00400642781659676, 0.406397318873476, -1.274, 1.035, -1.058], a = 0.2, v = 0.2, t = 0.2)
movej(p[0.517126585158972, 0.00401211689184441, 0.405952410293505, -1.274, 1.035, -1.058], a = 0.2, v = 0.2, t = 0.2)
movej(p[0.517136435273883, 0.00401660634316426, 0.405601317132559, -1.274, 1.035, -1.058], a = 0.2, v = 0.2, t = 0.2)
movej(p[0.517154494472206, 0.00402483730214047, 0.404957623015241, -1.274, 1.035, -1.058], a = 0.2, v = 0.2, t = 0.2)
movej(p[0.517174698901385, 0.0040340460070199, 0.404237465233365, -1.274, 1.035, -1.058], a = 0.2, v = 0.2, t = 0.2)
movej(p[0.517186975791177, 0.00403964152540466, 0.403799873176592, -1.274, 1.035, -1.058], a = 0.2, v = 0.2, t = 0.2)
movej(p[0.517177463865601, 0.00403530621285073, 0.404138912065714, -1.274, 1.035, -1.058], a = 0.2, v = 0.2, t = 0.2)
movej(p[0.517160961011233, 0.00402778459894157, 0.40472713254404, -1.274, 1.035, -1.058], a = 0.2, v = 0.2, t = 0.2)
movej(p[0.517150218031609, 0.00402288820083011, 0.405110050581842, -1.274, 1.035, -1.058], a = 0.2, v = 0.2, t = 0.2)
movej(p[0.51713657548505, 0.00401667024812526, 0.405596319507425, -1.274, 1.035, -1.058], a = 0.2, v = 0.2, t = 0.2)
movej(p[0.517123077916838, 0.00401051837315007, 0.406077420888619, -1.274, 1.035, -1.058], a = 0.2, v = 0.2, t = 0.2)
movej(p[0.517112452714595, 0.00400567565520584, 0.406456140921308, -1.274, 1.035, -1.058], a = 0.2, v = 0.2, t = 0.2)
movej(p[0.517109964246801, 0.0040045414699581, 0.406544838772194, -1.274, 1.035, -1.058], a = 0.2, v = 0.2, t = 0.2)
