def moving():
set_payload_mass(0)
set_tcp(p[0,0,0,0,0,0])
movej(p[0.3841, 0.2516, 0.298, -1.478, 0.646, -0.631], a = 0.2, v = 0.2, t = 0.2)
movej(p[0.38410391134619, 0.251599642107667, 0.29839998071614, -1.478, 0.646, -0.631], a = 0.2, v = 0.2, t = 0.2)
movej(p[0.3841, 0.2516, 0.298, -1.478, 0.646, -0.631], a = 0.2, v = 0.2, t = 0.2)
movej(p[0.38410391134619, 0.251599642107667, 0.29839998071614, -1.478, 0.646, -0.631], a = 0.2, v = 0.2, t = 0.2)
movej(p[0.3841, 0.2516, 0.298, -1.478, 0.646, -0.631], a = 0.2, v = 0.2, t = 0.2)
movej(p[0.38410391134619, 0.251599642107667, 0.29839998071614, -1.478, 0.646, -0.631], a = 0.2, v = 0.2, t = 0.2)
movej(p[0.3841, 0.2516, 0.298, -1.478, 0.646, -0.631], a = 0.2, v = 0.2, t = 0.2)
movej(p[0.38410391134619, 0.251599642107667, 0.29839998071614, -1.478, 0.646, -0.631], a = 0.2, v = 0.2, t = 0.2)
movej(p[0.3841, 0.2516, 0.298, -1.478, 0.646, -0.631], a = 0.2, v = 0.2, t = 0.2)
movej(p[0.38410391134619, 0.251599642107667, 0.29839998071614, -1.478, 0.646, -0.631], a = 0.2, v = 0.2, t = 0.2)
movej(p[0.3841, 0.2516, 0.298, -1.478, 0.646, -0.631], a = 0.2, v = 0.2, t = 0.2)
movej(p[0.38410073230179, 0.251599932993608, 0.298074886389579, -1.478, 0.646, -0.631], a = 0.2, v = 0.2, t = 0.2)
movej(p[0.384103244363881, 0.251599703137257, 0.29833177400452, -1.478, 0.646, -0.631], a = 0.2, v = 0.2, t = 0.2)
movej(p[0.384103494983388, 0.251599680205305, 0.298357402768907, -1.478, 0.646, -0.631], a = 0.2, v = 0.2, t = 0.2)
movej(p[0.384103395048493, 0.251599689349455, 0.29834718326161, -1.478, 0.646, -0.631], a = 0.2, v = 0.2, t = 0.2)
movej(p[0.384102819787252, 0.25159974198647, 0.298288356097783, -1.478, 0.646, -0.631], a = 0.2, v = 0.2, t = 0.2)
movej(p[0.38410150684612, 0.251599862121979, 0.298154092570893, -1.478, 0.646, -0.631], a = 0.2, v = 0.2, t = 0.2)
movej(p[0.384096803256759, 0.251600292505404, 0.297673095760699, -1.478, 0.646, -0.631], a = 0.2, v = 0.2, t = 0.2)
movej(p[0.384088049859554, 0.251601093450552, 0.296777958917013, -1.478, 0.646, -0.631], a = 0.2, v = 0.2, t = 0.2)
movej(p[0.384078756501008, 0.251601943802736, 0.295827604735463, -1.478, 0.646, -0.631], a = 0.2, v = 0.2, t = 0.2)
movej(p[0.384069399583086, 0.25160279997067, 0.294870750867277, -1.478, 0.646, -0.631], a = 0.2, v = 0.2, t = 0.2)
movej(p[0.384061098728635, 0.251603559507675, 0.294021891792448, -1.478, 0.646, -0.631], a = 0.2, v = 0.2, t = 0.2)
movej(p[0.384056001266714, 0.251604025930858, 0.293500616924138, -1.478, 0.646, -0.631], a = 0.2, v = 0.2, t = 0.2)
movej(p[0.384057782884903, 0.2516038629109, 0.29368280814034, -1.478, 0.646, -0.631], a = 0.2, v = 0.2, t = 0.2)
movej(p[0.384066515943108, 0.251603063826793, 0.294575865084302, -1.478, 0.646, -0.631], a = 0.2, v = 0.2, t = 0.2)
movej(p[0.384077243787869, 0.251602082217596, 0.295672912193496, -1.478, 0.646, -0.631], a = 0.2, v = 0.2, t = 0.2)
movej(p[0.384088757813215, 0.251601028672039, 0.296850355426634, -1.478, 0.646, -0.631], a = 0.2, v = 0.2, t = 0.2)
movej(p[0.384097705408758, 0.251600209957537, 0.297765351312876, -1.478, 0.646, -0.631], a = 0.2, v = 0.2, t = 0.2)
movej(p[0.384102702153515, 0.251599752750081, 0.298276326677745, -1.478, 0.646, -0.631], a = 0.2, v = 0.2, t = 0.2)
movej(p[0.384103294624679, 0.25159969853834, 0.298336913756723, -1.478, 0.646, -0.631], a = 0.2, v = 0.2, t = 0.2)
movej(p[0.38410276248603, 0.251599747229592, 0.298282496380292, -1.478, 0.646, -0.631], a = 0.2, v = 0.2, t = 0.2)
movej(p[0.384099552688671, 0.251600040929462, 0.29795425720535, -1.478, 0.646, -0.631], a = 0.2, v = 0.2, t = 0.2)
movej(p[0.384092723331549, 0.251600665822897, 0.297255875875693, -1.478, 0.646, -0.631], a = 0.2, v = 0.2, t = 0.2)
movej(p[0.384083656439947, 0.251601495453115, 0.296328680577608, -1.478, 0.646, -0.631], a = 0.2, v = 0.2, t = 0.2)
movej(p[0.384073539743028, 0.251602421141635, 0.295294130455311, -1.478, 0.646, -0.631], a = 0.2, v = 0.2, t = 0.2)
movej(p[0.384065300492279, 0.251603175041836, 0.294451571076762, -1.478, 0.646, -0.631], a = 0.2, v = 0.2, t = 0.2)
movej(p[0.384057989208415, 0.25160384403208, 0.293703907123117, -1.478, 0.646, -0.631], a = 0.2, v = 0.2, t = 0.2)
movej(p[0.384056553744363, 0.251603975378566, 0.293557114200293, -1.478, 0.646, -0.631], a = 0.2, v = 0.2, t = 0.2)
movej(p[0.384060698793487, 0.251603596102166, 0.293980993764223, -1.478, 0.646, -0.631], a = 0.2, v = 0.2, t = 0.2)
movej(p[0.384070237589007, 0.251602723292238, 0.29495644673571, -1.478, 0.646, -0.631], a = 0.2, v = 0.2, t = 0.2)
movej(p[0.38408174672517, 0.251601670194047, 0.296133389992953, -1.478, 0.646, -0.631], a = 0.2, v = 0.2, t = 0.2)
movej(p[0.384092464498215, 0.251600689506422, 0.297229407151802, -1.478, 0.646, -0.631], a = 0.2, v = 0.2, t = 0.2)
movej(p[0.384098931029086, 0.251600097811975, 0.297890685270279, -1.478, 0.646, -0.631], a = 0.2, v = 0.2, t = 0.2)
movej(p[0.384101132334722, 0.25159989639017, 0.298115794417323, -1.478, 0.646, -0.631], a = 0.2, v = 0.2, t = 0.2)
movej(p[0.384101485235932, 0.251599864099334, 0.298151882677436, -1.478, 0.646, -0.631], a = 0.2, v = 0.2, t = 0.2)
movej(p[0.384100358474878, 0.251599967199168, 0.298036658232634, -1.478, 0.646, -0.631], a = 0.2, v = 0.2, t = 0.2)
movej(p[0.384096063132277, 0.251600360227581, 0.297597409409687, -1.478, 0.646, -0.631], a = 0.2, v = 0.2, t = 0.2)
movej(p[0.384088758791051, 0.251601028582566, 0.296850455421813, -1.478, 0.646, -0.631], a = 0.2, v = 0.2, t = 0.2)
movej(p[0.384079551482121, 0.251601871061119, 0.295908900816019, -1.478, 0.646, -0.631], a = 0.2, v = 0.2, t = 0.2)
movej(p[0.384069793651215, 0.251602763913018, 0.294911048924428, -1.478, 0.646, -0.631], a = 0.2, v = 0.2, t = 0.2)
movej(p[0.384060993122288, 0.251603569170768, 0.294011092313112, -1.478, 0.646, -0.631], a = 0.2, v = 0.2, t = 0.2)
movej(p[0.384057021150233, 0.251603932610432, 0.293604911895872, -1.478, 0.646, -0.631], a = 0.2, v = 0.2, t = 0.2)
movej(p[0.384057960851155, 0.251603846626799, 0.293701007262925, -1.478, 0.646, -0.631], a = 0.2, v = 0.2, t = 0.2)
movej(p[0.384063120894615, 0.251603374477338, 0.294228681822693, -1.478, 0.646, -0.631], a = 0.2, v = 0.2, t = 0.2)
movej(p[0.384072974553503, 0.251602472857077, 0.295236333241829, -1.478, 0.646, -0.631], a = 0.2, v = 0.2, t = 0.2)
movej(p[0.384084812242746, 0.25160138969593, 0.296446874879227, -1.478, 0.646, -0.631], a = 0.2, v = 0.2, t = 0.2)
movej(p[0.384094852863982, 0.251600470968416, 0.297473645376595, -1.478, 0.646, -0.631], a = 0.2, v = 0.2, t = 0.2)
movej(p[0.384099163216375, 0.251600076566591, 0.297914429125541, -1.478, 0.646, -0.631], a = 0.2, v = 0.2, t = 0.2)
movej(p[0.384101221415631, 0.251599888239172, 0.298124903978133, -1.478, 0.646, -0.631], a = 0.2, v = 0.2, t = 0.2)
movej(p[0.384101547035202, 0.251599858444635, 0.298158202372751, -1.478, 0.646, -0.631], a = 0.2, v = 0.2, t = 0.2)
movej(p[0.384099233161023, 0.251600070166581, 0.297921581780697, -1.478, 0.646, -0.631], a = 0.2, v = 0.2, t = 0.2)
movej(p[0.384093525059734, 0.251600592463916, 0.297337861922984, -1.478, 0.646, -0.631], a = 0.2, v = 0.2, t = 0.2)
movej(p[0.38408420207274, 0.251601445527135, 0.29638447788751, -1.478, 0.646, -0.631], a = 0.2, v = 0.2, t = 0.2)
movej(p[0.384074072663946, 0.251602372378805, 0.295348627827885, -1.478, 0.646, -0.631], a = 0.2, v = 0.2, t = 0.2)
movej(p[0.384064208248856, 0.25160327498327, 0.29433987646178, -1.478, 0.646, -0.631], a = 0.2, v = 0.2, t = 0.2)
movej(p[0.384057852311298, 0.251603856558311, 0.293689907798052, -1.478, 0.646, -0.631], a = 0.2, v = 0.2, t = 0.2)
movej(p[0.384056474539603, 0.251603982625886, 0.293549014590791, -1.478, 0.646, -0.631], a = 0.2, v = 0.2, t = 0.2)
movej(p[0.384059421738957, 0.251603712954013, 0.293850400060403, -1.478, 0.646, -0.631], a = 0.2, v = 0.2, t = 0.2)
movej(p[0.384068885241062, 0.251602847033512, 0.294818153403104, -1.478, 0.646, -0.631], a = 0.2, v = 0.2, t = 0.2)
movej(p[0.384081406438052, 0.25160170133068, 0.296098591670648, -1.478, 0.646, -0.631], a = 0.2, v = 0.2, t = 0.2)
movej(p[0.384092899439911, 0.251600649708795, 0.297273885007437, -1.478, 0.646, -0.631], a = 0.2, v = 0.2, t = 0.2)
movej(p[0.384098527769294, 0.251600134710674, 0.297849447258445, -1.478, 0.646, -0.631], a = 0.2, v = 0.2, t = 0.2)
movej(p[0.384101090972236, 0.251599900174881, 0.298111564621249, -1.478, 0.646, -0.631], a = 0.2, v = 0.2, t = 0.2)
movej(p[0.384101463039042, 0.251599866130373, 0.298149612786872, -1.478, 0.646, -0.631], a = 0.2, v = 0.2, t = 0.2)
movej(p[0.384099031384451, 0.251600088629352, 0.297900947775503, -1.478, 0.646, -0.631], a = 0.2, v = 0.2, t = 0.2)
movej(p[0.384094379395526, 0.251600514291283, 0.297425227710906, -1.478, 0.646, -0.631], a = 0.2, v = 0.2, t = 0.2)
movej(p[0.384085964134199, 0.251601284296638, 0.296564669200131, -1.478, 0.646, -0.631], a = 0.2, v = 0.2, t = 0.2)
movej(p[0.384076241505408, 0.251602173927506, 0.295570417134985, -1.478, 0.646, -0.631], a = 0.2, v = 0.2, t = 0.2)
movej(p[0.384067036152151, 0.251603016227113, 0.294629062519549, -1.478, 0.646, -0.631], a = 0.2, v = 0.2, t = 0.2)
movej(p[0.384061034191423, 0.251603565412898, 0.294015292110632, -1.478, 0.646, -0.631], a = 0.2, v = 0.2, t = 0.2)
movej(p[0.384057665544518, 0.25160387364767, 0.293670808718856, -1.478, 0.646, -0.631], a = 0.2, v = 0.2, t = 0.2)
movej(p[0.38405865315943, 0.251603783279856, 0.293771803849681, -1.478, 0.646, -0.631], a = 0.2, v = 0.2, t = 0.2)
movej(p[0.384065928263343, 0.251603117600116, 0.294515767981702, -1.478, 0.646, -0.631], a = 0.2, v = 0.2, t = 0.2)
movej(p[0.384078103306194, 0.251602003570755, 0.295760807955868, -1.478, 0.646, -0.631], a = 0.2, v = 0.2, t = 0.2)
movej(p[0.384089812898849, 0.251600932130582, 0.296958250224813, -1.478, 0.646, -0.631], a = 0.2, v = 0.2, t = 0.2)
movej(p[0.384096931353347, 0.25160028078443, 0.297686195129152, -1.478, 0.646, -0.631], a = 0.2, v = 0.2, t = 0.2)
movej(p[0.384100635417745, 0.251599941858601, 0.298064978867241, -1.478, 0.646, -0.631], a = 0.2, v = 0.2, t = 0.2)
movej(p[0.384101205379112, 0.25159988970653, 0.298123264057197, -1.478, 0.646, -0.631], a = 0.2, v = 0.2, t = 0.2)
movej(p[0.3840993135783, 0.251600062808315, 0.297929805384221, -1.478, 0.646, -0.631], a = 0.2, v = 0.2, t = 0.2)
movej(p[0.384094240151601, 0.25160052703225, 0.297410988397412, -1.478, 0.646, -0.631], a = 0.2, v = 0.2, t = 0.2)
movej(p[0.38408600618117, 0.251601280449296, 0.296568968992829, -1.478, 0.646, -0.631], a = 0.2, v = 0.2, t = 0.2)
movej(p[0.384076125142859, 0.251602184574803, 0.29555851770868, -1.478, 0.646, -0.631], a = 0.2, v = 0.2, t = 0.2)
movej(p[0.384067198473018, 0.251603001374581, 0.294645661719269, -1.478, 0.646, -0.631], a = 0.2, v = 0.2, t = 0.2)
movej(p[0.384060804399835, 0.251603586439073, 0.293991793243559, -1.478, 0.646, -0.631], a = 0.2, v = 0.2, t = 0.2)
movej(p[0.384057274409899, 0.251603909436904, 0.293630810647242, -1.478, 0.646, -0.631], a = 0.2, v = 0.2, t = 0.2)
movej(p[0.384056129363302, 0.251604014209884, 0.293513716292592, -1.478, 0.646, -0.631], a = 0.2, v = 0.2, t = 0.2)
movej(p[0.384062611441774, 0.251603421092815, 0.294176584334415, -1.478, 0.646, -0.631], a = 0.2, v = 0.2, t = 0.2)
movej(p[0.384073916210099, 0.251602386694498, 0.29533262859924, -1.478, 0.646, -0.631], a = 0.2, v = 0.2, t = 0.2)
movej(p[0.384086836364399, 0.251601204486648, 0.29665386489983, -1.478, 0.646, -0.631], a = 0.2, v = 0.2, t = 0.2)
movej(p[0.384096026658973, 0.251600363564927, 0.297593679589509, -1.478, 0.646, -0.631], a = 0.2, v = 0.2, t = 0.2)
movej(p[0.384101368286681, 0.251599874800314, 0.298139923254024, -1.478, 0.646, -0.631], a = 0.2, v = 0.2, t = 0.2)
movej(p[0.384102612779255, 0.251599760927921, 0.298267187118382, -1.478, 0.646, -0.631], a = 0.2, v = 0.2, t = 0.2)
movej(p[0.384101872263637, 0.251599828685887, 0.298191460769298, -1.478, 0.646, -0.631], a = 0.2, v = 0.2, t = 0.2)
movej(p[0.384099358069863, 0.25160005873729, 0.297934355164867, -1.478, 0.646, -0.631], a = 0.2, v = 0.2, t = 0.2)
movej(p[0.384093159153298, 0.251600625944744, 0.297300443726989, -1.478, 0.646, -0.631], a = 0.2, v = 0.2, t = 0.2)
movej(p[0.38408316849951, 0.251601540100184, 0.296278782983269, -1.478, 0.646, -0.631], a = 0.2, v = 0.2, t = 0.2)
movej(p[0.384073017578311, 0.251602468920262, 0.295240733029706, -1.478, 0.646, -0.631], a = 0.2, v = 0.2, t = 0.2)
movej(p[0.384064346123809, 0.251603262367565, 0.294353975782024, -1.478, 0.646, -0.631], a = 0.2, v = 0.2, t = 0.2)
movej(p[0.384057492467449, 0.251603889484406, 0.293653109572167, -1.478, 0.646, -0.631], a = 0.2, v = 0.2, t = 0.2)
movej(p[0.384054601004778, 0.251604154056314, 0.29335742382776, -1.478, 0.646, -0.631], a = 0.2, v = 0.2, t = 0.2)
movej(p[0.384057941294424, 0.251603848416261, 0.293699007359344, -1.478, 0.646, -0.631], a = 0.2, v = 0.2, t = 0.2)
movej(p[0.384068762033657, 0.251602858307121, 0.294805554010546, -1.478, 0.646, -0.631], a = 0.2, v = 0.2, t = 0.2)
movej(p[0.384081483687139, 0.251601694262306, 0.296106491289792, -1.478, 0.646, -0.631], a = 0.2, v = 0.2, t = 0.2)
movej(p[0.384092620560928, 0.251600675226518, 0.297245366382376, -1.478, 0.646, -0.631], a = 0.2, v = 0.2, t = 0.2)
movej(p[0.384100020362468, 0.251599998136813, 0.298002082299608, -1.478, 0.646, -0.631], a = 0.2, v = 0.2, t = 0.2)
movej(p[0.38410329599365, 0.251599698413078, 0.298337053749973, -1.478, 0.646, -0.631], a = 0.2, v = 0.2, t = 0.2)
movej(p[0.38410315283838, 0.251599711511937, 0.298322414455763, -1.478, 0.646, -0.631], a = 0.2, v = 0.2, t = 0.2)
movej(p[0.384102731781962, 0.251599750039047, 0.29827935653167, -1.478, 0.646, -0.631], a = 0.2, v = 0.2, t = 0.2)
movej(p[0.384100242014545, 0.251599977855412, 0.298024748806811, -1.478, 0.646, -0.631], a = 0.2, v = 0.2, t = 0.2)
movej(p[0.384094581220989, 0.251600495824039, 0.297445866715859, -1.478, 0.646, -0.631], a = 0.2, v = 0.2, t = 0.2)
movej(p[0.384086838320072, 0.251601204307702, 0.296654064890188, -1.478, 0.646, -0.631], a = 0.2, v = 0.2, t = 0.2)
movej(p[0.384076947503395, 0.25160210932794, 0.295642613654248, -1.478, 0.646, -0.631], a = 0.2, v = 0.2, t = 0.2)
movej(p[0.384068411968173, 0.251602890338484, 0.294769755736451, -1.478, 0.646, -0.631], a = 0.2, v = 0.2, t = 0.2)
movej(p[0.384061824283354, 0.251603493118647, 0.294096088215292, -1.478, 0.646, -0.631], a = 0.2, v = 0.2, t = 0.2)
movej(p[0.384061424348206, 0.251603529713138, 0.294055190187067, -1.478, 0.646, -0.631], a = 0.2, v = 0.2, t = 0.2)
movej(p[0.384066383935174, 0.251603075905659, 0.294562365735133, -1.478, 0.646, -0.631], a = 0.2, v = 0.2, t = 0.2)
movej(p[0.38407568022723, 0.251602225285056, 0.295513019902219, -1.478, 0.646, -0.631], a = 0.2, v = 0.2, t = 0.2)
movej(p[0.384086922414015, 0.251601196613017, 0.296662664475585, -1.478, 0.646, -0.631], a = 0.2, v = 0.2, t = 0.2)
movej(p[0.384095578907618, 0.251600404534652, 0.297547891797029, -1.478, 0.646, -0.631], a = 0.2, v = 0.2, t = 0.2)
movej(p[0.384100666434721, 0.251599939020515, 0.29806815071432, -1.478, 0.646, -0.631], a = 0.2, v = 0.2, t = 0.2)
movej(p[0.384101872850339, 0.251599828632203, 0.298191520766406, -1.478, 0.646, -0.631], a = 0.2, v = 0.2, t = 0.2)
movej(p[0.384102491136388, 0.251599772058373, 0.29825474771811, -1.478, 0.646, -0.631], a = 0.2, v = 0.2, t = 0.2)
movej(p[0.384101880184113, 0.251599827961155, 0.298192270730249, -1.478, 0.646, -0.631], a = 0.2, v = 0.2, t = 0.2)
movej(p[0.384099490253808, 0.251600046642318, 0.297947872513169, -1.478, 0.646, -0.631], a = 0.2, v = 0.2, t = 0.2)
movej(p[0.384094608307061, 0.251600493345634, 0.297448636582319, -1.478, 0.646, -0.631], a = 0.2, v = 0.2, t = 0.2)
movej(p[0.384086987929064, 0.25160119061832, 0.29666936415258, -1.478, 0.646, -0.631], a = 0.2, v = 0.2, t = 0.2)
movej(p[0.384077246721379, 0.251602081949176, 0.295673212179033, -1.478, 0.646, -0.631], a = 0.2, v = 0.2, t = 0.2)
movej(p[0.384069227483854, 0.251602815717933, 0.294853151715767, -1.478, 0.646, -0.631], a = 0.2, v = 0.2, t = 0.2)
movej(p[0.384064423372896, 0.251603255299191, 0.294361875401167, -1.478, 0.646, -0.631], a = 0.2, v = 0.2, t = 0.2)
movej(p[0.384062783541007, 0.251603405345552, 0.294194183485926, -1.478, 0.646, -0.631], a = 0.2, v = 0.2, t = 0.2)
movej(p[0.384063998013998, 0.251603294219983, 0.294318377498287, -1.478, 0.646, -0.631], a = 0.2, v = 0.2, t = 0.2)
movej(p[0.384070975855601, 0.25160265574006, 0.295031943095881, -1.478, 0.646, -0.631], a = 0.2, v = 0.2, t = 0.2)
movej(p[0.384081274430118, 0.251601713409546, 0.296085092321479, -1.478, 0.646, -0.631], a = 0.2, v = 0.2, t = 0.2)
movej(p[0.384091421146619, 0.251600784974202, 0.297122712295772, -1.478, 0.646, -0.631], a = 0.2, v = 0.2, t = 0.2)
movej(p[0.384097263035504, 0.25160025043516, 0.297720113493881, -1.478, 0.646, -0.631], a = 0.2, v = 0.2, t = 0.2)
movej(p[0.384100875026813, 0.251599919934117, 0.298089481685911, -1.478, 0.646, -0.631], a = 0.2, v = 0.2, t = 0.2)
movej(p[0.384102095112586, 0.251599808294972, 0.298214249670601, -1.478, 0.646, -0.631], a = 0.2, v = 0.2, t = 0.2)
movej(p[0.384101589375524, 0.25159985457045, 0.298162532164004, -1.478, 0.646, -0.631], a = 0.2, v = 0.2, t = 0.2)
movej(p[0.384101059681466, 0.25159990303802, 0.29810836477552, -1.478, 0.646, -0.631], a = 0.2, v = 0.2, t = 0.2)
movej(p[0.384100351278001, 0.25159996785769, 0.298035922268117, -1.478, 0.646, -0.631], a = 0.2, v = 0.2, t = 0.2)
movej(p[0.384098657919339, 0.251600122801807, 0.297862756616774, -1.478, 0.646, -0.631], a = 0.2, v = 0.2, t = 0.2)
movej(p[0.384092899439911, 0.251600649708795, 0.297273885007437, -1.478, 0.646, -0.631], a = 0.2, v = 0.2, t = 0.2)
movej(p[0.384086808984976, 0.251601206991894, 0.296651065034817, -1.478, 0.646, -0.631], a = 0.2, v = 0.2, t = 0.2)
movej(p[0.384080026710683, 0.2516018275772, 0.29595749847303, -1.478, 0.646, -0.631], a = 0.2, v = 0.2, t = 0.2)
movej(p[0.384074082442312, 0.251602371484074, 0.295349627779676, -1.478, 0.646, -0.631], a = 0.2, v = 0.2, t = 0.2)
movej(p[0.384068406101154, 0.251602890875323, 0.294769155765377, -1.478, 0.646, -0.631], a = 0.2, v = 0.2, t = 0.2)
movej(p[0.384065920440651, 0.251603118315901, 0.29451496802027, -1.478, 0.646, -0.631], a = 0.2, v = 0.2, t = 0.2)
movej(p[0.384066843518351, 0.25160303385331, 0.294609363469279, -1.478, 0.646, -0.631], a = 0.2, v = 0.2, t = 0.2)
movej(p[0.384071400236662, 0.251602616908742, 0.295075341003583, -1.478, 0.646, -0.631], a = 0.2, v = 0.2, t = 0.2)
movej(p[0.384080684794679, 0.251601767361815, 0.29602479522852, -1.478, 0.646, -0.631], a = 0.2, v = 0.2, t = 0.2)
movej(p[0.384090151230295, 0.251600901172895, 0.296992848556759, -1.478, 0.646, -0.631], a = 0.2, v = 0.2, t = 0.2)
movej(p[0.384097450584554, 0.251600233274223, 0.29773929256922, -1.478, 0.646, -0.631], a = 0.2, v = 0.2, t = 0.2)
movej(p[0.384100059513088, 0.251599994554489, 0.298006085906586, -1.478, 0.646, -0.631], a = 0.2, v = 0.2, t = 0.2)
movej(p[0.384101164505544, 0.251599893446505, 0.298119084258713, -1.478, 0.646, -0.631], a = 0.2, v = 0.2, t = 0.2)
movej(p[0.38410141991645, 0.251599870076136, 0.298145202999477, -1.478, 0.646, -0.631], a = 0.2, v = 0.2, t = 0.2)
movej(p[0.384100781330515, 0.251599928507427, 0.298079900147856, -1.478, 0.646, -0.631], a = 0.2, v = 0.2, t = 0.2)
movej(p[0.384100327379676, 0.251599970044412, 0.298033478385941, -1.478, 0.646, -0.631], a = 0.2, v = 0.2, t = 0.2)
movej(p[0.384099006811419, 0.251600090877811, 0.297898434896654, -1.478, 0.646, -0.631], a = 0.2, v = 0.2, t = 0.2)
movej(p[0.38409487662541, 0.25160046879422, 0.297476075259446, -1.478, 0.646, -0.631], a = 0.2, v = 0.2, t = 0.2)
movej(p[0.3840875159608, 0.251601142302855, 0.296723361549259, -1.478, 0.646, -0.631], a = 0.2, v = 0.2, t = 0.2)
movej(p[0.384080117649482, 0.251601819256204, 0.29596679802468, -1.478, 0.646, -0.631], a = 0.2, v = 0.2, t = 0.2)
movej(p[0.384073047891244, 0.251602466146596, 0.295243832880257, -1.478, 0.646, -0.631], a = 0.2, v = 0.2, t = 0.2)
movej(p[0.384066837651332, 0.251603034390149, 0.294608763498205, -1.478, 0.646, -0.631], a = 0.2, v = 0.2, t = 0.2)
movej(p[0.384062976174806, 0.251603387719355, 0.294213882536195, -1.478, 0.646, -0.631], a = 0.2, v = 0.2, t = 0.2)
movej(p[0.384065381652713, 0.25160316761557, 0.294459870676622, -1.478, 0.646, -0.631], a = 0.2, v = 0.2, t = 0.2)
movej(p[0.384072052453639, 0.251602557230195, 0.295142037787999, -1.478, 0.646, -0.631], a = 0.2, v = 0.2, t = 0.2)
movej(p[0.384080608523429, 0.251601774340716, 0.296016995604556, -1.478, 0.646, -0.631], a = 0.2, v = 0.2, t = 0.2)
movej(p[0.384089916549523, 0.251600922646435, 0.29696884971379, -1.478, 0.646, -0.631], a = 0.2, v = 0.2, t = 0.2)
movej(p[0.384096700583922, 0.251600301900078, 0.2976625962669, -1.478, 0.646, -0.631], a = 0.2, v = 0.2, t = 0.2)
movej(p[0.384100717145324, 0.251599934380441, 0.298073336464304, -1.478, 0.646, -0.631], a = 0.2, v = 0.2, t = 0.2)
movej(p[0.38410140974695, 0.251599871006656, 0.298144163049615, -1.478, 0.646, -0.631], a = 0.2, v = 0.2, t = 0.2)
movej(p[0.384101939929926, 0.25159982249435, 0.298198380435688, -1.478, 0.646, -0.631], a = 0.2, v = 0.2, t = 0.2)
movej(p[0.384101488853927, 0.251599863768283, 0.298152252659599, -1.478, 0.646, -0.631], a = 0.2, v = 0.2, t = 0.2)
movej(p[0.384100159954502, 0.251599985363993, 0.298016357211387, -1.478, 0.646, -0.631], a = 0.2, v = 0.2, t = 0.2)
movej(p[0.384096423562828, 0.251600327247802, 0.297634267632679, -1.478, 0.646, -0.631], a = 0.2, v = 0.2, t = 0.2)
movej(p[0.38409035149122, 0.251600882848808, 0.297013327569425, -1.478, 0.646, -0.631], a = 0.2, v = 0.2, t = 0.2)
movej(p[0.384081110153578, 0.251601728441024, 0.296068293131401, -1.478, 0.646, -0.631], a = 0.2, v = 0.2, t = 0.2)
movej(p[0.38407270369278, 0.251602497641122, 0.295208634577236, -1.478, 0.646, -0.631], a = 0.2, v = 0.2, t = 0.2)
movej(p[0.384066982371141, 0.251603021148132, 0.294623562784702, -1.478, 0.646, -0.631], a = 0.2, v = 0.2, t = 0.2)
movej(p[0.384062333736195, 0.25160344650317, 0.294148185703569, -1.478, 0.646, -0.631], a = 0.2, v = 0.2, t = 0.2)
movej(p[0.384059391426024, 0.251603715727678, 0.293847300209853, -1.478, 0.646, -0.631], a = 0.2, v = 0.2, t = 0.2)
movej(p[0.384062638821198, 0.251603418587568, 0.294179384199428, -1.478, 0.646, -0.631], a = 0.2, v = 0.2, t = 0.2)
movej(p[0.384071687720607, 0.251602590603655, 0.295104739586219, -1.478, 0.646, -0.631], a = 0.2, v = 0.2, t = 0.2)
movej(p[0.384083228147539, 0.251601534642326, 0.296284882689191, -1.478, 0.646, -0.631], a = 0.2, v = 0.2, t = 0.2)
movej(p[0.384092715117722, 0.251600666574471, 0.297255035916189, -1.478, 0.646, -0.631], a = 0.2, v = 0.2, t = 0.2)
movej(p[0.384099795671275, 0.251600018696296, 0.297979105007389, -1.478, 0.646, -0.631], a = 0.2, v = 0.2, t = 0.2)
movej(p[0.384102658542005, 0.251599756740581, 0.298271866892761, -1.478, 0.646, -0.631], a = 0.2, v = 0.2, t = 0.2)
movej(p[0.384102690126126, 0.2515997538506, 0.298275096737043, -1.478, 0.646, -0.631], a = 0.2, v = 0.2, t = 0.2)
movej(p[0.384102565158615, 0.25159976528526, 0.298262317353163, -1.478, 0.646, -0.631], a = 0.2, v = 0.2, t = 0.2)
movej(p[0.384102444395801, 0.251599776335186, 0.298249967948552, -1.478, 0.646, -0.631], a = 0.2, v = 0.2, t = 0.2)
movej(p[0.384101784551699, 0.251599836711623, 0.298182491201739, -1.478, 0.646, -0.631], a = 0.2, v = 0.2, t = 0.2)
movej(p[0.384097767892513, 0.251600204240207, 0.297771741004817, -1.478, 0.646, -0.631], a = 0.2, v = 0.2, t = 0.2)
movej(p[0.384091567430966, 0.251600771589029, 0.297137671574555, -1.478, 0.646, -0.631], a = 0.2, v = 0.2, t = 0.2)
movej(p[0.38408338362355, 0.251601520416105, 0.296300781922657, -1.478, 0.646, -0.631], a = 0.2, v = 0.2, t = 0.2)
movej(p[0.384075509105834, 0.251602240942845, 0.295495520745888, -1.478, 0.646, -0.631], a = 0.2, v = 0.2, t = 0.2)
movej(p[0.384070036154679, 0.251602741723693, 0.294935847728829, -1.478, 0.646, -0.631], a = 0.2, v = 0.2, t = 0.2)
movej(p[0.384066136542528, 0.251603098542349, 0.294537066954837, -1.478, 0.646, -0.631], a = 0.2, v = 0.2, t = 0.2)
movej(p[0.384065131326557, 0.251603190520679, 0.294434271910789, -1.478, 0.646, -0.631], a = 0.2, v = 0.2, t = 0.2)
movej(p[0.384066884587486, 0.251603030095441, 0.294613563266799, -1.478, 0.646, -0.631], a = 0.2, v = 0.2, t = 0.2)
movej(p[0.384074853955347, 0.251602300889811, 0.295428523975934, -1.478, 0.646, -0.631], a = 0.2, v = 0.2, t = 0.2)
movej(p[0.384084455332406, 0.251601422353606, 0.29641037663888, -1.478, 0.646, -0.631], a = 0.2, v = 0.2, t = 0.2)
movej(p[0.384092720593607, 0.251600666073422, 0.297255595889191, -1.478, 0.646, -0.631], a = 0.2, v = 0.2, t = 0.2)
movej(p[0.384098335037711, 0.251600152345819, 0.297829738208657, -1.478, 0.646, -0.631], a = 0.2, v = 0.2, t = 0.2)
movej(p[0.384100620486181, 0.251599943224855, 0.298063451940857, -1.478, 0.646, -0.631], a = 0.2, v = 0.2, t = 0.2)
movej(p[0.384101257400016, 0.251599884946562, 0.298128583800721, -1.478, 0.646, -0.631], a = 0.2, v = 0.2, t = 0.2)
movej(p[0.384100523709698, 0.251599952080006, 0.298053555417988, -1.478, 0.646, -0.631], a = 0.2, v = 0.2, t = 0.2)
movej(p[0.384100827327946, 0.251599924298614, 0.298084603921078, -1.478, 0.646, -0.631], a = 0.2, v = 0.2, t = 0.2)
movej(p[0.384100372878411, 0.251599965881229, 0.298038131161621, -1.478, 0.646, -0.631], a = 0.2, v = 0.2, t = 0.2)
movej(p[0.38409755589755, 0.251600223637972, 0.297750062050002, -1.478, 0.646, -0.631], a = 0.2, v = 0.2, t = 0.2)
movej(p[0.384092694778722, 0.251600668435511, 0.297252956016465, -1.478, 0.646, -0.631], a = 0.2, v = 0.2, t = 0.2)
movej(p[0.384085972934728, 0.251601283491381, 0.296565569156742, -1.478, 0.646, -0.631], a = 0.2, v = 0.2, t = 0.2)
movej(p[0.384078775079902, 0.251601942102747, 0.295829504643865, -1.478, 0.646, -0.631], a = 0.2, v = 0.2, t = 0.2)
movej(p[0.384072118946524, 0.251602551146025, 0.295148837460173, -1.478, 0.646, -0.631], a = 0.2, v = 0.2, t = 0.2)
movej(p[0.384067528003934, 0.251602971222152, 0.294679360094604, -1.478, 0.646, -0.631], a = 0.2, v = 0.2, t = 0.2)
movej(p[0.384065719006322, 0.251603136747356, 0.294494369013389, -1.478, 0.646, -0.631], a = 0.2, v = 0.2, t = 0.2)
movej(p[0.384067308968548, 0.251602991264122, 0.2946569611745, -1.478, 0.646, -0.631], a = 0.2, v = 0.2, t = 0.2)
movej(p[0.384073832116155, 0.251602394389183, 0.295324029013843, -1.478, 0.646, -0.631], a = 0.2, v = 0.2, t = 0.2)
movej(p[0.384083455983455, 0.251601513795097, 0.296308181565906, -1.478, 0.646, -0.631], a = 0.2, v = 0.2, t = 0.2)
movej(p[0.384092493442177, 0.251600686858019, 0.297232367009102, -1.478, 0.646, -0.631], a = 0.2, v = 0.2, t = 0.2)
movej(p[0.384097000975309, 0.251600274413947, 0.297693314785899, -1.478, 0.646, -0.631], a = 0.2, v = 0.2, t = 0.2)
movej(p[0.384100031857915, 0.251599997084967, 0.298003257842933, -1.478, 0.646, -0.631], a = 0.2, v = 0.2, t = 0.2)
movej(p[0.384100759192295, 0.251599930533098, 0.298077636257003, -1.478, 0.646, -0.631], a = 0.2, v = 0.2, t = 0.2)
movej(p[0.384101642863183, 0.251599849676273, 0.298168001900297, -1.478, 0.646, -0.631], a = 0.2, v = 0.2, t = 0.2)
movej(p[0.384100546219495, 0.251599950020336, 0.298055857307009, -1.478, 0.646, -0.631], a = 0.2, v = 0.2, t = 0.2)
movej(p[0.384097986341198, 0.251600184251921, 0.297794079927813, -1.478, 0.646, -0.631], a = 0.2, v = 0.2, t = 0.2)
movej(p[0.384092291910064, 0.251600705298421, 0.297211758002702, -1.478, 0.646, -0.631], a = 0.2, v = 0.2, t = 0.2)
movej(p[0.38408377182466, 0.251601484895291, 0.296340480008734, -1.478, 0.646, -0.631], a = 0.2, v = 0.2, t = 0.2)
movej(p[0.384075889484251, 0.251602206137816, 0.295534418870533, -1.478, 0.646, -0.631], a = 0.2, v = 0.2, t = 0.2)
movej(p[0.384069450430587, 0.25160279531807, 0.294875950616587, -1.478, 0.646, -0.631], a = 0.2, v = 0.2, t = 0.2)
movej(p[0.384064137844625, 0.251603281425332, 0.294332676808889, -1.478, 0.646, -0.631], a = 0.2, v = 0.2, t = 0.2)
movej(p[0.384061291362435, 0.251603541881477, 0.294041590842718, -1.478, 0.646, -0.631], a = 0.2, v = 0.2, t = 0.2)
movej(p[0.384064992473767, 0.251603203225857, 0.294420072595366, -1.478, 0.646, -0.631], a = 0.2, v = 0.2, t = 0.2)
movej(p[0.384073630681827, 0.251602412820639, 0.295303430006961, -1.478, 0.646, -0.631], a = 0.2, v = 0.2, t = 0.2)
movej(p[0.38408477997414, 0.251601392648542, 0.296443575038319, -1.478, 0.646, -0.631], a = 0.2, v = 0.2, t = 0.2)
movej(p[0.384093929101796, 0.251600555493638, 0.297379179930961, -1.478, 0.646, -0.631], a = 0.2, v = 0.2, t = 0.2)
movej(p[0.3841002723177, 0.251599975082641, 0.298027847657409, -1.478, 0.646, -0.631], a = 0.2, v = 0.2, t = 0.2)
movej(p[0.384102111149106, 0.251599806827613, 0.298215889591537, -1.478, 0.646, -0.631], a = 0.2, v = 0.2, t = 0.2)
movej(p[0.384101793841146, 0.251599835861629, 0.29818344115594, -1.478, 0.646, -0.631], a = 0.2, v = 0.2, t = 0.2)
movej(p[0.384101931031614, 0.251599823308555, 0.298197470479558, -1.478, 0.646, -0.631], a = 0.2, v = 0.2, t = 0.2)
movej(p[0.384101553293355, 0.251599857872007, 0.298158842341897, -1.478, 0.646, -0.631], a = 0.2, v = 0.2, t = 0.2)
movej(p[0.384098824738254, 0.251600107537699, 0.297879815794318, -1.478, 0.646, -0.631], a = 0.2, v = 0.2, t = 0.2)
movej(p[0.38409327131115, 0.251600615682181, 0.297311913174024, -1.478, 0.646, -0.631], a = 0.2, v = 0.2, t = 0.2)
movej(p[0.384084875802122, 0.25160138388018, 0.296453374565865, -1.478, 0.646, -0.631], a = 0.2, v = 0.2, t = 0.2)
movej(p[0.384075909040982, 0.251602204348354, 0.295536418774113, -1.478, 0.646, -0.631], a = 0.2, v = 0.2, t = 0.2)
movej(p[0.384067618942733, 0.251602962901155, 0.294688659646254, -1.478, 0.646, -0.631], a = 0.2, v = 0.2, t = 0.2)
movej(p[0.384062535170523, 0.251603428071715, 0.294168784710451, -1.478, 0.646, -0.631], a = 0.2, v = 0.2, t = 0.2)
movej(p[0.384061188689598, 0.251603551276151, 0.294031091348919, -1.478, 0.646, -0.631], a = 0.2, v = 0.2, t = 0.2)
movej(p[0.384064086997124, 0.251603286077932, 0.294327477059579, -1.478, 0.646, -0.631], a = 0.2, v = 0.2, t = 0.2)
movej(p[0.384072259754987, 0.251602538261901, 0.295163236765954, -1.478, 0.646, -0.631], a = 0.2, v = 0.2, t = 0.2)
movej(p[0.384083228147539, 0.251601534642326, 0.296284882689191, -1.478, 0.646, -0.631], a = 0.2, v = 0.2, t = 0.2)
movej(p[0.38409304523534, 0.251600636368358, 0.297288794288631, -1.478, 0.646, -0.631], a = 0.2, v = 0.2, t = 0.2)
movej(p[0.384098537645443, 0.251600133806996, 0.297850457209753, -1.478, 0.646, -0.631], a = 0.2, v = 0.2, t = 0.2)
movej(p[0.384101572752303, 0.251599856091493, 0.29816083224596, -1.478, 0.646, -0.631], a = 0.2, v = 0.2, t = 0.2)
movej(p[0.3841021195585, 0.251599806058145, 0.298216749550076, -1.478, 0.646, -0.631], a = 0.2, v = 0.2, t = 0.2)
movej(p[0.384102060301605, 0.251599811480213, 0.298210689842227, -1.478, 0.646, -0.631], a = 0.2, v = 0.2, t = 0.2)
movej(p[0.384101532465437, 0.251599859777784, 0.298156712444584, -1.478, 0.646, -0.631], a = 0.2, v = 0.2, t = 0.2)
movej(p[0.384100197552318, 0.251599981923753, 0.29802020202602, -1.478, 0.646, -0.631], a = 0.2, v = 0.2, t = 0.2)
movej(p[0.384095852408501, 0.25160037950903, 0.297575860448605, -1.478, 0.646, -0.631], a = 0.2, v = 0.2, t = 0.2)
movej(p[0.384088829195283, 0.251601022140504, 0.296857655074703, -1.478, 0.646, -0.631], a = 0.2, v = 0.2, t = 0.2)
movej(p[0.384081552135697, 0.25160168799919, 0.296113490952325, -1.478, 0.646, -0.631], a = 0.2, v = 0.2, t = 0.2)
movej(p[0.384074079508802, 0.251602371752493, 0.295349327794139, -1.478, 0.646, -0.631], a = 0.2, v = 0.2, t = 0.2)
movej(p[0.384067036152151, 0.251603016227113, 0.294629062519549, -1.478, 0.646, -0.631], a = 0.2, v = 0.2, t = 0.2)
movej(p[0.384062181193693, 0.251603460460971, 0.29413258645564, -1.478, 0.646, -0.631], a = 0.2, v = 0.2, t = 0.2)
movej(p[0.384061491818927, 0.251603523539495, 0.29406208985442, -1.478, 0.646, -0.631], a = 0.2, v = 0.2, t = 0.2)
movej(p[0.384065813856467, 0.251603128068467, 0.294504068545755, -1.478, 0.646, -0.631], a = 0.2, v = 0.2, t = 0.2)
movej(p[0.384073716731443, 0.251602404947007, 0.295312229582717, -1.478, 0.646, -0.631], a = 0.2, v = 0.2, t = 0.2)
movej(p[0.384085037145152, 0.251601369117121, 0.296469873770405, -1.478, 0.646, -0.631], a = 0.2, v = 0.2, t = 0.2)
movej(p[0.384094205927322, 0.251600530163808, 0.297407488566146, -1.478, 0.646, -0.631], a = 0.2, v = 0.2, t = 0.2)
movej(p[0.384099363946661, 0.251600058199557, 0.297934956135893, -1.478, 0.646, -0.631], a = 0.2, v = 0.2, t = 0.2)
movej(p[0.384101315776858, 0.251599879605019, 0.29813455351291, -1.478, 0.646, -0.631], a = 0.2, v = 0.2, t = 0.2)
movej(p[0.384102332629084, 0.25159978656196, 0.298238538499588, -1.478, 0.646, -0.631], a = 0.2, v = 0.2, t = 0.2)
movej(p[0.384102272981054, 0.251599792019818, 0.298232438793667, -1.478, 0.646, -0.631], a = 0.2, v = 0.2, t = 0.2)
movej(p[0.38410118552903, 0.251599891522834, 0.298121234155062, -1.478, 0.646, -0.631], a = 0.2, v = 0.2, t = 0.2)
movej(p[0.384098280865566, 0.251600157302628, 0.297824198475738, -1.478, 0.646, -0.631], a = 0.2, v = 0.2, t = 0.2)
movej(p[0.384092341486377, 0.251600700762136, 0.29721682775828, -1.478, 0.646, -0.631], a = 0.2, v = 0.2, t = 0.2)
movej(p[0.384084076909662, 0.251601456979689, 0.296371678504593, -1.478, 0.646, -0.631], a = 0.2, v = 0.2, t = 0.2)
movej(p[0.384076978794165, 0.251602106464801, 0.295645813499978, -1.478, 0.646, -0.631], a = 0.2, v = 0.2, t = 0.2)
movej(p[0.384072433809893, 0.251602522335693, 0.295181035907823, -1.478, 0.646, -0.631], a = 0.2, v = 0.2, t = 0.2)
movej(p[0.384072848412589, 0.251602484399105, 0.295223433863733, -1.478, 0.646, -0.631], a = 0.2, v = 0.2, t = 0.2)
movej(p[0.384076943592049, 0.251602109685832, 0.295642213673532, -1.478, 0.646, -0.631], a = 0.2, v = 0.2, t = 0.2)
movej(p[0.384086137211268, 0.251601268459903, 0.29658236834682, -1.478, 0.646, -0.631], a = 0.2, v = 0.2, t = 0.2)
movej(p[0.384094380275579, 0.251600514210757, 0.297425317706568, -1.478, 0.646, -0.631], a = 0.2, v = 0.2, t = 0.2)
movej(p[0.384100449531018, 0.251599958867434, 0.298045969783706, -1.478, 0.646, -0.631], a = 0.2, v = 0.2, t = 0.2)
movej(p[0.384102771482126, 0.25159974640644, 0.298283416335939, -1.478, 0.646, -0.631], a = 0.2, v = 0.2, t = 0.2)
movej(p[0.384103687323837, 0.25159966260595, 0.298377071820623, -1.478, 0.646, -0.631], a = 0.2, v = 0.2, t = 0.2)
movej(p[0.384103229011847, 0.251599704541984, 0.29833020408021, -1.478, 0.646, -0.631], a = 0.2, v = 0.2, t = 0.2)
movej(p[0.384099542079145, 0.251600041900245, 0.297953172257658, -1.478, 0.646, -0.631], a = 0.2, v = 0.2, t = 0.2)
movej(p[0.384093546278787, 0.25160059052235, 0.297340031818369, -1.478, 0.646, -0.631], a = 0.2, v = 0.2, t = 0.2)
movej(p[0.384083649595091, 0.251601496079427, 0.296327980611355, -1.478, 0.646, -0.631], a = 0.2, v = 0.2, t = 0.2)
movej(p[0.384073156431101, 0.251602456215084, 0.29525493234513, -1.478, 0.646, -0.631], a = 0.2, v = 0.2, t = 0.2)
movej(p[0.384064433151262, 0.251603254404461, 0.294362875352958, -1.478, 0.646, -0.631], a = 0.2, v = 0.2, t = 0.2)
movej(p[0.384059242794868, 0.251603729327587, 0.29383210094264, -1.478, 0.646, -0.631], a = 0.2, v = 0.2, t = 0.2)
movej(p[0.384057298855812, 0.251603907200077, 0.293633310526718, -1.478, 0.646, -0.631], a = 0.2, v = 0.2, t = 0.2)
movej(p[0.384059194880878, 0.251603733711768, 0.293827201178867, -1.478, 0.646, -0.631], a = 0.2, v = 0.2, t = 0.2)
movej(p[0.384066790715178, 0.251603038684857, 0.294603963729611, -1.478, 0.646, -0.631], a = 0.2, v = 0.2, t = 0.2)
movej(p[0.384077122536137, 0.251602093312258, 0.295660512791296, -1.478, 0.646, -0.631], a = 0.2, v = 0.2, t = 0.2)
movej(p[0.384087701749744, 0.251601125302969, 0.296742360633276, -1.478, 0.646, -0.631], a = 0.2, v = 0.2, t = 0.2)
movej(p[0.38409574484648, 0.251600389351069, 0.297564860978911, -1.478, 0.646, -0.631], a = 0.2, v = 0.2, t = 0.2)
movej(p[0.384101273338752, 0.251599883488151, 0.298130213722139, -1.478, 0.646, -0.631], a = 0.2, v = 0.2, t = 0.2)
movej(p[0.384102854891584, 0.251599738774386, 0.298291945924711, -1.478, 0.646, -0.631], a = 0.2, v = 0.2, t = 0.2)
movej(p[0.38410142793471, 0.251599869342456, 0.298146022959945, -1.478, 0.646, -0.631], a = 0.2, v = 0.2, t = 0.2)
movej(p[0.384097192631272, 0.251600256877222, 0.29771291384099, -1.478, 0.646, -0.631], a = 0.2, v = 0.2, t = 0.2)
movej(p[0.384088857552543, 0.251601019545785, 0.296860554934895, -1.478, 0.646, -0.631], a = 0.2, v = 0.2, t = 0.2)
movej(p[0.384077758129893, 0.251602035154754, 0.295725509657668, -1.478, 0.646, -0.631], a = 0.2, v = 0.2, t = 0.2)
movej(p[0.384066222592144, 0.251603090668718, 0.294545866530592, -1.478, 0.646, -0.631], a = 0.2, v = 0.2, t = 0.2)
movej(p[0.384056601658354, 0.251603970994385, 0.293562013964066, -1.478, 0.646, -0.631], a = 0.2, v = 0.2, t = 0.2)
movej(p[0.384051399567922, 0.251604446991188, 0.293030039611599, -1.478, 0.646, -0.631], a = 0.2, v = 0.2, t = 0.2)
movej(p[0.384050709215319, 0.251604510159185, 0.292959443015201, -1.478, 0.646, -0.631], a = 0.2, v = 0.2, t = 0.2)
movej(p[0.384058386210053, 0.251603807706008, 0.293744505165805, -1.478, 0.646, -0.631], a = 0.2, v = 0.2, t = 0.2)
movej(p[0.384069848410061, 0.251602758902525, 0.294916648654454, -1.478, 0.646, -0.631], a = 0.2, v = 0.2, t = 0.2)
movej(p[0.384082135904116, 0.25160163458376, 0.296173188074208, -1.478, 0.646, -0.631], a = 0.2, v = 0.2, t = 0.2)
movej(p[0.384092055469187, 0.251600726933013, 0.297187579168412, -1.478, 0.646, -0.631], a = 0.2, v = 0.2, t = 0.2)
movej(p[0.384098854464485, 0.251600104817717, 0.29788285564776, -1.478, 0.646, -0.631], a = 0.2, v = 0.2, t = 0.2)
movej(p[0.384102157107424, 0.251599802622378, 0.298220589364951, -1.478, 0.646, -0.631], a = 0.2, v = 0.2, t = 0.2)
movej(p[0.384102388072416, 0.251599781488836, 0.298244208226239, -1.478, 0.646, -0.631], a = 0.2, v = 0.2, t = 0.2)
movej(p[0.384102498861297, 0.251599771351535, 0.298255537680024, -1.478, 0.646, -0.631], a = 0.2, v = 0.2, t = 0.2)
movej(p[0.384099956811893, 0.251600003951758, 0.297995583512928, -1.478, 0.646, -0.631], a = 0.2, v = 0.2, t = 0.2)
movej(p[0.384093774799188, 0.251600569612491, 0.297363400691709, -1.478, 0.646, -0.631], a = 0.2, v = 0.2, t = 0.2)
movej(p[0.384084402529233, 0.251601427185152, 0.296404976899212, -1.478, 0.646, -0.631], a = 0.2, v = 0.2, t = 0.2)
movej(p[0.384073885897166, 0.251602389468164, 0.29532952874869, -1.478, 0.646, -0.631], a = 0.2, v = 0.2, t = 0.2)
movej(p[0.384064067440393, 0.251603287867394, 0.294325477155999, -1.478, 0.646, -0.631], a = 0.2, v = 0.2, t = 0.2)
movej(p[0.384055964108925, 0.251604029330835, 0.293496817107335, -1.478, 0.646, -0.631], a = 0.2, v = 0.2, t = 0.2)
movej(p[0.384053830469579, 0.251604224561103, 0.293278627626681, -1.478, 0.646, -0.631], a = 0.2, v = 0.2, t = 0.2)
movej(p[0.384057474866391, 0.251603891094922, 0.293651309658944, -1.478, 0.646, -0.631], a = 0.2, v = 0.2, t = 0.2)
movej(p[0.384066105251758, 0.251603101405488, 0.294533867109108, -1.478, 0.646, -0.631], a = 0.2, v = 0.2, t = 0.2)
movej(p[0.384077224231138, 0.251602084007057, 0.295670912289915, -1.478, 0.646, -0.631], a = 0.2, v = 0.2, t = 0.2)
movej(p[0.384089186105622, 0.251600989482829, 0.296894153315051, -1.478, 0.646, -0.631], a = 0.2, v = 0.2, t = 0.2)
movej(p[0.38409820097632, 0.251600164612579, 0.297816028869611, -1.478, 0.646, -0.631], a = 0.2, v = 0.2, t = 0.2)
movej(p[0.38410154566623, 0.251599858569897, 0.298158062379501, -1.478, 0.646, -0.631], a = 0.2, v = 0.2, t = 0.2)
movej(p[0.384103082727499, 0.251599717927157, 0.298315244801426, -1.478, 0.646, -0.631], a = 0.2, v = 0.2, t = 0.2)
movej(p[0.384102287159684, 0.251599790722458, 0.298233888723763, -1.478, 0.646, -0.631], a = 0.2, v = 0.2, t = 0.2)
movej(p[0.384099044741698, 0.25160008740715, 0.297902313709649, -1.478, 0.646, -0.631], a = 0.2, v = 0.2, t = 0.2)
movej(p[0.384092468898479, 0.251600689103793, 0.297229857130108, -1.478, 0.646, -0.631], a = 0.2, v = 0.2, t = 0.2)
movej(p[0.384083407091627, 0.251601518268751, 0.296303181806954, -1.478, 0.646, -0.631], a = 0.2, v = 0.2, t = 0.2)
movej(p[0.384073544632211, 0.25160242069427, 0.295294630431206, -1.478, 0.646, -0.631], a = 0.2, v = 0.2, t = 0.2)
movej(p[0.384064297231982, 0.251603266841219, 0.294348976023072, -1.478, 0.646, -0.631], a = 0.2, v = 0.2, t = 0.2)
movej(p[0.38405904136054, 0.251603747759042, 0.293811501935758, -1.478, 0.646, -0.631], a = 0.2, v = 0.2, t = 0.2)
movej(p[0.384057881646394, 0.251603853874119, 0.293692907653423, -1.478, 0.646, -0.631], a = 0.2, v = 0.2, t = 0.2)
movej(p[0.384060877737576, 0.251603579728592, 0.293999292881986, -1.478, 0.646, -0.631], a = 0.2, v = 0.2, t = 0.2)
movej(p[0.384067932828265, 0.251602934180295, 0.294720758098724, -1.478, 0.646, -0.631], a = 0.2, v = 0.2, t = 0.2)
movej(p[0.384077767908259, 0.251602034260023, 0.295726509609459, -1.478, 0.646, -0.631], a = 0.2, v = 0.2, t = 0.2)
movej(p[0.384087988255852, 0.251601099087356, 0.296771659220733, -1.478, 0.646, -0.631], a = 0.2, v = 0.2, t = 0.2)
movej(p[0.38409488972842, 0.251600467595281, 0.297477415194845, -1.478, 0.646, -0.631], a = 0.2, v = 0.2, t = 0.2)
movej(p[0.384099829582647, 0.251600015593369, 0.297982572840198, -1.478, 0.646, -0.631], a = 0.2, v = 0.2, t = 0.2)
movej(p[0.384101605020909, 0.251599853138881, 0.298164132086868, -1.478, 0.646, -0.631], a = 0.2, v = 0.2, t = 0.2)
movej(p[0.384101105737568, 0.251599898823837, 0.298113074548453, -1.478, 0.646, -0.631], a = 0.2, v = 0.2, t = 0.2)
movej(p[0.384097648889805, 0.251600215129082, 0.297759571591528, -1.478, 0.646, -0.631], a = 0.2, v = 0.2, t = 0.2)
movej(p[0.384091460846783, 0.251600781341595, 0.297126772100041, -1.478, 0.646, -0.631], a = 0.2, v = 0.2, t = 0.2)
movej(p[0.384082635578592, 0.251601588863014, 0.296224285610695, -1.478, 0.646, -0.631], a = 0.2, v = 0.2, t = 0.2)
movej(p[0.38407297846485, 0.251602472499185, 0.295236733222545, -1.478, 0.646, -0.631], a = 0.2, v = 0.2, t = 0.2)
movej(p[0.384066454339405, 0.251603069463597, 0.294569565388023, -1.478, 0.646, -0.631], a = 0.2, v = 0.2, t = 0.2)
movej(p[0.384061848729267, 0.25160349088182, 0.294098588094768, -1.478, 0.646, -0.631], a = 0.2, v = 0.2, t = 0.2)
movej(p[0.384060462157043, 0.251603617754652, 0.293956794930896, -1.478, 0.646, -0.631], a = 0.2, v = 0.2, t = 0.2)
movej(p[0.384063988235633, 0.251603295114713, 0.294317377546497, -1.478, 0.646, -0.631], a = 0.2, v = 0.2, t = 0.2)
movej(p[0.384073251281246, 0.251602447536195, 0.295264631877496, -1.478, 0.646, -0.631], a = 0.2, v = 0.2, t = 0.2)
movej(p[0.384085793012803, 0.251601299954428, 0.2965471700438, -1.478, 0.646, -0.631], a = 0.2, v = 0.2, t = 0.2)
movej(p[0.384094315933934, 0.251600520098086, 0.297418738023787, -1.478, 0.646, -0.631], a = 0.2, v = 0.2, t = 0.2)
movej(p[0.384100765597125, 0.251599929947049, 0.298078291225426, -1.478, 0.646, -0.631], a = 0.2, v = 0.2, t = 0.2)
movej(p[0.384102564963047, 0.251599765303155, 0.298262297354127, -1.478, 0.646, -0.631], a = 0.2, v = 0.2, t = 0.2)
movej(p[0.384103305674232, 0.251599697527294, 0.298338043702246, -1.478, 0.646, -0.631], a = 0.2, v = 0.2, t = 0.2)
movej(p[0.384101484453663, 0.251599864170912, 0.298151802681293, -1.478, 0.646, -0.631], a = 0.2, v = 0.2, t = 0.2)
movej(p[0.38409710560382, 0.251600264840327, 0.297704014270056, -1.478, 0.646, -0.631], a = 0.2, v = 0.2, t = 0.2)
movej(p[0.384088967070236, 0.251601009524799, 0.296871754394947, -1.478, 0.646, -0.631], a = 0.2, v = 0.2, t = 0.2)
movej(p[0.38407920630582, 0.251601902645117, 0.295873602517819, -1.478, 0.646, -0.631], a = 0.2, v = 0.2, t = 0.2)
movej(p[0.384070797889349, 0.251602672024161, 0.295013743973297, -1.478, 0.646, -0.631], a = 0.2, v = 0.2, t = 0.2)
movej(p[0.384064164246211, 0.251603279009558, 0.294335376678723, -1.478, 0.646, -0.631], a = 0.2, v = 0.2, t = 0.2)
movej(p[0.384058889795875, 0.25160376162737, 0.293796002683008, -1.478, 0.646, -0.631], a = 0.2, v = 0.2, t = 0.2)
movej(p[0.384056445204506, 0.251603985310078, 0.29354601473542, -1.478, 0.646, -0.631], a = 0.2, v = 0.2, t = 0.2)
movej(p[0.384060109158049, 0.251603650054435, 0.293920696671265, -1.478, 0.646, -0.631], a = 0.2, v = 0.2, t = 0.2)
movej(p[0.384069105254285, 0.251602826902068, 0.294840652318387, -1.478, 0.646, -0.631], a = 0.2, v = 0.2, t = 0.2)
movej(p[0.384079855589287, 0.25160184323499, 0.295939999316699, -1.478, 0.646, -0.631], a = 0.2, v = 0.2, t = 0.2)
movej(p[0.384090690604934, 0.251600851819543, 0.297048005897515, -1.478, 0.646, -0.631], a = 0.2, v = 0.2, t = 0.2)
movej(p[0.384098037286482, 0.251600179590373, 0.297799289676641, -1.478, 0.646, -0.631], a = 0.2, v = 0.2, t = 0.2)
movej(p[0.384101510953033, 0.251599861746192, 0.298154512550645, -1.478, 0.646, -0.631], a = 0.2, v = 0.2, t = 0.2)
movej(p[0.384102197980991, 0.251599798882403, 0.298224769163435, -1.478, 0.646, -0.631], a = 0.2, v = 0.2, t = 0.2)
movej(p[0.384102484389316, 0.251599772675737, 0.298254057751374, -1.478, 0.646, -0.631], a = 0.2, v = 0.2, t = 0.2)
movej(p[0.384101477315456, 0.251599864824066, 0.298151072716486, -1.478, 0.646, -0.631], a = 0.2, v = 0.2, t = 0.2)
movej(p[0.384096530733714, 0.251600317441552, 0.297645227104301, -1.478, 0.646, -0.631], a = 0.2, v = 0.2, t = 0.2)
movej(p[0.384089735649762, 0.251600939198956, 0.296950350605669, -1.478, 0.646, -0.631], a = 0.2, v = 0.2, t = 0.2)
movej(p[0.384080346463234, 0.251601798319502, 0.295990196896574, -1.478, 0.646, -0.631], a = 0.2, v = 0.2, t = 0.2)
movej(p[0.38407100714637, 0.251602652876921, 0.29503514294161, -1.478, 0.646, -0.631], a = 0.2, v = 0.2, t = 0.2)
movej(p[0.384063337974329, 0.251603354614314, 0.294250880752438, -1.478, 0.646, -0.631], a = 0.2, v = 0.2, t = 0.2)
movej(p[0.384058657070777, 0.251603782921964, 0.293772203830398, -1.478, 0.646, -0.631], a = 0.2, v = 0.2, t = 0.2)
movej(p[0.384059331777994, 0.251603721185536, 0.293841200503932, -1.478, 0.646, -0.631], a = 0.2, v = 0.2, t = 0.2)
movej(p[0.38406425518501, 0.251603270688562, 0.294344676230373, -1.478, 0.646, -0.631], a = 0.2, v = 0.2, t = 0.2)
movej(p[0.384075221621889, 0.251602267247932, 0.295466122163252, -1.478, 0.646, -0.631], a = 0.2, v = 0.2, t = 0.2)
movej(p[0.384087457290607, 0.25160114767124, 0.296717361838517, -1.478, 0.646, -0.631], a = 0.2, v = 0.2, t = 0.2)
movej(p[0.384097795174153, 0.251600201743908, 0.297774530870312, -1.478, 0.646, -0.631], a = 0.2, v = 0.2, t = 0.2)
movej(p[0.384101829629964, 0.251599832586914, 0.298187100979492, -1.478, 0.646, -0.631], a = 0.2, v = 0.2, t = 0.2)
movej(p[0.384104040420614, 0.25159963029722, 0.298413180079773, -1.478, 0.646, -0.631], a = 0.2, v = 0.2, t = 0.2)
movej(p[0.38410373289102, 0.251599658436504, 0.298381731595966, -1.478, 0.646, -0.631], a = 0.2, v = 0.2, t = 0.2)
movej(p[0.384101367699979, 0.251599874853998, 0.298139863256916, -1.478, 0.646, -0.631], a = 0.2, v = 0.2, t = 0.2)
movej(p[0.384095857982169, 0.251600378999034, 0.297576430421125, -1.478, 0.646, -0.631], a = 0.2, v = 0.2, t = 0.2)
movej(p[0.384086533235069, 0.251601232223304, 0.296622866394329, -1.478, 0.646, -0.631], a = 0.2, v = 0.2, t = 0.2)
movej(p[0.384075620579201, 0.251602230742914, 0.295506920196298, -1.478, 0.646, -0.631], a = 0.2, v = 0.2, t = 0.2)
movej(p[0.38406475094814, 0.251603225325708, 0.294395373786144, -1.478, 0.646, -0.631], a = 0.2, v = 0.2, t = 0.2)
movej(p[0.384057362415188, 0.251603901384326, 0.293639810213355, -1.478, 0.646, -0.631], a = 0.2, v = 0.2, t = 0.2)
movej(p[0.384053252568179, 0.251604277439695, 0.293219530475871, -1.478, 0.646, -0.631], a = 0.2, v = 0.2, t = 0.2)
movej(p[0.384052902502695, 0.251604309471059, 0.293183732201776, -1.478, 0.646, -0.631], a = 0.2, v = 0.2, t = 0.2)
movej(p[0.384059922391269, 0.251603667143794, 0.293901597592069, -1.478, 0.646, -0.631], a = 0.2, v = 0.2, t = 0.2)
movej(p[0.384071565491039, 0.251602601787791, 0.295092240188839, -1.478, 0.646, -0.631], a = 0.2, v = 0.2, t = 0.2)
movej(p[0.384085281604289, 0.25160134674885, 0.296494872565164, -1.478, 0.646, -0.631], a = 0.2, v = 0.2, t = 0.2)
movej(p[0.384094763000803, 0.251600479190992, 0.297464455819642, -1.478, 0.646, -0.631], a = 0.2, v = 0.2, t = 0.2)
movej(p[0.384100478827001, 0.251599956186821, 0.29804896563927, -1.478, 0.646, -0.631], a = 0.2, v = 0.2, t = 0.2)
movej(p[0.38410291365956, 0.251599733397054, 0.298297955634971, -1.478, 0.646, -0.631], a = 0.2, v = 0.2, t = 0.2)
movej(p[0.38410257894611, 0.25159976402369, 0.298263727285187, -1.478, 0.646, -0.631], a = 0.2, v = 0.2, t = 0.2)
movej(p[0.384099833660225, 0.251600015220266, 0.297982989820094, -1.478, 0.646, -0.631], a = 0.2, v = 0.2, t = 0.2)
movej(p[0.384094159480086, 0.25160053441378, 0.297402738795141, -1.478, 0.646, -0.631], a = 0.2, v = 0.2, t = 0.2)
movej(p[0.384085845815977, 0.251601295122881, 0.296552569783468, -1.478, 0.646, -0.631], a = 0.2, v = 0.2, t = 0.2)
movej(p[0.384076054738628, 0.251602191016865, 0.295551318055789, -1.478, 0.646, -0.631], a = 0.2, v = 0.2, t = 0.2)
movej(p[0.384068467704856, 0.251602885238519, 0.294775455461656, -1.478, 0.646, -0.631], a = 0.2, v = 0.2, t = 0.2)
movej(p[0.384062245730905, 0.251603454555748, 0.294139186137456, -1.478, 0.646, -0.631], a = 0.2, v = 0.2, t = 0.2)
movej(p[0.384058631647026, 0.251603785248264, 0.293769603955743, -1.478, 0.646, -0.631], a = 0.2, v = 0.2, t = 0.2)
movej(p[0.384057359481678, 0.251603901652745, 0.293639510227818, -1.478, 0.646, -0.631], a = 0.2, v = 0.2, t = 0.2)
movej(p[0.384061890776239, 0.251603487034477, 0.294102887887467, -1.478, 0.646, -0.631], a = 0.2, v = 0.2, t = 0.2)
movej(p[0.384070111448093, 0.251602734834266, 0.294943547357614, -1.478, 0.646, -0.631], a = 0.2, v = 0.2, t = 0.2)
movej(p[0.38407948107789, 0.251601877503181, 0.295901701163128, -1.478, 0.646, -0.631], a = 0.2, v = 0.2, t = 0.2)
movej(p[0.384089111790045, 0.251600996282783, 0.296886553681445, -1.478, 0.646, -0.631], a = 0.2, v = 0.2, t = 0.2)
movej(p[0.384096282754365, 0.251600340131926, 0.297619868326898, -1.478, 0.646, -0.631], a = 0.2, v = 0.2, t = 0.2)
movej(p[0.384100562060447, 0.251599948570872, 0.298057477228909, -1.478, 0.646, -0.631], a = 0.2, v = 0.2, t = 0.2)
movej(p[0.384101381585258, 0.251599873583481, 0.298141283188459, -1.478, 0.646, -0.631], a = 0.2, v = 0.2, t = 0.2)
movej(p[0.38410050437787, 0.251599953848889, 0.298051578513298, -1.478, 0.646, -0.631], a = 0.2, v = 0.2, t = 0.2)
movej(p[0.384096678484816, 0.251600303922169, 0.297660336375854, -1.478, 0.646, -0.631], a = 0.2, v = 0.2, t = 0.2)
movej(p[0.384089008139371, 0.25160100576693, 0.296875954192467, -1.478, 0.646, -0.631], a = 0.2, v = 0.2, t = 0.2)
movej(p[0.384080722930305, 0.251601763872365, 0.296028695040503, -1.478, 0.646, -0.631], a = 0.2, v = 0.2, t = 0.2)
movej(p[0.384072795609415, 0.251602489230652, 0.295218034124066, -1.478, 0.646, -0.631], a = 0.2, v = 0.2, t = 0.2)
movej(p[0.384065810922957, 0.251603128336886, 0.294503768560218, -1.478, 0.646, -0.631], a = 0.2, v = 0.2, t = 0.2)
movej(p[0.384059628062468, 0.251603694075192, 0.293871499043179, -1.478, 0.646, -0.631], a = 0.2, v = 0.2, t = 0.2)
movej(p[0.384058733342027, 0.251603775943063, 0.293780003454362, -1.478, 0.646, -0.631], a = 0.2, v = 0.2, t = 0.2)
movej(p[0.38406319618803, 0.251603367587911, 0.294236381451478, -1.478, 0.646, -0.631], a = 0.2, v = 0.2, t = 0.2)
movej(p[0.384072601019942, 0.251602507035795, 0.295198135083438, -1.478, 0.646, -0.631], a = 0.2, v = 0.2, t = 0.2)
movej(p[0.384083123519029, 0.251601544215945, 0.296274183205034, -1.478, 0.646, -0.631], a = 0.2, v = 0.2, t = 0.2)
movej(p[0.384093743997337, 0.251600572430893, 0.297360250843569, -1.478, 0.646, -0.631], a = 0.2, v = 0.2, t = 0.2)
movej(p[0.384100479022568, 0.251599956168926, 0.298048985638306, -1.478, 0.646, -0.631], a = 0.2, v = 0.2, t = 0.2)
movej(p[0.384102800132737, 0.251599743784879, 0.298286346194685, -1.478, 0.646, -0.631], a = 0.2, v = 0.2, t = 0.2)
movej(p[0.384103474742171, 0.251599682057398, 0.298355332868701, -1.478, 0.646, -0.631], a = 0.2, v = 0.2, t = 0.2)
movej(p[0.384101858476142, 0.251599829947458, 0.298190050837274, -1.478, 0.646, -0.631], a = 0.2, v = 0.2, t = 0.2)
movej(p[0.384098053323001, 0.251600178123014, 0.297800929597577, -1.478, 0.646, -0.631], a = 0.2, v = 0.2, t = 0.2)
movej(p[0.384090346210902, 0.251600883331963, 0.297012787595458, -1.478, 0.646, -0.631], a = 0.2, v = 0.2, t = 0.2)
movej(p[0.384081951093008, 0.251601651494172, 0.296154288985371, -1.478, 0.646, -0.631], a = 0.2, v = 0.2, t = 0.2)
movej(p[0.384072806365617, 0.251602488246448, 0.295219134071035, -1.478, 0.646, -0.631], a = 0.2, v = 0.2, t = 0.2)
movej(p[0.384064429239916, 0.251603254762353, 0.294362475372242, -1.478, 0.646, -0.631], a = 0.2, v = 0.2, t = 0.2)
movej(p[0.384058493772073, 0.251603797863969, 0.293755504635499, -1.478, 0.646, -0.631], a = 0.2, v = 0.2, t = 0.2)
movej(p[0.384058394032745, 0.251603806990223, 0.293745305127237, -1.478, 0.646, -0.631], a = 0.2, v = 0.2, t = 0.2)
movej(p[0.384064017570729, 0.251603292430521, 0.294320377401868, -1.478, 0.646, -0.631], a = 0.2, v = 0.2, t = 0.2)
movej(p[0.38407303224586, 0.251602467578166, 0.295242232957392, -1.478, 0.646, -0.631], a = 0.2, v = 0.2, t = 0.2)
movej(p[0.384084957940392, 0.251601376364441, 0.296461774160904, -1.478, 0.646, -0.631], a = 0.2, v = 0.2, t = 0.2)
movej(p[0.384094834871789, 0.251600472614721, 0.297471805465301, -1.478, 0.646, -0.631], a = 0.2, v = 0.2, t = 0.2)
movej(p[0.384100986832644, 0.251599909703764, 0.298100915134682, -1.478, 0.646, -0.631], a = 0.2, v = 0.2, t = 0.2)
movej(p[0.384103538692681, 0.251599676205859, 0.29836187255341, -1.478, 0.646, -0.631], a = 0.2, v = 0.2, t = 0.2)
movej(p[0.384104603654465, 0.251599578760724, 0.298470777302897, -1.478, 0.646, -0.631], a = 0.2, v = 0.2, t = 0.2)
movej(p[0.384104642279009, 0.251599575226537, 0.298474727112469, -1.478, 0.646, -0.631], a = 0.2, v = 0.2, t = 0.2)
movej(p[0.384101733410848, 0.251599841391065, 0.298177261453875, -1.478, 0.646, -0.631], a = 0.2, v = 0.2, t = 0.2)
movej(p[0.384096495531598, 0.251600320662583, 0.297641627277856, -1.478, 0.646, -0.631], a = 0.2, v = 0.2, t = 0.2)
movej(p[0.384087471958155, 0.251601146329144, 0.296718861766203, -1.478, 0.646, -0.631], a = 0.2, v = 0.2, t = 0.2)
movej(p[0.384076992483877, 0.251602105212178, 0.295647213432484, -1.478, 0.646, -0.631], a = 0.2, v = 0.2, t = 0.2)
movej(p[0.384068266270528, 0.251602903669974, 0.294754856454775, -1.478, 0.646, -0.631], a = 0.2, v = 0.2, t = 0.2)
movej(p[0.384061782236382, 0.251603496965989, 0.294091788422594, -1.478, 0.646, -0.631], a = 0.2, v = 0.2, t = 0.2)
movej(p[0.384056455960708, 0.251603984325874, 0.29354711468239, -1.478, 0.646, -0.631], a = 0.2, v = 0.2, t = 0.2)
movej(p[0.384051525708836, 0.251604435449161, 0.293042938989695, -1.478, 0.646, -0.631], a = 0.2, v = 0.2, t = 0.2)
movej(p[0.384051727143165, 0.251604417017706, 0.293063537996576, -1.478, 0.646, -0.631], a = 0.2, v = 0.2, t = 0.2)
movej(p[0.384058873172654, 0.251603763148412, 0.293794302764964, -1.478, 0.646, -0.631], a = 0.2, v = 0.2, t = 0.2)
movej(p[0.384069874811648, 0.251602756486752, 0.294919348524288, -1.478, 0.646, -0.631], a = 0.2, v = 0.2, t = 0.2)
movej(p[0.384079946528086, 0.251601834913993, 0.295949298868349, -1.478, 0.646, -0.631], a = 0.2, v = 0.2, t = 0.2)
movej(p[0.38408942763125, 0.251600967382977, 0.296918852124273, -1.478, 0.646, -0.631], a = 0.2, v = 0.2, t = 0.2)
movej(p[0.384096663034998, 0.251600305335844, 0.297658756452025, -1.478, 0.646, -0.631], a = 0.2, v = 0.2, t = 0.2)
movej(p[0.384101194916261, 0.251599890663892, 0.298122194108781, -1.478, 0.646, -0.631], a = 0.2, v = 0.2, t = 0.2)
movej(p[0.384102704598106, 0.251599752526399, 0.298276576665693, -1.478, 0.646, -0.631], a = 0.2, v = 0.2, t = 0.2)
movej(p[0.384103610954802, 0.251599669593798, 0.298369262197141, -1.478, 0.646, -0.631], a = 0.2, v = 0.2, t = 0.2)
movej(p[0.384103581815273, 0.251599672260096, 0.298366282340805, -1.478, 0.646, -0.631], a = 0.2, v = 0.2, t = 0.2)
movej(p[0.384102817244877, 0.2515997422191, 0.298288096110318, -1.478, 0.646, -0.631], a = 0.2, v = 0.2, t = 0.2)
movej(p[0.384100422630734, 0.251599961328839, 0.298043218916331, -1.478, 0.646, -0.631], a = 0.2, v = 0.2, t = 0.2)
movej(p[0.384094691325384, 0.25160048574937, 0.297457126173019, -1.478, 0.646, -0.631], a = 0.2, v = 0.2, t = 0.2)
movej(p[0.384085242490827, 0.251601350327774, 0.296490872758003, -1.478, 0.646, -0.631], a = 0.2, v = 0.2, t = 0.2)
movej(p[0.384075714451509, 0.251602222153498, 0.295516519733485, -1.478, 0.646, -0.631], a = 0.2, v = 0.2, t = 0.2)
movej(p[0.384068504862645, 0.251602881838541, 0.29477925527846, -1.478, 0.646, -0.631], a = 0.2, v = 0.2, t = 0.2)
movej(p[0.384063076891971, 0.251603378503627, 0.294224182039636, -1.478, 0.646, -0.631], a = 0.2, v = 0.2, t = 0.2)
movej(p[0.384059617306266, 0.251603695059396, 0.29387039909621, -1.478, 0.646, -0.631], a = 0.2, v = 0.2, t = 0.2)
movej(p[0.38406182526119, 0.251603493029174, 0.294096188210471, -1.478, 0.646, -0.631], a = 0.2, v = 0.2, t = 0.2)
movej(p[0.38406933895722, 0.251602805518001, 0.294864551166177, -1.478, 0.646, -0.631], a = 0.2, v = 0.2, t = 0.2)
movej(p[0.38408035330809, 0.251601797693191, 0.295990896862828, -1.478, 0.646, -0.631], a = 0.2, v = 0.2, t = 0.2)
movej(p[0.384089191972642, 0.25160098894599, 0.296894753286125, -1.478, 0.646, -0.631], a = 0.2, v = 0.2, t = 0.2)
movej(p[0.38409762092368, 0.251600217688012, 0.297756711729408, -1.478, 0.646, -0.631], a = 0.2, v = 0.2, t = 0.2)
movej(p[0.384101955379744, 0.251599821080675, 0.298199960359516, -1.478, 0.646, -0.631], a = 0.2, v = 0.2, t = 0.2)
movej(p[0.384103392701685, 0.25159968956419, 0.29834694327318, -1.478, 0.646, -0.631], a = 0.2, v = 0.2, t = 0.2)
movej(p[0.384100145678089, 0.2515999866703, 0.298014897281773, -1.478, 0.646, -0.631], a = 0.2, v = 0.2, t = 0.2)
movej(p[0.384093197973409, 0.251600622392662, 0.297304413535596, -1.478, 0.646, -0.631], a = 0.2, v = 0.2, t = 0.2)
movej(p[0.384082614066187, 0.251601590831422, 0.296222085716757, -1.478, 0.646, -0.631], a = 0.2, v = 0.2, t = 0.2)
movej(p[0.384071296585988, 0.251602626392889, 0.295064741514605, -1.478, 0.646, -0.631], a = 0.2, v = 0.2, t = 0.2)
movej(p[0.384063230412309, 0.251603364456353, 0.294239881282745, -1.478, 0.646, -0.631], a = 0.2, v = 0.2, t = 0.2)
movej(p[0.38405841261164, 0.251603805290235, 0.293747205035639, -1.478, 0.646, -0.631], a = 0.2, v = 0.2, t = 0.2)
movej(p[0.384057712480672, 0.251603869352962, 0.29367560848745, -1.478, 0.646, -0.631], a = 0.2, v = 0.2, t = 0.2)
movej(p[0.384059982039298, 0.251603661685936, 0.29390769729799, -1.478, 0.646, -0.631], a = 0.2, v = 0.2, t = 0.2)
movej(p[0.384067188694653, 0.251603002269312, 0.294644661767479, -1.478, 0.646, -0.631], a = 0.2, v = 0.2, t = 0.2)
movej(p[0.384075210865687, 0.251602268232136, 0.295465022216282, -1.478, 0.646, -0.631], a = 0.2, v = 0.2, t = 0.2)
movej(p[0.384081593204832, 0.251601684241321, 0.296117690749844, -1.478, 0.646, -0.631], a = 0.2, v = 0.2, t = 0.2)
movej(p[0.384085619935734, 0.251601315791164, 0.29652947089711, -1.478, 0.646, -0.631], a = 0.2, v = 0.2, t = 0.2)
movej(p[0.384086217393865, 0.25160126112311, 0.296590567951501, -1.478, 0.646, -0.631], a = 0.2, v = 0.2, t = 0.2)
movej(p[0.38408095076622, 0.251601743025137, 0.296051993917218, -1.478, 0.646, -0.631], a = 0.2, v = 0.2, t = 0.2)
movej(p[0.384070847759013, 0.251602667461034, 0.295018843727428, -1.478, 0.646, -0.631], a = 0.2, v = 0.2, t = 0.2)
movej(p[0.384060196185502, 0.251603642091331, 0.293929596242199, -1.478, 0.646, -0.631], a = 0.2, v = 0.2, t = 0.2)
movej(p[0.384050710193156, 0.251604510069712, 0.29295954301038, -1.478, 0.646, -0.631], a = 0.2, v = 0.2, t = 0.2)
movej(p[0.384040991475712, 0.251605399342688, 0.29196569092595, -1.478, 0.646, -0.631], a = 0.2, v = 0.2, t = 0.2)
movej(p[0.384033012329485, 0.251606129443048, 0.291149730265024, -1.478, 0.646, -0.631], a = 0.2, v = 0.2, t = 0.2)
movej(p[0.384027935402131, 0.251606593987296, 0.290630555295474, -1.478, 0.646, -0.631], a = 0.2, v = 0.2, t = 0.2)
movej(p[0.384029640749069, 0.251606437946239, 0.290804946887711, -1.478, 0.646, -0.631], a = 0.2, v = 0.2, t = 0.2)
movej(p[0.38403452895397, 0.251605990670295, 0.291304822787707, -1.478, 0.646, -0.631], a = 0.2, v = 0.2, t = 0.2)
movej(p[0.384043698127275, 0.251605151681193, 0.292242477581519, -1.478, 0.646, -0.631], a = 0.2, v = 0.2, t = 0.2)
movej(p[0.384052001915235, 0.251604391875769, 0.293091636641885, -1.478, 0.646, -0.631], a = 0.2, v = 0.2, t = 0.2)
movej(p[0.384060022130597, 0.251603658017539, 0.293911797100331, -1.478, 0.646, -0.631], a = 0.2, v = 0.2, t = 0.2)
movej(p[0.384066925656621, 0.251603026337571, 0.294617763064318, -1.478, 0.646, -0.631], a = 0.2, v = 0.2, t = 0.2)
movej(p[0.384074453042363, 0.251602337573775, 0.29538752595253, -1.478, 0.646, -0.631], a = 0.2, v = 0.2, t = 0.2)
movej(p[0.38408119718103, 0.25160172047792, 0.296077192702335, -1.478, 0.646, -0.631], a = 0.2, v = 0.2, t = 0.2)
movej(p[0.384086511722665, 0.251601234191712, 0.29662066650039, -1.478, 0.646, -0.631], a = 0.2, v = 0.2, t = 0.2)
movej(p[0.384090140474093, 0.251600902157099, 0.296991748609789, -1.478, 0.646, -0.631], a = 0.2, v = 0.2, t = 0.2)
movej(p[0.384091089464462, 0.251600815323472, 0.297088793931043, -1.478, 0.646, -0.631], a = 0.2, v = 0.2, t = 0.2)
movej(p[0.384087823001475, 0.251601114208307, 0.296754760035476, -1.478, 0.646, -0.631], a = 0.2, v = 0.2, t = 0.2)
movej(p[0.38408180050618, 0.251601665273027, 0.296138889727799, -1.478, 0.646, -0.631], a = 0.2, v = 0.2, t = 0.2)
movej(p[0.384074449131017, 0.251602337931668, 0.295387125971814, -1.478, 0.646, -0.631], a = 0.2, v = 0.2, t = 0.2)
movej(p[0.384068309295336, 0.251602899733158, 0.294759256242653, -1.478, 0.646, -0.631], a = 0.2, v = 0.2, t = 0.2)
movej(p[0.384063110138413, 0.251603375461542, 0.294227581875723, -1.478, 0.646, -0.631], a = 0.2, v = 0.2, t = 0.2)
movej(p[0.384065034520739, 0.251603199378514, 0.294424372388064, -1.478, 0.646, -0.631], a = 0.2, v = 0.2, t = 0.2)
movej(p[0.384071719989213, 0.251602587651043, 0.295108039427127, -1.478, 0.646, -0.631], a = 0.2, v = 0.2, t = 0.2)
movej(p[0.384082684470419, 0.25160158438936, 0.296229285369647, -1.478, 0.646, -0.631], a = 0.2, v = 0.2, t = 0.2)
movej(p[0.384091437672057, 0.251600783462107, 0.297124402214297, -1.478, 0.646, -0.631], a = 0.2, v = 0.2, t = 0.2)
movej(p[0.384097741686494, 0.251600206638086, 0.297769061134019, -1.478, 0.646, -0.631], a = 0.2, v = 0.2, t = 0.2)
movej(p[0.38410065728217, 0.251599939857983, 0.298067214759444, -1.478, 0.646, -0.631], a = 0.2, v = 0.2, t = 0.2)
movej(p[0.384100322578499, 0.251599970483725, 0.298032987409612, -1.478, 0.646, -0.631], a = 0.2, v = 0.2, t = 0.2)
movej(p[0.384097290806062, 0.251600247894125, 0.297722953356965, -1.478, 0.646, -0.631], a = 0.2, v = 0.2, t = 0.2)
movej(p[0.3840908930171, 0.251600833298614, 0.297068704899575, -1.478, 0.646, -0.631], a = 0.2, v = 0.2, t = 0.2)
movej(p[0.384082515304696, 0.251601599868203, 0.296211986203674, -1.478, 0.646, -0.631], a = 0.2, v = 0.2, t = 0.2)
movej(p[0.384073733354664, 0.251602403425965, 0.29531392950076, -1.478, 0.646, -0.631], a = 0.2, v = 0.2, t = 0.2)
movej(p[0.38406728843398, 0.251602993143057, 0.29465486127574, -1.478, 0.646, -0.631], a = 0.2, v = 0.2, t = 0.2)
movej(p[0.384063428913128, 0.251603346293317, 0.294260180304089, -1.478, 0.646, -0.631], a = 0.2, v = 0.2, t = 0.2)
movej(p[0.384062989864518, 0.251603386466732, 0.294215282468702, -1.478, 0.646, -0.631], a = 0.2, v = 0.2, t = 0.2)
movej(p[0.384067034196478, 0.251603016406059, 0.294628862529191, -1.478, 0.646, -0.631], a = 0.2, v = 0.2, t = 0.2)
movej(p[0.384076843852721, 0.251602118812087, 0.295632014165271, -1.478, 0.646, -0.631], a = 0.2, v = 0.2, t = 0.2)
movej(p[0.384087498359742, 0.251601143913371, 0.296721561636037, -1.478, 0.646, -0.631], a = 0.2, v = 0.2, t = 0.2)
movej(p[0.384094768867822, 0.251600478654154, 0.297465055790716, -1.478, 0.646, -0.631], a = 0.2, v = 0.2, t = 0.2)
movej(p[0.384098881257206, 0.251600102366155, 0.297885595515666, -1.478, 0.646, -0.631], a = 0.2, v = 0.2, t = 0.2)
movej(p[0.384100497396117, 0.251599954487727, 0.29805086454772, -1.478, 0.646, -0.631], a = 0.2, v = 0.2, t = 0.2)
movej(p[0.38409999428523, 0.251600000522908, 0.297999415598175, -1.478, 0.646, -0.631], a = 0.2, v = 0.2, t = 0.2)
movej(p[0.384096641033676, 0.251600307348989, 0.297656506560497, -1.478, 0.646, -0.631], a = 0.2, v = 0.2, t = 0.2)
movej(p[0.384090880598575, 0.251600834434923, 0.297067434960801, -1.478, 0.646, -0.631], a = 0.2, v = 0.2, t = 0.2)
movej(p[0.384083241837251, 0.251601533389702, 0.296286282621697, -1.478, 0.646, -0.631], a = 0.2, v = 0.2, t = 0.2)
movej(p[0.384074165558418, 0.251602363878862, 0.295358127369894, -1.478, 0.646, -0.631], a = 0.2, v = 0.2, t = 0.2)
movej(p[0.384067961185525, 0.251602931585576, 0.294723657958916, -1.478, 0.646, -0.631], a = 0.2, v = 0.2, t = 0.2)
movej(p[0.384065466724493, 0.251603159831411, 0.294468570257198, -1.478, 0.646, -0.631], a = 0.2, v = 0.2, t = 0.2)
movej(p[0.384067981720092, 0.251602929706641, 0.294725757857676, -1.478, 0.646, -0.631], a = 0.2, v = 0.2, t = 0.2)
movej(p[0.384073622859134, 0.251602413536423, 0.295302630045529, -1.478, 0.646, -0.631], a = 0.2, v = 0.2, t = 0.2)
movej(p[0.384082572997053, 0.251601594589291, 0.296217885919237, -1.478, 0.646, -0.631], a = 0.2, v = 0.2, t = 0.2)
movej(p[0.38409188698795, 0.251600742349225, 0.297170349999064, -1.478, 0.646, -0.631], a = 0.2, v = 0.2, t = 0.2)
movej(p[0.384099004660178, 0.251600091074652, 0.29789821490726, -1.478, 0.646, -0.631], a = 0.2, v = 0.2, t = 0.2)
movej(p[0.384100935085534, 0.25159991443868, 0.298095623389808, -1.478, 0.646, -0.631], a = 0.2, v = 0.2, t = 0.2)
movej(p[0.38410277265553, 0.251599746299072, 0.298283536330154, -1.478, 0.646, -0.631], a = 0.2, v = 0.2, t = 0.2)
movej(p[0.384103197623294, 0.25159970741407, 0.298326994234963, -1.478, 0.646, -0.631], a = 0.2, v = 0.2, t = 0.2)
movej(p[0.384103659553279, 0.251599665146986, 0.298374231957539, -1.478, 0.646, -0.631], a = 0.2, v = 0.2, t = 0.2)
movej(p[0.384102903294493, 0.251599734345468, 0.298296895686073, -1.478, 0.646, -0.631], a = 0.2, v = 0.2, t = 0.2)
movej(p[0.384101476924321, 0.251599864859855, 0.298151032718415, -1.478, 0.646, -0.631], a = 0.2, v = 0.2, t = 0.2)
movej(p[0.384096787806942, 0.251600293919079, 0.29767151583687, -1.478, 0.646, -0.631], a = 0.2, v = 0.2, t = 0.2)
movej(p[0.384088677630618, 0.251601036008832, 0.296842155821953, -1.478, 0.646, -0.631], a = 0.2, v = 0.2, t = 0.2)
movej(p[0.384080326906503, 0.251601800108964, 0.295988196992994, -1.478, 0.646, -0.631], a = 0.2, v = 0.2, t = 0.2)
movej(p[0.384072753562444, 0.251602493077994, 0.295213734331367, -1.478, 0.646, -0.631], a = 0.2, v = 0.2, t = 0.2)
movej(p[0.384066733022821, 0.251603043963768, 0.294598064014048, -1.478, 0.646, -0.631], a = 0.2, v = 0.2, t = 0.2)
movej(p[0.384060911961855, 0.251603576597034, 0.294002792713252, -1.478, 0.646, -0.631], a = 0.2, v = 0.2, t = 0.2)
movej(p[0.384061161310174, 0.251603553781397, 0.294028291483906, -1.478, 0.646, -0.631], a = 0.2, v = 0.2, t = 0.2)
movej(p[0.384066607859743, 0.251603055416323, 0.294585264631132, -1.478, 0.646, -0.631], a = 0.2, v = 0.2, t = 0.2)
movej(p[0.384077059954598, 0.251602099038535, 0.295654113099837, -1.478, 0.646, -0.631], a = 0.2, v = 0.2, t = 0.2)
movej(p[0.384087289102721, 0.25160116306061, 0.296700162667723, -1.478, 0.646, -0.631], a = 0.2, v = 0.2, t = 0.2)
movej(p[0.384096447324256, 0.251600325073606, 0.29763669751553, -1.478, 0.646, -0.631], a = 0.2, v = 0.2, t = 0.2)
movej(p[0.384101779369165, 0.25159983718583, 0.29818196122729, -1.478, 0.646, -0.631], a = 0.2, v = 0.2, t = 0.2)
movej(p[0.384103380674295, 0.251599690664709, 0.298345713332478, -1.478, 0.646, -0.631], a = 0.2, v = 0.2, t = 0.2)
movej(p[0.384103442766916, 0.251599684983168, 0.298352063026347, -1.478, 0.646, -0.631], a = 0.2, v = 0.2, t = 0.2)
movej(p[0.384103599416331, 0.25159967064958, 0.298368082254028, -1.478, 0.646, -0.631], a = 0.2, v = 0.2, t = 0.2)
movej(p[0.384103345961098, 0.251599693841003, 0.298342163503622, -1.478, 0.646, -0.631], a = 0.2, v = 0.2, t = 0.2)
movej(p[0.384101042764894, 0.251599904585904, 0.298106634858923, -1.478, 0.646, -0.631], a = 0.2, v = 0.2, t = 0.2)
movej(p[0.38409644155502, 0.251600325601498, 0.297636107543974, -1.478, 0.646, -0.631], a = 0.2, v = 0.2, t = 0.2)
movej(p[0.38408915285918, 0.251600992524914, 0.296890753478964, -1.478, 0.646, -0.631], a = 0.2, v = 0.2, t = 0.2)
movej(p[0.38408041002261, 0.251601792503752, 0.295996696583212, -1.478, 0.646, -0.631], a = 0.2, v = 0.2, t = 0.2)
movej(p[0.384072427942873, 0.251602522872531, 0.295180435936748, -1.478, 0.646, -0.631], a = 0.2, v = 0.2, t = 0.2)
movej(p[0.384067471289415, 0.251602976411591, 0.29467356037422, -1.478, 0.646, -0.631], a = 0.2, v = 0.2, t = 0.2)
movej(p[0.384065796255409, 0.251603129678982, 0.294502268632533, -1.478, 0.646, -0.631], a = 0.2, v = 0.2, t = 0.2)
movej(p[0.384066025069161, 0.251603108742281, 0.294525667504427, -1.478, 0.646, -0.631], a = 0.2, v = 0.2, t = 0.2)
movej(p[0.384071921423542, 0.251602569219588, 0.295128638434008, -1.478, 0.646, -0.631], a = 0.2, v = 0.2, t = 0.2)
movej(p[0.384081286164156, 0.251601712335869, 0.296086292263627, -1.478, 0.646, -0.631], a = 0.2, v = 0.2, t = 0.2)
movej(p[0.384091947613816, 0.251600736801894, 0.297176549700164, -1.478, 0.646, -0.631], a = 0.2, v = 0.2, t = 0.2)
movej(p[0.384097912416755, 0.251600191016086, 0.297786520292278, -1.478, 0.646, -0.631], a = 0.2, v = 0.2, t = 0.2)
movej(p[0.384102099806202, 0.251599807865501, 0.29821472964746, -1.478, 0.646, -0.631], a = 0.2, v = 0.2, t = 0.2)
movej(p[0.38410350974872, 0.251599678854262, 0.298358912696111, -1.478, 0.646, -0.631], a = 0.2, v = 0.2, t = 0.2)
movej(p[0.384104398602141, 0.251599597523229, 0.298449808313853, -1.478, 0.646, -0.631], a = 0.2, v = 0.2, t = 0.2)
movej(p[0.38410404433196, 0.251599629939327, 0.298413580060489, -1.478, 0.646, -0.631], a = 0.2, v = 0.2, t = 0.2)
movej(p[0.384103817865016, 0.251599650661293, 0.298390421177024, -1.478, 0.646, -0.631], a = 0.2, v = 0.2, t = 0.2)
movej(p[0.384101142699789, 0.251599895441755, 0.29811685436622, -1.478, 0.646, -0.631], a = 0.2, v = 0.2, t = 0.2)
movej(p[0.38409502457208, 0.251600455256943, 0.297491204530034, -1.478, 0.646, -0.631], a = 0.2, v = 0.2, t = 0.2)
movej(p[0.384088225870133, 0.251601077345397, 0.296795958049239, -1.478, 0.646, -0.631], a = 0.2, v = 0.2, t = 0.2)
movej(p[0.384080907741412, 0.251601746961952, 0.29604759412934, -1.478, 0.646, -0.631], a = 0.2, v = 0.2, t = 0.2)
movej(p[0.384073702063895, 0.251602406289103, 0.295310729655031, -1.478, 0.646, -0.631], a = 0.2, v = 0.2, t = 0.2)
movej(p[0.384067339281481, 0.251602988490457, 0.29466006102505, -1.478, 0.646, -0.631], a = 0.2, v = 0.2, t = 0.2)
movej(p[0.384064862421506, 0.251603215125777, 0.294406773236554, -1.478, 0.646, -0.631], a = 0.2, v = 0.2, t = 0.2)
movej(p[0.384066977481958, 0.251603021595498, 0.294623062808807, -1.478, 0.646, -0.631], a = 0.2, v = 0.2, t = 0.2)
movej(p[0.384072708581962, 0.251602497193756, 0.295209134553131, -1.478, 0.646, -0.631], a = 0.2, v = 0.2, t = 0.2)
movej(p[0.384082523127389, 0.251601599152419, 0.296212786165106, -1.478, 0.646, -0.631], a = 0.2, v = 0.2, t = 0.2)
movej(p[0.384092696049909, 0.251600668319196, 0.297253086010198, -1.478, 0.646, -0.631], a = 0.2, v = 0.2, t = 0.2)
movej(p[0.384099674683559, 0.2516000297668, 0.297966732603887, -1.478, 0.646, -0.631], a = 0.2, v = 0.2, t = 0.2)
movej(p[0.384102169525948, 0.25159980148607, 0.298221859303725, -1.478, 0.646, -0.631], a = 0.2, v = 0.2, t = 0.2)
movej(p[0.384103274676814, 0.251599700363591, 0.298334873855071, -1.478, 0.646, -0.631], a = 0.2, v = 0.2, t = 0.2)
movej(p[0.384102656977467, 0.251599756883738, 0.298271706900474, -1.478, 0.646, -0.631], a = 0.2, v = 0.2, t = 0.2)
movej(p[0.384099468604507, 0.251600048623252, 0.297945658619905, -1.478, 0.646, -0.631], a = 0.2, v = 0.2, t = 0.2)
movej(p[0.38409346502057, 0.251600597957563, 0.297331722218991, -1.478, 0.646, -0.631], a = 0.2, v = 0.2, t = 0.2)
movej(p[0.384085989557949, 0.251601281970338, 0.296567269074786, -1.478, 0.646, -0.631], a = 0.2, v = 0.2, t = 0.2)
movej(p[0.3840780847273, 0.251602005270744, 0.295758908047466, -1.478, 0.646, -0.631], a = 0.2, v = 0.2, t = 0.2)
movej(p[0.384069878722994, 0.251602756128859, 0.294919748505004, -1.478, 0.646, -0.631], a = 0.2, v = 0.2, t = 0.2)
movej(p[0.384065855903438, 0.251603124221124, 0.294508368338454, -1.478, 0.646, -0.631], a = 0.2, v = 0.2, t = 0.2)
movej(p[0.384066625460801, 0.251603053805808, 0.294587064544354, -1.478, 0.646, -0.631], a = 0.2, v = 0.2, t = 0.2)
movej(p[0.384073019533985, 0.251602468741316, 0.295240933020065, -1.478, 0.646, -0.631], a = 0.2, v = 0.2, t = 0.2)
movej(p[0.384081812240219, 0.25160166419935, 0.296140089669948, -1.478, 0.646, -0.631], a = 0.2, v = 0.2, t = 0.2)
movej(p[0.384091841127416, 0.251600746545513, 0.297165660225167, -1.478, 0.646, -0.631], a = 0.2, v = 0.2, t = 0.2)
movej(p[0.384099106452963, 0.251600081760504, 0.297908624405398, -1.478, 0.646, -0.631], a = 0.2, v = 0.2, t = 0.2)
movej(p[0.384101787387425, 0.251599836452151, 0.298182781187758, -1.478, 0.646, -0.631], a = 0.2, v = 0.2, t = 0.2)
movej(p[0.384102720927977, 0.251599751032198, 0.298278246585183, -1.478, 0.646, -0.631], a = 0.2, v = 0.2, t = 0.2)
movej(p[0.384103144135634, 0.251599712308248, 0.298321524498669, -1.478, 0.646, -0.631], a = 0.2, v = 0.2, t = 0.2)
movej(p[0.384102079760553, 0.251599809699699, 0.29821267974629, -1.478, 0.646, -0.631], a = 0.2, v = 0.2, t = 0.2)
movej(p[0.384097888753111, 0.251600193181334, 0.297784100408945, -1.478, 0.646, -0.631], a = 0.2, v = 0.2, t = 0.2)
movej(p[0.384091238291184, 0.251600801705669, 0.297104013197292, -1.478, 0.646, -0.631], a = 0.2, v = 0.2, t = 0.2)
movej(p[0.384082528016571, 0.251601598705053, 0.296213286141002, -1.478, 0.646, -0.631], a = 0.2, v = 0.2, t = 0.2)
movej(p[0.384073862429088, 0.251602391615518, 0.295327128864393, -1.478, 0.646, -0.631], a = 0.2, v = 0.2, t = 0.2)
movej(p[0.384067121223931, 0.251603008442954, 0.294637762100125, -1.478, 0.646, -0.631], a = 0.2, v = 0.2, t = 0.2)
movej(p[0.384064045927989, 0.251603289835802, 0.29432327726206, -1.478, 0.646, -0.631], a = 0.2, v = 0.2, t = 0.2)
movej(p[0.384065824612669, 0.251603127084263, 0.294505168492725, -1.478, 0.646, -0.631], a = 0.2, v = 0.2, t = 0.2)
movej(p[0.384071388502624, 0.251602617982419, 0.295074141061434, -1.478, 0.646, -0.631], a = 0.2, v = 0.2, t = 0.2)
movej(p[0.384082105591183, 0.251601637357425, 0.296170088223658, -1.478, 0.646, -0.631], a = 0.2, v = 0.2, t = 0.2)
movej(p[0.384092192072953, 0.251600714433623, 0.297201548494923, -1.478, 0.646, -0.631], a = 0.2, v = 0.2, t = 0.2)
movej(p[0.384099246616054, 0.251600068935432, 0.297922957714361, -1.478, 0.646, -0.631], a = 0.2, v = 0.2, t = 0.2)
movej(p[0.384101746611641, 0.251599840183178, 0.298178611388792, -1.478, 0.646, -0.631], a = 0.2, v = 0.2, t = 0.2)
movej(p[0.384102592831389, 0.251599762753172, 0.298265147216729, -1.478, 0.646, -0.631], a = 0.2, v = 0.2, t = 0.2)
movej(p[0.384102879826416, 0.251599736492822, 0.298294495801776, -1.478, 0.646, -0.631], a = 0.2, v = 0.2, t = 0.2)
movej(p[0.384102012387614, 0.251599815864394, 0.298205790078454, -1.478, 0.646, -0.631], a = 0.2, v = 0.2, t = 0.2)
movej(p[0.384101953032936, 0.251599821295411, 0.298199720371087, -1.478, 0.646, -0.631], a = 0.2, v = 0.2, t = 0.2)
movej(p[0.384099301326009, 0.251600063929413, 0.297928552444628, -1.478, 0.646, -0.631], a = 0.2, v = 0.2, t = 0.2)
movej(p[0.384094247778726, 0.25160052633436, 0.297411768359808, -1.478, 0.646, -0.631], a = 0.2, v = 0.2, t = 0.2)
movej(p[0.384087008463631, 0.251601188739385, 0.29667146405134, -1.478, 0.646, -0.631], a = 0.2, v = 0.2, t = 0.2)
movej(p[0.384080243790397, 0.251601807714176, 0.295979697402776, -1.478, 0.646, -0.631], a = 0.2, v = 0.2, t = 0.2)
movej(p[0.384073875140964, 0.251602390452368, 0.29532842880172, -1.478, 0.646, -0.631], a = 0.2, v = 0.2, t = 0.2)
movej(p[0.384068126439901, 0.251602916464625, 0.294740557144173, -1.478, 0.646, -0.631], a = 0.2, v = 0.2, t = 0.2)
movej(p[0.384066007468103, 0.251603110352796, 0.294523867591204, -1.478, 0.646, -0.631], a = 0.2, v = 0.2, t = 0.2)
movej(p[0.384068272137547, 0.251602903133135, 0.294755456425849, -1.478, 0.646, -0.631], a = 0.2, v = 0.2, t = 0.2)
movej(p[0.384075309627179, 0.251602259195354, 0.295475121729365, -1.478, 0.646, -0.631], a = 0.2, v = 0.2, t = 0.2)
movej(p[0.384083767913313, 0.251601485253184, 0.296340080028018, -1.478, 0.646, -0.631], a = 0.2, v = 0.2, t = 0.2)
movej(p[0.38409304415972, 0.251600636466778, 0.297288684293934, -1.478, 0.646, -0.631], a = 0.2, v = 0.2, t = 0.2)
movej(p[0.38409886209161, 0.251600104119827, 0.297883635610157, -1.478, 0.646, -0.631], a = 0.2, v = 0.2, t = 0.2)
movej(p[0.384101489147278, 0.251599863741441, 0.298152282658152, -1.478, 0.646, -0.631], a = 0.2, v = 0.2, t = 0.2)
movej(p[0.384102710465126, 0.25159975198956, 0.298277176636767, -1.478, 0.646, -0.631], a = 0.2, v = 0.2, t = 0.2)
movej(p[0.384103336965002, 0.251599694664156, 0.298341243547975, -1.478, 0.646, -0.631], a = 0.2, v = 0.2, t = 0.2)
movej(p[0.384103018385854, 0.251599723814486, 0.298308665118645, -1.478, 0.646, -0.631], a = 0.2, v = 0.2, t = 0.2)
movej(p[0.384101491591869, 0.251599863517759, 0.2981525326461, -1.478, 0.646, -0.631], a = 0.2, v = 0.2, t = 0.2)
movej(p[0.384098066328228, 0.251600176933022, 0.297802259533458, -1.478, 0.646, -0.631], a = 0.2, v = 0.2, t = 0.2)
movej(p[0.38409195201408, 0.251600736399265, 0.29717699967847, -1.478, 0.646, -0.631], a = 0.2, v = 0.2, t = 0.2)
movej(p[0.384083662306966, 0.251601494916277, 0.296329280548682, -1.478, 0.646, -0.631], a = 0.2, v = 0.2, t = 0.2)
movej(p[0.384077436421669, 0.251602064591398, 0.295692611243766, -1.478, 0.646, -0.631], a = 0.2, v = 0.2, t = 0.2)
movej(p[0.384072079833063, 0.251602554724949, 0.295144837653012, -1.478, 0.646, -0.631], a = 0.2, v = 0.2, t = 0.2)
movej(p[0.384068023767064, 0.251602925859299, 0.294730057650374, -1.478, 0.646, -0.631], a = 0.2, v = 0.2, t = 0.2)
movej(p[0.384066626438638, 0.251603053716335, 0.294587164539533, -1.478, 0.646, -0.631], a = 0.2, v = 0.2, t = 0.2)
movej(p[0.384070989545312, 0.251602654487437, 0.295033343028388, -1.478, 0.646, -0.631], a = 0.2, v = 0.2, t = 0.2)
movej(p[0.384079762694815, 0.251601851734933, 0.29593049977469, -1.478, 0.646, -0.631], a = 0.2, v = 0.2, t = 0.2)
movej(p[0.384088837017975, 0.251601021424719, 0.296858455036136, -1.478, 0.646, -0.631], a = 0.2, v = 0.2, t = 0.2)
movej(p[0.384096030765887, 0.25160036318914, 0.297594099569261, -1.478, 0.646, -0.631], a = 0.2, v = 0.2, t = 0.2)
movej(p[0.384100297008073, 0.251599972823446, 0.29803037253568, -1.478, 0.646, -0.631], a = 0.2, v = 0.2, t = 0.2)
movej(p[0.384102851273589, 0.251599739105436, 0.298291575942548, -1.478, 0.646, -0.631], a = 0.2, v = 0.2, t = 0.2)
movej(p[0.384102542863941, 0.251599767325247, 0.298260037463081, -1.478, 0.646, -0.631], a = 0.2, v = 0.2, t = 0.2)
movej(p[0.384101198143121, 0.251599890368631, 0.298122524092872, -1.478, 0.646, -0.631], a = 0.2, v = 0.2, t = 0.2)
movej(p[0.384095751495769, 0.251600388742653, 0.297565540946128, -1.478, 0.646, -0.631], a = 0.2, v = 0.2, t = 0.2)
movej(p[0.384087504226761, 0.251601143376532, 0.296722161607111, -1.478, 0.646, -0.631], a = 0.2, v = 0.2, t = 0.2)
movej(p[0.384079109500002, 0.251601911502953, 0.295863702995095, -1.478, 0.646, -0.631], a = 0.2, v = 0.2, t = 0.2)
movej(p[0.384071867642532, 0.251602574140608, 0.295123138699161, -1.478, 0.646, -0.631], a = 0.2, v = 0.2, t = 0.2)
movej(p[0.384065610466465, 0.251603146678868, 0.294483269548516, -1.478, 0.646, -0.631], a = 0.2, v = 0.2, t = 0.2)
movej(p[0.384061086994597, 0.251603560581352, 0.2940206918503, -1.478, 0.646, -0.631], a = 0.2, v = 0.2, t = 0.2)
movej(p[0.384061890776239, 0.251603487034477, 0.294102887887467, -1.478, 0.646, -0.631], a = 0.2, v = 0.2, t = 0.2)
movej(p[0.384068208578171, 0.251602908948886, 0.294748956739212, -1.478, 0.646, -0.631], a = 0.2, v = 0.2, t = 0.2)
movej(p[0.384078155131531, 0.251601998828682, 0.295766107700357, -1.478, 0.646, -0.631], a = 0.2, v = 0.2, t = 0.2)
movej(p[0.384088160355084, 0.251601083340093, 0.296789258372243, -1.478, 0.646, -0.631], a = 0.2, v = 0.2, t = 0.2)
movej(p[0.384096682493946, 0.25160030355533, 0.297660746356088, -1.478, 0.646, -0.631], a = 0.2, v = 0.2, t = 0.2)
movej(p[0.384101208508189, 0.251599889420216, 0.298123584041769, -1.478, 0.646, -0.631], a = 0.2, v = 0.2, t = 0.2)
movej(p[0.384102652088284, 0.251599757331103, 0.298271206924579, -1.478, 0.646, -0.631], a = 0.2, v = 0.2, t = 0.2)
movej(p[0.384103055543643, 0.251599720414509, 0.298312464935449, -1.478, 0.646, -0.631], a = 0.2, v = 0.2, t = 0.2)
movej(p[0.384103185595904, 0.251599708514589, 0.29832576429426, -1.478, 0.646, -0.631], a = 0.2, v = 0.2, t = 0.2)
movej(p[0.384101967993835, 0.251599819926472, 0.298201250297326, -1.478, 0.646, -0.631], a = 0.2, v = 0.2, t = 0.2)
movej(p[0.384097295206326, 0.251600247491496, 0.297723403335271, -1.478, 0.646, -0.631], a = 0.2, v = 0.2, t = 0.2)
movej(p[0.384091314366868, 0.251600794744663, 0.297111792822221, -1.478, 0.646, -0.631], a = 0.2, v = 0.2, t = 0.2)
movej(p[0.384083103962298, 0.251601546005407, 0.296272183301453, -1.478, 0.646, -0.631], a = 0.2, v = 0.2, t = 0.2)
movej(p[0.384074799196501, 0.251602305900304, 0.295422924245908, -1.478, 0.646, -0.631], a = 0.2, v = 0.2, t = 0.2)
movej(p[0.384068072658891, 0.251602921385644, 0.294735057409326, -1.478, 0.646, -0.631], a = 0.2, v = 0.2, t = 0.2)
movej(p[0.384063715419236, 0.251603320077704, 0.294289478891546, -1.478, 0.646, -0.631], a = 0.2, v = 0.2, t = 0.2)
movej(p[0.384063191298847, 0.251603368035276, 0.294235881475583, -1.478, 0.646, -0.631], a = 0.2, v = 0.2, t = 0.2)
movej(p[0.384067268877249, 0.251602994932519, 0.294652861372159, -1.478, 0.646, -0.631], a = 0.2, v = 0.2, t = 0.2)
movej(p[0.384077180228494, 0.251602088033346, 0.295666412506859, -1.478, 0.646, -0.631], a = 0.2, v = 0.2, t = 0.2)
movej(p[0.384088855596869, 0.251601019724731, 0.296860354944537, -1.478, 0.646, -0.631], a = 0.2, v = 0.2, t = 0.2)
movej(p[0.38409793715602, 0.251600188752417, 0.297789050170308, -1.478, 0.646, -0.631], a = 0.2, v = 0.2, t = 0.2)
movej(p[0.384101750425203, 0.251599839834234, 0.298179001369991, -1.478, 0.646, -0.631], a = 0.2, v = 0.2, t = 0.2)
movej(p[0.384103665224731, 0.251599664628042, 0.298374811929577, -1.478, 0.646, -0.631], a = 0.2, v = 0.2, t = 0.2)
movej(p[0.384102928424892, 0.25159973204601, 0.298299465562174, -1.478, 0.646, -0.631], a = 0.2, v = 0.2, t = 0.2)
movej(p[0.384099806965287, 0.251600017662881, 0.297980259951707, -1.478, 0.646, -0.631], a = 0.2, v = 0.2, t = 0.2)
movej(p[0.384094060425244, 0.251600543477403, 0.297392609283505, -1.478, 0.646, -0.631], a = 0.2, v = 0.2, t = 0.2)
movej(p[0.384085775411745, 0.251601301564943, 0.296545370130577, -1.478, 0.646, -0.631], a = 0.2, v = 0.2, t = 0.2)
movej(p[0.384076578859017, 0.251602143059292, 0.295604915471752, -1.478, 0.646, -0.631], a = 0.2, v = 0.2, t = 0.2)
movej(p[0.38406797683091, 0.251602930154006, 0.294725257881781, -1.478, 0.646, -0.631], a = 0.2, v = 0.2, t = 0.2)
movej(p[0.384062895014373, 0.251603395145621, 0.294205582936336, -1.478, 0.646, -0.631], a = 0.2, v = 0.2, t = 0.2)
movej(p[0.384061849707104, 0.251603490792347, 0.294098688089947, -1.478, 0.646, -0.631], a = 0.2, v = 0.2, t = 0.2)
movej(p[0.38406420727102, 0.251603275072743, 0.294339776466601, -1.478, 0.646, -0.631], a = 0.2, v = 0.2, t = 0.2)
movej(p[0.38407297259783, 0.251602473036024, 0.295236133251471, -1.478, 0.646, -0.631], a = 0.2, v = 0.2, t = 0.2)
movej(p[0.384083663284803, 0.251601494826803, 0.296329380543861, -1.478, 0.646, -0.631], a = 0.2, v = 0.2, t = 0.2)
movej(p[0.384093537673826, 0.251600591309713, 0.297339151860793, -1.478, 0.646, -0.631], a = 0.2, v = 0.2, t = 0.2)
movej(p[0.384098832560946, 0.251600106821914, 0.29788061575575, -1.478, 0.646, -0.631], a = 0.2, v = 0.2, t = 0.2)
movej(p[0.38410173106404, 0.251599841605801, 0.298177021465446, -1.478, 0.646, -0.631], a = 0.2, v = 0.2, t = 0.2)
movej(p[0.384102319037156, 0.251599787805636, 0.2982371485666, -1.478, 0.646, -0.631], a = 0.2, v = 0.2, t = 0.2)
movej(p[0.38410028500024, 0.251599973922175, 0.298029144594882, -1.478, 0.646, -0.631], a = 0.2, v = 0.2, t = 0.2)
movej(p[0.384095210947726, 0.251600438203373, 0.297510263611158, -1.478, 0.646, -0.631], a = 0.2, v = 0.2, t = 0.2)
movej(p[0.384087381997193, 0.251601154560668, 0.296709662209732, -1.478, 0.646, -0.631], a = 0.2, v = 0.2, t = 0.2)
movej(p[0.384078407413361, 0.251601975744626, 0.295791906456548, -1.478, 0.646, -0.631], a = 0.2, v = 0.2, t = 0.2)
movej(p[0.384069750626407, 0.251602767849833, 0.29490664913655, -1.478, 0.646, -0.631], a = 0.2, v = 0.2, t = 0.2)
movej(p[0.38406436568054, 0.251603260578103, 0.294355975685604, -1.478, 0.646, -0.631], a = 0.2, v = 0.2, t = 0.2)
movej(p[0.3840618790422, 0.251603488108154, 0.294101687945318, -1.478, 0.646, -0.631], a = 0.2, v = 0.2, t = 0.2)
movej(p[0.384063545275677, 0.25160333564602, 0.294272079730394, -1.478, 0.646, -0.631], a = 0.2, v = 0.2, t = 0.2)
movej(p[0.384069369270153, 0.251602802744336, 0.294867651016727, -1.478, 0.646, -0.631], a = 0.2, v = 0.2, t = 0.2)
movej(p[0.384080241834724, 0.251601807893122, 0.295979497412418, -1.478, 0.646, -0.631], a = 0.2, v = 0.2, t = 0.2)
movej(p[0.384091132000352, 0.251600811431393, 0.297093143721331, -1.478, 0.646, -0.631], a = 0.2, v = 0.2, t = 0.2)
movej(p[0.38409796473101, 0.251600186229276, 0.297791870034356, -1.478, 0.646, -0.631], a = 0.2, v = 0.2, t = 0.2)
movej(p[0.384101874610445, 0.251599828471152, 0.298191700757728, -1.478, 0.646, -0.631], a = 0.2, v = 0.2, t = 0.2)
movej(p[0.384103369331391, 0.251599691702597, 0.298344553388401, -1.478, 0.646, -0.631], a = 0.2, v = 0.2, t = 0.2)
movej(p[0.384103547982129, 0.251599675355864, 0.298362822507611, -1.478, 0.646, -0.631], a = 0.2, v = 0.2, t = 0.2)
movej(p[0.384102877577392, 0.25159973669861, 0.298294265812864, -1.478, 0.646, -0.631], a = 0.2, v = 0.2, t = 0.2)
movej(p[0.384100405137238, 0.251599962929512, 0.298041430002578, -1.478, 0.646, -0.631], a = 0.2, v = 0.2, t = 0.2)
movej(p[0.384094707948606, 0.251600484228327, 0.297458826091062, -1.478, 0.646, -0.631], a = 0.2, v = 0.2, t = 0.2)
movej(p[0.384086024760065, 0.251601278749307, 0.296570868901231, -1.478, 0.646, -0.631], a = 0.2, v = 0.2, t = 0.2)
movej(p[0.384078337986966, 0.251601982097215, 0.295784806798836, -1.478, 0.646, -0.631], a = 0.2, v = 0.2, t = 0.2)
movej(p[0.384071749324309, 0.251602584966851, 0.295111039282498, -1.478, 0.646, -0.631], a = 0.2, v = 0.2, t = 0.2)
movej(p[0.384066202057576, 0.251603092547653, 0.294543766631832, -1.478, 0.646, -0.631], a = 0.2, v = 0.2, t = 0.2)
movej(p[0.384062353292926, 0.251603444713709, 0.29415018560715, -1.478, 0.646, -0.631], a = 0.2, v = 0.2, t = 0.2)
movej(p[0.384063600034524, 0.251603330635528, 0.29427767946042, -1.478, 0.646, -0.631], a = 0.2, v = 0.2, t = 0.2)
movej(p[0.384069586349867, 0.251602782881311, 0.294889849946472, -1.478, 0.646, -0.631], a = 0.2, v = 0.2, t = 0.2)
movej(p[0.384078240203311, 0.251601991044524, 0.295774807280933, -1.478, 0.646, -0.631], a = 0.2, v = 0.2, t = 0.2)
movej(p[0.384088038125516, 0.251601094524229, 0.296776758974864, -1.478, 0.646, -0.631], a = 0.2, v = 0.2, t = 0.2)
movej(p[0.384096140381364, 0.251600353159207, 0.297605309028831, -1.478, 0.646, -0.631], a = 0.2, v = 0.2, t = 0.2)
movej(p[0.384101896318416, 0.251599826484849, 0.298193920650703, -1.478, 0.646, -0.631], a = 0.2, v = 0.2, t = 0.2)
movej(p[0.384103237323457, 0.251599703781463, 0.298331054039231, -1.478, 0.646, -0.631], a = 0.2, v = 0.2, t = 0.2)
movej(p[0.384104099090807, 0.251599624928835, 0.298419179790515, -1.478, 0.646, -0.631], a = 0.2, v = 0.2, t = 0.2)
movej(p[0.384103668647159, 0.251599664314886, 0.298375161912704, -1.478, 0.646, -0.631], a = 0.2, v = 0.2, t = 0.2)
movej(p[0.384101379140666, 0.251599873807163, 0.298141033200511, -1.478, 0.646, -0.631], a = 0.2, v = 0.2, t = 0.2)
movej(p[0.38409692421514, 0.251600281437584, 0.297685465164345, -1.478, 0.646, -0.631], a = 0.2, v = 0.2, t = 0.2)
movej(p[0.384090216745343, 0.251600895178199, 0.296999548233754, -1.478, 0.646, -0.631], a = 0.2, v = 0.2, t = 0.2)
movej(p[0.38408196184921, 0.251601650509968, 0.29615538893234, -1.478, 0.646, -0.631], a = 0.2, v = 0.2, t = 0.2)
movej(p[0.384074102976879, 0.251602369605139, 0.295351727678435, -1.478, 0.646, -0.631], a = 0.2, v = 0.2, t = 0.2)
movej(p[0.384068419790866, 0.2516028896227, 0.294770555697884, -1.478, 0.646, -0.631], a = 0.2, v = 0.2, t = 0.2)
movej(p[0.384065415876992, 0.251603164484012, 0.294463370507888, -1.478, 0.646, -0.631], a = 0.2, v = 0.2, t = 0.2)
movej(p[0.384066075916662, 0.251603104089681, 0.294530867253737, -1.478, 0.646, -0.631], a = 0.2, v = 0.2, t = 0.2)
movej(p[0.384070773443435, 0.251602674260988, 0.295011244093821, -1.478, 0.646, -0.631], a = 0.2, v = 0.2, t = 0.2)
movej(p[0.384080083425203, 0.251601822387762, 0.295963298193414, -1.478, 0.646, -0.631], a = 0.2, v = 0.2, t = 0.2)
movej(p[0.384089544971635, 0.251600956646207, 0.296930851545757, -1.478, 0.646, -0.631], a = 0.2, v = 0.2, t = 0.2)
movej(p[0.384096614338738, 0.251600309791604, 0.297653776692109, -1.478, 0.646, -0.631], a = 0.2, v = 0.2, t = 0.2)
movej(p[0.384100677200701, 0.251599938035416, 0.298069251661241, -1.478, 0.646, -0.631], a = 0.2, v = 0.2, t = 0.2)
movej(p[0.38410248878958, 0.251599772273108, 0.29825450772968, -1.478, 0.646, -0.631], a = 0.2, v = 0.2, t = 0.2)
movej(p[0.38410270176238, 0.251599752785871, 0.298276286679674, -1.478, 0.646, -0.631], a = 0.2, v = 0.2, t = 0.2)
movej(p[0.384101503423692, 0.251599862435134, 0.298153742587766, -1.478, 0.646, -0.631], a = 0.2, v = 0.2, t = 0.2)
movej(p[0.384098559060064, 0.251600131847536, 0.297852647104174, -1.478, 0.646, -0.631], a = 0.2, v = 0.2, t = 0.2)
movej(p[0.384091704914785, 0.251600759009113, 0.297151730896728, -1.478, 0.646, -0.631], a = 0.2, v = 0.2, t = 0.2)
movej(p[0.384081909046037, 0.251601655341515, 0.296149989192672, -1.478, 0.646, -0.631], a = 0.2, v = 0.2, t = 0.2)
movej(p[0.384072945218407, 0.25160247554127, 0.295233333386458, -1.478, 0.646, -0.631], a = 0.2, v = 0.2, t = 0.2)
movej(p[0.384065668158821, 0.251603141399956, 0.294489169264079, -1.478, 0.646, -0.631], a = 0.2, v = 0.2, t = 0.2)
movej(p[0.384060055377039, 0.251603654975455, 0.293915196936418, -1.478, 0.646, -0.631], a = 0.2, v = 0.2, t = 0.2)
movej(p[0.384057038751291, 0.251603930999917, 0.293606711809095, -1.478, 0.646, -0.631], a = 0.2, v = 0.2, t = 0.2)
movej(p[0.38406072910642, 0.2516035933285, 0.293984093614773, -1.478, 0.646, -0.631], a = 0.2, v = 0.2, t = 0.2)
movej(p[0.384070518228096, 0.251602697613463, 0.294985145352093, -1.478, 0.646, -0.631], a = 0.2, v = 0.2, t = 0.2)
movej(p[0.384083242815087, 0.251601533300229, 0.296286382616876, -1.478, 0.646, -0.631], a = 0.2, v = 0.2, t = 0.2)
movej(p[0.384093623234524, 0.251600583480818, 0.297347901438959, -1.478, 0.646, -0.631], a = 0.2, v = 0.2, t = 0.2)
movej(p[0.38410079547981, 0.251599927212752, 0.298081347078097, -1.478, 0.646, -0.631], a = 0.2, v = 0.2, t = 0.2)
movej(p[0.384103688301673, 0.251599662516477, 0.298377171815802, -1.478, 0.646, -0.631], a = 0.2, v = 0.2, t = 0.2)
movej(p[0.384103818158367, 0.251599650634451, 0.298390451175578, -1.478, 0.646, -0.631], a = 0.2, v = 0.2, t = 0.2)
movej(p[0.384103677447687, 0.251599663509628, 0.298376061869315, -1.478, 0.646, -0.631], a = 0.2, v = 0.2, t = 0.2)
movej(p[0.384100798432876, 0.251599926942543, 0.298081649063538, -1.478, 0.646, -0.631], a = 0.2, v = 0.2, t = 0.2)
movej(p[0.384095291032539, 0.251600430875527, 0.297518453216321, -1.478, 0.646, -0.631], a = 0.2, v = 0.2, t = 0.2)
movej(p[0.384087145360748, 0.251601176213154, 0.296685463376405, -1.478, 0.646, -0.631], a = 0.2, v = 0.2, t = 0.2)
movej(p[0.38407849835216, 0.25160196742363, 0.295801206008198, -1.478, 0.646, -0.631], a = 0.2, v = 0.2, t = 0.2)
movej(p[0.384070303104056, 0.251602717297541, 0.294963146412705, -1.478, 0.646, -0.631], a = 0.2, v = 0.2, t = 0.2)
movej(p[0.384062270176819, 0.251603452318921, 0.294141686016932, -1.478, 0.646, -0.631], a = 0.2, v = 0.2, t = 0.2)
movej(p[0.384059688688334, 0.251603688527861, 0.29387769874428, -1.478, 0.646, -0.631], a = 0.2, v = 0.2, t = 0.2)
movej(p[0.3840612502933, 0.251603545639347, 0.294037391045199, -1.478, 0.646, -0.631], a = 0.2, v = 0.2, t = 0.2)
movej(p[0.384067892736967, 0.251602937848692, 0.294716658296384, -1.478, 0.646, -0.631], a = 0.2, v = 0.2, t = 0.2)
movej(p[0.384077834401144, 0.251602028175853, 0.295733309281633, -1.478, 0.646, -0.631], a = 0.2, v = 0.2, t = 0.2)
movej(p[0.384088805727206, 0.251601024287858, 0.296855255190407, -1.478, 0.646, -0.631], a = 0.2, v = 0.2, t = 0.2)
movej(p[0.384096670368772, 0.251600304664796, 0.297659506415868, -1.478, 0.646, -0.631], a = 0.2, v = 0.2, t = 0.2)
movej(p[0.384100536118444, 0.251599950944593, 0.29805482435681, -1.478, 0.646, -0.631], a = 0.2, v = 0.2, t = 0.2)
movej(p[0.384102505119451, 0.251599770778908, 0.29825617764917, -1.478, 0.646, -0.631], a = 0.2, v = 0.2, t = 0.2)
movej(p[0.38410253425898, 0.25159976811261, 0.298259157505505, -1.478, 0.646, -0.631], a = 0.2, v = 0.2, t = 0.2)
movej(p[0.38409963082759, 0.251600033779668, 0.297962247820107, -1.478, 0.646, -0.631], a = 0.2, v = 0.2, t = 0.2)
movej(p[0.384093601428769, 0.251600585476068, 0.297345671546466, -1.478, 0.646, -0.631], a = 0.2, v = 0.2, t = 0.2)
movej(p[0.38408521315573, 0.251601353011966, 0.296487872902632, -1.478, 0.646, -0.631], a = 0.2, v = 0.2, t = 0.2)
movej(p[0.384075358519006, 0.2516022547217, 0.295480121488316, -1.478, 0.646, -0.631], a = 0.2, v = 0.2, t = 0.2)
movej(p[0.384065415876992, 0.251603164484012, 0.294463370507888, -1.478, 0.646, -0.631], a = 0.2, v = 0.2, t = 0.2)
movej(p[0.384059125454483, 0.251603740064357, 0.293820101521155, -1.478, 0.646, -0.631], a = 0.2, v = 0.2, t = 0.2)
movej(p[0.384056345465179, 0.251603994436333, 0.293535815227159, -1.478, 0.646, -0.631], a = 0.2, v = 0.2, t = 0.2)
movej(p[0.384058460525631, 0.251603800906054, 0.293752104799412, -1.478, 0.646, -0.631], a = 0.2, v = 0.2, t = 0.2)
movej(p[0.38406568282637, 0.25160314005786, 0.294490669191765, -1.478, 0.646, -0.631], a = 0.2, v = 0.2, t = 0.2)
movej(p[0.384076654152431, 0.251602136169865, 0.295612615100538, -1.478, 0.646, -0.631], a = 0.2, v = 0.2, t = 0.2)
movej(p[0.384088057682247, 0.251601092734767, 0.296778758878445, -1.478, 0.646, -0.631], a = 0.2, v = 0.2, t = 0.2)
movej(p[0.384095000712868, 0.251600457440086, 0.297488764647665, -1.478, 0.646, -0.631], a = 0.2, v = 0.2, t = 0.2)
movej(p[0.384100183354131, 0.251599983222902, 0.298018750096021, -1.478, 0.646, -0.631], a = 0.2, v = 0.2, t = 0.2)
movej(p[0.384102006422812, 0.25159981641018, 0.298205180107862, -1.478, 0.646, -0.631], a = 0.2, v = 0.2, t = 0.2)
movej(p[0.384102379271887, 0.251599782294094, 0.298243308269628, -1.478, 0.646, -0.631], a = 0.2, v = 0.2, t = 0.2)
movej(p[0.384099317421198, 0.251600062456686, 0.297930198365275, -1.478, 0.646, -0.631], a = 0.2, v = 0.2, t = 0.2)
movej(p[0.384093279916112, 0.251600614894818, 0.297312793131599, -1.478, 0.646, -0.631], a = 0.2, v = 0.2, t = 0.2)
movej(p[0.384083633949706, 0.251601497510996, 0.29632638068849, -1.478, 0.646, -0.631], a = 0.2, v = 0.2, t = 0.2)
movej(p[0.384072665557154, 0.251602501130572, 0.295204734765254, -1.478, 0.646, -0.631], a = 0.2, v = 0.2, t = 0.2)
movej(p[0.384064701078476, 0.251603229888836, 0.294390274032013, -1.478, 0.646, -0.631], a = 0.2, v = 0.2, t = 0.2)
movej(p[0.384058550486593, 0.25160379267453, 0.293761304355883, -1.478, 0.646, -0.631], a = 0.2, v = 0.2, t = 0.2)
movej(p[0.38405567369147, 0.251604055904341, 0.293467118539162, -1.478, 0.646, -0.631], a = 0.2, v = 0.2, t = 0.2)
movej(p[0.384055947485704, 0.251604030851878, 0.293495117189291, -1.478, 0.646, -0.631], a = 0.2, v = 0.2, t = 0.2)
movej(p[0.384063717374909, 0.251603319898758, 0.294289678881904, -1.478, 0.646, -0.631], a = 0.2, v = 0.2, t = 0.2)
movej(p[0.384074409039718, 0.251602341600064, 0.295383026169473, -1.478, 0.646, -0.631], a = 0.2, v = 0.2, t = 0.2)
movej(p[0.384085004876546, 0.251601372069733, 0.296466573929497, -1.478, 0.646, -0.631], a = 0.2, v = 0.2, t = 0.2)
movej(p[0.384093664988144, 0.251600579660318, 0.297352171233103, -1.478, 0.646, -0.631], a = 0.2, v = 0.2, t = 0.2)
movej(p[0.384099243359858, 0.251600069233377, 0.297922624730414, -1.478, 0.646, -0.631], a = 0.2, v = 0.2, t = 0.2)
movej(p[0.384101729695069, 0.251599841731063, 0.298176881472195, -1.478, 0.646, -0.631], a = 0.2, v = 0.2, t = 0.2)
movej(p[0.384101277445666, 0.251599883112364, 0.298130633701891, -1.478, 0.646, -0.631], a = 0.2, v = 0.2, t = 0.2)
movej(p[0.384099989120591, 0.251600000995478, 0.297998887453638, -1.478, 0.646, -0.631], a = 0.2, v = 0.2, t = 0.2)
movej(p[0.384096049540349, 0.251600361471257, 0.297596019476698, -1.478, 0.646, -0.631], a = 0.2, v = 0.2, t = 0.2)
movej(p[0.384088668830089, 0.25160103681409, 0.296841255865342, -1.478, 0.646, -0.631], a = 0.2, v = 0.2, t = 0.2)
movej(p[0.3840808432042, 0.251601752867176, 0.296040994447524, -1.478, 0.646, -0.631], a = 0.2, v = 0.2, t = 0.2)
movej(p[0.384073232702352, 0.251602449236184, 0.295262731969094, -1.478, 0.646, -0.631], a = 0.2, v = 0.2, t = 0.2)
movej(p[0.384067447821338, 0.251602978558945, 0.294671160489923, -1.478, 0.646, -0.631], a = 0.2, v = 0.2, t = 0.2)
movej(p[0.384062232041194, 0.251603455808371, 0.29413778620495, -1.478, 0.646, -0.631], a = 0.2, v = 0.2, t = 0.2)
movej(p[0.3840623151573, 0.251603448203159, 0.294146285795168, -1.478, 0.646, -0.631], a = 0.2, v = 0.2, t = 0.2)
movej(p[0.384067647299993, 0.251602960306436, 0.294691559506446, -1.478, 0.646, -0.631], a = 0.2, v = 0.2, t = 0.2)
movej(p[0.384076725534499, 0.25160212963833, 0.295619914748607, -1.478, 0.646, -0.631], a = 0.2, v = 0.2, t = 0.2)
movej(p[0.384085853638669, 0.251601294407097, 0.2965533697449, -1.478, 0.646, -0.631], a = 0.2, v = 0.2, t = 0.2)
movej(p[0.384094680275831, 0.251600486760415, 0.297455996227496, -1.478, 0.646, -0.631], a = 0.2, v = 0.2, t = 0.2)
movej(p[0.384099982788121, 0.251600001574905, 0.297998239884859, -1.478, 0.646, -0.631], a = 0.2, v = 0.2, t = 0.2)
movej(p[0.384102248339573, 0.251599794274539, 0.298229918915155, -1.478, 0.646, -0.631], a = 0.2, v = 0.2, t = 0.2)
movej(p[0.384102819298333, 0.251599742031206, 0.298288306100194, -1.478, 0.646, -0.631], a = 0.2, v = 0.2, t = 0.2)
movej(p[0.384103085856576, 0.251599717640844, 0.298315564785999, -1.478, 0.646, -0.631], a = 0.2, v = 0.2, t = 0.2)
movej(p[0.38410217226389, 0.251599801235545, 0.298222139290226, -1.478, 0.646, -0.631], a = 0.2, v = 0.2, t = 0.2)
movej(p[0.384098691459132, 0.25160011973288, 0.297866186451415, -1.478, 0.646, -0.631], a = 0.2, v = 0.2, t = 0.2)
movej(p[0.384093122191077, 0.251600629326826, 0.297296663909221, -1.478, 0.646, -0.631], a = 0.2, v = 0.2, t = 0.2)
movej(p[0.384085808658188, 0.251601298522859, 0.296548769966664, -1.478, 0.646, -0.631], a = 0.2, v = 0.2, t = 0.2)
movej(p[0.38407682429599, 0.251602120601548, 0.29563001426169, -1.478, 0.646, -0.631], a = 0.2, v = 0.2, t = 0.2)
movej(p[0.384070167184776, 0.2516027297343, 0.294949247082819, -1.478, 0.646, -0.631], a = 0.2, v = 0.2, t = 0.2)
movej(p[0.38406529755877, 0.251603175310255, 0.294451271091225, -1.478, 0.646, -0.631], a = 0.2, v = 0.2, t = 0.2)
movej(p[0.384063513007071, 0.251603338598632, 0.294268779889486, -1.478, 0.646, -0.631], a = 0.2, v = 0.2, t = 0.2)
movej(p[0.384063316461925, 0.251603356582722, 0.2942486808585, -1.478, 0.646, -0.631], a = 0.2, v = 0.2, t = 0.2)
movej(p[0.384069541369385, 0.251602786997073, 0.294885250168237, -1.478, 0.646, -0.631], a = 0.2, v = 0.2, t = 0.2)
movej(p[0.384079525080534, 0.251601873476892, 0.295906200946185, -1.478, 0.646, -0.631], a = 0.2, v = 0.2, t = 0.2)
movej(p[0.384089681868752, 0.251600944119975, 0.296944850870822, -1.478, 0.646, -0.631], a = 0.2, v = 0.2, t = 0.2)
movej(p[0.384096076430854, 0.251600359010747, 0.297598769344122, -1.478, 0.646, -0.631], a = 0.2, v = 0.2, t = 0.2)
movej(p[0.384100138715893, 0.251599987307348, 0.298014185316098, -1.478, 0.646, -0.631], a = 0.2, v = 0.2, t = 0.2)
movej(p[0.384102284421742, 0.251599790972983, 0.298233608737262, -1.478, 0.646, -0.631], a = 0.2, v = 0.2, t = 0.2)
movej(p[0.384101916070715, 0.251599824677493, 0.298195940553319, -1.478, 0.646, -0.631], a = 0.2, v = 0.2, t = 0.2)
movej(p[0.384100782298573, 0.251599928418849, 0.298079999143083, -1.478, 0.646, -0.631], a = 0.2, v = 0.2, t = 0.2)
movej(p[0.384095876169929, 0.251600377334834, 0.297578290331455, -1.478, 0.646, -0.631], a = 0.2, v = 0.2, t = 0.2)
