def moving():
set_payload_mass(0)
set_tcp(p[0,0,0,0,0,0])
movej(p[0.4317, 0.0108, 0.4356, -1.289, 0.983, -1.017], a = 0.2, v = 0.2, t = 0.2)
movej(p[0.431738984308933, 0.0109599333849351, 0.435460758587194, -1.28853111868913, 0.984951655128062, -1.02542516366163], a = 0.2, v = 0.2, t = 0.2)
movej(p[0.431975930207056, 0.0110861908278369, 0.43533687867932, -1.29237103648485, 0.987548480935727, -1.02979368655134], a = 0.2, v = 0.2, t = 0.2)
movej(p[0.432002877186291, 0.0110984621351253, 0.435249393220943, -1.29132911352315, 0.990506017468372, -1.0277461741761], a = 0.2, v = 0.2, t = 0.2)
movej(p[0.432033134355141, 0.0109486887840273, 0.435274887082519, -1.29534264894218, 0.990169637746041, -1.03308472233024], a = 0.2, v = 0.2, t = 0.2)
movej(p[0.431985054632006, 0.0109089644425882, 0.435229661128229, -1.29241725921316, 0.992109349889651, -1.03360153297586], a = 0.2, v = 0.2, t = 0.2)
movej(p[0.43185227403603, 0.0109059257324137, 0.435091191001495, -1.2924444821138, 0.990782250183865, -1.03714412644937], a = 0.2, v = 0.2, t = 0.2)
movej(p[0.431417398513865, 0.0106903205326074, 0.434981897065075, -1.28546575665647, 0.991255810048617, -1.03010444646234], a = 0.2, v = 0.2, t = 0.2)
movej(p[0.430578825524473, 0.0103738953043882, 0.434906944368897, -1.28025631372834, 0.987933915632215, -1.04316583799622], a = 0.2, v = 0.2, t = 0.2)
movej(p[0.429627953806776, 0.0102577705099005, 0.434803309737755, -1.2784046488232, 0.981995865441666, -1.05274603891983], a = 0.2, v = 0.2, t = 0.2)
movej(p[0.428625538381472, 0.0102923540231581, 0.434759327198669, -1.277998816534, 0.973324071993461, -1.06410444379932], a = 0.2, v = 0.2, t = 0.2)
movej(p[0.427771858136131, 0.0101765497864975, 0.434847635243515, -1.27058098887298, 0.967822526735394, -1.05108265034529], a = 0.2, v = 0.2, t = 0.2)
movej(p[0.427226956604088, 0.0101752427194537, 0.434927643766522, -1.26738932930064, 0.959812691710367, -1.05636510239014], a = 0.2, v = 0.2, t = 0.2)
movej(p[0.427360036941284, 0.0103740023724327, 0.434941664222996, -1.27245425958363, 0.952665228231875, -1.05771858744823], a = 0.2, v = 0.2, t = 0.2)
movej(p[0.428209218816322, 0.0106453162611273, 0.435013600423254, -1.27833932840556, 0.949498374682486, -1.05917817439816], a = 0.2, v = 0.2, t = 0.2)
movej(p[0.429279095815173, 0.0108795925243397, 0.435125772709605, -1.28042678242268, 0.95305873272098, -1.05472101714606], a = 0.2, v = 0.2, t = 0.2)
movej(p[0.430402018937928, 0.0112374628831496, 0.435141882559634, -1.28308908500728, 0.962506001416374, -1.05427728479913], a = 0.2, v = 0.2, t = 0.2)
movej(p[0.431280065041273, 0.0115052476477001, 0.43509539094345, -1.28633344010762, 0.973529527026743, -1.0489274776108], a = 0.2, v = 0.2, t = 0.2)
movej(p[0.431813746674269, 0.011496171839442, 0.435095342915476, -1.29434239918392, 0.981123666378114, -1.04567087988822], a = 0.2, v = 0.2, t = 0.2)
movej(p[0.431920979643197, 0.0113418532102862, 0.435071749533559, -1.29345282071087, 0.985764164281144, -1.04338690408661], a = 0.2, v = 0.2, t = 0.2)
movej(p[0.431883955947231, 0.0112872893099606, 0.434972486013481, -1.29203701708971, 0.988793996490135, -1.03941809991061], a = 0.2, v = 0.2, t = 0.2)
movej(p[0.431601155176447, 0.0110934534004488, 0.434877428569519, -1.28550082232854, 0.989083757920994, -1.03292076124788], a = 0.2, v = 0.2, t = 0.2)
movej(p[0.430971589038708, 0.0107502353261008, 0.434873009601438, -1.28307425208083, 0.988278097486418, -1.03803595639501], a = 0.2, v = 0.2, t = 0.2)
movej(p[0.430086897753331, 0.0104797601855277, 0.43479614682235, -1.28084201304936, 0.982166386172813, -1.05258701398657], a = 0.2, v = 0.2, t = 0.2)
movej(p[0.429037625556285, 0.0103941606533809, 0.434746891435813, -1.28007658504874, 0.975415140656201, -1.06310828524508], a = 0.2, v = 0.2, t = 0.2)
movej(p[0.428195520033126, 0.0102637590540479, 0.434813343488131, -1.27612183362258, 0.96805113091328, -1.05844381584514], a = 0.2, v = 0.2, t = 0.2)
movej(p[0.427432993080573, 0.0101939222805432, 0.43492857888979, -1.27715812927729, 0.958413114550769, -1.06474913040848], a = 0.2, v = 0.2, t = 0.2)
movej(p[0.427252385482044, 0.0102889751831745, 0.434960946842385, -1.27907539211656, 0.951071126373391, -1.06515413642017], a = 0.2, v = 0.2, t = 0.2)
movej(p[0.427629368395785, 0.0105174541105535, 0.434951458228621, -1.27854925659392, 0.94891008181009, -1.06099887479154], a = 0.2, v = 0.2, t = 0.2)
movej(p[0.428592565911433, 0.0106843315770741, 0.435044365752632, -1.28050526404793, 0.950629471025403, -1.05675855695629], a = 0.2, v = 0.2, t = 0.2)
movej(p[0.429731313074039, 0.0109809971656397, 0.435079343521521, -1.2805393500941, 0.95832130399925, -1.05460505452012], a = 0.2, v = 0.2, t = 0.2)
movej(p[0.430779008959994, 0.0113103323126384, 0.435062404507267, -1.29057943082988, 0.965301009054607, -1.05641252105636], a = 0.2, v = 0.2, t = 0.2)
movej(p[0.43144168510054, 0.0113981954534318, 0.435064062198748, -1.28817830464999, 0.978335147011409, -1.04014398683825], a = 0.2, v = 0.2, t = 0.2)
movej(p[0.431693291283337, 0.0113322720094639, 0.435084118093492, -1.29327506830786, 0.982479584537162, -1.04446727856547], a = 0.2, v = 0.2, t = 0.2)
movej(p[0.431750662029484, 0.0112723491149295, 0.435012505480797, -1.29534569412434, 0.984309814105711, -1.04679724626007], a = 0.2, v = 0.2, t = 0.2)
movej(p[0.431652786584298, 0.011211731089176, 0.434897875647493, -1.29736505146247, 0.98290391384795, -1.04970634050693], a = 0.2, v = 0.2, t = 0.2)
movej(p[0.431290503289312, 0.0108821100593715, 0.434852901630717, -1.29051082418398, 0.982621138976031, -1.04520450155889], a = 0.2, v = 0.2, t = 0.2)
movej(p[0.430577124786008, 0.0106729963698682, 0.434749053030891, -1.28186102597784, 0.980712599531476, -1.05031461291486], a = 0.2, v = 0.2, t = 0.2)
movej(p[0.429638469993906, 0.0105457957929007, 0.434646204181196, -1.27738216797547, 0.976217603941566, -1.0588501099919], a = 0.2, v = 0.2, t = 0.2)
movej(p[0.428634336468644, 0.0104284855942825, 0.434641181299014, -1.27281346889632, 0.971801730623206, -1.05728511276338], a = 0.2, v = 0.2, t = 0.2)
movej(p[0.427741169818971, 0.0102627451186164, 0.434738050722661, -1.27036883381874, 0.966106097507414, -1.05936917470293], a = 0.2, v = 0.2, t = 0.2)
movej(p[0.427297476052595, 0.0103325003661928, 0.434783348444614, -1.27344590958584, 0.958255244018719, -1.0591634763623], a = 0.2, v = 0.2, t = 0.2)
movej(p[0.427364570000082, 0.0104397565603891, 0.434847252997794, -1.27961253882924, 0.94999981978861, -1.0620300484459], a = 0.2, v = 0.2, t = 0.2)
movej(p[0.427884258442621, 0.0105217959904588, 0.434983080635283, -1.28021449915687, 0.949046200219756, -1.05506398040469], a = 0.2, v = 0.2, t = 0.2)
movej(p[0.428867000015851, 0.0107384549754158, 0.435075389548085, -1.28418449584168, 0.952223499345604, -1.05698532126016], a = 0.2, v = 0.2, t = 0.2)
movej(p[0.430036310353657, 0.0110483311173345, 0.435125754201058, -1.2850657797482, 0.963250213964522, -1.04729390759133], a = 0.2, v = 0.2, t = 0.2)
movej(p[0.431055991724337, 0.0112123765371999, 0.43516382501809, -1.28916620999085, 0.973119961812974, -1.03809559742418], a = 0.2, v = 0.2, t = 0.2)
movej(p[0.431523800604603, 0.0111700620969513, 0.435215771766932, -1.28798231803732, 0.981288608034006, -1.03102323073028], a = 0.2, v = 0.2, t = 0.2)
movej(p[0.431751548586036, 0.0111428560770485, 0.435184366377914, -1.28566892389236, 0.988088120129513, -1.02417010694855], a = 0.2, v = 0.2, t = 0.2)
movej(p[0.431818702030223, 0.0110328185333203, 0.435144543816418, -1.28413222485636, 0.990321771962409, -1.02171785577651], a = 0.2, v = 0.2, t = 0.2)
movej(p[0.431639667704169, 0.0108028991309068, 0.435086359811217, -1.27897168306412, 0.992275634409022, -1.01979852678215], a = 0.2, v = 0.2, t = 0.2)
movej(p[0.431098877451639, 0.0105888445953366, 0.434946800372717, -1.2825709142118, 0.985461473158268, -1.03943891293764], a = 0.2, v = 0.2, t = 0.2)
movej(p[0.430164299847551, 0.010411713083441, 0.43478834120406, -1.27964681548832, 0.980960595258745, -1.04585915567111], a = 0.2, v = 0.2, t = 0.2)
movej(p[0.429149664137731, 0.0101916662593529, 0.434778530047599, -1.28226747348696, 0.973587678967376, -1.05360895594737], a = 0.2, v = 0.2, t = 0.2)
movej(p[0.42814533223122, 0.0100273022265647, 0.434821500189449, -1.27347227682275, 0.969462222611261, -1.04997846915892], a = 0.2, v = 0.2, t = 0.2)
movej(p[0.427454397286373, 0.0100830878373423, 0.434814221781684, -1.27137526882353, 0.963832606036088, -1.04762637827966], a = 0.2, v = 0.2, t = 0.2)
movej(p[0.427283096205439, 0.0101657557653747, 0.434853518228666, -1.26888872706573, 0.959546480854062, -1.03987482939905], a = 0.2, v = 0.2, t = 0.2)
movej(p[0.427570419809253, 0.0102373900040992, 0.434990822930091, -1.27308098435746, 0.955040280915088, -1.04063955181656], a = 0.2, v = 0.2, t = 0.2)
movej(p[0.42850386942854, 0.0104770254037715, 0.435115383705525, -1.27902670070225, 0.954703605940198, -1.04677594995251], a = 0.2, v = 0.2, t = 0.2)
movej(p[0.429727523106947, 0.0108504553024744, 0.435177454943439, -1.28188856557319, 0.962974769878755, -1.04041777207549], a = 0.2, v = 0.2, t = 0.2)
movej(p[0.430884041804798, 0.0110730551303489, 0.435242073615289, -1.28513941127249, 0.973665432997921, -1.0287165520215], a = 0.2, v = 0.2, t = 0.2)
movej(p[0.431468155454615, 0.0111191614403153, 0.435270970545557, -1.28465769619275, 0.982570556488121, -1.02096267307723], a = 0.2, v = 0.2, t = 0.2)
movej(p[0.431745625564569, 0.0111105974620546, 0.43520999384707, -1.28753047059109, 0.986307800355994, -1.02176988796224], a = 0.2, v = 0.2, t = 0.2)
movej(p[0.431820236481416, 0.0109932309443099, 0.435159276601486, -1.28731777655576, 0.987649762920306, -1.02178792581949], a = 0.2, v = 0.2, t = 0.2)
movej(p[0.431617140376826, 0.0108060755363328, 0.435090775369209, -1.28538433488918, 0.988037548867424, -1.02862210742364], a = 0.2, v = 0.2, t = 0.2)
movej(p[0.431172034819581, 0.0106504187964153, 0.43495615097919, -1.28431804671802, 0.984764536808525, -1.03995713742705], a = 0.2, v = 0.2, t = 0.2)
movej(p[0.430325151565098, 0.0105000828323061, 0.4348276956497, -1.27997796680632, 0.981527633933611, -1.04496963693699], a = 0.2, v = 0.2, t = 0.2)
movej(p[0.429373626576396, 0.010202932715101, 0.434858416493579, -1.2763686436074, 0.978343643719806, -1.04389619446446], a = 0.2, v = 0.2, t = 0.2)
movej(p[0.428426413857958, 0.010085125299573, 0.434898818443041, -1.26821627385578, 0.973886229298634, -1.04388730133492], a = 0.2, v = 0.2, t = 0.2)
movej(p[0.427766076476288, 0.0101663091514016, 0.434889472819954, -1.27088506603408, 0.965734598347075, -1.04884849158002], a = 0.2, v = 0.2, t = 0.2)
movej(p[0.427395301972313, 0.0102108811938945, 0.434894347769211, -1.27110689437495, 0.958313037844088, -1.04709461885526], a = 0.2, v = 0.2, t = 0.2)
movej(p[0.427496222257466, 0.0102121059663344, 0.434981146838773, -1.28145608473889, 0.950482575670548, -1.06054804990496], a = 0.2, v = 0.2, t = 0.2)
movej(p[0.428217648224317, 0.0103830637076061, 0.435074188341624, -1.28691152504211, 0.95032570724966, -1.0635615705359], a = 0.2, v = 0.2, t = 0.2)
movej(p[0.429404212688966, 0.0107606858448985, 0.435115694099762, -1.28958228017787, 0.95711395187294, -1.05713543706601], a = 0.2, v = 0.2, t = 0.2)
movej(p[0.430586234510633, 0.0109648982438287, 0.435242729389851, -1.29358255878953, 0.965917318642227, -1.04885551850487], a = 0.2, v = 0.2, t = 0.2)
movej(p[0.431312733768744, 0.0110718289323914, 0.435247439422448, -1.2881830365594, 0.977176177261408, -1.03548503090214], a = 0.2, v = 0.2, t = 0.2)
movej(p[0.431705721065634, 0.0110804928330595, 0.435208055078953, -1.2922439317371, 0.981675188566296, -1.03518284946202], a = 0.2, v = 0.2, t = 0.2)
movej(p[0.431801290654546, 0.0109625439432586, 0.435162943522629, -1.28943287523644, 0.986371740260413, -1.02512978105889], a = 0.2, v = 0.2, t = 0.2)
movej(p[0.431654599875873, 0.0107705402301113, 0.435149044081808, -1.2960099398554, 0.983642167007865, -1.03896538708426], a = 0.2, v = 0.2, t = 0.2)
movej(p[0.431170081595717, 0.0105981871317205, 0.434997936800985, -1.29771591763297, 0.979933597382508, -1.05009906132718], a = 0.2, v = 0.2, t = 0.2)
movej(p[0.430354954498955, 0.0104058408435936, 0.434852831592034, -1.29379464914044, 0.976914151931528, -1.05502301350027], a = 0.2, v = 0.2, t = 0.2)
movej(p[0.429387208044132, 0.0101162847481752, 0.434819441988762, -1.28300137461358, 0.975560108888329, -1.05009171892084], a = 0.2, v = 0.2, t = 0.2)
movej(p[0.42846092719708, 0.0100357902115957, 0.434818618968498, -1.27251694584777, 0.972741265473622, -1.04655085372859], a = 0.2, v = 0.2, t = 0.2)
movej(p[0.42776716668341, 0.0100864992532803, 0.434815883413038, -1.27306726553363, 0.963455954534261, -1.05045006794588], a = 0.2, v = 0.2, t = 0.2)
movej(p[0.427393007479858, 0.0100748862236481, 0.434866988590274, -1.27315660736867, 0.95726677182219, -1.04358675379102], a = 0.2, v = 0.2, t = 0.2)
movej(p[0.427290312677384, 0.00999084089814076, 0.43497285136846, -1.2778952283148, 0.949527946837005, -1.05206705315091], a = 0.2, v = 0.2, t = 0.2)
movej(p[0.427933302769499, 0.0101433708153816, 0.435049641565031, -1.28462464940313, 0.948098094504617, -1.05430645103752], a = 0.2, v = 0.2, t = 0.2)
movej(p[0.42903831769944, 0.0104765364469153, 0.43512619500761, -1.29009324086511, 0.950923932930462, -1.05691951579993], a = 0.2, v = 0.2, t = 0.2)
movej(p[0.430336602888696, 0.0107246859351953, 0.435255622124648, -1.29054134103532, 0.962180719944301, -1.04622257590966], a = 0.2, v = 0.2, t = 0.2)
movej(p[0.431248356204935, 0.010952098174199, 0.43528864503154, -1.29126130695976, 0.972807758901421, -1.04062361510694], a = 0.2, v = 0.2, t = 0.2)
movej(p[0.431802937512318, 0.0110008635669368, 0.435278113660689, -1.28972442462305, 0.982057389967567, -1.02964751508273], a = 0.2, v = 0.2, t = 0.2)
movej(p[0.431958334743628, 0.0109198788783918, 0.435268362959609, -1.29427019687579, 0.985135924636143, -1.03100997360403], a = 0.2, v = 0.2, t = 0.2)
movej(p[0.431922892777872, 0.0107667090336069, 0.435260213142929, -1.29405468863412, 0.986652656943755, -1.03231016058497], a = 0.2, v = 0.2, t = 0.2)
movej(p[0.431697502610071, 0.0106335562116477, 0.435154042680107, -1.29522809972139, 0.985499717505534, -1.03624745274583], a = 0.2, v = 0.2, t = 0.2)
movej(p[0.431114406281315, 0.0103822597857457, 0.435027809019442, -1.29078568534929, 0.982792715806009, -1.03607258972418], a = 0.2, v = 0.2, t = 0.2)
movej(p[0.43016163752732, 0.0100035496623736, 0.434955987645426, -1.28027191242215, 0.982372395259957, -1.03485983934729], a = 0.2, v = 0.2, t = 0.2)
movej(p[0.429114485507244, 0.00990210169263375, 0.434875977025586, -1.27328940025276, 0.977277682098053, -1.04150203754301], a = 0.2, v = 0.2, t = 0.2)
movej(p[0.428186410399006, 0.00992851242278089, 0.434850965956023, -1.270761005975, 0.970243117299191, -1.04488531299611], a = 0.2, v = 0.2, t = 0.2)
movej(p[0.427471975124876, 0.00986938334461957, 0.434909023954568, -1.27097614051757, 0.962358945040121, -1.03972697649422], a = 0.2, v = 0.2, t = 0.2)
movej(p[0.427168567253145, 0.0098396418860685, 0.435011558480533, -1.2722511117054, 0.955660351657261, -1.0450343406047], a = 0.2, v = 0.2, t = 0.2)
movej(p[0.42747127895986, 0.0100174464190164, 0.435070472449001, -1.27735388855046, 0.951800796644666, -1.04687879702795], a = 0.2, v = 0.2, t = 0.2)
movej(p[0.428525714194983, 0.0103457062912671, 0.43515879410716, -1.27943668149891, 0.953831070113821, -1.04539483863629], a = 0.2, v = 0.2, t = 0.2)
movej(p[0.429778180718508, 0.0106861706070416, 0.435261340580693, -1.28222831651865, 0.962356015480117, -1.04069881827697], a = 0.2, v = 0.2, t = 0.2)
movej(p[0.43087978649999, 0.0109720062142374, 0.435310474769034, -1.28840526720643, 0.971468781189372, -1.04024586318148], a = 0.2, v = 0.2, t = 0.2)
movej(p[0.431623791173235, 0.0111223261683789, 0.435320829008865, -1.29003921871806, 0.982983366668225, -1.02843852768033], a = 0.2, v = 0.2, t = 0.2)
movej(p[0.432002111964094, 0.0110061333044709, 0.435377542120528, -1.29556919040096, 0.988238722119103, -1.02396371380438], a = 0.2, v = 0.2, t = 0.2)
movej(p[0.432031719069605, 0.0108512145373493, 0.43534459638495, -1.2861176052991, 0.994373097856899, -1.01297298571794], a = 0.2, v = 0.2, t = 0.2)
movej(p[0.432000490142969, 0.0108163282932446, 0.435256976585027, -1.28553748012918, 0.995129029269232, -1.01367905079169], a = 0.2, v = 0.2, t = 0.2)
movej(p[0.431788867099258, 0.0106398899416218, 0.435173212105871, -1.28118007932247, 0.994661499433361, -1.00850554169958], a = 0.2, v = 0.2, t = 0.2)
movej(p[0.431257540909909, 0.0104034009858408, 0.435076893909743, -1.27895685051429, 0.991305902094933, -1.01800608052006], a = 0.2, v = 0.2, t = 0.2)
movej(p[0.430492453621804, 0.0102160508139481, 0.43494951682557, -1.28041514313889, 0.984759753349966, -1.03377699641525], a = 0.2, v = 0.2, t = 0.2)
movej(p[0.429483363019068, 0.0100837641950127, 0.434828138785761, -1.2755063136594, 0.980084839370457, -1.03888525255165], a = 0.2, v = 0.2, t = 0.2)
movej(p[0.428623658232986, 0.00990024618781544, 0.434917718545038, -1.27662907605952, 0.973219435107365, -1.0409795051316], a = 0.2, v = 0.2, t = 0.2)
movej(p[0.427933444283281, 0.00985766831771924, 0.434962050821208, -1.27110567698858, 0.968305694242498, -1.04148967116957], a = 0.2, v = 0.2, t = 0.2)
movej(p[0.427842412645367, 0.0100255684139656, 0.434996354661799, -1.27599138772697, 0.961194041464545, -1.04377319591397], a = 0.2, v = 0.2, t = 0.2)
movej(p[0.428312027413976, 0.0102269806001714, 0.435022731114408, -1.27357853184202, 0.960235713089461, -1.03522727861037], a = 0.2, v = 0.2, t = 0.2)
movej(p[0.4292365969563, 0.0104316206131786, 0.435168617882089, -1.2783688270624, 0.962602921027854, -1.03656491762922], a = 0.2, v = 0.2, t = 0.2)
movej(p[0.430350490306938, 0.0107095579313404, 0.435243914523957, -1.28381171815037, 0.969131972357785, -1.03545254177793], a = 0.2, v = 0.2, t = 0.2)
movej(p[0.431201990486254, 0.0109483181844746, 0.435284689034962, -1.29239294445318, 0.976965362104479, -1.03467439449383], a = 0.2, v = 0.2, t = 0.2)
movej(p[0.431759992965323, 0.0108762222540235, 0.435354457676896, -1.29441943594867, 0.984292410062322, -1.02630712707178], a = 0.2, v = 0.2, t = 0.2)
movej(p[0.431911282230721, 0.0107987809303292, 0.435322929335412, -1.29022434538822, 0.991366331821929, -1.02119161061373], a = 0.2, v = 0.2, t = 0.2)
movej(p[0.431985092991415, 0.0107827077582796, 0.435239202447842, -1.28825367066534, 0.993967043413725, -1.02079680855602], a = 0.2, v = 0.2, t = 0.2)
movej(p[0.431943914241064, 0.0107092647307421, 0.435164882510902, -1.28471469873773, 0.995496968546252, -1.01534373462213], a = 0.2, v = 0.2, t = 0.2)
movej(p[0.431740788206355, 0.0105287744554914, 0.435157041722475, -1.29333576635992, 0.98889569715875, -1.03206746276815], a = 0.2, v = 0.2, t = 0.2)
movej(p[0.431258535689014, 0.0104177022213054, 0.435027303353397, -1.29428434669068, 0.984387750806134, -1.04175302198196], a = 0.2, v = 0.2, t = 0.2)
movej(p[0.430489253994538, 0.010286539868841, 0.434934316285262, -1.29771568925582, 0.977615734774139, -1.05643426619562], a = 0.2, v = 0.2, t = 0.2)
movej(p[0.429531657245646, 0.0100043773091847, 0.434962628707268, -1.28217246659745, 0.979377543783043, -1.04251396447905], a = 0.2, v = 0.2, t = 0.2)
movej(p[0.428699317077258, 0.00992711622576522, 0.434999408626688, -1.27586859679496, 0.974830146158607, -1.0466392620267], a = 0.2, v = 0.2, t = 0.2)
movej(p[0.428160877211996, 0.010029743647248, 0.434976527737446, -1.27584212851392, 0.96736919255466, -1.04955126268462], a = 0.2, v = 0.2, t = 0.2)
movej(p[0.427956860113036, 0.0101328575579318, 0.434995512206238, -1.28021839397533, 0.959190992584492, -1.05165313194388], a = 0.2, v = 0.2, t = 0.2)
movej(p[0.428091406800945, 0.0100936588824695, 0.435124719827974, -1.28349873103217, 0.954472614795235, -1.05391707306881], a = 0.2, v = 0.2, t = 0.2)
movej(p[0.428778295273988, 0.0102821105148177, 0.435171919378462, -1.28300429346549, 0.957346936213924, -1.04851406987211], a = 0.2, v = 0.2, t = 0.2)
movej(p[0.429785883162913, 0.0105885097035616, 0.435201132803939, -1.28193371286097, 0.964674660062767, -1.03859212769274], a = 0.2, v = 0.2, t = 0.2)
movej(p[0.430798809731403, 0.0108115309331747, 0.435274362196198, -1.28365371943008, 0.975317485897741, -1.02622709548222], a = 0.2, v = 0.2, t = 0.2)
movej(p[0.431391259906505, 0.0109078365573997, 0.435310185856873, -1.28347209728724, 0.983970987608543, -1.02041502826974], a = 0.2, v = 0.2, t = 0.2)
movej(p[0.431744025374789, 0.0110315881387984, 0.435228374252051, -1.28528164682557, 0.990221690278986, -1.01683968726421], a = 0.2, v = 0.2, t = 0.2)
movej(p[0.431888017153213, 0.0109952264937127, 0.435132354506223, -1.2819661973288, 0.992012759581385, -1.01012442772779], a = 0.2, v = 0.2, t = 0.2)
movej(p[0.431861012016456, 0.0109097413224311, 0.435067026331109, -1.28263759220242, 0.992086487933861, -1.01738842299524], a = 0.2, v = 0.2, t = 0.2)
movej(p[0.431810541310503, 0.0109027309817207, 0.434976656007663, -1.28804581754199, 0.988802922140717, -1.0335755785951], a = 0.2, v = 0.2, t = 0.2)
movej(p[0.431722235473131, 0.010967418128216, 0.434857020101446, -1.29083946049448, 0.987552525341202, -1.04147072538345], a = 0.2, v = 0.2, t = 0.2)
movej(p[0.431588662505236, 0.0108089682178475, 0.43480979251907, -1.28726083114553, 0.988024640087507, -1.03430759400855], a = 0.2, v = 0.2, t = 0.2)
movej(p[0.431036474208843, 0.0106074906334508, 0.434729054650426, -1.28145990837441, 0.98496751015657, -1.04548686354063], a = 0.2, v = 0.2, t = 0.2)
movej(p[0.430405701422062, 0.0105699728196042, 0.434586418317239, -1.27934718362548, 0.980725143859297, -1.05499026355907], a = 0.2, v = 0.2, t = 0.2)
movej(p[0.429675558513092, 0.0106217476482826, 0.434462686307656, -1.28066963104094, 0.973410799466427, -1.06782261370651], a = 0.2, v = 0.2, t = 0.2)
movej(p[0.42907703714897, 0.0104898937697165, 0.434547152330982, -1.27972056985322, 0.969751489577288, -1.06649653499414], a = 0.2, v = 0.2, t = 0.2)
movej(p[0.428470708284938, 0.0104971891044705, 0.43456839518231, -1.27577911112632, 0.964051194380214, -1.07112964894318], a = 0.2, v = 0.2, t = 0.2)
movej(p[0.428158125758506, 0.0106698026483355, 0.434568245703637, -1.27695632912983, 0.958746315835654, -1.07264022757549], a = 0.2, v = 0.2, t = 0.2)
movej(p[0.428209982906994, 0.0108306539948229, 0.434595965142376, -1.27569252146588, 0.954644847204962, -1.06589746342971], a = 0.2, v = 0.2, t = 0.2)
movej(p[0.428675727662916, 0.0108790309390655, 0.434714176042874, -1.28457382499826, 0.950274170343365, -1.07266628530515], a = 0.2, v = 0.2, t = 0.2)
movej(p[0.429601110896667, 0.0110861765128337, 0.43479552919008, -1.28606156124655, 0.954960333015195, -1.06786692835787], a = 0.2, v = 0.2, t = 0.2)
movej(p[0.43053521091411, 0.0113382262631531, 0.434830931168527, -1.29375342032502, 0.960104489282961, -1.0698234395823], a = 0.2, v = 0.2, t = 0.2)
movej(p[0.431296927492726, 0.0113767162027327, 0.434910169261713, -1.28567730455221, 0.973995392445701, -1.04452483414967], a = 0.2, v = 0.2, t = 0.2)
movej(p[0.43159161375473, 0.0113119383832985, 0.434928537646348, -1.28801921639044, 0.977882226296287, -1.04888929248793], a = 0.2, v = 0.2, t = 0.2)
movej(p[0.431711593612614, 0.011313936889532, 0.434856530084318, -1.28492957456212, 0.982145675857834, -1.04412851462987], a = 0.2, v = 0.2, t = 0.2)
movej(p[0.431754657713085, 0.0112656886144403, 0.434800615934934, -1.28223108454576, 0.984162400030379, -1.03958647835809], a = 0.2, v = 0.2, t = 0.2)
movej(p[0.431730805256887, 0.0111131617661336, 0.434770630381497, -1.27531692790739, 0.987619065585689, -1.03421415511418], a = 0.2, v = 0.2, t = 0.2)
movej(p[0.431691993863046, 0.0110876986481396, 0.4347167645444, -1.27916635880352, 0.984998017075475, -1.04502799273976], a = 0.2, v = 0.2, t = 0.2)
movej(p[0.431566145507987, 0.011052866330463, 0.434605541831907, -1.27793239471828, 0.984503941684434, -1.04671320281826], a = 0.2, v = 0.2, t = 0.2)
movej(p[0.431181973075378, 0.0108592061676584, 0.43459195637035, -1.28054352343938, 0.982382798043585, -1.04782500229903], a = 0.2, v = 0.2, t = 0.2)
movej(p[0.430476334744599, 0.0105918572587322, 0.434548651621972, -1.27454677170167, 0.979973484268147, -1.05407857715984], a = 0.2, v = 0.2, t = 0.2)
movej(p[0.429708470700043, 0.0105383390029588, 0.434465679338794, -1.27523439163039, 0.975341305341107, -1.06148643679289], a = 0.2, v = 0.2, t = 0.2)
movej(p[0.428957791646577, 0.0105390313952641, 0.434442202821148, -1.27203192398592, 0.969562383206431, -1.06193766683411], a = 0.2, v = 0.2, t = 0.2)
movej(p[0.428326009264392, 0.0104179977290244, 0.434572375384297, -1.27323802759123, 0.964431819959722, -1.05914168783781], a = 0.2, v = 0.2, t = 0.2)
movej(p[0.427912934897524, 0.0104150586531995, 0.434652641723881, -1.26838112105563, 0.961134210624943, -1.0576889237716], a = 0.2, v = 0.2, t = 0.2)
movej(p[0.428110995440894, 0.0106130715512644, 0.434702702597425, -1.27242364120018, 0.956708797259215, -1.05808818969784], a = 0.2, v = 0.2, t = 0.2)
movej(p[0.42877409803249, 0.010771834107383, 0.434737486689948, -1.26559746817869, 0.958672380927555, -1.0413689358841], a = 0.2, v = 0.2, t = 0.2)
movej(p[0.429646924865749, 0.0108836490958803, 0.434861708052409, -1.27450502222199, 0.9588249219944, -1.04949242203391], a = 0.2, v = 0.2, t = 0.2)
movej(p[0.430584472115233, 0.0110599004049699, 0.434919429195231, -1.28234809030973, 0.963858231675084, -1.05183654806707], a = 0.2, v = 0.2, t = 0.2)
movej(p[0.43125864228216, 0.011225108231447, 0.434934654640913, -1.28919247654557, 0.970738854579733, -1.04938167742003], a = 0.2, v = 0.2, t = 0.2)
movej(p[0.431716020938049, 0.011106259555548, 0.435001752344109, -1.28511616993289, 0.981172954333183, -1.03215759631158], a = 0.2, v = 0.2, t = 0.2)
movej(p[0.431820424178522, 0.0109991288440487, 0.434983988984843, -1.27848700493975, 0.987714077235317, -1.02700343368144], a = 0.2, v = 0.2, t = 0.2)
movej(p[0.431882956353892, 0.010982781641203, 0.434946747043398, -1.27591595157812, 0.992637832170653, -1.0251933089355], a = 0.2, v = 0.2, t = 0.2)
movej(p[0.431845496090234, 0.0109454555796018, 0.434946104433074, -1.27767971617644, 0.992639837230549, -1.02681873450381], a = 0.2, v = 0.2, t = 0.2)
movej(p[0.431745300362494, 0.0107967503898314, 0.434960364241838, -1.28707598248927, 0.987768665981342, -1.04122152904958], a = 0.2, v = 0.2, t = 0.2)
movej(p[0.431393140428749, 0.0106533514210013, 0.43484778919684, -1.29018747341732, 0.983000592088423, -1.04966535724585], a = 0.2, v = 0.2, t = 0.2)
movej(p[0.430808389900547, 0.0104552587417546, 0.434726878566706, -1.29058129973254, 0.978627597453038, -1.0568776664948], a = 0.2, v = 0.2, t = 0.2)
movej(p[0.429931314955978, 0.0100833823202378, 0.434702720975947, -1.27137775742413, 0.983107291298597, -1.03641211417539], a = 0.2, v = 0.2, t = 0.2)
movej(p[0.429083119566642, 0.00992305474238652, 0.434692153677841, -1.26281489967959, 0.980498947471987, -1.03708850905048], a = 0.2, v = 0.2, t = 0.2)
movej(p[0.428450145180227, 0.010015925411426, 0.434663958192841, -1.26252143302344, 0.974236630220868, -1.04084307211935], a = 0.2, v = 0.2, t = 0.2)
movej(p[0.427928246144258, 0.0101101334181101, 0.434695848357968, -1.266397377849, 0.965010987917461, -1.0447708445106], a = 0.2, v = 0.2, t = 0.2)
movej(p[0.427622513641176, 0.0100657817048759, 0.434822065213783, -1.26701528745321, 0.95831677543295, -1.04794019280872], a = 0.2, v = 0.2, t = 0.2)
movej(p[0.427926431268924, 0.0102071161117951, 0.434860890415193, -1.26643366995716, 0.95688346015715, -1.04317933256408], a = 0.2, v = 0.2, t = 0.2)
movej(p[0.428802634396133, 0.0105017303709212, 0.434933340686332, -1.26940364201142, 0.958910585186036, -1.03993184682115], a = 0.2, v = 0.2, t = 0.2)
movej(p[0.429942628347573, 0.0107996701886905, 0.435008541686786, -1.26881488275052, 0.968108636157563, -1.02883957435717], a = 0.2, v = 0.2, t = 0.2)
movej(p[0.430880863117005, 0.011041780733766, 0.435063405549137, -1.27599407647735, 0.973785393524209, -1.03349575685649], a = 0.2, v = 0.2, t = 0.2)
movej(p[0.431590977282303, 0.0111941108079726, 0.435059566219615, -1.28389488400257, 0.978472804189103, -1.03490539538391], a = 0.2, v = 0.2, t = 0.2)
movej(p[0.431909327637765, 0.0111408269300112, 0.43508045878773, -1.29124779917885, 0.981723374666711, -1.03545583398425], a = 0.2, v = 0.2, t = 0.2)
movej(p[0.431962429975564, 0.0109605894868147, 0.435098289386467, -1.29109260008095, 0.983256916639467, -1.03701086476647], a = 0.2, v = 0.2, t = 0.2)
movej(p[0.43196483936744, 0.0109145178100011, 0.435033310507965, -1.28242368000091, 0.989469742866938, -1.02804952527433], a = 0.2, v = 0.2, t = 0.2)
movej(p[0.43196950110508, 0.0108558684191269, 0.43500848627488, -1.28037704779028, 0.989898962842476, -1.02604177342851], a = 0.2, v = 0.2, t = 0.2)
movej(p[0.43194122179586, 0.0106984421059638, 0.435061182817404, -1.27844905916615, 0.99225064357887, -1.01902078006749], a = 0.2, v = 0.2, t = 0.2)
movej(p[0.431568274983476, 0.010516080048864, 0.434993314252047, -1.28360091010317, 0.987085721124604, -1.03538973959208], a = 0.2, v = 0.2, t = 0.2)
movej(p[0.43096068868902, 0.010353851629978, 0.434852271703168, -1.28421866574894, 0.983777744474781, -1.04362566925834], a = 0.2, v = 0.2, t = 0.2)
movej(p[0.430167349242604, 0.0100894800772616, 0.434794243807504, -1.28100486851946, 0.981013675200773, -1.04565700713388], a = 0.2, v = 0.2, t = 0.2)
movej(p[0.429381922013387, 0.00989877166278037, 0.434837142024835, -1.27584017544167, 0.977239513564987, -1.04941014571481], a = 0.2, v = 0.2, t = 0.2)
movej(p[0.428789407172346, 0.00993691628175918, 0.434838780870025, -1.27232361044532, 0.972665741195001, -1.05026843973345], a = 0.2, v = 0.2, t = 0.2)
movej(p[0.428341439897614, 0.0100623029148429, 0.434799423645296, -1.27137988369837, 0.96624138467012, -1.04908642975546], a = 0.2, v = 0.2, t = 0.2)
movej(p[0.428235854148355, 0.0100425932535536, 0.434898874455274, -1.27452582454254, 0.960926822258433, -1.04417053637831], a = 0.2, v = 0.2, t = 0.2)
movej(p[0.42841472217927, 0.0100520494929914, 0.435012087927759, -1.27532729791314, 0.957909898806174, -1.04783058474017], a = 0.2, v = 0.2, t = 0.2)
movej(p[0.429182671457875, 0.010321309611992, 0.435098751022013, -1.28196776121761, 0.958259347430193, -1.04698137011078], a = 0.2, v = 0.2, t = 0.2)
movej(p[0.430127612710267, 0.0105832407102343, 0.435151283691864, -1.27843676006253, 0.966107646524307, -1.03385614008476], a = 0.2, v = 0.2, t = 0.2)
movej(p[0.430953333168604, 0.0107606735873491, 0.435224266835824, -1.29076178451787, 0.969742333863169, -1.04057880526255], a = 0.2, v = 0.2, t = 0.2)
movej(p[0.431515685873839, 0.0108858083764167, 0.435209689864935, -1.29446513092743, 0.97587808815902, -1.04020065757332], a = 0.2, v = 0.2, t = 0.2)
movej(p[0.431740998742352, 0.0109601687939894, 0.435134577630874, -1.29997902265894, 0.979181985671082, -1.04418541968208], a = 0.2, v = 0.2, t = 0.2)
movej(p[0.431842548907675, 0.0108434883958405, 0.435107700997501, -1.28767008303542, 0.988483443465728, -1.02554503038442], a = 0.2, v = 0.2, t = 0.2)
movej(p[0.43178431107697, 0.0107854187684123, 0.435026475481942, -1.27860176200575, 0.992585044516939, -1.02427905977066], a = 0.2, v = 0.2, t = 0.2)
movej(p[0.431803734542062, 0.0108437052466081, 0.434945111835494, -1.27711893263178, 0.993757434378115, -1.02597659867171], a = 0.2, v = 0.2, t = 0.2)
movej(p[0.431760327037435, 0.0108382903522086, 0.43486613722809, -1.27646024279301, 0.993184326882731, -1.02490621587442], a = 0.2, v = 0.2, t = 0.2)
movej(p[0.431528735599916, 0.0105979536186411, 0.434854615770731, -1.2752562638498, 0.991803939500008, -1.02838423231512], a = 0.2, v = 0.2, t = 0.2)
movej(p[0.431050456210195, 0.0104827257728746, 0.434710989055845, -1.27500127148209, 0.987608548959706, -1.04045802873218], a = 0.2, v = 0.2, t = 0.2)
movej(p[0.43036485344023, 0.0104006716398812, 0.434572933172613, -1.27527002358337, 0.981446885417039, -1.05100647066553], a = 0.2, v = 0.2, t = 0.2)
movej(p[0.429642816555631, 0.0102477061693973, 0.43456817935527, -1.27593457085952, 0.975434040613259, -1.05440010171647], a = 0.2, v = 0.2, t = 0.2)
movej(p[0.428968628103521, 0.0101218122388883, 0.434613599650333, -1.26998162529311, 0.972834147104969, -1.0504551727584], a = 0.2, v = 0.2, t = 0.2)
movej(p[0.428465259319229, 0.0101812302906109, 0.434583634093594, -1.26741391562314, 0.969965614372248, -1.04496809325036], a = 0.2, v = 0.2, t = 0.2)
movej(p[0.428244603005866, 0.0102754752289793, 0.434629310890388, -1.26528735661264, 0.966516743251328, -1.0382259414664], a = 0.2, v = 0.2, t = 0.2)
movej(p[0.428409933841122, 0.0102609653736542, 0.434810143177086, -1.26854869830996, 0.962778397517924, -1.03537632398356], a = 0.2, v = 0.2, t = 0.2)
movej(p[0.429059353658361, 0.0103954811933667, 0.434956623999461, -1.27733154729057, 0.960437066410335, -1.04640237798113], a = 0.2, v = 0.2, t = 0.2)
movej(p[0.429996118907955, 0.0106929367239236, 0.435023438748537, -1.28501554756961, 0.964699239671661, -1.04578033523371], a = 0.2, v = 0.2, t = 0.2)
movej(p[0.430912650971097, 0.0108384494241613, 0.435101451300104, -1.28561749633519, 0.973063494088755, -1.03369038273645], a = 0.2, v = 0.2, t = 0.2)
movej(p[0.431387568186504, 0.0108453352083262, 0.435154886811585, -1.28266561027591, 0.980680775753548, -1.02922115636578], a = 0.2, v = 0.2, t = 0.2)
movej(p[0.43170096393643, 0.0108810552084223, 0.435126075333157, -1.28462170699265, 0.983355081456993, -1.03102678060695], a = 0.2, v = 0.2, t = 0.2)
movej(p[0.431776001277461, 0.0109044942666754, 0.435025818314155, -1.28626725082992, 0.985182301160787, -1.0310947073594], a = 0.2, v = 0.2, t = 0.2)
movej(p[0.431906969235094, 0.0107681369926978, 0.435053259676289, -1.28685653719007, 0.987346835406497, -1.02446548518869], a = 0.2, v = 0.2, t = 0.2)
movej(p[0.431823373726312, 0.0106551161567175, 0.435022859448218, -1.27794461661803, 0.991064058373639, -1.01990053615955], a = 0.2, v = 0.2, t = 0.2)
movej(p[0.431572388819984, 0.0105986659418038, 0.434899032872992, -1.27528380686988, 0.991296783627659, -1.02057810941301], a = 0.2, v = 0.2, t = 0.2)
movej(p[0.431022158223552, 0.0104202295218174, 0.434780774827716, -1.27000129632587, 0.989563442367809, -1.02110468785622], a = 0.2, v = 0.2, t = 0.2)
movej(p[0.430205175973306, 0.0101092483107846, 0.434745149813087, -1.27602492051941, 0.980724332452384, -1.04034850071383], a = 0.2, v = 0.2, t = 0.2)
movej(p[0.42939689103618, 0.0100137502347642, 0.434679330988335, -1.27297480153988, 0.975511421815035, -1.04817866016966], a = 0.2, v = 0.2, t = 0.2)
movej(p[0.428692924533629, 0.0100914277734077, 0.434626784461566, -1.27401642296179, 0.967644378426117, -1.05358240262138], a = 0.2, v = 0.2, t = 0.2)
movej(p[0.428137733559584, 0.0100520506560307, 0.434662207853073, -1.26312007395076, 0.968069090316995, -1.03124477554199], a = 0.2, v = 0.2, t = 0.2)
movej(p[0.427847716965142, 0.00998796984540295, 0.434788401651881, -1.26277213256111, 0.962975143935598, -1.03392721949628], a = 0.2, v = 0.2, t = 0.2)
movej(p[0.428203071594956, 0.0101103089148374, 0.434876612642466, -1.27033109020704, 0.958540592646132, -1.03741108253992], a = 0.2, v = 0.2, t = 0.2)
movej(p[0.429048145833055, 0.0103549830639015, 0.434983365627342, -1.27713149975164, 0.957045454087622, -1.04149029236932], a = 0.2, v = 0.2, t = 0.2)
movej(p[0.430182663017541, 0.0105120894252525, 0.435137198205912, -1.27393829001144, 0.966208206553123, -1.02730176000718], a = 0.2, v = 0.2, t = 0.2)
movej(p[0.431089602978248, 0.0107420951404403, 0.435163463946993, -1.272262620753, 0.976257761058644, -1.02027059231993], a = 0.2, v = 0.2, t = 0.2)
movej(p[0.431723888681962, 0.0108813998213869, 0.435185367663101, -1.27316478060445, 0.987089829446513, -1.0091007750319], a = 0.2, v = 0.2, t = 0.2)
movej(p[0.431937194659178, 0.0108144767520988, 0.435206605561094, -1.27814666149621, 0.991088452266459, -1.00804617691072], a = 0.2, v = 0.2, t = 0.2)
movej(p[0.431943689069682, 0.0106632288595029, 0.435257089378635, -1.28062752674714, 0.993649282860494, -1.01214218104701], a = 0.2, v = 0.2, t = 0.2)
movej(p[0.431962663331308, 0.0106561252792435, 0.435201019179391, -1.27938629585115, 0.995587166590629, -1.00967049421834], a = 0.2, v = 0.2, t = 0.2)
movej(p[0.431945257728374, 0.0105824117103069, 0.435152214719133, -1.27805341565334, 0.996467671430503, -1.00725432589619], a = 0.2, v = 0.2, t = 0.2)
movej(p[0.431718433371632, 0.0103672093378093, 0.435084378429727, -1.27357242547836, 0.996372017788365, -1.00618386829931], a = 0.2, v = 0.2, t = 0.2)
movej(p[0.43117723344017, 0.0102165146812326, 0.43492369308483, -1.27163892220715, 0.99405340346657, -1.01608973542065], a = 0.2, v = 0.2, t = 0.2)
movej(p[0.430340659801132, 0.0100430955176336, 0.434754568181096, -1.27272203828851, 0.98780553107639, -1.02912504987961], a = 0.2, v = 0.2, t = 0.2)
movej(p[0.429447043281467, 0.00983281267981793, 0.434740785137119, -1.27162997901656, 0.982874189717447, -1.02964975552193], a = 0.2, v = 0.2, t = 0.2)
movej(p[0.428613295163172, 0.00965832938063621, 0.434774325757952, -1.26667880861439, 0.976608298029014, -1.03192103784005], a = 0.2, v = 0.2, t = 0.2)
movej(p[0.428044392926222, 0.00976120138181326, 0.434767019004349, -1.26526514680546, 0.971134997468437, -1.02836825359616], a = 0.2, v = 0.2, t = 0.2)
movej(p[0.427869611390728, 0.00987214177418446, 0.434780243187193, -1.26525757348909, 0.964586943284768, -1.02639642493188], a = 0.2, v = 0.2, t = 0.2)
movej(p[0.428153270741775, 0.00993848629754557, 0.434916370279587, -1.27381148076725, 0.959410440228957, -1.03274779420089], a = 0.2, v = 0.2, t = 0.2)
movej(p[0.428971281320225, 0.0100995846591085, 0.435046680910652, -1.28032687035888, 0.95912163089726, -1.0398667066635], a = 0.2, v = 0.2, t = 0.2)
movej(p[0.430044086375007, 0.0104140506211547, 0.435162812134918, -1.28544410567595, 0.965380763943465, -1.03364218481816], a = 0.2, v = 0.2, t = 0.2)
movej(p[0.431030587824068, 0.0105954190121167, 0.435307491724373, -1.28273431834599, 0.978413735991281, -1.01308110334514], a = 0.2, v = 0.2, t = 0.2)
movej(p[0.431588479462972, 0.0106744992320047, 0.435395568574523, -1.27907619848364, 0.988178185222599, -1.00310373189042], a = 0.2, v = 0.2, t = 0.2)
movej(p[0.43189924357967, 0.0107233587172932, 0.435352709719671, -1.27673913866895, 0.995497054338634, -0.998244211929672], a = 0.2, v = 0.2, t = 0.2)
movej(p[0.431979781792533, 0.0106545395990785, 0.435279624833155, -1.27670686350866, 0.996006807364926, -0.999143528319487], a = 0.2, v = 0.2, t = 0.2)
movej(p[0.432018628970685, 0.0104926335754994, 0.435284890502952, -1.28289228054596, 0.994054659799045, -1.00650397616524], a = 0.2, v = 0.2, t = 0.2)
movej(p[0.431985681250544, 0.0104139856168545, 0.435258741238365, -1.28579019648892, 0.99310834622083, -1.01421978291552], a = 0.2, v = 0.2, t = 0.2)
movej(p[0.431854977515437, 0.0103912168839967, 0.435146349725241, -1.28508312158564, 0.994353917486821, -1.01191821594804], a = 0.2, v = 0.2, t = 0.2)
movej(p[0.431459491805197, 0.010166563414586, 0.43506618697113, -1.27704011959082, 0.99742807777014, -1.00425633949304], a = 0.2, v = 0.2, t = 0.2)
movej(p[0.43077449877305, 0.00996059341162077, 0.43497673631776, -1.27155783848338, 0.993981405013125, -1.01388163844959], a = 0.2, v = 0.2, t = 0.2)
movej(p[0.430027069021616, 0.00988065989853576, 0.434890418762437, -1.26758987605693, 0.989108122114988, -1.02064898221816], a = 0.2, v = 0.2, t = 0.2)
movej(p[0.429245908233459, 0.00984241602379001, 0.434833531453744, -1.26435420211376, 0.98317994543117, -1.02306694876177], a = 0.2, v = 0.2, t = 0.2)
movej(p[0.428542396515589, 0.00967402558472645, 0.434880627179147, -1.26478489592889, 0.976363677942323, -1.02518390511603], a = 0.2, v = 0.2, t = 0.2)
movej(p[0.428026781310307, 0.00967126738283189, 0.434888177754512, -1.26306209764947, 0.972008509128861, -1.02458929703899], a = 0.2, v = 0.2, t = 0.2)
movej(p[0.427906681131124, 0.00983156035157231, 0.434932615630852, -1.26789398201739, 0.965017560082435, -1.02675126157332], a = 0.2, v = 0.2, t = 0.2)
movej(p[0.428326480331302, 0.00995385788711678, 0.435057478664688, -1.26468858275725, 0.966020111924872, -1.01376538028616], a = 0.2, v = 0.2, t = 0.2)
movej(p[0.429110764343104, 0.010129098706262, 0.435212914705992, -1.26942505024059, 0.966865598655191, -1.02008862690485], a = 0.2, v = 0.2, t = 0.2)
movej(p[0.43021368454872, 0.0104781388796628, 0.435273334280637, -1.27908124959184, 0.970751621446171, -1.02003300068319], a = 0.2, v = 0.2, t = 0.2)
movej(p[0.431111833800247, 0.0107423379495429, 0.435329910664584, -1.28768669444463, 0.976790404146845, -1.02018591307413], a = 0.2, v = 0.2, t = 0.2)
movej(p[0.431671347785709, 0.0106850724169157, 0.435442316815191, -1.29252321337734, 0.980180548432488, -1.01790330274851], a = 0.2, v = 0.2, t = 0.2)
movej(p[0.431886203611415, 0.0106634173624043, 0.435411610631395, -1.28732738370189, 0.986544246882853, -1.01360384043341], a = 0.2, v = 0.2, t = 0.2)
movej(p[0.432003432553403, 0.0106407808730706, 0.435346270193601, -1.2880187225348, 0.988227185448109, -1.01458151193716], a = 0.2, v = 0.2, t = 0.2)
movej(p[0.432015701908535, 0.0105796292713522, 0.435311867220882, -1.28800203586464, 0.990329770880339, -1.01162260693952], a = 0.2, v = 0.2, t = 0.2)
movej(p[0.431937723458907, 0.0104474189245032, 0.435298692010084, -1.28905799616628, 0.991313335972057, -1.01457173114972], a = 0.2, v = 0.2, t = 0.2)
movej(p[0.431660389398409, 0.0103576582079413, 0.435152314005759, -1.28477084884376, 0.993316038129626, -1.01284778525207], a = 0.2, v = 0.2, t = 0.2)
movej(p[0.431096330931339, 0.0101336953120463, 0.435046873128069, -1.28085912973847, 0.992096370240657, -1.01558866689413], a = 0.2, v = 0.2, t = 0.2)
movej(p[0.43030857305157, 0.00981342195470575, 0.435023842810228, -1.26909221339498, 0.991982003357883, -1.01254860279808], a = 0.2, v = 0.2, t = 0.2)
movej(p[0.429579053678346, 0.00972595380904387, 0.435012780799314, -1.2660242414803, 0.986023747577828, -1.02218331446433], a = 0.2, v = 0.2, t = 0.2)
movej(p[0.429069833448309, 0.00982215300429994, 0.434992843007234, -1.26440002847115, 0.98127579170116, -1.02249652987706], a = 0.2, v = 0.2, t = 0.2)
movej(p[0.429098001346048, 0.00986250298058339, 0.435100172443322, -1.26911574680773, 0.975863256184729, -1.0229145120319], a = 0.2, v = 0.2, t = 0.2)
movej(p[0.429510923514364, 0.00991381924841066, 0.435287023550809, -1.26838617191424, 0.975709340080406, -1.02017684742827], a = 0.2, v = 0.2, t = 0.2)
movej(p[0.430403911478487, 0.0102011865942307, 0.43537416878698, -1.2660888429624, 0.981801216191679, -1.00974167238265], a = 0.2, v = 0.2, t = 0.2)
movej(p[0.431209753241285, 0.0104433029690068, 0.435432970206998, -1.26494283697802, 0.989332319407374, -0.99786100624776], a = 0.2, v = 0.2, t = 0.2)
movej(p[0.431827325608377, 0.0105341462075482, 0.435482265404938, -1.2712102786715, 0.992682349897678, -0.995499583842491], a = 0.2, v = 0.2, t = 0.2)
movej(p[0.432079145051396, 0.0105147870226338, 0.435492093443461, -1.27545288884511, 0.994817600062828, -0.997138905900463], a = 0.2, v = 0.2, t = 0.2)
movej(p[0.432165907156796, 0.0105652568910976, 0.435409071896597, -1.27972826660237, 0.994993141754586, -0.9998146555308], a = 0.2, v = 0.2, t = 0.2)
movej(p[0.432153512009537, 0.0104421677555606, 0.435366375165607, -1.27710539750797, 0.997079576947309, -0.991914092320529], a = 0.2, v = 0.2, t = 0.2)
movej(p[0.431816937309509, 0.0102595265832253, 0.435269425918734, -1.27367428480555, 0.9958363984007, -0.999836351289905], a = 0.2, v = 0.2, t = 0.2)
movej(p[0.431233101817484, 0.0100895087172325, 0.435132746545038, -1.27306838662106, 0.992196977889005, -1.00942320747931], a = 0.2, v = 0.2, t = 0.2)
movej(p[0.430246456293034, 0.00987631356371462, 0.435002132203944, -1.26958978011584, 0.988741797023815, -1.01578854987313], a = 0.2, v = 0.2, t = 0.2)
movej(p[0.429215221840451, 0.0095721538109194, 0.435027449531752, -1.2713802710733, 0.980526139187507, -1.02458550048115], a = 0.2, v = 0.2, t = 0.2)
movej(p[0.42831257810952, 0.00948435095545015, 0.435027340074766, -1.26694518918223, 0.973675030825468, -1.02873366648141], a = 0.2, v = 0.2, t = 0.2)
movej(p[0.427734012020388, 0.0095861247301047, 0.434988318884379, -1.26666003615193, 0.966048181493493, -1.02947692419948], a = 0.2, v = 0.2, t = 0.2)
movej(p[0.427517469965702, 0.00961751736679903, 0.43501426608729, -1.26284275054469, 0.962796471247943, -1.02069798771525], a = 0.2, v = 0.2, t = 0.2)
movej(p[0.427718167736066, 0.00960126065524923, 0.435140353092744, -1.26447946302947, 0.960936469543646, -1.02216368538345], a = 0.2, v = 0.2, t = 0.2)
movej(p[0.4284667137953, 0.00979197635825356, 0.435266922924309, -1.27100434576167, 0.961709189195582, -1.02360010534504], a = 0.2, v = 0.2, t = 0.2)
movej(p[0.429464044885371, 0.0101413660923633, 0.435336854112635, -1.27610762692453, 0.965356975075486, -1.02326084489724], a = 0.2, v = 0.2, t = 0.2)
movej(p[0.430518973709614, 0.0103742797989952, 0.435438073762753, -1.28100864589983, 0.971140430920274, -1.01909329143022], a = 0.2, v = 0.2, t = 0.2)
movej(p[0.431308705407408, 0.0106091898303462, 0.435423858831938, -1.27731595037271, 0.980852384524404, -1.00965959722797], a = 0.2, v = 0.2, t = 0.2)
movej(p[0.431854305955682, 0.0107639806724703, 0.435393053935265, -1.28152973154932, 0.986722838376216, -1.00816387422383], a = 0.2, v = 0.2, t = 0.2)
movej(p[0.432040647626969, 0.0107043842120313, 0.435357382968794, -1.27991943385455, 0.992400630751709, -1.00187965092663], a = 0.2, v = 0.2, t = 0.2)
movej(p[0.431930073956819, 0.0105608838563846, 0.435336521386909, -1.28480589017557, 0.992452249255157, -1.01421567811924], a = 0.2, v = 0.2, t = 0.2)
movej(p[0.431534768867919, 0.0103859051464335, 0.43519971039154, -1.28572393192164, 0.991078291225793, -1.02021335381986], a = 0.2, v = 0.2, t = 0.2)
movej(p[0.430725200152144, 0.010129308882716, 0.435094289159878, -1.28349397760763, 0.990169271883113, -1.02221534747705], a = 0.2, v = 0.2, t = 0.2)
movej(p[0.429667905760771, 0.00969402700820228, 0.435081340141032, -1.27593905564638, 0.98638616936533, -1.02181584181787], a = 0.2, v = 0.2, t = 0.2)
movej(p[0.428497581098071, 0.0095035465195866, 0.43502334614881, -1.26659919220854, 0.981502167076123, -1.02063314592891], a = 0.2, v = 0.2, t = 0.2)
movej(p[0.427493066647725, 0.00944770056799943, 0.434964799419298, -1.26633806597688, 0.969176790954059, -1.02613128799281], a = 0.2, v = 0.2, t = 0.2)
movej(p[0.426941739248084, 0.00943981579739396, 0.434978187242929, -1.26953221873004, 0.959245431346835, -1.02630963051167], a = 0.2, v = 0.2, t = 0.2)
movej(p[0.426868263843145, 0.00942543051944221, 0.435074518842476, -1.27694097269903, 0.948596345411172, -1.04095779639751], a = 0.2, v = 0.2, t = 0.2)
movej(p[0.427612825352448, 0.00967101877059212, 0.435136499662917, -1.27987436161807, 0.949474653669026, -1.03640052173286], a = 0.2, v = 0.2, t = 0.2)
movej(p[0.428731155741553, 0.0100131756645301, 0.435234057048546, -1.28172737203942, 0.953517572264387, -1.03225105868466], a = 0.2, v = 0.2, t = 0.2)
movej(p[0.429949461996215, 0.0103070926934851, 0.435361237702139, -1.27764994351055, 0.965469905495841, -1.01822805857134], a = 0.2, v = 0.2, t = 0.2)
movej(p[0.430914428137165, 0.0106203700563464, 0.435399954340789, -1.28440014821213, 0.973501800357511, -1.02466161369265], a = 0.2, v = 0.2, t = 0.2)
movej(p[0.431583608262356, 0.0108186399034788, 0.435352476697092, -1.28673846501599, 0.983251357439782, -1.01789284024497], a = 0.2, v = 0.2, t = 0.2)
movej(p[0.431943893244053, 0.0107855352022146, 0.435353674272559, -1.29270505547693, 0.988342445369855, -1.01390113108087], a = 0.2, v = 0.2, t = 0.2)
movej(p[0.432004561188046, 0.010655997348477, 0.435357962676658, -1.28678130528609, 0.9929869164689, -1.00752189803278], a = 0.2, v = 0.2, t = 0.2)
movej(p[0.432025166972524, 0.0106342313663992, 0.435294207940597, -1.282005918042, 0.997544752156965, -1.00372350062608], a = 0.2, v = 0.2, t = 0.2)
movej(p[0.431803853691764, 0.0104684876896505, 0.435236971520494, -1.27982189654679, 0.997279413711068, -1.00420574387945], a = 0.2, v = 0.2, t = 0.2)
movej(p[0.431231413810981, 0.0101729855878347, 0.435193141799889, -1.27811108580962, 0.996356440223651, -1.01137235432792], a = 0.2, v = 0.2, t = 0.2)
movej(p[0.430308828461265, 0.00992825108037328, 0.435074707674962, -1.28128913813415, 0.988008286144905, -1.03386654328418], a = 0.2, v = 0.2, t = 0.2)
movej(p[0.42923326429683, 0.00979484471124377, 0.434959528094926, -1.27925972085769, 0.979952935897552, -1.04385287364017], a = 0.2, v = 0.2, t = 0.2)
movej(p[0.428247015616789, 0.00958628403485693, 0.434983518373867, -1.27320403637302, 0.974732171552967, -1.03412239489825], a = 0.2, v = 0.2, t = 0.2)
movej(p[0.427420233519192, 0.00945152444946412, 0.4350580411874, -1.26909637968959, 0.964469341681783, -1.03617302094205], a = 0.2, v = 0.2, t = 0.2)
movej(p[0.427160684022898, 0.00956545434646879, 0.435077292358961, -1.27084766023407, 0.956559040020739, -1.03624092225977], a = 0.2, v = 0.2, t = 0.2)
movej(p[0.427485077790741, 0.00978757604252185, 0.435094734540348, -1.2710532611343, 0.952199638456139, -1.03323407490739], a = 0.2, v = 0.2, t = 0.2)
movej(p[0.428346950463283, 0.00996587565501639, 0.435224151240619, -1.27684134744689, 0.951694632573287, -1.03259880820118], a = 0.2, v = 0.2, t = 0.2)
movej(p[0.429440822692153, 0.0102696229305698, 0.435292249910093, -1.27689028011032, 0.960087846553475, -1.02711379553738], a = 0.2, v = 0.2, t = 0.2)
movej(p[0.430600425754425, 0.0106666093651288, 0.435307500598297, -1.28371376440144, 0.969392989115723, -1.02402270241382], a = 0.2, v = 0.2, t = 0.2)
movej(p[0.431508653661424, 0.010840771710829, 0.435335872495742, -1.27914042250521, 0.983469854442328, -1.00488158595442], a = 0.2, v = 0.2, t = 0.2)
movej(p[0.431870247305156, 0.0108113916355702, 0.435386513773273, -1.28642898684539, 0.988141988926633, -1.01259854064211], a = 0.2, v = 0.2, t = 0.2)
movej(p[0.432039551725709, 0.0108000326294835, 0.435322588013121, -1.29097886542543, 0.988861754178698, -1.02042936805226], a = 0.2, v = 0.2, t = 0.2)
movej(p[0.431962348055238, 0.010787163809749, 0.435234863097131, -1.29676253135901, 0.987724827368841, -1.02891638431506], a = 0.2, v = 0.2, t = 0.2)
movej(p[0.431710989003596, 0.0104584702597982, 0.435207125233772, -1.28727576330663, 0.98996812858089, -1.01904337153082], a = 0.2, v = 0.2, t = 0.2)
movej(p[0.431081245342202, 0.0102272402381174, 0.435103268228093, -1.27833281208509, 0.989994669176846, -1.02246632383896], a = 0.2, v = 0.2, t = 0.2)
movej(p[0.430176755629799, 0.0100420101013536, 0.434943504280058, -1.27264563374325, 0.986341337367767, -1.02624044194413], a = 0.2, v = 0.2, t = 0.2)
movej(p[0.429170706697443, 0.00989947809465545, 0.434888541921379, -1.27032136432264, 0.979587222496359, -1.03199626400794], a = 0.2, v = 0.2, t = 0.2)
movej(p[0.428227833123787, 0.00974730415431677, 0.434948143155488, -1.26551426133726, 0.973597240200314, -1.03445214682216], a = 0.2, v = 0.2, t = 0.2)
movej(p[0.427648379569108, 0.00981917046869881, 0.434962944607817, -1.26777235991231, 0.965686430231501, -1.03809501767496], a = 0.2, v = 0.2, t = 0.2)
movej(p[0.427490550127814, 0.00994062656438212, 0.434975087510359, -1.27027941197981, 0.958150513926769, -1.0390574252013], a = 0.2, v = 0.2, t = 0.2)
movej(p[0.427803838816486, 0.00994618400193999, 0.435059815879505, -1.26623402171421, 0.958179891371029, -1.02419116319597], a = 0.2, v = 0.2, t = 0.2)
movej(p[0.428516402860755, 0.0100610837156051, 0.43518052448862, -1.26822710575925, 0.959189955544403, -1.02410673383729], a = 0.2, v = 0.2, t = 0.2)
movej(p[0.429483989611669, 0.0103246814781674, 0.435273444152996, -1.27233308047652, 0.965061166354431, -1.02097012990581], a = 0.2, v = 0.2, t = 0.2)
movej(p[0.43049935431303, 0.0105643128440266, 0.435363813573434, -1.27959995579711, 0.971534122379017, -1.01900923750909], a = 0.2, v = 0.2, t = 0.2)
movej(p[0.431205293528347, 0.0106537999119314, 0.43542420076469, -1.27958592523306, 0.979395379194967, -1.01378669988324], a = 0.2, v = 0.2, t = 0.2)
movej(p[0.431696095151757, 0.0107831136030897, 0.43537864303955, -1.28043676358763, 0.985814741373832, -1.00901056094876], a = 0.2, v = 0.2, t = 0.2)
movej(p[0.431889600271249, 0.0107740243242927, 0.435326438784798, -1.28550265817794, 0.986975641160284, -1.01369123149427], a = 0.2, v = 0.2, t = 0.2)
movej(p[0.431872872108855, 0.0106505141645452, 0.435285981617929, -1.28799312416884, 0.98747827099613, -1.01839963840587], a = 0.2, v = 0.2, t = 0.2)
movej(p[0.431562178490426, 0.0104692115875066, 0.435147016377935, -1.28980846641539, 0.984403701373776, -1.0347467867222], a = 0.2, v = 0.2, t = 0.2)
movej(p[0.430957510509823, 0.0103052919106358, 0.434979714887899, -1.28814176955702, 0.980916562239164, -1.04348200248371], a = 0.2, v = 0.2, t = 0.2)
movej(p[0.430102192601748, 0.0100241953194703, 0.43488619545269, -1.28384964405995, 0.978163660461905, -1.04428966127136], a = 0.2, v = 0.2, t = 0.2)
movej(p[0.42913368974778, 0.00981706745849436, 0.434886896781526, -1.27544340840808, 0.974847521019616, -1.04697250824927], a = 0.2, v = 0.2, t = 0.2)
movej(p[0.428423120133092, 0.00988461193422119, 0.434843690152983, -1.27174483516687, 0.970576114533669, -1.04626860329522], a = 0.2, v = 0.2, t = 0.2)
movej(p[0.42790739794252, 0.00998006574228784, 0.434829977223953, -1.26726629356463, 0.967223080465568, -1.04015332223627], a = 0.2, v = 0.2, t = 0.2)
movej(p[0.427754650907512, 0.00998352444445176, 0.434932509212501, -1.27181468567161, 0.961294119960251, -1.0391537400249], a = 0.2, v = 0.2, t = 0.2)
movej(p[0.428115724229804, 0.0100159224065757, 0.435041282904077, -1.27569324391193, 0.958202736872394, -1.0437179460464], a = 0.2, v = 0.2, t = 0.2)
movej(p[0.429017929072921, 0.0102961095543696, 0.435132516024534, -1.27949223521562, 0.961178038579361, -1.03950677803141], a = 0.2, v = 0.2, t = 0.2)
movej(p[0.43027622790146, 0.0105453723484702, 0.43524908323851, -1.27364146588303, 0.972210492587379, -1.01825785662847], a = 0.2, v = 0.2, t = 0.2)
movej(p[0.431127585009223, 0.0107295012411593, 0.435319152597022, -1.27245840937082, 0.981689012580902, -1.01230078763523], a = 0.2, v = 0.2, t = 0.2)
movej(p[0.431774329402987, 0.0108672660767238, 0.435324422502428, -1.28170765901173, 0.985561100701161, -1.01706331757176], a = 0.2, v = 0.2, t = 0.2)
movej(p[0.431961220795839, 0.0108921941064197, 0.435263445384242, -1.28883666072567, 0.987977830994561, -1.02197194684164], a = 0.2, v = 0.2, t = 0.2)
movej(p[0.432091161580115, 0.0107065123127465, 0.435282792474594, -1.28879438053205, 0.991645512276642, -1.01259476665604], a = 0.2, v = 0.2, t = 0.2)
movej(p[0.431947551420982, 0.0105400263576729, 0.435205153665631, -1.27974401897167, 0.995402646362697, -1.00563708877126], a = 0.2, v = 0.2, t = 0.2)
movej(p[0.431530399167052, 0.0103911399522216, 0.435051451216031, -1.27618514048512, 0.99491407177401, -1.00652784032583], a = 0.2, v = 0.2, t = 0.2)
movej(p[0.430746788195756, 0.0101172487214669, 0.434940913528881, -1.27176416975744, 0.991947744966582, -1.00991227589246], a = 0.2, v = 0.2, t = 0.2)
movej(p[0.429782978164027, 0.00986248928574307, 0.434886436090909, -1.27022933901172, 0.985546950491638, -1.02600944363901], a = 0.2, v = 0.2, t = 0.2)
movej(p[0.428905843388438, 0.00981337072874102, 0.434819046419524, -1.27130045993836, 0.976637135989826, -1.03726397309884], a = 0.2, v = 0.2, t = 0.2)
movej(p[0.428176499176874, 0.00990534789894637, 0.434782528854153, -1.27515144458585, 0.9663679185428, -1.04783360185202], a = 0.2, v = 0.2, t = 0.2)
movej(p[0.427648618409049, 0.0097761435269257, 0.434862702259296, -1.27092009137047, 0.96360031419796, -1.03700260371554], a = 0.2, v = 0.2, t = 0.2)
movej(p[0.427394274624498, 0.00974582966260838, 0.434932472809603, -1.26947221392453, 0.95923457138418, -1.03745450816275], a = 0.2, v = 0.2, t = 0.2)
movej(p[0.427736707992153, 0.00991114914008173, 0.434948912480644, -1.27072433497088, 0.956585513883982, -1.03539104486317], a = 0.2, v = 0.2, t = 0.2)
movej(p[0.428617766296632, 0.0101675968675769, 0.43502667749702, -1.27839534256566, 0.954556582788644, -1.04003324592964], a = 0.2, v = 0.2, t = 0.2)
movej(p[0.429694358837237, 0.0103810714548308, 0.435173985810129, -1.28566761919653, 0.958416208057884, -1.04515668737027], a = 0.2, v = 0.2, t = 0.2)
movej(p[0.430763725164308, 0.0106649807290502, 0.435239301228971, -1.28883803106164, 0.969364991368227, -1.03773902279599], a = 0.2, v = 0.2, t = 0.2)
movej(p[0.431497083311152, 0.0108312431906353, 0.43526209080759, -1.29179109809944, 0.977877319640024, -1.03165104538612], a = 0.2, v = 0.2, t = 0.2)
movej(p[0.431884218587356, 0.0107652148134046, 0.435276255597321, -1.28267095848811, 0.988760371146845, -1.01156687534233], a = 0.2, v = 0.2, t = 0.2)
movej(p[0.431977591118441, 0.0106971524995769, 0.435246580732954, -1.28620142186912, 0.989745225375785, -1.02238959275728], a = 0.2, v = 0.2, t = 0.2)
movej(p[0.432012321869342, 0.0106909999617241, 0.435186734575017, -1.28928253273259, 0.989659335510273, -1.0260770022751], a = 0.2, v = 0.2, t = 0.2)
movej(p[0.431939570143479, 0.0105785812697723, 0.435121498233276, -1.28714677966096, 0.990727156567602, -1.02083946407158], a = 0.2, v = 0.2, t = 0.2)
movej(p[0.43149934098646, 0.0102808323789793, 0.435071615454268, -1.28025715848678, 0.990610516421262, -1.02091303788547], a = 0.2, v = 0.2, t = 0.2)
movej(p[0.430820651748618, 0.0101515366680823, 0.434899460207234, -1.27139066677343, 0.990343413622172, -1.02283800103758], a = 0.2, v = 0.2, t = 0.2)
movej(p[0.429861278906279, 0.0100295442398671, 0.434794873979937, -1.2695613336021, 0.984955299038251, -1.03116409330475], a = 0.2, v = 0.2, t = 0.2)
movej(p[0.428908567708932, 0.00988695193733564, 0.434793333684944, -1.27061508397178, 0.97826161587907, -1.03638749108173], a = 0.2, v = 0.2, t = 0.2)
movej(p[0.428112302279916, 0.00981630964423632, 0.434813325188272, -1.26908042106576, 0.971240421486293, -1.04172159615605], a = 0.2, v = 0.2, t = 0.2)
movej(p[0.427586502927239, 0.00992200739155431, 0.434780999166851, -1.27015051317572, 0.965622082904327, -1.03941422709194], a = 0.2, v = 0.2, t = 0.2)
movej(p[0.42763719477904, 0.00998794203968815, 0.434840556641918, -1.26673983603868, 0.963404200338094, -1.02526905356962], a = 0.2, v = 0.2, t = 0.2)
movej(p[0.428138285581458, 0.0100427173572111, 0.435001709279881, -1.26951955693024, 0.962342268304325, -1.02371705831689], a = 0.2, v = 0.2, t = 0.2)
movej(p[0.429221992242017, 0.0103175980344165, 0.435117457992007, -1.27802090589567, 0.963067735752662, -1.03292649489058], a = 0.2, v = 0.2, t = 0.2)
movej(p[0.430411101257598, 0.0107056179604604, 0.435181991154463, -1.2854534475534, 0.969821263006358, -1.03450653774222], a = 0.2, v = 0.2, t = 0.2)
movej(p[0.43146545168645, 0.010848828092699, 0.435284700443746, -1.28644033987622, 0.980128873076038, -1.02181221733783], a = 0.2, v = 0.2, t = 0.2)
movej(p[0.431890762708272, 0.0108540955418535, 0.435332840464661, -1.28497498896965, 0.986850484345854, -1.0216409852304], a = 0.2, v = 0.2, t = 0.2)
movej(p[0.432120912649983, 0.010878019728773, 0.435289514142139, -1.28358163347803, 0.991648469186719, -1.0173851239218], a = 0.2, v = 0.2, t = 0.2)
movej(p[0.43210595527463, 0.0108261354253338, 0.435214958549759, -1.28241701019807, 0.993213166454055, -1.01483260209575], a = 0.2, v = 0.2, t = 0.2)
movej(p[0.431919026811923, 0.0105976062410751, 0.435204647201974, -1.28559200449785, 0.990899912596978, -1.02088864935691], a = 0.2, v = 0.2, t = 0.2)
movej(p[0.431402996858074, 0.0103660505392836, 0.435093851465151, -1.28126696530642, 0.989740995388985, -1.02453518799497], a = 0.2, v = 0.2, t = 0.2)
movej(p[0.430475503580808, 0.0101591920374428, 0.434960127204666, -1.2786293809262, 0.986067488688116, -1.03227470446947], a = 0.2, v = 0.2, t = 0.2)
movej(p[0.429412566928982, 0.00981582653389319, 0.434941033216676, -1.26845731300247, 0.983783230119197, -1.02399001868276], a = 0.2, v = 0.2, t = 0.2)
movej(p[0.428321340031641, 0.00957965506671893, 0.43498790192704, -1.27075247199538, 0.972248102007964, -1.03970536532028], a = 0.2, v = 0.2, t = 0.2)
movej(p[0.427536845451519, 0.00957650941690632, 0.434987931459991, -1.27466831026584, 0.960748033904529, -1.04672663785354], a = 0.2, v = 0.2, t = 0.2)
movej(p[0.427091872372253, 0.00960778812392902, 0.434972647660756, -1.27278335467018, 0.954260238544601, -1.04081515767141], a = 0.2, v = 0.2, t = 0.2)
movej(p[0.427080425220333, 0.00949299437382874, 0.43512224913025, -1.2677477886109, 0.953722623948053, -1.02864794414288], a = 0.2, v = 0.2, t = 0.2)
movej(p[0.427770525208275, 0.00967867456693696, 0.435216966966404, -1.26251521536347, 0.957629797584802, -1.02113885682295], a = 0.2, v = 0.2, t = 0.2)
movej(p[0.428894665428357, 0.0100716297389045, 0.435295461954957, -1.26851236231148, 0.960989450155421, -1.02330708615808], a = 0.2, v = 0.2, t = 0.2)
movej(p[0.430236114640421, 0.0104785859844744, 0.435353437374863, -1.27071411214333, 0.971778949125039, -1.01288249112002], a = 0.2, v = 0.2, t = 0.2)
movej(p[0.431192643554031, 0.0106511154283896, 0.435422602317562, -1.27448392336784, 0.980672819180774, -1.01113158135527], a = 0.2, v = 0.2, t = 0.2)
movej(p[0.431762260097897, 0.0107958565201023, 0.435361743966638, -1.27813752383363, 0.988614951561024, -1.00762974242949], a = 0.2, v = 0.2, t = 0.2)
movej(p[0.432020003202864, 0.010811198653747, 0.435286343096502, -1.28030963368187, 0.992330069040077, -1.00730283021947], a = 0.2, v = 0.2, t = 0.2)
movej(p[0.432023485405647, 0.0106793251338413, 0.435237163194382, -1.27836137656177, 0.995907598752707, -1.00415548268364], a = 0.2, v = 0.2, t = 0.2)
movej(p[0.431783437721359, 0.0105028668963792, 0.435183048494896, -1.28129600600909, 0.993748710661762, -1.01664040656082], a = 0.2, v = 0.2, t = 0.2)
movej(p[0.431228692768539, 0.0103508148347665, 0.435047815628248, -1.27933196634114, 0.992373987811289, -1.02058648995815], a = 0.2, v = 0.2, t = 0.2)
movej(p[0.430428125223909, 0.0100582329655726, 0.435020856383028, -1.27883758326218, 0.988236668955644, -1.02540750812126], a = 0.2, v = 0.2, t = 0.2)
movej(p[0.429458712630473, 0.00980526756660549, 0.435010232258893, -1.27246650031653, 0.983074909913822, -1.03271583627415], a = 0.2, v = 0.2, t = 0.2)
movej(p[0.428655432622766, 0.00979949793108029, 0.434973379553104, -1.27247173380698, 0.974642021118994, -1.04241706794974], a = 0.2, v = 0.2, t = 0.2)
movej(p[0.427982430614528, 0.00985149544378253, 0.434904640838851, -1.26946473876794, 0.967541525828061, -1.04091742046616], a = 0.2, v = 0.2, t = 0.2)
movej(p[0.427610746424657, 0.00980004822055782, 0.43494988289029, -1.2728718415859, 0.959744607972821, -1.04046233687952], a = 0.2, v = 0.2, t = 0.2)
movej(p[0.427488154174632, 0.00974917402409912, 0.43498777051582, -1.26922716320985, 0.957622293534784, -1.03804926947761], a = 0.2, v = 0.2, t = 0.2)
movej(p[0.427922085546183, 0.00991609008364375, 0.435010045588192, -1.27485995095679, 0.955823279863374, -1.04101854441004], a = 0.2, v = 0.2, t = 0.2)
movej(p[0.428738848144506, 0.0101091664894692, 0.435079159578053, -1.27188310748295, 0.961559143455432, -1.02808912450252], a = 0.2, v = 0.2, t = 0.2)
movej(p[0.429687091018418, 0.010253850014811, 0.435246626812998, -1.28086843304141, 0.963521391323147, -1.0357946234023], a = 0.2, v = 0.2, t = 0.2)
movej(p[0.4306400709046, 0.0104967890430044, 0.43530854343908, -1.28236880076756, 0.972461728230309, -1.02847943095029], a = 0.2, v = 0.2, t = 0.2)
movej(p[0.431348160672407, 0.0106912133576377, 0.435300933147321, -1.28620464017852, 0.980218254419211, -1.02366391226591], a = 0.2, v = 0.2, t = 0.2)
movej(p[0.431812380879559, 0.0106539007927993, 0.435326882335861, -1.27995620322639, 0.990223685629803, -1.0054898295554], a = 0.2, v = 0.2, t = 0.2)
movej(p[0.431929043844696, 0.0105538715856119, 0.435291408203386, -1.28269335472505, 0.990774890370779, -1.01558283428618], a = 0.2, v = 0.2, t = 0.2)
movej(p[0.431848227293113, 0.0105207687774418, 0.435217816041694, -1.2840856663239, 0.991569046929811, -1.0193756998918], a = 0.2, v = 0.2, t = 0.2)
movej(p[0.431484242177499, 0.0103832427255643, 0.435120789048608, -1.28828775498202, 0.987826726815828, -1.02788525755631], a = 0.2, v = 0.2, t = 0.2)
movej(p[0.430771960303064, 0.0100117039315851, 0.435145752678563, -1.28101992352971, 0.988773278850353, -1.02437824120913], a = 0.2, v = 0.2, t = 0.2)
movej(p[0.429944320089435, 0.00983640379203245, 0.435054125056329, -1.27164409880652, 0.987320169114149, -1.02737580223146], a = 0.2, v = 0.2, t = 0.2)
movej(p[0.429105616145149, 0.00983906847600589, 0.434944614966388, -1.26459596946693, 0.984330492478815, -1.02767674957692], a = 0.2, v = 0.2, t = 0.2)
movej(p[0.428381220505184, 0.00977418318091028, 0.434947680789235, -1.26332752851808, 0.977534062816613, -1.02452113021728], a = 0.2, v = 0.2, t = 0.2)
movej(p[0.427755662098858, 0.00964920452325391, 0.435026281865222, -1.2634439124805, 0.96889097242061, -1.02966315749086], a = 0.2, v = 0.2, t = 0.2)
movej(p[0.427629284790997, 0.00975710907015738, 0.435050414238318, -1.2676572955524, 0.962584186266931, -1.03292585152431], a = 0.2, v = 0.2, t = 0.2)
movej(p[0.428042733683608, 0.00997022809178283, 0.435078739248822, -1.26963182795167, 0.959814321712611, -1.0329670740936], a = 0.2, v = 0.2, t = 0.2)
movej(p[0.428965404047269, 0.0102321265331406, 0.435163688884118, -1.27555081033355, 0.961019059234376, -1.03364343932596], a = 0.2, v = 0.2, t = 0.2)
movej(p[0.430001599699089, 0.0105161959313183, 0.435226818287473, -1.27981840169942, 0.966356282463095, -1.03620170508327], a = 0.2, v = 0.2, t = 0.2)
movej(p[0.431032854557954, 0.0108714426461136, 0.435182732454206, -1.28183629982306, 0.976982842876025, -1.02444458743228], a = 0.2, v = 0.2, t = 0.2)
movej(p[0.431728462393487, 0.0109389983872195, 0.435214731293444, -1.28391964991793, 0.985588948378293, -1.01245747099549], a = 0.2, v = 0.2, t = 0.2)
movej(p[0.432002899333049, 0.0108306593262896, 0.43527660031607, -1.28451740785992, 0.992128004441026, -1.00957543352087], a = 0.2, v = 0.2, t = 0.2)
movej(p[0.432091242636305, 0.0107756645501496, 0.435248028421435, -1.29395197866392, 0.989294221908, -1.02592981646573], a = 0.2, v = 0.2, t = 0.2)
movej(p[0.431940630301979, 0.0107165334354423, 0.435140114786419, -1.29313896383712, 0.988810661571771, -1.02680345405179], a = 0.2, v = 0.2, t = 0.2)
movej(p[0.431626040459834, 0.0104024092460081, 0.435096757400294, -1.28905350720859, 0.98720836840885, -1.0224488980238], a = 0.2, v = 0.2, t = 0.2)
movej(p[0.430890873498006, 0.0101101291093864, 0.435046190280824, -1.27832523276223, 0.986775340518559, -1.02576995657816], a = 0.2, v = 0.2, t = 0.2)
movej(p[0.4300363069647, 0.00999092325367931, 0.434943443727501, -1.27330958115735, 0.984567680203062, -1.03018758231206], a = 0.2, v = 0.2, t = 0.2)
movej(p[0.429077737674296, 0.00995130164233017, 0.434887869953042, -1.26962953433076, 0.979311167145791, -1.03353938413674], a = 0.2, v = 0.2, t = 0.2)
movej(p[0.428235750332761, 0.00975790059544942, 0.43502160255103, -1.27306576121123, 0.97120907310006, -1.03969579850395], a = 0.2, v = 0.2, t = 0.2)
movej(p[0.427609161751262, 0.00973363668297548, 0.435079266149448, -1.27214331155278, 0.962867844457771, -1.04398988027891], a = 0.2, v = 0.2, t = 0.2)
movej(p[0.427549843293025, 0.00990495304489095, 0.435095801699527, -1.27513998068148, 0.955909394564024, -1.04433491678577], a = 0.2, v = 0.2, t = 0.2)
movej(p[0.428087834460541, 0.0101108572774203, 0.435144141931236, -1.27231040965321, 0.957328216349086, -1.03279444509354], a = 0.2, v = 0.2, t = 0.2)
movej(p[0.428994675301396, 0.0102770212541715, 0.435256772605065, -1.27767238993121, 0.958676860473958, -1.03723167254251], a = 0.2, v = 0.2, t = 0.2)
movej(p[0.430169289553926, 0.010602522348704, 0.43529947916791, -1.27913382506963, 0.970156998908919, -1.03059668039015], a = 0.2, v = 0.2, t = 0.2)
movej(p[0.431148916481354, 0.0108511377758671, 0.435313154738655, -1.28266688881922, 0.97822833079218, -1.02639291581135], a = 0.2, v = 0.2, t = 0.2)
movej(p[0.431789331953663, 0.0108898759255123, 0.435375289773359, -1.2758523859944, 0.992088304273006, -1.00688673939573], a = 0.2, v = 0.2, t = 0.2)
movej(p[0.432059069106207, 0.0108956841994152, 0.435372693640633, -1.28027690299027, 0.994439605733725, -1.01712466551931], a = 0.2, v = 0.2, t = 0.2)
movej(p[0.432170795480353, 0.0109110738190302, 0.435306425223138, -1.28390468089213, 0.995331015148078, -1.02105153700108], a = 0.2, v = 0.2, t = 0.2)
movej(p[0.432202154780278, 0.0108189389116886, 0.435272924472381, -1.28454195300609, 0.996251192361402, -1.0187791094609], a = 0.2, v = 0.2, t = 0.2)
movej(p[0.431973616887682, 0.0105332287773564, 0.435258934169046, -1.27930544773733, 0.996271533026172, -1.01715517041269], a = 0.2, v = 0.2, t = 0.2)
movej(p[0.431464246209679, 0.0103844077323305, 0.435125978993712, -1.27558336165321, 0.994637635341701, -1.02385371038478], a = 0.2, v = 0.2, t = 0.2)
movej(p[0.430567943339329, 0.0101807938022089, 0.434990247279426, -1.27342464325968, 0.990348333935112, -1.0324577811102], a = 0.2, v = 0.2, t = 0.2)
movej(p[0.429527595696914, 0.00991501340984867, 0.435011201562005, -1.27355075655667, 0.985186820155121, -1.03855663517606], a = 0.2, v = 0.2, t = 0.2)
movej(p[0.428640357300736, 0.00975828994594791, 0.435095093890086, -1.2687037073386, 0.98045334014827, -1.03911634920702], a = 0.2, v = 0.2, t = 0.2)
movej(p[0.427931187065007, 0.00981801159768598, 0.435169934510061, -1.26849642928899, 0.973063479558387, -1.03776743948515], a = 0.2, v = 0.2, t = 0.2)
movej(p[0.427358083372925, 0.00981207238011103, 0.435370880599753, -1.2703359181616, 0.964861243062788, -1.03262550877832], a = 0.2, v = 0.2, t = 0.2)
movej(p[0.426858881159166, 0.00968057496275864, 0.435650768145749, -1.27231984361928, 0.95795187287731, -1.03070921527396], a = 0.2, v = 0.2, t = 0.2)
movej(p[0.426855344998076, 0.00974087374500676, 0.435838783342007, -1.27500012099144, 0.952594062104492, -1.03774319349701], a = 0.2, v = 0.2, t = 0.2)
movej(p[0.427516745870137, 0.0100891765713637, 0.435852579442521, -1.27710894859328, 0.950485669216256, -1.04045171105788], a = 0.2, v = 0.2, t = 0.2)
movej(p[0.428606542458522, 0.0103683550305357, 0.435885359465076, -1.27498825917526, 0.954694945289111, -1.03241304295685], a = 0.2, v = 0.2, t = 0.2)
movej(p[0.429611448530066, 0.0105946531725981, 0.435938268695584, -1.27710403869283, 0.960689748769372, -1.03814965988998], a = 0.2, v = 0.2, t = 0.2)
movej(p[0.430562534447534, 0.0107969070265009, 0.435939283868416, -1.28444631938599, 0.968040277889815, -1.0397856362159], a = 0.2, v = 0.2, t = 0.2)
movej(p[0.431288496869297, 0.0109596266568355, 0.435881733578314, -1.2887733739391, 0.97678332433472, -1.03808071991594], a = 0.2, v = 0.2, t = 0.2)
movej(p[0.431793320413232, 0.0108762780177887, 0.435887721939852, -1.29100939815245, 0.983918109585839, -1.03096451151803], a = 0.2, v = 0.2, t = 0.2)
movej(p[0.431963557982075, 0.0108533238608406, 0.435809919873463, -1.28495483914386, 0.990887388883148, -1.02363223170942], a = 0.2, v = 0.2, t = 0.2)
movej(p[0.432056998353535, 0.0108814107276819, 0.43569387314907, -1.28680657703262, 0.992716042584868, -1.02546038815869], a = 0.2, v = 0.2, t = 0.2)
movej(p[0.432071867119697, 0.0108271711120108, 0.435629261586841, -1.28342337043726, 0.996100286359382, -1.01726426050735], a = 0.2, v = 0.2, t = 0.2)
movej(p[0.432039796734029, 0.0106523945186303, 0.435624064106834, -1.28590795061686, 0.994998978896839, -1.02154666815337], a = 0.2, v = 0.2, t = 0.2)
movej(p[0.431819773286625, 0.0105464662962373, 0.435511235846354, -1.28381434917171, 0.996239516349089, -1.0212342541458], a = 0.2, v = 0.2, t = 0.2)
movej(p[0.431270646569067, 0.0103517410995097, 0.43538226185181, -1.2824411351076, 0.993129225289813, -1.02674947537366], a = 0.2, v = 0.2, t = 0.2)
movej(p[0.430368615627453, 0.0099895312152622, 0.435362563432464, -1.27714715118708, 0.991103590609253, -1.02642786595591], a = 0.2, v = 0.2, t = 0.2)
movej(p[0.429409053421527, 0.00979868530952863, 0.435368327304738, -1.27585645476765, 0.982563955693323, -1.04221384959287], a = 0.2, v = 0.2, t = 0.2)
movej(p[0.428626128101609, 0.00986156680551836, 0.435343807243708, -1.27835885330309, 0.974142001441455, -1.04992317956168], a = 0.2, v = 0.2, t = 0.2)
movej(p[0.428033583403472, 0.00991265861470752, 0.435373072917583, -1.27719533851749, 0.966630230023006, -1.04922735939337], a = 0.2, v = 0.2, t = 0.2)
movej(p[0.427684491235432, 0.00982767796923966, 0.435493700489962, -1.27307329310634, 0.963812847118556, -1.03822959100014], a = 0.2, v = 0.2, t = 0.2)
movej(p[0.427896737142138, 0.00989382401798177, 0.435585149541258, -1.27485237699952, 0.960563098014088, -1.0417189207468], a = 0.2, v = 0.2, t = 0.2)
movej(p[0.428621261642877, 0.0101521277661969, 0.435626475640613, -1.27941672457338, 0.959609558190259, -1.04111529153526], a = 0.2, v = 0.2, t = 0.2)
movej(p[0.429726003082497, 0.0103714191050213, 0.435733729623301, -1.28324990919477, 0.962921086866749, -1.0374061811299], a = 0.2, v = 0.2, t = 0.2)
movej(p[0.43060656113918, 0.0105757290241442, 0.435773578643393, -1.28294341873088, 0.970484147018562, -1.03707221896583], a = 0.2, v = 0.2, t = 0.2)
movej(p[0.431432564299512, 0.0108312295878172, 0.435735385489433, -1.29188020070726, 0.976567835033996, -1.04232970692887], a = 0.2, v = 0.2, t = 0.2)
movej(p[0.431863666645504, 0.0109506898729949, 0.435645659343264, -1.29218758833654, 0.984827265513565, -1.03443950532866], a = 0.2, v = 0.2, t = 0.2)
movej(p[0.432057271546839, 0.0108065104592052, 0.435635877442009, -1.29441579092551, 0.988412932366482, -1.02892373793599], a = 0.2, v = 0.2, t = 0.2)
movej(p[0.431771157009616, 0.01061463150902, 0.435512988468998, -1.28106192150414, 0.993285638826252, -1.01841869796278], a = 0.2, v = 0.2, t = 0.2)
movej(p[0.431089552374908, 0.0104418449259423, 0.435314673806239, -1.2772734617645, 0.990411629814608, -1.02434607909818], a = 0.2, v = 0.2, t = 0.2)
movej(p[0.430047606564886, 0.0101617950934581, 0.435207082256374, -1.26841601114785, 0.987466052786193, -1.0218456351286], a = 0.2, v = 0.2, t = 0.2)
movej(p[0.428914396833444, 0.0099036402696794, 0.435266528413751, -1.27301425122529, 0.977733795550507, -1.0418711358938], a = 0.2, v = 0.2, t = 0.2)
movej(p[0.428050148062936, 0.00991863956286045, 0.435328182711079, -1.27875054475356, 0.967992238047365, -1.05313351654781], a = 0.2, v = 0.2, t = 0.2)
movej(p[0.427496732931796, 0.0100609905631206, 0.435361079879511, -1.28478562023265, 0.956950151142847, -1.0624573838335], a = 0.2, v = 0.2, t = 0.2)
movej(p[0.427430871127876, 0.0100124894573469, 0.435478603639862, -1.27935981704708, 0.955139374264699, -1.04422544860877], a = 0.2, v = 0.2, t = 0.2)
movej(p[0.427669228212767, 0.0100103103367477, 0.435560338126614, -1.27663028772582, 0.953780162375144, -1.04435317191218], a = 0.2, v = 0.2, t = 0.2)
movej(p[0.428379851438573, 0.0102014312925038, 0.435603784568546, -1.28052124529706, 0.955147227435927, -1.04342482205853], a = 0.2, v = 0.2, t = 0.2)
movej(p[0.429180804507934, 0.0103771473500769, 0.435662961823401, -1.28472478288671, 0.959210761902306, -1.0444286616658], a = 0.2, v = 0.2, t = 0.2)
movej(p[0.429855049979476, 0.0103779000871531, 0.435755532784786, -1.28182912863204, 0.967238106046025, -1.0341506945672], a = 0.2, v = 0.2, t = 0.2)
movej(p[0.430271166123874, 0.0104271560072091, 0.435711342549079, -1.27808666276832, 0.974433257156442, -1.03016210259185], a = 0.2, v = 0.2, t = 0.2)
movej(p[0.430345038298807, 0.0104070960594699, 0.435600567330675, -1.27785524267591, 0.976897109440945, -1.02913777413003], a = 0.2, v = 0.2, t = 0.2)
movej(p[0.42985818364203, 0.0101575939545598, 0.435529323924047, -1.27633280068157, 0.979458348150625, -1.02329075583621], a = 0.2, v = 0.2, t = 0.2)
movej(p[0.428872950874879, 0.00985025312434632, 0.435469675400406, -1.27376440250032, 0.975900756128486, -1.0318875074647], a = 0.2, v = 0.2, t = 0.2)
movej(p[0.427775161392406, 0.00974180305980303, 0.435375233917379, -1.27198116292987, 0.970582824759357, -1.0340811728419], a = 0.2, v = 0.2, t = 0.2)
movej(p[0.426784620843036, 0.00967176435132495, 0.435418217021317, -1.27211327614202, 0.959966596816782, -1.03590208102821], a = 0.2, v = 0.2, t = 0.2)
movej(p[0.425795743242163, 0.00947582553818702, 0.435668609237846, -1.27152992496157, 0.953005303367728, -1.02816834510183], a = 0.2, v = 0.2, t = 0.2)
movej(p[0.424972072885117, 0.00933314045096076, 0.436030629375003, -1.27402746024458, 0.942520063341465, -1.03314835325776], a = 0.2, v = 0.2, t = 0.2)
movej(p[0.424415427516855, 0.00935087306029225, 0.436311284640158, -1.27951431649841, 0.931114991275164, -1.04023215620672], a = 0.2, v = 0.2, t = 0.2)
movej(p[0.424557982701547, 0.00946908020990964, 0.436441877978414, -1.28455414520363, 0.920756790925862, -1.04303512861081], a = 0.2, v = 0.2, t = 0.2)
movej(p[0.425041511200829, 0.00961730485155462, 0.436314191367954, -1.28570336258692, 0.917760883631669, -1.04830978008883], a = 0.2, v = 0.2, t = 0.2)
movej(p[0.425940477473583, 0.0099239257544428, 0.43607500845936, -1.28645507772971, 0.921077879248, -1.04863985627878], a = 0.2, v = 0.2, t = 0.2)
movej(p[0.426762477418387, 0.0101664327310113, 0.435904625380809, -1.28242393318937, 0.930365821290868, -1.04085722377815], a = 0.2, v = 0.2, t = 0.2)
movej(p[0.427612953724646, 0.0101673939210161, 0.435946075657119, -1.28374655477721, 0.93829214832525, -1.03620836732539], a = 0.2, v = 0.2, t = 0.2)
movej(p[0.428332517474408, 0.0102260515442933, 0.435895131930707, -1.28368893591301, 0.944382564579228, -1.03988398030385], a = 0.2, v = 0.2, t = 0.2)
movej(p[0.429094566654416, 0.0103792247409426, 0.435782115450152, -1.29119520691561, 0.947760303671653, -1.04716974497297], a = 0.2, v = 0.2, t = 0.2)
movej(p[0.429784206134942, 0.010493673601448, 0.43566921943194, -1.28798437722839, 0.954608085819129, -1.03957757223097], a = 0.2, v = 0.2, t = 0.2)
movej(p[0.430340438674249, 0.0105318616808113, 0.435622107241033, -1.29493622301521, 0.958933208605813, -1.0451784129737], a = 0.2, v = 0.2, t = 0.2)
movej(p[0.430723812970895, 0.0105547855029933, 0.435526936213332, -1.29899472148495, 0.962794784293441, -1.04761377089199], a = 0.2, v = 0.2, t = 0.2)
movej(p[0.430825646623437, 0.0105693592354268, 0.435409146135511, -1.30495821212666, 0.96423673394213, -1.05301815102308], a = 0.2, v = 0.2, t = 0.2)
movej(p[0.430554312444331, 0.0103064016758844, 0.435358002140267, -1.29708317664251, 0.968103614174165, -1.04439396764428], a = 0.2, v = 0.2, t = 0.2)
movej(p[0.429944645802378, 0.0102121968641675, 0.435262153571496, -1.28899917194189, 0.968614682178612, -1.04928334564765], a = 0.2, v = 0.2, t = 0.2)
movej(p[0.429151457681252, 0.0102713766613534, 0.435149554864283, -1.28617038706893, 0.965592795006601, -1.0569613747494], a = 0.2, v = 0.2, t = 0.2)
movej(p[0.428482604481103, 0.0103299773069575, 0.43514461787276, -1.28493124633566, 0.960597877142627, -1.05865591510488], a = 0.2, v = 0.2, t = 0.2)
movej(p[0.427982526217435, 0.0101217212716235, 0.435279765453031, -1.28282199838176, 0.956741222523832, -1.05575259716395], a = 0.2, v = 0.2, t = 0.2)
movej(p[0.428178419795857, 0.0101421791458825, 0.435348160632785, -1.27784459823331, 0.955851446851032, -1.04722404093518], a = 0.2, v = 0.2, t = 0.2)
movej(p[0.428838478415164, 0.0103196140725871, 0.435368241677686, -1.27728360899345, 0.957669880794592, -1.03987226348955], a = 0.2, v = 0.2, t = 0.2)
movej(p[0.429924924039122, 0.0105923760140353, 0.435429032807639, -1.27795464689309, 0.965036814738315, -1.02745539236439], a = 0.2, v = 0.2, t = 0.2)
movej(p[0.430797138096062, 0.0107953086788982, 0.435460603466601, -1.28424352117197, 0.971871339882441, -1.02999369901065], a = 0.2, v = 0.2, t = 0.2)
movej(p[0.431418126208914, 0.0109781881895256, 0.435410561078676, -1.28792739052057, 0.979783695748521, -1.02680137369612], a = 0.2, v = 0.2, t = 0.2)
movej(p[0.431735048973164, 0.0109615975751593, 0.435355534676474, -1.28786704710897, 0.984827773067647, -1.02248775005338], a = 0.2, v = 0.2, t = 0.2)
movej(p[0.431751360182305, 0.0107777823507385, 0.43534670862614, -1.28511436130979, 0.989718809280728, -1.02052639346329], a = 0.2, v = 0.2, t = 0.2)
movej(p[0.431481267812501, 0.0106034323427904, 0.435269270946557, -1.28833091369257, 0.986961453323594, -1.03373271287132], a = 0.2, v = 0.2, t = 0.2)
movej(p[0.430849290792061, 0.0104505962885349, 0.435146526618155, -1.28887413152032, 0.983647197714557, -1.04456403507432], a = 0.2, v = 0.2, t = 0.2)
movej(p[0.430032976714503, 0.0101869086494682, 0.435139216359324, -1.29009322708548, 0.979442283974342, -1.05105795218523], a = 0.2, v = 0.2, t = 0.2)
movej(p[0.429140016469408, 0.0100371466385776, 0.435172810776455, -1.2842544714059, 0.975602749856882, -1.05665885050768], a = 0.2, v = 0.2, t = 0.2)
movej(p[0.428436763778085, 0.0101006292953468, 0.435181932229474, -1.28187101955272, 0.970902167035838, -1.05704298702281], a = 0.2, v = 0.2, t = 0.2)
movej(p[0.428002316713706, 0.0101867066887631, 0.435183612793595, -1.27676186328318, 0.964649619749558, -1.04918834158541], a = 0.2, v = 0.2, t = 0.2)
movej(p[0.427973103685744, 0.0101016628137635, 0.435332522581126, -1.27889398664467, 0.959901018760648, -1.04217970877139], a = 0.2, v = 0.2, t = 0.2)
movej(p[0.428394087140961, 0.0101141205945743, 0.435459192562996, -1.28146654191645, 0.957933689565194, -1.0463668711465], a = 0.2, v = 0.2, t = 0.2)
movej(p[0.429359227287836, 0.0103853574998027, 0.435496138994381, -1.28798281824203, 0.959933548985804, -1.04827369026012], a = 0.2, v = 0.2, t = 0.2)
movej(p[0.430421317942025, 0.0106357475540153, 0.435502632630606, -1.28543284693293, 0.968652627866241, -1.03566144349551], a = 0.2, v = 0.2, t = 0.2)
movej(p[0.431174977536832, 0.0106942870657085, 0.43556720783148, -1.29393187271302, 0.972350988661512, -1.03975347264016], a = 0.2, v = 0.2, t = 0.2)
movej(p[0.431603051508685, 0.0107325872225874, 0.435528098158416, -1.29653476062425, 0.978210662094349, -1.03578016499387], a = 0.2, v = 0.2, t = 0.2)
movej(p[0.431774843148189, 0.0107461135627641, 0.43543952677599, -1.30021089746854, 0.980354126397789, -1.03692445561525], a = 0.2, v = 0.2, t = 0.2)
movej(p[0.431770290569335, 0.0105800054252106, 0.435384003710717, -1.29387130823288, 0.983657373940228, -1.02778005240687], a = 0.2, v = 0.2, t = 0.2)
movej(p[0.431470030433555, 0.0103964848066706, 0.435273064784764, -1.29497128021079, 0.980940683461193, -1.04334746615017], a = 0.2, v = 0.2, t = 0.2)
movej(p[0.430891161224158, 0.0102996893579044, 0.435125475202438, -1.29623282496606, 0.976676316124648, -1.05623994554194], a = 0.2, v = 0.2, t = 0.2)
movej(p[0.430114720630101, 0.0101860688701644, 0.435039237951988, -1.29245548881315, 0.974759596518556, -1.05945969963022], a = 0.2, v = 0.2, t = 0.2)
movej(p[0.429215066688054, 0.00993967716725409, 0.435130903878573, -1.27887179064509, 0.976101305363219, -1.04448662678959], a = 0.2, v = 0.2, t = 0.2)
movej(p[0.428549937628046, 0.00995559313155961, 0.435158137618261, -1.27163642275621, 0.973172798995008, -1.04492534323075], a = 0.2, v = 0.2, t = 0.2)
movej(p[0.428233580247505, 0.0101395070881434, 0.435150342506008, -1.27540659084134, 0.966549493143975, -1.04789174740933], a = 0.2, v = 0.2, t = 0.2)
movej(p[0.428466742625741, 0.0102509925932883, 0.4352187922366, -1.279909238891, 0.961844028200163, -1.04743608532395], a = 0.2, v = 0.2, t = 0.2)
movej(p[0.429042201609998, 0.0103167570452893, 0.435352961632479, -1.28346816333265, 0.960465447497803, -1.04987527181473], a = 0.2, v = 0.2, t = 0.2)
movej(p[0.429931514260596, 0.0105328581871694, 0.435387913919448, -1.28601113551027, 0.964666299981981, -1.05020975885568], a = 0.2, v = 0.2, t = 0.2)
movej(p[0.430841428200823, 0.0108232654154921, 0.435358684820617, -1.28924706550454, 0.971399189375379, -1.0447383491145], a = 0.2, v = 0.2, t = 0.2)
movej(p[0.431583085472152, 0.010871020761578, 0.435394731354009, -1.2918677571684, 0.979366713155108, -1.03304202283036], a = 0.2, v = 0.2, t = 0.2)
movej(p[0.431800013868798, 0.0108293759159906, 0.435393312135612, -1.29151852607798, 0.982995826003813, -1.03428652017753], a = 0.2, v = 0.2, t = 0.2)
movej(p[0.431988461420254, 0.0108658802556024, 0.435315069179498, -1.29604657087944, 0.982741252988823, -1.04082440048069], a = 0.2, v = 0.2, t = 0.2)
movej(p[0.43203562028823, 0.0108723629350522, 0.435226249606321, -1.29610241347226, 0.984016066176518, -1.04105027932901], a = 0.2, v = 0.2, t = 0.2)
movej(p[0.432139371193695, 0.0106725245112346, 0.435257825177848, -1.28999674406921, 0.988873035746452, -1.03045056346261], a = 0.2, v = 0.2, t = 0.2)
movej(p[0.432087213510688, 0.0105797561717581, 0.435205668516776, -1.28323340031715, 0.992227822079901, -1.02946221392301], a = 0.2, v = 0.2, t = 0.2)
movej(p[0.4319452423371, 0.0105599213312579, 0.435110179376701, -1.28570387116222, 0.990475961213523, -1.03198684682395], a = 0.2, v = 0.2, t = 0.2)
movej(p[0.431502829439855, 0.0103682909107931, 0.435055937912819, -1.28819144358831, 0.987441249377466, -1.03712679207901], a = 0.2, v = 0.2, t = 0.2)
movej(p[0.430751703745146, 0.00996408938993333, 0.43510996815419, -1.28571847701924, 0.985293425589863, -1.04264888793649], a = 0.2, v = 0.2, t = 0.2)
movej(p[0.429901096671665, 0.00983815508538679, 0.435068995938209, -1.28091665046721, 0.982546184858032, -1.04915194544089], a = 0.2, v = 0.2, t = 0.2)
movej(p[0.429087641899376, 0.00987586460361151, 0.435019195778814, -1.27828163919412, 0.976582750417156, -1.05376182330782], a = 0.2, v = 0.2, t = 0.2)
movej(p[0.428449300465234, 0.0098638309736168, 0.4350601064399, -1.27640152891599, 0.970321027133755, -1.04750542986766], a = 0.2, v = 0.2, t = 0.2)
movej(p[0.427859993776938, 0.00974177035237591, 0.43517113774426, -1.27519589212782, 0.962303308027789, -1.05023643979811], a = 0.2, v = 0.2, t = 0.2)
movej(p[0.427847550809032, 0.00987591512696635, 0.435202807528973, -1.27549776289853, 0.9582010951607, -1.04589033953421], a = 0.2, v = 0.2, t = 0.2)
movej(p[0.428355550994394, 0.0101272685339957, 0.435214745562579, -1.28099063025773, 0.953066909645499, -1.05121264133523], a = 0.2, v = 0.2, t = 0.2)
movej(p[0.429404890243041, 0.0103337403971121, 0.435303988227219, -1.28349831666526, 0.95695025135673, -1.04242912334287], a = 0.2, v = 0.2, t = 0.2)
movej(p[0.430420707886104, 0.0105848949846136, 0.435330208313359, -1.27988932610862, 0.966227469122127, -1.04039859038809], a = 0.2, v = 0.2, t = 0.2)
movej(p[0.431312475733389, 0.0108905405731644, 0.435238341772942, -1.28109112817006, 0.976644253131831, -1.03187608690943], a = 0.2, v = 0.2, t = 0.2)
movej(p[0.43184180808967, 0.0110365581322565, 0.435157208413396, -1.28065105375132, 0.987075528991942, -1.02227164930522], a = 0.2, v = 0.2, t = 0.2)
movej(p[0.432049328680964, 0.0109023243060316, 0.435164430556506, -1.28953671611655, 0.987958745624287, -1.02772543664579], a = 0.2, v = 0.2, t = 0.2)
movej(p[0.432082229223633, 0.0108119386135222, 0.435141746663549, -1.28879389282431, 0.990083811545555, -1.03055797587587], a = 0.2, v = 0.2, t = 0.2)
movej(p[0.432093897401586, 0.0108441101257383, 0.435047567956693, -1.2891889055706, 0.989508464913714, -1.03400455094503], a = 0.2, v = 0.2, t = 0.2)
movej(p[0.43209414275781, 0.0107567236754597, 0.434984551296126, -1.28294588661236, 0.993016997880635, -1.02354835634218], a = 0.2, v = 0.2, t = 0.2)
movej(p[0.431906021526722, 0.0105533336190557, 0.434991471120538, -1.28660877137568, 0.989642455870983, -1.03627146023689], a = 0.2, v = 0.2, t = 0.2)
movej(p[0.431451817196985, 0.0104447267678039, 0.434887476505249, -1.28291462194854, 0.988837101433201, -1.03727507956125], a = 0.2, v = 0.2, t = 0.2)
movej(p[0.430723057571929, 0.0102902704956281, 0.434823970783664, -1.28312329768845, 0.983779661354403, -1.04751126201145], a = 0.2, v = 0.2, t = 0.2)
movej(p[0.429855807809906, 0.0100573329329688, 0.434898569858545, -1.27582567641859, 0.983017853928772, -1.04302863962677], a = 0.2, v = 0.2, t = 0.2)
movej(p[0.42903674008939, 0.0099364266138665, 0.435003270291256, -1.27825715235, 0.975208097993892, -1.06038262681245], a = 0.2, v = 0.2, t = 0.2)
movej(p[0.428469594980706, 0.0100773360948768, 0.435021555890987, -1.28371490581035, 0.966536203022064, -1.06747781733888], a = 0.2, v = 0.2, t = 0.2)
movej(p[0.428258134057717, 0.0101929704995404, 0.435045055103885, -1.28417911409744, 0.959974908120692, -1.06615810116696], a = 0.2, v = 0.2, t = 0.2)
movej(p[0.428288323191883, 0.0101493180132672, 0.435193731280929, -1.28606139093522, 0.956719934163927, -1.06111634858018], a = 0.2, v = 0.2, t = 0.2)
movej(p[0.42886964935819, 0.0102970194748772, 0.435288192764107, -1.28825261665562, 0.956888380600599, -1.06303351517903], a = 0.2, v = 0.2, t = 0.2)
movej(p[0.42978021906495, 0.010594203199175, 0.435325287010883, -1.29459577607419, 0.960028196497628, -1.06104370165208], a = 0.2, v = 0.2, t = 0.2)
movej(p[0.430851543151809, 0.0108095015746029, 0.435363039375765, -1.29472101990639, 0.967912971827466, -1.04688197114813], a = 0.2, v = 0.2, t = 0.2)
movej(p[0.431466714398827, 0.0108761525458404, 0.435367437770376, -1.28997087705725, 0.97702699893015, -1.03704295229308], a = 0.2, v = 0.2, t = 0.2)
movej(p[0.431890377388508, 0.0109623321756488, 0.435304174164086, -1.28498952658198, 0.98560142434926, -1.02542314820682], a = 0.2, v = 0.2, t = 0.2)
movej(p[0.432045132729803, 0.0109555172786758, 0.435234722461379, -1.28697261339936, 0.988440642864394, -1.02490358728586], a = 0.2, v = 0.2, t = 0.2)
movej(p[0.432179597137666, 0.0108111564301694, 0.435245752055463, -1.28803862308172, 0.991741095802169, -1.01968397914471], a = 0.2, v = 0.2, t = 0.2)
movej(p[0.432166863116886, 0.0107246815025396, 0.435229625161584, -1.28648761519379, 0.993598875903556, -1.02110331550686], a = 0.2, v = 0.2, t = 0.2)
movej(p[0.432141712375349, 0.0107418221303069, 0.435142620336546, -1.28199961978512, 0.996640328325229, -1.01554216854485], a = 0.2, v = 0.2, t = 0.2)
movej(p[0.431908686632085, 0.0105666595869238, 0.435090106406282, -1.27622031915794, 0.997304671411086, -1.00942452528939], a = 0.2, v = 0.2, t = 0.2)
movej(p[0.431346905665197, 0.0102547531602528, 0.435063299699203, -1.27934239715552, 0.992343116379076, -1.0285536956506], a = 0.2, v = 0.2, t = 0.2)
movej(p[0.430676035539587, 0.010084336845391, 0.434968676370199, -1.27686614478118, 0.989564306061718, -1.03600032202678], a = 0.2, v = 0.2, t = 0.2)
movej(p[0.429915937405835, 0.0100332246230565, 0.434887641748617, -1.27418222845065, 0.985058214568747, -1.04311372940821], a = 0.2, v = 0.2, t = 0.2)
movej(p[0.429199199917826, 0.00984543152762573, 0.434967642957304, -1.26671570009114, 0.982657531597258, -1.03087851290281], a = 0.2, v = 0.2, t = 0.2)
movej(p[0.428538513237911, 0.00978032152305985, 0.435028167702558, -1.264168951526, 0.976593590986759, -1.03580770700339], a = 0.2, v = 0.2, t = 0.2)
movej(p[0.428229763309269, 0.00993972643443524, 0.435046804424191, -1.26971547608961, 0.968843107910851, -1.04002293150118], a = 0.2, v = 0.2, t = 0.2)
movej(p[0.42839579931258, 0.0101415949755675, 0.435098586968601, -1.27294671911488, 0.963983207564366, -1.04045255552837], a = 0.2, v = 0.2, t = 0.2)
movej(p[0.428980121702435, 0.0102104599076749, 0.435228792217115, -1.2711309008954, 0.965488801843376, -1.03309932298261], a = 0.2, v = 0.2, t = 0.2)
movej(p[0.429948588819328, 0.0104682745849413, 0.435288021660652, -1.27429310141141, 0.969024116437201, -1.03475658308912], a = 0.2, v = 0.2, t = 0.2)
movej(p[0.43094292962663, 0.010779955585739, 0.435280113659838, -1.27744271165107, 0.977410801347198, -1.02744811421335], a = 0.2, v = 0.2, t = 0.2)
movej(p[0.431659744143414, 0.0108626014843906, 0.435322838836082, -1.28502189354612, 0.983073241575433, -1.02330752730592], a = 0.2, v = 0.2, t = 0.2)
movej(p[0.431954643499819, 0.010749867438707, 0.435366871888872, -1.28576487066694, 0.988746342776663, -1.02046612734461], a = 0.2, v = 0.2, t = 0.2)
movej(p[0.432081331217134, 0.010728000761533, 0.435294789458899, -1.2865371014678, 0.991808574783345, -1.01804738338306], a = 0.2, v = 0.2, t = 0.2)
movej(p[0.43204077646633, 0.0106498533011091, 0.435219935820935, -1.28526094205966, 0.991888888818342, -1.01808695143532], a = 0.2, v = 0.2, t = 0.2)
movej(p[0.431754999038423, 0.01047077965615, 0.435150969079123, -1.28502815860911, 0.99126818960632, -1.02193345938261], a = 0.2, v = 0.2, t = 0.2)
movej(p[0.431157803964906, 0.0103433831437644, 0.435028029625916, -1.28727342770147, 0.985822047786953, -1.04272929763322], a = 0.2, v = 0.2, t = 0.2)
movej(p[0.430377603906962, 0.0103158079886334, 0.434871838010573, -1.28788184561293, 0.980997190627268, -1.0547318296866], a = 0.2, v = 0.2, t = 0.2)
movej(p[0.429568194096507, 0.0102096391901871, 0.434846296205857, -1.27909756092019, 0.978778494893756, -1.0468667711889], a = 0.2, v = 0.2, t = 0.2)
movej(p[0.428728192179561, 0.0100856942380302, 0.434903896722252, -1.27073039536241, 0.975137493720911, -1.04616709020422], a = 0.2, v = 0.2, t = 0.2)
movej(p[0.428274481596529, 0.0101807836087657, 0.434891096764494, -1.26714480222528, 0.96918235818279, -1.04596157524068], a = 0.2, v = 0.2, t = 0.2)
movej(p[0.428299171211264, 0.0103834106420596, 0.434898775781539, -1.27291485350335, 0.961299095712903, -1.0514833142948], a = 0.2, v = 0.2, t = 0.2)
movej(p[0.428947878341365, 0.0104749172498945, 0.435022955530606, -1.2763069232296, 0.95946488798678, -1.04634312283701], a = 0.2, v = 0.2, t = 0.2)
movej(p[0.429826693720854, 0.0106610757260568, 0.435108209854998, -1.27736761883368, 0.962437959305864, -1.0472130779403], a = 0.2, v = 0.2, t = 0.2)
movej(p[0.430808316251975, 0.0109617825680458, 0.435111586121527, -1.27926747770017, 0.971548362268294, -1.04145914976287], a = 0.2, v = 0.2, t = 0.2)
movej(p[0.431531161438868, 0.0111453253391946, 0.43506483725047, -1.27907463445711, 0.980671570873532, -1.03089567272556], a = 0.2, v = 0.2, t = 0.2)
movej(p[0.431839984672784, 0.0110538558622496, 0.435106488347466, -1.28714961363828, 0.98545688241555, -1.03183002985277], a = 0.2, v = 0.2, t = 0.2)
movej(p[0.431965592749109, 0.0109649731225305, 0.435072199448227, -1.28910540084966, 0.988321782079311, -1.0311156684262], a = 0.2, v = 0.2, t = 0.2)
movej(p[0.432015953720528, 0.010957913364738, 0.434992858489456, -1.29155642468587, 0.988189258951281, -1.03458475023471], a = 0.2, v = 0.2, t = 0.2)
movej(p[0.431957376301337, 0.0107672824268211, 0.434966215479981, -1.28546586500646, 0.989533635430293, -1.02477201521556], a = 0.2, v = 0.2, t = 0.2)
movej(p[0.431572097935453, 0.0105643730328975, 0.434888000435141, -1.28497373584305, 0.986694506631207, -1.038364347092], a = 0.2, v = 0.2, t = 0.2)
movej(p[0.430906811443058, 0.010437103037056, 0.43474859850081, -1.28315985812786, 0.984057547152407, -1.0467951935573], a = 0.2, v = 0.2, t = 0.2)
movej(p[0.430029596809788, 0.0102762009169496, 0.434665300756681, -1.27704887528697, 0.982424809656868, -1.04729438940885], a = 0.2, v = 0.2, t = 0.2)
movej(p[0.429169976648909, 0.0100476386138258, 0.434724849875071, -1.26956149078493, 0.979238797836041, -1.04357484980111], a = 0.2, v = 0.2, t = 0.2)
movej(p[0.428455134612929, 0.0100357734259837, 0.434762238782377, -1.26952236670355, 0.971381130445452, -1.04998181657362], a = 0.2, v = 0.2, t = 0.2)
movej(p[0.428091670401494, 0.0101613402453703, 0.434794543484438, -1.27799425649845, 0.960415838431999, -1.05783469434601], a = 0.2, v = 0.2, t = 0.2)
movej(p[0.428245948119845, 0.0102728562848709, 0.434877213482347, -1.28222161782708, 0.956657981019955, -1.05589951915379], a = 0.2, v = 0.2, t = 0.2)
movej(p[0.428814921506952, 0.0103329779911323, 0.435008009845449, -1.28376659826622, 0.955960692807292, -1.05750359678196], a = 0.2, v = 0.2, t = 0.2)
movej(p[0.429872703295113, 0.0106153371321497, 0.435061267053592, -1.2855921191931, 0.963681299409558, -1.05044669430003], a = 0.2, v = 0.2, t = 0.2)
movej(p[0.430882971473406, 0.0108313577827939, 0.435092864278531, -1.28557187094545, 0.971462125229659, -1.04016671408712], a = 0.2, v = 0.2, t = 0.2)
movej(p[0.431618213597634, 0.0108727621645756, 0.435163581728051, -1.29047754391177, 0.979550116497899, -1.03264727316174], a = 0.2, v = 0.2, t = 0.2)
movej(p[0.431896949193989, 0.0108260646254799, 0.435165713148274, -1.29640672436008, 0.981754047891589, -1.04004952782045], a = 0.2, v = 0.2, t = 0.2)
movej(p[0.431992651262874, 0.0108140175531674, 0.435110222611524, -1.30050636716405, 0.983562502848075, -1.04301582274697], a = 0.2, v = 0.2, t = 0.2)
movej(p[0.432051778276851, 0.0107128499731185, 0.435103917792246, -1.29402661997487, 0.989472618868124, -1.02948633289381], a = 0.2, v = 0.2, t = 0.2)
movej(p[0.431991305980757, 0.0105997289413825, 0.435103144562619, -1.28216943225339, 0.994992339689263, -1.0193343730243], a = 0.2, v = 0.2, t = 0.2)
movej(p[0.43198519680993, 0.0106055492106789, 0.435060379671678, -1.27180196017687, 1.00214814045427, -1.00671953915775], a = 0.2, v = 0.2, t = 0.2)
movej(p[0.431736085280754, 0.0105020049511678, 0.434973054653989, -1.27165894855636, 1.00137093005457, -1.00780865039132], a = 0.2, v = 0.2, t = 0.2)
movej(p[0.431271809630855, 0.0102398504527289, 0.43498627119062, -1.27479237782264, 0.999259025412642, -1.01232661155409], a = 0.2, v = 0.2, t = 0.2)
movej(p[0.430559393768835, 0.0100447709713226, 0.434929519947671, -1.27083346832945, 0.995465049281047, -1.02149519808156], a = 0.2, v = 0.2, t = 0.2)
movej(p[0.429853109546292, 0.0100088920430939, 0.434865945057218, -1.27024467114175, 0.990408084229512, -1.02962537516568], a = 0.2, v = 0.2, t = 0.2)
movej(p[0.429202833536773, 0.00991941455545597, 0.434828243332461, -1.26086730415186, 0.988492118557989, -1.01862149869479], a = 0.2, v = 0.2, t = 0.2)
movej(p[0.428606664170074, 0.00986214038640777, 0.434855171271006, -1.2635861162653, 0.981540985780408, -1.02776175626359], a = 0.2, v = 0.2, t = 0.2)
movej(p[0.428350223911199, 0.00997133220729093, 0.434869229073974, -1.26683322409545, 0.975063789421049, -1.03017058457185], a = 0.2, v = 0.2, t = 0.2)
movej(p[0.428532463267714, 0.0101697533824214, 0.434936557357755, -1.27401514355492, 0.967795054345528, -1.03823115877141], a = 0.2, v = 0.2, t = 0.2)
movej(p[0.429249266823658, 0.0102572706820054, 0.43509377081093, -1.27824598495887, 0.966100166415867, -1.03582916280657], a = 0.2, v = 0.2, t = 0.2)
movej(p[0.430097770322095, 0.0104265322679158, 0.435167330646195, -1.28043491627508, 0.969169245355381, -1.03991776412929], a = 0.2, v = 0.2, t = 0.2)
movej(p[0.431011927477605, 0.0106823005766686, 0.435172005407308, -1.28731002619056, 0.976018306724094, -1.03857889536388], a = 0.2, v = 0.2, t = 0.2)
movej(p[0.431604564989651, 0.0107721350507531, 0.435186331640639, -1.28750728678078, 0.985000100263039, -1.02506182063854], a = 0.2, v = 0.2, t = 0.2)
movej(p[0.431914022813882, 0.0106495145400132, 0.435283284410756, -1.29086105808098, 0.988957207963697, -1.02190598563131], a = 0.2, v = 0.2, t = 0.2)
movej(p[0.432049864487426, 0.0106357533952642, 0.435232752962884, -1.28158084362839, 0.996401250655015, -1.00718285510592], a = 0.2, v = 0.2, t = 0.2)
movej(p[0.432124980236732, 0.0106126942096707, 0.435184662244798, -1.28542529182924, 0.995530055772607, -1.01210215975316], a = 0.2, v = 0.2, t = 0.2)
movej(p[0.432121626507461, 0.010509571213379, 0.435147022256277, -1.276531633625, 1.00070502254339, -1.00218240699488], a = 0.2, v = 0.2, t = 0.2)
movej(p[0.43198995058634, 0.0104094470358692, 0.435087261809702, -1.28467358324205, 0.995229808992205, -1.02453943213825], a = 0.2, v = 0.2, t = 0.2)
movej(p[0.431684453945537, 0.0102206565713112, 0.434954337584859, -1.28466861481548, 0.994064293026762, -1.02709178555933], a = 0.2, v = 0.2, t = 0.2)
movej(p[0.431063378011021, 0.0101284304766025, 0.434884057809532, -1.28507779604817, 0.990523771972484, -1.03235098488911], a = 0.2, v = 0.2, t = 0.2)
movej(p[0.430269942342726, 0.00980836524736797, 0.434929883548071, -1.27527332990173, 0.990385266951699, -1.02865513624391], a = 0.2, v = 0.2, t = 0.2)
movej(p[0.429607348939355, 0.00981937138739589, 0.434876624160257, -1.2672113837081, 0.988925482355804, -1.02857258967344], a = 0.2, v = 0.2, t = 0.2)
movej(p[0.429014404474525, 0.00991073294645529, 0.43482887576077, -1.2648393347026, 0.984197911715995, -1.02952417568605], a = 0.2, v = 0.2, t = 0.2)
movej(p[0.428585966000688, 0.0098980469094594, 0.434848683462253, -1.26965601520347, 0.975341988578696, -1.03238010811923], a = 0.2, v = 0.2, t = 0.2)
movej(p[0.4284390806516, 0.00987223363187058, 0.434979193923517, -1.27309292817596, 0.969140957996583, -1.04037748680923], a = 0.2, v = 0.2, t = 0.2)
movej(p[0.428843362397801, 0.010068419074619, 0.435084838223781, -1.27897614323743, 0.96555885862896, -1.04345141827877], a = 0.2, v = 0.2, t = 0.2)
