def moving():
set_payload_mass(0)
set_tcp(p[0,0,0,0,0,0])
movej(p[-0.4025, -0.1161, 0.3402, -1.113, -1.287, 1.334], a = 0.2, v = 0.2, t = 0.2)
movej(p[-0.402554929322023, -0.116057477575295, 0.340251716660558, -1.11260983990136, -1.28658824067133, 1.33570893381171], a = 0.2, v = 0.2, t = 0.2)
movej(p[-0.4025, -0.1161, 0.3402, -1.113, -1.287, 1.334], a = 0.2, v = 0.2, t = 0.2)
movej(p[-0.402554929322023, -0.116057477575295, 0.340251716660558, -1.11260983990136, -1.28658824067133, 1.33570893381171], a = 0.2, v = 0.2, t = 0.2)
movej(p[-0.4025, -0.1161, 0.3402, -1.113, -1.287, 1.334], a = 0.2, v = 0.2, t = 0.2)
movej(p[-0.4025, -0.1161, 0.3402, -1.113, -1.287, 1.334], a = 0.2, v = 0.2, t = 0.2)
movej(p[-0.402471889139871, -0.115979271891369, 0.340259388184507, -1.11278463236813, -1.28426196671497, 1.3286632862873], a = 0.2, v = 0.2, t = 0.2)
movej(p[-0.402381387143098, -0.115912711109717, 0.340220515556616, -1.10760980396384, -1.28443923990498, 1.31514763043595], a = 0.2, v = 0.2, t = 0.2)
movej(p[-0.402008659580743, -0.115960704587239, 0.340024443757764, -1.10720169038283, -1.28158567239022, 1.31372957799753], a = 0.2, v = 0.2, t = 0.2)
movej(p[-0.401360178371097, -0.115877633092798, 0.339886066335486, -1.10107552195046, -1.2784329956436, 1.31180793438254], a = 0.2, v = 0.2, t = 0.2)
movej(p[-0.400514382780034, -0.115606723876737, 0.339907131339177, -1.1019900527799, -1.27080687910591, 1.32634114227052], a = 0.2, v = 0.2, t = 0.2)
movej(p[-0.399602880226412, -0.115497382411967, 0.340004602889656, -1.09119707087008, -1.2653768139815, 1.31411716663878], a = 0.2, v = 0.2, t = 0.2)
movej(p[-0.39895595892827, -0.115689060827706, 0.339961936355006, -1.08211209597223, -1.2686651372432, 1.30739202281135], a = 0.2, v = 0.2, t = 0.2)
movej(p[-0.398345977922264, -0.11593213055274, 0.339869582309703, -1.07238707207841, -1.26997400947019, 1.30506454398325], a = 0.2, v = 0.2, t = 0.2)
movej(p[-0.397915182241562, -0.115944936828023, 0.339887668716249, -1.06423843318187, -1.2745708811431, 1.3087460734305], a = 0.2, v = 0.2, t = 0.2)
movej(p[-0.397477738642595, -0.115792723189427, 0.339968952721889, -1.06196311912686, -1.27212293979008, 1.31506782706269], a = 0.2, v = 0.2, t = 0.2)
movej(p[-0.397548941102453, -0.115864013960283, 0.339979701745192, -1.05602124638154, -1.27424487285804, 1.30798650710631], a = 0.2, v = 0.2, t = 0.2)
movej(p[-0.397976370594829, -0.116094391265467, 0.339898364114917, -1.05814843682782, -1.27695193854822, 1.30876710928], a = 0.2, v = 0.2, t = 0.2)
movej(p[-0.398751605388006, -0.116228172814382, 0.339936728816372, -1.06031734903081, -1.27963915073743, 1.30982864705294], a = 0.2, v = 0.2, t = 0.2)
movej(p[-0.399570151234297, -0.116196641805189, 0.3401015058256, -1.0728342723625, -1.27879870044116, 1.31851527313384], a = 0.2, v = 0.2, t = 0.2)
movej(p[-0.400419347518706, -0.116247597518929, 0.34022005416703, -1.07964791748041, -1.27643773919895, 1.3126575243347], a = 0.2, v = 0.2, t = 0.2)
movej(p[-0.401225743154198, -0.11640820513185, 0.340188069495268, -1.08876663092687, -1.2831637741638, 1.3064319104235], a = 0.2, v = 0.2, t = 0.2)
movej(p[-0.401874038633772, -0.116466699510462, 0.340126617183394, -1.09314827157672, -1.28838297885465, 1.29785204788835], a = 0.2, v = 0.2, t = 0.2)
movej(p[-0.402348319857959, -0.11628146672668, 0.340202107107987, -1.10342435142408, -1.29226643045992, 1.30589619971844], a = 0.2, v = 0.2, t = 0.2)
movej(p[-0.402442256370878, -0.116150924932417, 0.340252114153817, -1.11086266699083, -1.2839825169747, 1.31108086661974], a = 0.2, v = 0.2, t = 0.2)
movej(p[-0.402540033935747, -0.116185758789395, 0.340196601669912, -1.11398876368595, -1.28514401763951, 1.30785809287949], a = 0.2, v = 0.2, t = 0.2)
movej(p[-0.402317667916689, -0.116176268668723, 0.340064250833643, -1.11045251514354, -1.28507789475108, 1.30345650788735], a = 0.2, v = 0.2, t = 0.2)
movej(p[-0.401898620936707, -0.115922856699692, 0.340022909709851, -1.10628490180688, -1.28696747855088, 1.30076998779574], a = 0.2, v = 0.2, t = 0.2)
movej(p[-0.401004061271422, -0.115604831157767, 0.340063856645323, -1.10632002646665, -1.27563721887931, 1.30887789521147], a = 0.2, v = 0.2, t = 0.2)
movej(p[-0.400079755927737, -0.115632648830275, 0.339998333094351, -1.09961560895318, -1.26995249115452, 1.30598109520788], a = 0.2, v = 0.2, t = 0.2)
movej(p[-0.399120801997169, -0.115837618595303, 0.33990859413418, -1.09103005273876, -1.26807641862734, 1.30613364383809], a = 0.2, v = 0.2, t = 0.2)
movej(p[-0.398308668204662, -0.115922607832388, 0.339916732847022, -1.07885129733801, -1.27072337503342, 1.30770765925446], a = 0.2, v = 0.2, t = 0.2)
movej(p[-0.397553782275777, -0.115783148555664, 0.340073040806537, -1.07308307376863, -1.27150002381859, 1.31742525203751], a = 0.2, v = 0.2, t = 0.2)
movej(p[-0.397146735625198, -0.115823660743608, 0.340139343869664, -1.0667792240931, -1.26780438773808, 1.32194320089145], a = 0.2, v = 0.2, t = 0.2)
movej(p[-0.39733234394106, -0.116084633388263, 0.340094701595882, -1.05997921848584, -1.27212065319941, 1.32024404367075], a = 0.2, v = 0.2, t = 0.2)
movej(p[-0.397913772096397, -0.116343238422194, 0.340051054321099, -1.05673869589791, -1.27406236839219, 1.31772987586305], a = 0.2, v = 0.2, t = 0.2)
movej(p[-0.398849380942928, -0.116306417312603, 0.340168063374964, -1.06623273052903, -1.27686382939345, 1.32506491094891], a = 0.2, v = 0.2, t = 0.2)
movej(p[-0.399703807981241, -0.116291661261956, 0.340259271681215, -1.07727949323415, -1.27258294170346, 1.32349656039287], a = 0.2, v = 0.2, t = 0.2)
movej(p[-0.400753258360668, -0.116452617022445, 0.340213306442796, -1.08466362581407, -1.27846902898435, 1.31259604159415], a = 0.2, v = 0.2, t = 0.2)
movej(p[-0.401541657521081, -0.116574384462524, 0.340153191684234, -1.09017425205705, -1.28507240458981, 1.30324855226192], a = 0.2, v = 0.2, t = 0.2)
movej(p[-0.402206658792372, -0.116524584304112, 0.340158965597974, -1.09559523080593, -1.29268030825532, 1.29895388513688], a = 0.2, v = 0.2, t = 0.2)
movej(p[-0.402510028804326, -0.116292532198065, 0.340213605102605, -1.10566576299014, -1.28899809902776, 1.30683260653121], a = 0.2, v = 0.2, t = 0.2)
movej(p[-0.402663489535362, -0.116288329722677, 0.340127652272156, -1.10733037470924, -1.28490396550817, 1.30440280565831], a = 0.2, v = 0.2, t = 0.2)
movej(p[-0.402474080967986, -0.116293055677347, 0.339961014255236, -1.10508736016308, -1.28444325585493, 1.3008713348003], a = 0.2, v = 0.2, t = 0.2)
movej(p[-0.401880969978701, -0.116152508965187, 0.339866330116575, -1.10065525504617, -1.28119751795797, 1.30233158213891], a = 0.2, v = 0.2, t = 0.2)
movej(p[-0.400922310477776, -0.115780792016867, 0.339950740255268, -1.0995405890035, -1.2758087307542, 1.30836980426374], a = 0.2, v = 0.2, t = 0.2)
movej(p[-0.399971598073646, -0.115739192357696, 0.339976981304256, -1.09384095056973, -1.26585139511277, 1.31055382954388], a = 0.2, v = 0.2, t = 0.2)
movej(p[-0.399191256251403, -0.115970231746442, 0.339929816082847, -1.08547700011054, -1.26614853113277, 1.31046965724337], a = 0.2, v = 0.2, t = 0.2)
movej(p[-0.39851199951826, -0.116188729935124, 0.339892684617445, -1.07422624952165, -1.26632976391952, 1.31161832706273], a = 0.2, v = 0.2, t = 0.2)
movej(p[-0.397987652492998, -0.116142158014622, 0.340000950997357, -1.06657917075133, -1.27110205214004, 1.31635776047982], a = 0.2, v = 0.2, t = 0.2)
movej(p[-0.397546655716022, -0.116035511492631, 0.340099826973052, -1.05492870426441, -1.27051586400107, 1.30889317767067], a = 0.2, v = 0.2, t = 0.2)
movej(p[-0.39777071079936, -0.116246563763987, 0.34003265472201, -1.05128535144753, -1.27387506966073, 1.30711290856357], a = 0.2, v = 0.2, t = 0.2)
movej(p[-0.398348008538314, -0.11650240914272, 0.33993210738394, -1.04951234530551, -1.27518082347046, 1.30558942204069], a = 0.2, v = 0.2, t = 0.2)
movej(p[-0.399265390892322, -0.116640772819158, 0.339927425493694, -1.05839787332625, -1.27732443194632, 1.31248135324473], a = 0.2, v = 0.2, t = 0.2)
movej(p[-0.400200207776985, -0.116534297519876, 0.340057324724239, -1.06511958417354, -1.27876937259637, 1.30591062563492], a = 0.2, v = 0.2, t = 0.2)
movej(p[-0.401166099733282, -0.116586517904348, 0.340046706232354, -1.07408528336367, -1.28032547221056, 1.29804799732045], a = 0.2, v = 0.2, t = 0.2)
movej(p[-0.401963305449118, -0.116651543186643, 0.339985121884499, -1.08646051199308, -1.28397833380563, 1.29840546583078], a = 0.2, v = 0.2, t = 0.2)
movej(p[-0.402507707804891, -0.116603037991705, 0.339957745584582, -1.09600620229273, -1.28612734951101, 1.30309602353526], a = 0.2, v = 0.2, t = 0.2)
movej(p[-0.40277207460351, -0.116358134852947, 0.340055697301762, -1.10342406349162, -1.28996897683447, 1.30455536945202], a = 0.2, v = 0.2, t = 0.2)
movej(p[-0.402810154491411, -0.116244838579951, 0.340090687289853, -1.10586990599433, -1.2883281779393, 1.30267865746464], a = 0.2, v = 0.2, t = 0.2)
movej(p[-0.402754332434175, -0.116295397598018, 0.339969570803683, -1.11148321739563, -1.28600241869429, 1.31070292747992], a = 0.2, v = 0.2, t = 0.2)
movej(p[-0.40239177515794, -0.116206443325341, 0.339852480374437, -1.11131484534626, -1.28067660234088, 1.31740555434255], a = 0.2, v = 0.2, t = 0.2)
movej(p[-0.40174614197489, -0.115938143544581, 0.339835781419095, -1.11288278787837, -1.27322182233762, 1.3290905157863], a = 0.2, v = 0.2, t = 0.2)
movej(p[-0.40074974377085, -0.11574503049382, 0.339925764851947, -1.0985508220429, -1.2687457742609, 1.31069508370686], a = 0.2, v = 0.2, t = 0.2)
movej(p[-0.399861357905921, -0.115940787293394, 0.339908009200983, -1.0948464686863, -1.26284842273906, 1.31509919741824], a = 0.2, v = 0.2, t = 0.2)
movej(p[-0.399085458485967, -0.116193421843873, 0.339882964326877, -1.0828007483804, -1.2630436175082, 1.30837304268023], a = 0.2, v = 0.2, t = 0.2)
movej(p[-0.398480020713488, -0.116225548251536, 0.339957512433404, -1.08113823562324, -1.26284179886295, 1.32521484145275], a = 0.2, v = 0.2, t = 0.2)
movej(p[-0.397967007293732, -0.116146756950522, 0.340024933301915, -1.07079280755869, -1.26338213610873, 1.31978669892701], a = 0.2, v = 0.2, t = 0.2)
movej(p[-0.397965679742747, -0.116264155305039, 0.339994856614496, -1.06501955678654, -1.26653873059696, 1.32057552057488], a = 0.2, v = 0.2, t = 0.2)
movej(p[-0.398415721603513, -0.116514578562297, 0.339909020828795, -1.06022862165569, -1.26936511776005, 1.31630903999633], a = 0.2, v = 0.2, t = 0.2)
movej(p[-0.399363725567935, -0.116692654528559, 0.339920603301824, -1.06240874637684, -1.27412818201451, 1.31742053463847], a = 0.2, v = 0.2, t = 0.2)
movej(p[-0.400331464120622, -0.116648788802829, 0.340038947184038, -1.07277126888412, -1.27349964906072, 1.31814708966435], a = 0.2, v = 0.2, t = 0.2)
movej(p[-0.401335874692782, -0.116711896864932, 0.340032171148251, -1.08447003180176, -1.27357194181078, 1.31666887939952], a = 0.2, v = 0.2, t = 0.2)
movej(p[-0.402159830219781, -0.116788210728593, 0.339974418618954, -1.09326615115841, -1.28065314550166, 1.31127227544511], a = 0.2, v = 0.2, t = 0.2)
movej(p[-0.402686381643566, -0.116709681401874, 0.33995624516979, -1.10020575656555, -1.28654526536429, 1.30851626935977], a = 0.2, v = 0.2, t = 0.2)
movej(p[-0.402942293195774, -0.116409189929098, 0.34007362177238, -1.10627494090027, -1.29095798265884, 1.30711626808305], a = 0.2, v = 0.2, t = 0.2)
movej(p[-0.402996579843019, -0.116256416383442, 0.340061017897474, -1.11133183391014, -1.28651499574168, 1.3083394758324], a = 0.2, v = 0.2, t = 0.2)
movej(p[-0.40305404569792, -0.116299328713568, 0.339966169852963, -1.11225344514585, -1.28572803387136, 1.30648142319525], a = 0.2, v = 0.2, t = 0.2)
movej(p[-0.403087686070516, -0.116243298036496, 0.339879488828745, -1.11548746163194, -1.28328434944251, 1.31433005773365], a = 0.2, v = 0.2, t = 0.2)
movej(p[-0.403038966327084, -0.116056273056565, 0.339911796344945, -1.11794986332337, -1.2830638767316, 1.31718746302573], a = 0.2, v = 0.2, t = 0.2)
movej(p[-0.402782456185002, -0.11590564818269, 0.339940423354551, -1.11209857984712, -1.2811202808322, 1.30603343964328], a = 0.2, v = 0.2, t = 0.2)
movej(p[-0.402474707703681, -0.116027783583257, 0.339803511165781, -1.1089569589146, -1.27861464337986, 1.30210634214302], a = 0.2, v = 0.2, t = 0.2)
movej(p[-0.40193793820679, -0.116091758027882, 0.33968102709817, -1.10387546384643, -1.27374144713034, 1.29964248181568], a = 0.2, v = 0.2, t = 0.2)
movej(p[-0.401329609644375, -0.115937616571812, 0.339681574060037, -1.10661919937377, -1.26774911463697, 1.31517663176198], a = 0.2, v = 0.2, t = 0.2)
movej(p[-0.400629520671021, -0.11580205961358, 0.339763094639038, -1.10134411284874, -1.26203345805198, 1.31181407927597], a = 0.2, v = 0.2, t = 0.2)
movej(p[-0.400206535735333, -0.1159982841073, 0.339692286064827, -1.0967155395658, -1.2609717320387, 1.31204774431635], a = 0.2, v = 0.2, t = 0.2)
movej(p[-0.399810650146682, -0.116254425209388, 0.339605601575907, -1.09064711392771, -1.26123046169649, 1.31519731225353], a = 0.2, v = 0.2, t = 0.2)
movej(p[-0.399509510132969, -0.116345440010995, 0.339603340927927, -1.08708889088412, -1.26250609835573, 1.32439495724572], a = 0.2, v = 0.2, t = 0.2)
movej(p[-0.399099500077853, -0.116206174655581, 0.339786196388019, -1.08336043943678, -1.26300882404406, 1.3278074079501], a = 0.2, v = 0.2, t = 0.2)
movej(p[-0.399118803705689, -0.116262701699644, 0.339936773236976, -1.07625901613159, -1.26636912306605, 1.31865044670767], a = 0.2, v = 0.2, t = 0.2)
movej(p[-0.399456791440234, -0.116493813682713, 0.339997603823364, -1.07071272707304, -1.27236273685411, 1.30979694595923], a = 0.2, v = 0.2, t = 0.2)
movej(p[-0.400156008048889, -0.116714983456075, 0.340014305032697, -1.06767697034993, -1.27669793973429, 1.30642252371681], a = 0.2, v = 0.2, t = 0.2)
movej(p[-0.400828818174382, -0.116704998017496, 0.340071716722936, -1.07249002747181, -1.27731791032734, 1.30956895062317], a = 0.2, v = 0.2, t = 0.2)
movej(p[-0.401364426336346, -0.116723204586224, 0.340018945416174, -1.0759486349357, -1.27544599549784, 1.30424268569742], a = 0.2, v = 0.2, t = 0.2)
movej(p[-0.401868117141664, -0.116756517216358, 0.339889898788511, -1.08097415784129, -1.28040520043077, 1.30086280607875], a = 0.2, v = 0.2, t = 0.2)
movej(p[-0.402225740204926, -0.116696923849458, 0.33977568903873, -1.08669785063559, -1.28229805223202, 1.30270690631542], a = 0.2, v = 0.2, t = 0.2)
movej(p[-0.40248926974465, -0.116419092779126, 0.339831910771716, -1.09711801751414, -1.28422126565127, 1.31279667988523], a = 0.2, v = 0.2, t = 0.2)
movej(p[-0.402587119930694, -0.116192730876401, 0.339902061253531, -1.10520415247814, -1.27884587364588, 1.31629060667531], a = 0.2, v = 0.2, t = 0.2)
movej(p[-0.402739363598032, -0.116211541829797, 0.339844838802431, -1.11228266039045, -1.27810353056681, 1.31986824389114], a = 0.2, v = 0.2, t = 0.2)
movej(p[-0.402812056153402, -0.1162141133022, 0.339808324311343, -1.1138234140301, -1.2779634354893, 1.32123070094025], a = 0.2, v = 0.2, t = 0.2)
movej(p[-0.402873670582895, -0.116086270336436, 0.339838563469448, -1.12171144641534, -1.27803196204349, 1.3357954716786], a = 0.2, v = 0.2, t = 0.2)
movej(p[-0.402745744139881, -0.115846966487204, 0.339920377198861, -1.11712195736906, -1.27680815980352, 1.32741498810023], a = 0.2, v = 0.2, t = 0.2)
movej(p[-0.402682441791185, -0.115850658357294, 0.33980561036025, -1.12001536062652, -1.27302186714293, 1.3333445214294], a = 0.2, v = 0.2, t = 0.2)
movej(p[-0.402480745862221, -0.115843993885324, 0.339706151717343, -1.11712870635271, -1.27092918551303, 1.33136321411867], a = 0.2, v = 0.2, t = 0.2)
movej(p[-0.402280957170982, -0.115645728036706, 0.339711272170508, -1.12346069178229, -1.26751530581068, 1.34517617888348], a = 0.2, v = 0.2, t = 0.2)
movej(p[-0.401916730320768, -0.115338144830381, 0.339898079479974, -1.12418876316279, -1.26676111362465, 1.34130304671425], a = 0.2, v = 0.2, t = 0.2)
movej(p[-0.40167957015188, -0.115335221115138, 0.339852624569547, -1.12368547543375, -1.26306492420524, 1.33865343140807], a = 0.2, v = 0.2, t = 0.2)
movej(p[-0.401311746093139, -0.115516674596184, 0.339750504057756, -1.12284497176864, -1.26126053305363, 1.33891886756606], a = 0.2, v = 0.2, t = 0.2)
movej(p[-0.400841238659109, -0.115632183602375, 0.339687204869682, -1.11204836456728, -1.26207506686306, 1.33317787160988], a = 0.2, v = 0.2, t = 0.2)
movej(p[-0.400177006362593, -0.115574931612311, 0.339820031239423, -1.10347833367276, -1.26334609282317, 1.33167638676018], a = 0.2, v = 0.2, t = 0.2)
movej(p[-0.399555558859893, -0.115673196705479, 0.33991901491251, -1.08543134307987, -1.26343368628321, 1.31242303136313], a = 0.2, v = 0.2, t = 0.2)
movej(p[-0.399373274856978, -0.116057983641864, 0.339879576272193, -1.07953199285532, -1.26759371128351, 1.31165946460722], a = 0.2, v = 0.2, t = 0.2)
movej(p[-0.399491397851645, -0.116352349769112, 0.339857605508449, -1.07152438631524, -1.27192628332929, 1.30715931327094], a = 0.2, v = 0.2, t = 0.2)
movej(p[-0.399904754442956, -0.11639577691157, 0.33993297251859, -1.07923234099641, -1.27249544274566, 1.32394568123601], a = 0.2, v = 0.2, t = 0.2)
movej(p[-0.400303848431268, -0.116419483548589, 0.339984514931758, -1.08230620853595, -1.26860255058744, 1.32504720308697], a = 0.2, v = 0.2, t = 0.2)
movej(p[-0.400849171111593, -0.116588703544772, 0.339916324903055, -1.08448295126742, -1.27227241151686, 1.31986339075477], a = 0.2, v = 0.2, t = 0.2)
movej(p[-0.401289180097652, -0.116745385293117, 0.339835521011298, -1.08445222462462, -1.27724935022506, 1.31321340334864], a = 0.2, v = 0.2, t = 0.2)
movej(p[-0.401741675956445, -0.11664582812193, 0.33985547196968, -1.08441761821194, -1.28472722519281, 1.30679784853728], a = 0.2, v = 0.2, t = 0.2)
movej(p[-0.401972626215301, -0.116407439701477, 0.339948057321266, -1.09360312997295, -1.28009621643668, 1.31429914361667], a = 0.2, v = 0.2, t = 0.2)
movej(p[-0.402242501829576, -0.116332035531075, 0.33992684650314, -1.09292921478508, -1.28187844195212, 1.30273652832156], a = 0.2, v = 0.2, t = 0.2)
movej(p[-0.402448817213713, -0.116362467972176, 0.339839892841789, -1.09705945210562, -1.2848706917822, 1.30191219391537], a = 0.2, v = 0.2, t = 0.2)
movej(p[-0.402624783625232, -0.116264129930346, 0.339820207934603, -1.09658105147068, -1.28878708911096, 1.29913105815939], a = 0.2, v = 0.2, t = 0.2)
movej(p[-0.402704290444426, -0.115992297940912, 0.339918489396852, -1.10745996887505, -1.28336078323841, 1.31648623379231], a = 0.2, v = 0.2, t = 0.2)
movej(p[-0.402730689508937, -0.115908624660824, 0.339924878566772, -1.11108859512406, -1.27543000322327, 1.32022113261932], a = 0.2, v = 0.2, t = 0.2)
movej(p[-0.402742540721431, -0.115989054822915, 0.339824390764585, -1.11003897672532, -1.27523584061933, 1.31868124875466], a = 0.2, v = 0.2, t = 0.2)
movej(p[-0.402573817820376, -0.11596045049247, 0.33972723462827, -1.10771547233608, -1.27397520143982, 1.31995415190539], a = 0.2, v = 0.2, t = 0.2)
movej(p[-0.402284107717186, -0.115685431834929, 0.33979542772805, -1.10615115535809, -1.27564523205157, 1.31903429778056], a = 0.2, v = 0.2, t = 0.2)
movej(p[-0.401849264187363, -0.115476352581466, 0.339841527059309, -1.10716502038884, -1.2685396113181, 1.31961721985463], a = 0.2, v = 0.2, t = 0.2)
movej(p[-0.401622483435617, -0.115621794741853, 0.339751178345872, -1.106218861386, -1.26890481354833, 1.3147662304069], a = 0.2, v = 0.2, t = 0.2)
movej(p[-0.401326166573548, -0.115754135981832, 0.339637568047243, -1.10510705886224, -1.26698661443994, 1.31922770278887], a = 0.2, v = 0.2, t = 0.2)
movej(p[-0.401024895222076, -0.115712055512936, 0.339603667318351, -1.10500494369736, -1.26720704469257, 1.32521769131564], a = 0.2, v = 0.2, t = 0.2)
movej(p[-0.400524824100845, -0.115509874849141, 0.339678060281046, -1.100900238382, -1.26339221991295, 1.32048628473041], a = 0.2, v = 0.2, t = 0.2)
movej(p[-0.400284266789656, -0.115669771893484, 0.339594834877211, -1.0966015114307, -1.26199794688748, 1.31638314962327], a = 0.2, v = 0.2, t = 0.2)
movej(p[-0.400123393271741, -0.115928306849926, 0.339560681598724, -1.09208463908311, -1.26558443060653, 1.31483642726223], a = 0.2, v = 0.2, t = 0.2)
movej(p[-0.400265575426434, -0.116077017290657, 0.339631104923016, -1.08790524443715, -1.26832813408443, 1.31649747519727], a = 0.2, v = 0.2, t = 0.2)
movej(p[-0.400506800702175, -0.116041820492757, 0.33983862037054, -1.08242768303717, -1.27376492264704, 1.3094897459269], a = 0.2, v = 0.2, t = 0.2)
movej(p[-0.400966910222196, -0.116167789151929, 0.339880995280482, -1.08335816130349, -1.27207912111669, 1.30666892829565], a = 0.2, v = 0.2, t = 0.2)
movej(p[-0.401464187075471, -0.116406958450517, 0.339799087015881, -1.0851786929128, -1.27665295427826, 1.30212726794577], a = 0.2, v = 0.2, t = 0.2)
movej(p[-0.401888532717839, -0.116457712243693, 0.339750972074523, -1.09041550202139, -1.27924051539344, 1.30702050594095], a = 0.2, v = 0.2, t = 0.2)
movej(p[-0.402199080838748, -0.116235914959312, 0.339851741224767, -1.09269293848104, -1.28418320954612, 1.30481788470252], a = 0.2, v = 0.2, t = 0.2)
movej(p[-0.402362275630179, -0.116055340003888, 0.339937805091909, -1.09563696576816, -1.28249249957244, 1.30394930113306], a = 0.2, v = 0.2, t = 0.2)
movej(p[-0.402574687940501, -0.116115118331021, 0.339898168932908, -1.1025824518637, -1.28299578386886, 1.30998345929767], a = 0.2, v = 0.2, t = 0.2)
movej(p[-0.402707945919173, -0.116116580894686, 0.339853052453148, -1.10395609157502, -1.28365399062756, 1.31134960688442], a = 0.2, v = 0.2, t = 0.2)
movej(p[-0.402797427886388, -0.115947016924568, 0.339885464543127, -1.11041454652504, -1.28262290222482, 1.32156912894937], a = 0.2, v = 0.2, t = 0.2)
movej(p[-0.402761505133775, -0.115733904538751, 0.339967675130987, -1.10486915749768, -1.28246863369978, 1.30933671536521], a = 0.2, v = 0.2, t = 0.2)
movej(p[-0.402722145533301, -0.115754655839133, 0.339885272126291, -1.10834091884859, -1.28003207820685, 1.31336474433096], a = 0.2, v = 0.2, t = 0.2)
movej(p[-0.40248871923471, -0.115818100131038, 0.339737765569056, -1.1078431150816, -1.27734454186865, 1.31681361120663], a = 0.2, v = 0.2, t = 0.2)
movej(p[-0.402178154365186, -0.115694796865494, 0.339646378460013, -1.11343476367697, -1.27191157906437, 1.3328180140965], a = 0.2, v = 0.2, t = 0.2)
movej(p[-0.401712300513838, -0.115399608216325, 0.339722899238147, -1.11712933651253, -1.26622782235855, 1.33878771194963], a = 0.2, v = 0.2, t = 0.2)
movej(p[-0.401364453811216, -0.115392188761571, 0.339716179746607, -1.11641197418035, -1.25991306600718, 1.33645139220205], a = 0.2, v = 0.2, t = 0.2)
movej(p[-0.401068677390401, -0.115606946731597, 0.339601049108635, -1.11687633050294, -1.25907180921339, 1.33854165806103], a = 0.2, v = 0.2, t = 0.2)
movej(p[-0.400809515593346, -0.115676255966617, 0.339520596863246, -1.11128299956707, -1.25857917683548, 1.33902849136565], a = 0.2, v = 0.2, t = 0.2)
movej(p[-0.400468086347291, -0.115550850676212, 0.339581533512129, -1.10843690740017, -1.26054424672314, 1.3420867734435], a = 0.2, v = 0.2, t = 0.2)
movej(p[-0.400071599543318, -0.115495891037776, 0.33965814778311, -1.0980881012623, -1.2580125919034, 1.32830206228755], a = 0.2, v = 0.2, t = 0.2)
movej(p[-0.399907558904531, -0.115775490697865, 0.339606650772193, -1.09380953271316, -1.25979338717563, 1.32653774335565], a = 0.2, v = 0.2, t = 0.2)
movej(p[-0.39991950676739, -0.1160497628849, 0.339547928504519, -1.08668957802814, -1.26340459063583, 1.32366014521939], a = 0.2, v = 0.2, t = 0.2)
movej(p[-0.400238545057392, -0.116109709340322, 0.339631132091551, -1.09021363736188, -1.26613804110746, 1.33760190621505], a = 0.2, v = 0.2, t = 0.2)
movej(p[-0.400561425504345, -0.116079916242042, 0.339778647826203, -1.08773339752854, -1.26810503630227, 1.32816195983673], a = 0.2, v = 0.2, t = 0.2)
movej(p[-0.401073602857416, -0.116236150803323, 0.339734550191768, -1.08968975883685, -1.26905723050786, 1.32287324633152], a = 0.2, v = 0.2, t = 0.2)
movej(p[-0.401379963701774, -0.116407097991753, 0.339594351570119, -1.09181581546538, -1.27315733283112, 1.31891388749901], a = 0.2, v = 0.2, t = 0.2)
movej(p[-0.401602677037043, -0.116325913067611, 0.339518753642995, -1.09618064214617, -1.27557372197444, 1.32795913767116], a = 0.2, v = 0.2, t = 0.2)
movej(p[-0.40161800151023, -0.116058657490895, 0.339641159689155, -1.09740366414146, -1.27687453746967, 1.32881378149731], a = 0.2, v = 0.2, t = 0.2)
movej(p[-0.401741928104561, -0.115957727419423, 0.339725864594323, -1.0940857604418, -1.27647141612605, 1.3194523558953], a = 0.2, v = 0.2, t = 0.2)
movej(p[-0.402016486011756, -0.116078143473832, 0.339709437642499, -1.09759258215453, -1.27767545590733, 1.31588046567002], a = 0.2, v = 0.2, t = 0.2)
movej(p[-0.402294668817589, -0.11611201773779, 0.339691361705763, -1.10364070138705, -1.27711523141362, 1.32253601828725], a = 0.2, v = 0.2, t = 0.2)
movej(p[-0.402486329259614, -0.115936373481747, 0.339771375615474, -1.11435410747961, -1.27463492615802, 1.33821848715908], a = 0.2, v = 0.2, t = 0.2)
movej(p[-0.402547076176388, -0.115804296478896, 0.339872515240135, -1.10795034870163, -1.27570434933829, 1.32450385191108], a = 0.2, v = 0.2, t = 0.2)
movej(p[-0.402690694305153, -0.115899335585467, 0.339825914625089, -1.10948102562914, -1.27800874494657, 1.32114087638834], a = 0.2, v = 0.2, t = 0.2)
movej(p[-0.402693295378096, -0.115964189599392, 0.339753353380631, -1.10599179735668, -1.27991470652509, 1.31559526150013], a = 0.2, v = 0.2, t = 0.2)
movej(p[-0.402578927158852, -0.115757627630846, 0.33976232926934, -1.11297652397088, -1.27639986179403, 1.33231363445967], a = 0.2, v = 0.2, t = 0.2)
movej(p[-0.402223112502658, -0.115486047091262, 0.339831858986572, -1.1150371785452, -1.26719613012474, 1.33566712406878], a = 0.2, v = 0.2, t = 0.2)
movej(p[-0.40197784126176, -0.115512033599635, 0.339807835631883, -1.1138934275181, -1.26396350434113, 1.3312827558496], a = 0.2, v = 0.2, t = 0.2)
movej(p[-0.401655045103828, -0.115685596043462, 0.339716023247005, -1.11197309525174, -1.26245966556068, 1.32747296647002], a = 0.2, v = 0.2, t = 0.2)
movej(p[-0.401284390723346, -0.115726843442996, 0.339656114762954, -1.10313409409634, -1.26600128403302, 1.31910505564693], a = 0.2, v = 0.2, t = 0.2)
movej(p[-0.400672500474692, -0.115552838610604, 0.339682472016357, -1.10344130860608, -1.26296634649864, 1.32648159474276], a = 0.2, v = 0.2, t = 0.2)
movej(p[-0.400022665138141, -0.115564962687748, 0.339644023277449, -1.0969140034559, -1.25678155655381, 1.32404200309399], a = 0.2, v = 0.2, t = 0.2)
movej(p[-0.39951512877606, -0.11588950437125, 0.339557724734967, -1.09200175761358, -1.26006392865414, 1.32400439681028], a = 0.2, v = 0.2, t = 0.2)
movej(p[-0.399097565915295, -0.116140266178377, 0.33954478779963, -1.08114172406025, -1.26334079170862, 1.32055602884328], a = 0.2, v = 0.2, t = 0.2)
movej(p[-0.398978678768202, -0.116123994787947, 0.339739908507423, -1.07769882306554, -1.26961478372016, 1.32272377470112], a = 0.2, v = 0.2, t = 0.2)
movej(p[-0.399240438590248, -0.116109797874007, 0.339912358219795, -1.07696306108345, -1.26424150034766, 1.32487339309415], a = 0.2, v = 0.2, t = 0.2)
movej(p[-0.40010618949017, -0.116306214992282, 0.339960157558001, -1.07832970988946, -1.26907562490537, 1.32063618146417], a = 0.2, v = 0.2, t = 0.2)
movej(p[-0.401077766773857, -0.116515661818399, 0.339953469295666, -1.0810872292406, -1.27298084319167, 1.31534294022635], a = 0.2, v = 0.2, t = 0.2)
movej(p[-0.402042517060912, -0.116513082130488, 0.340021981573663, -1.0883011574293, -1.28241309540206, 1.31143200724695], a = 0.2, v = 0.2, t = 0.2)
movej(p[-0.402536803288455, -0.116327174595495, 0.340145598477921, -1.09839461506421, -1.28264694797204, 1.31299694055419], a = 0.2, v = 0.2, t = 0.2)
movej(p[-0.402885305441733, -0.116313419926221, 0.340102208806825, -1.10459665902027, -1.28489806940383, 1.31037296424539], a = 0.2, v = 0.2, t = 0.2)
movej(p[-0.4030100212392, -0.116351389141933, 0.339999591757947, -1.10806520634906, -1.28708642088826, 1.31038931334332], a = 0.2, v = 0.2, t = 0.2)
movej(p[-0.403048145239778, -0.11624298171228, 0.339967688648742, -1.10867743230409, -1.29025392315048, 1.30993677972344], a = 0.2, v = 0.2, t = 0.2)
movej(p[-0.40292029292119, -0.115953208948634, 0.340043738622057, -1.11306613042082, -1.28599350684352, 1.31711894103205], a = 0.2, v = 0.2, t = 0.2)
movej(p[-0.402598169596266, -0.115884523195443, 0.339962159129551, -1.11121652052452, -1.27705103599393, 1.31517785534659], a = 0.2, v = 0.2, t = 0.2)
movej(p[-0.401991887820022, -0.115959542104109, 0.339773112368311, -1.10545070508803, -1.2729806104826, 1.30930396058052], a = 0.2, v = 0.2, t = 0.2)
movej(p[-0.401197124209243, -0.115954936657232, 0.339673209195844, -1.09659727646176, -1.26893799257303, 1.30473085694102], a = 0.2, v = 0.2, t = 0.2)
movej(p[-0.40025187789256, -0.115769919421461, 0.339776666626882, -1.09081398526158, -1.2685247811669, 1.30833911059202], a = 0.2, v = 0.2, t = 0.2)
movej(p[-0.399425035381297, -0.115740686075704, 0.339879730335221, -1.08261335645656, -1.26336658525164, 1.30766248040635], a = 0.2, v = 0.2, t = 0.2)
movej(p[-0.398913246085139, -0.115995782164454, 0.339828676058162, -1.07928053106496, -1.26426024541352, 1.31358953168776], a = 0.2, v = 0.2, t = 0.2)
movej(p[-0.398599258071515, -0.116179266288306, 0.339773690654688, -1.07370637768822, -1.26380089581884, 1.32071946744721], a = 0.2, v = 0.2, t = 0.2)
movej(p[-0.398584369900766, -0.116123025956794, 0.3398853146807, -1.07502404391379, -1.26662627069241, 1.33293387580316], a = 0.2, v = 0.2, t = 0.2)
movej(p[-0.398964006333994, -0.116071418739474, 0.339988574714064, -1.07207773708482, -1.26511702940648, 1.32696958079896], a = 0.2, v = 0.2, t = 0.2)
movej(p[-0.399890056163045, -0.116255712009398, 0.339980693451601, -1.07896080742057, -1.26932334183976, 1.32312244968429], a = 0.2, v = 0.2, t = 0.2)
movej(p[-0.400904883020796, -0.116467150950035, 0.339949864801468, -1.08621723023344, -1.27302567276119, 1.31859113038667], a = 0.2, v = 0.2, t = 0.2)
movej(p[-0.401786999093508, -0.116402316813473, 0.340016585224877, -1.09537720694898, -1.2791923819809, 1.32031061484662], a = 0.2, v = 0.2, t = 0.2)
movej(p[-0.402338131225727, -0.116219900724682, 0.340145926739955, -1.09715492936901, -1.28281774284066, 1.30915793549374], a = 0.2, v = 0.2, t = 0.2)
movej(p[-0.40267949057659, -0.116187756801128, 0.34011474674378, -1.09989579584132, -1.28681336703907, 1.30058197246575], a = 0.2, v = 0.2, t = 0.2)
movej(p[-0.402781550078391, -0.116225401308508, 0.3400460092524, -1.10576618585835, -1.28860743980543, 1.30098486890194], a = 0.2, v = 0.2, t = 0.2)
movej(p[-0.402796545149337, -0.116131904724893, 0.340013389773501, -1.10857223294204, -1.29060129207902, 1.30234503206952], a = 0.2, v = 0.2, t = 0.2)
movej(p[-0.402601927732442, -0.115875292794867, 0.340060740883658, -1.11481535705829, -1.28390567093047, 1.31455793213402], a = 0.2, v = 0.2, t = 0.2)
movej(p[-0.402234302425048, -0.115803983086574, 0.339959782067841, -1.11082636105994, -1.27593505515918, 1.30736370984843], a = 0.2, v = 0.2, t = 0.2)
movej(p[-0.401676632017154, -0.115920352757171, 0.339783806435853, -1.10813649568864, -1.27176293796414, 1.30925320453255], a = 0.2, v = 0.2, t = 0.2)
movej(p[-0.400985101978651, -0.115945250419696, 0.339683351093413, -1.09954701877671, -1.26972290597807, 1.30579656002444], a = 0.2, v = 0.2, t = 0.2)
movej(p[-0.40019279833327, -0.115757073602038, 0.339784531979046, -1.09494838365087, -1.27008746141079, 1.3117536619934], a = 0.2, v = 0.2, t = 0.2)
movej(p[-0.399403289968915, -0.115698549945626, 0.339865534336265, -1.08633626621011, -1.26575767747164, 1.30639398390133], a = 0.2, v = 0.2, t = 0.2)
movej(p[-0.398918137016281, -0.115928393051156, 0.339823306337362, -1.07859114074904, -1.2694124990685, 1.30151160308538], a = 0.2, v = 0.2, t = 0.2)
movej(p[-0.398640987916586, -0.116163697577629, 0.339762036549049, -1.07088282198187, -1.2700897192608, 1.30241865642233], a = 0.2, v = 0.2, t = 0.2)
movej(p[-0.398729385466471, -0.116213661702331, 0.339837147320028, -1.07009482041588, -1.27296350399372, 1.31174528024275], a = 0.2, v = 0.2, t = 0.2)
movej(p[-0.399071907132306, -0.116130051701972, 0.34001177899723, -1.07046707195353, -1.26982597299361, 1.31272918570056], a = 0.2, v = 0.2, t = 0.2)
movej(p[-0.399986623013124, -0.116315853632553, 0.340060032797824, -1.0738569943272, -1.27213893885583, 1.30840406790643], a = 0.2, v = 0.2, t = 0.2)
movej(p[-0.400965349268385, -0.11655697279249, 0.340023720547492, -1.0799892526961, -1.27790978197858, 1.30275756659271], a = 0.2, v = 0.2, t = 0.2)
movej(p[-0.401858879612927, -0.116578743455105, 0.340004881847145, -1.09219776552007, -1.28246266867249, 1.31251527054937], a = 0.2, v = 0.2, t = 0.2)
movej(p[-0.402401530807938, -0.116344177295925, 0.340099729733066, -1.10128705027752, -1.28602298126031, 1.31487713366677], a = 0.2, v = 0.2, t = 0.2)
movej(p[-0.40269311294755, -0.116225041469247, 0.340080243682501, -1.10713653667621, -1.28339958886412, 1.31683719631683], a = 0.2, v = 0.2, t = 0.2)
movej(p[-0.402902416495488, -0.116237883255798, 0.339993125952256, -1.10938519957889, -1.28577181758885, 1.31316481895288], a = 0.2, v = 0.2, t = 0.2)
movej(p[-0.40295281720152, -0.116169868917538, 0.339926186765695, -1.11043569011293, -1.2866387734532, 1.31436609340571], a = 0.2, v = 0.2, t = 0.2)
movej(p[-0.402979844300367, -0.115961038572699, 0.339984769573184, -1.11452330255842, -1.28616729883916, 1.32076596415154], a = 0.2, v = 0.2, t = 0.2)
movej(p[-0.402860197367552, -0.115756518559389, 0.34004717573012, -1.11525760774481, -1.28014627766179, 1.31785408621753], a = 0.2, v = 0.2, t = 0.2)
movej(p[-0.402786852241948, -0.11586440094732, 0.339917801923172, -1.11365462033658, -1.27874893035264, 1.31347633144616], a = 0.2, v = 0.2, t = 0.2)
movej(p[-0.402467743683428, -0.115864207915598, 0.339783488505974, -1.11095654821291, -1.27633709617525, 1.31316240548852], a = 0.2, v = 0.2, t = 0.2)
movej(p[-0.401996195635711, -0.115699822135997, 0.339755957390124, -1.10784909088102, -1.27595545066966, 1.31562420593392], a = 0.2, v = 0.2, t = 0.2)
movej(p[-0.401330173850471, -0.115424934404653, 0.339878765633911, -1.10847424348729, -1.2680942089372, 1.31558534636561], a = 0.2, v = 0.2, t = 0.2)
movej(p[-0.400861901489093, -0.115521431342523, 0.339847618361928, -1.10463895163401, -1.26411892389435, 1.31073786672963], a = 0.2, v = 0.2, t = 0.2)
movej(p[-0.400408861501656, -0.115774305254048, 0.339735249181182, -1.09792030859311, -1.26531397556346, 1.30735093398484], a = 0.2, v = 0.2, t = 0.2)
movej(p[-0.400018577111273, -0.115919263972388, 0.339680758097968, -1.08853291336453, -1.26669899416523, 1.30995189440054], a = 0.2, v = 0.2, t = 0.2)
movej(p[-0.399716445745273, -0.115774163906929, 0.339840131584178, -1.08630964859264, -1.26846691089435, 1.31779235545199], a = 0.2, v = 0.2, t = 0.2)
movej(p[-0.399715694289583, -0.115773541484122, 0.339959576845299, -1.08470746496246, -1.26438084382695, 1.31754607024944], a = 0.2, v = 0.2, t = 0.2)
movej(p[-0.400185121534959, -0.116002329343391, 0.339960077538715, -1.08664826325317, -1.2685556394381, 1.31454971082805], a = 0.2, v = 0.2, t = 0.2)
movej(p[-0.40083924717005, -0.116246373812779, 0.33991413847278, -1.08664030028763, -1.27261283306665, 1.30966662619222], a = 0.2, v = 0.2, t = 0.2)
movej(p[-0.401561830411882, -0.116239740593367, 0.339985854856006, -1.09090004979778, -1.28011632726558, 1.31136301954153], a = 0.2, v = 0.2, t = 0.2)
movej(p[-0.402000087073916, -0.11611827533349, 0.34008224277551, -1.09952304119827, -1.27636633927557, 1.31755330078546], a = 0.2, v = 0.2, t = 0.2)
movej(p[-0.402456241697848, -0.116174582040385, 0.340051553119431, -1.10511457190138, -1.2788059312428, 1.31277711315056], a = 0.2, v = 0.2, t = 0.2)
movej(p[-0.402678159643273, -0.116244914722879, 0.339962647802618, -1.11220756584439, -1.28020871386101, 1.31413365388078], a = 0.2, v = 0.2, t = 0.2)
movej(p[-0.402856101306629, -0.116164016949317, 0.339964393189618, -1.11094451027312, -1.28596251933712, 1.30901773650241], a = 0.2, v = 0.2, t = 0.2)
movej(p[-0.402759359618534, -0.115874549263973, 0.340042194761498, -1.11132463964099, -1.28526424599743, 1.31146634526084], a = 0.2, v = 0.2, t = 0.2)
movej(p[-0.402470167047079, -0.115741900309485, 0.339993770264088, -1.10566103782608, -1.28022386552233, 1.30010020025372], a = 0.2, v = 0.2, t = 0.2)
movej(p[-0.402005474151991, -0.115847497017278, 0.339782976370013, -1.10735014697987, -1.27455205565736, 1.30408597081199], a = 0.2, v = 0.2, t = 0.2)
movej(p[-0.401328827877227, -0.115902856451462, 0.339605394109157, -1.10373965524643, -1.26879623197424, 1.30787099808173], a = 0.2, v = 0.2, t = 0.2)
movej(p[-0.40061568710046, -0.115733691652515, 0.339652117774663, -1.10556688394901, -1.26332704082896, 1.3259156690347], a = 0.2, v = 0.2, t = 0.2)
movej(p[-0.399731095805795, -0.115560967049029, 0.33979912419494, -1.09107122671117, -1.26261343600716, 1.31290496803053], a = 0.2, v = 0.2, t = 0.2)
movej(p[-0.39907858570374, -0.115708805755499, 0.339817597889362, -1.08256708881732, -1.26500023758769, 1.30949977263218], a = 0.2, v = 0.2, t = 0.2)
movej(p[-0.398521382686985, -0.115957900068563, 0.339782780832943, -1.07116126633733, -1.26926096210333, 1.30375050681492], a = 0.2, v = 0.2, t = 0.2)
movej(p[-0.398249547399797, -0.116094958810829, 0.339785116600067, -1.07122791262814, -1.26912718851736, 1.32051415933752], a = 0.2, v = 0.2, t = 0.2)
movej(p[-0.398243792692923, -0.116008786371128, 0.339936167363669, -1.06964712262992, -1.26798969697887, 1.32491697115641], a = 0.2, v = 0.2, t = 0.2)
movej(p[-0.398751483133747, -0.116097834020358, 0.340017741274317, -1.06715158473836, -1.26848371208337, 1.315844395917], a = 0.2, v = 0.2, t = 0.2)
movej(p[-0.399641034097087, -0.116372430525258, 0.339999474005948, -1.0717674739333, -1.27170293519851, 1.31119281147108], a = 0.2, v = 0.2, t = 0.2)
movej(p[-0.400698996800335, -0.116546548272047, 0.339992420858398, -1.07884810330098, -1.27482404024612, 1.31080031552207], a = 0.2, v = 0.2, t = 0.2)
movej(p[-0.401587930276056, -0.11646890324294, 0.340085703794667, -1.09213181775693, -1.2766930176312, 1.32084187156487], a = 0.2, v = 0.2, t = 0.2)
movej(p[-0.402181622710688, -0.116365661634668, 0.340171128752764, -1.09619585644099, -1.27687588168604, 1.31356755622364], a = 0.2, v = 0.2, t = 0.2)
movej(p[-0.402615079565234, -0.116411753172363, 0.340085051709943, -1.10522760066852, -1.28010677944807, 1.31281791121027], a = 0.2, v = 0.2, t = 0.2)
movej(p[-0.402825564136795, -0.116400058089614, 0.33999259450106, -1.11287455390336, -1.28041790456154, 1.31723980514153], a = 0.2, v = 0.2, t = 0.2)
movej(p[-0.40294628304541, -0.116193747903125, 0.3399921533052, -1.12077373947831, -1.28093076690411, 1.32613429862276], a = 0.2, v = 0.2, t = 0.2)
movej(p[-0.402857184710941, -0.115971488333104, 0.340084117775126, -1.11636441425765, -1.28134652543694, 1.31848665770148], a = 0.2, v = 0.2, t = 0.2)
movej(p[-0.402655499636131, -0.115985225989447, 0.339972656264294, -1.11256895379967, -1.27826145844482, 1.3103034938173], a = 0.2, v = 0.2, t = 0.2)
movej(p[-0.402179652247866, -0.116058445706704, 0.339778330962667, -1.11040101462631, -1.2731992636858, 1.3113195694216], a = 0.2, v = 0.2, t = 0.2)
movej(p[-0.401528112345788, -0.115986914832769, 0.339662965603721, -1.11022024953918, -1.26555393116805, 1.31921911532246], a = 0.2, v = 0.2, t = 0.2)
movej(p[-0.400681639635011, -0.115739076280683, 0.339793314815588, -1.10704698307582, -1.26092389250198, 1.32385231136739], a = 0.2, v = 0.2, t = 0.2)
movej(p[-0.40000021477743, -0.115753640632091, 0.339864473063882, -1.09537490092652, -1.25960689926096, 1.31148742941351], a = 0.2, v = 0.2, t = 0.2)
movej(p[-0.399474070760639, -0.11601863444836, 0.339823668297129, -1.0858166090505, -1.26448821076868, 1.30413788521801], a = 0.2, v = 0.2, t = 0.2)
movej(p[-0.399098226741454, -0.116196322236556, 0.339774459256608, -1.07612073654514, -1.26807054982453, 1.30153177871778], a = 0.2, v = 0.2, t = 0.2)
movej(p[-0.398864315101019, -0.11613686716726, 0.3398676484545, -1.07532492353289, -1.27067385016015, 1.31089024745203], a = 0.2, v = 0.2, t = 0.2)
movej(p[-0.398995342982693, -0.116057972357283, 0.340009945513074, -1.07164005897556, -1.2686192015041, 1.30703875925832], a = 0.2, v = 0.2, t = 0.2)
movej(p[-0.399728337919233, -0.116232898819692, 0.340037542662631, -1.07574858927569, -1.27185493451552, 1.30772021667614], a = 0.2, v = 0.2, t = 0.2)
movej(p[-0.400626833616221, -0.116461000077692, 0.339998940191272, -1.08109269398247, -1.27409332050352, 1.30960816101814], a = 0.2, v = 0.2, t = 0.2)
movej(p[-0.401547386002833, -0.116457708447375, 0.339999679090762, -1.0939567652534, -1.27664862886322, 1.32293080396019], a = 0.2, v = 0.2, t = 0.2)
movej(p[-0.402083538458061, -0.116277247693295, 0.340060450228566, -1.10471079123809, -1.27530035242294, 1.32954925827641], a = 0.2, v = 0.2, t = 0.2)
movej(p[-0.402543777882377, -0.116196551694551, 0.340045185726408, -1.10789737317973, -1.2791036570582, 1.32083394250682], a = 0.2, v = 0.2, t = 0.2)
movej(p[-0.402821342861102, -0.116224479371141, 0.339973891417493, -1.11049491268309, -1.28329295070524, 1.31623271130941], a = 0.2, v = 0.2, t = 0.2)
movej(p[-0.402989791293294, -0.116104127006912, 0.339965577220141, -1.11041557994431, -1.28753246762356, 1.31271741749248], a = 0.2, v = 0.2, t = 0.2)
movej(p[-0.402979215948242, -0.115877187241869, 0.340042283980001, -1.11444656026904, -1.28463330164865, 1.32040962959126], a = 0.2, v = 0.2, t = 0.2)
movej(p[-0.402937657381609, -0.115763223299614, 0.340061393116692, -1.11049799597202, -1.28237511482885, 1.30799394403558], a = 0.2, v = 0.2, t = 0.2)
movej(p[-0.402965870792979, -0.115877616097732, 0.339946469137656, -1.11289470002106, -1.28407475009057, 1.30737743184794], a = 0.2, v = 0.2, t = 0.2)
movej(p[-0.402972775520215, -0.115908720920488, 0.339846121987506, -1.11327643923948, -1.28427495179036, 1.30872880661925], a = 0.2, v = 0.2, t = 0.2)
movej(p[-0.402998321035727, -0.115737857099148, 0.339871244610668, -1.12148917542248, -1.28189012184632, 1.325082649318], a = 0.2, v = 0.2, t = 0.2)
movej(p[-0.402840572557512, -0.115611804990021, 0.339899745593202, -1.11938663180657, -1.27465376125891, 1.3233760991188], a = 0.2, v = 0.2, t = 0.2)
movej(p[-0.402730285266432, -0.115725911612035, 0.339779969807925, -1.11792535216852, -1.27175421183535, 1.32040768714623], a = 0.2, v = 0.2, t = 0.2)
movej(p[-0.402364426760411, -0.115804604369317, 0.339684566635945, -1.11467496687892, -1.26960037451502, 1.31840648501157], a = 0.2, v = 0.2, t = 0.2)
movej(p[-0.402031566738779, -0.115671201258148, 0.339711727159298, -1.11575101435975, -1.26831658298621, 1.32585118671771], a = 0.2, v = 0.2, t = 0.2)
movej(p[-0.401556233768352, -0.115453912882933, 0.339846859419407, -1.11589601542024, -1.26363364789779, 1.32818250587902], a = 0.2, v = 0.2, t = 0.2)
movej(p[-0.401272467532702, -0.115539904101574, 0.339834622396835, -1.11176236599475, -1.26268405880501, 1.32290551403317], a = 0.2, v = 0.2, t = 0.2)
movej(p[-0.400923891522667, -0.115759769030328, 0.339729999125367, -1.10680968845739, -1.26258466495896, 1.31919139557449], a = 0.2, v = 0.2, t = 0.2)
movej(p[-0.400557299498875, -0.115879146267815, 0.339654950987312, -1.09845650354808, -1.2646115988551, 1.31458003709627], a = 0.2, v = 0.2, t = 0.2)
movej(p[-0.400095590580568, -0.115748631327394, 0.339737833332798, -1.09677593302007, -1.26322101588144, 1.31957826232579], a = 0.2, v = 0.2, t = 0.2)
movej(p[-0.399922270081498, -0.115804437536264, 0.339828617245968, -1.09120537208301, -1.26131780242499, 1.31374917663926], a = 0.2, v = 0.2, t = 0.2)
movej(p[-0.400217186480752, -0.116110705552837, 0.339867488680976, -1.09141904208749, -1.26442407954472, 1.31541615852872], a = 0.2, v = 0.2, t = 0.2)
movej(p[-0.400786147342272, -0.116404316893016, 0.33988212481015, -1.08953954994958, -1.26845588941417, 1.31452274041588], a = 0.2, v = 0.2, t = 0.2)
movej(p[-0.401431485090369, -0.116411567159844, 0.339938786124213, -1.09420842250184, -1.27429072586293, 1.32024075858683], a = 0.2, v = 0.2, t = 0.2)
movej(p[-0.40186868713592, -0.116319388986838, 0.339990513142174, -1.09520931431061, -1.27422018553663, 1.31496805743144], a = 0.2, v = 0.2, t = 0.2)
movej(p[-0.402328799233192, -0.116338008524578, 0.339905706860813, -1.09801595777803, -1.27686338441756, 1.31153411954069], a = 0.2, v = 0.2, t = 0.2)
movej(p[-0.402612961557592, -0.116297507617165, 0.339846817895884, -1.1024263281739, -1.27794383757594, 1.31322954968336], a = 0.2, v = 0.2, t = 0.2)
movej(p[-0.402851591885456, -0.116141091568635, 0.339858430367056, -1.10969281157276, -1.28023915030546, 1.32145056027147], a = 0.2, v = 0.2, t = 0.2)
movej(p[-0.402859326151016, -0.115878217185579, 0.339998386346386, -1.11409866286698, -1.27891376512575, 1.32151249297378], a = 0.2, v = 0.2, t = 0.2)
movej(p[-0.402900088718682, -0.115871427432869, 0.339973099003002, -1.11611399284492, -1.27692265746786, 1.32173864715896], a = 0.2, v = 0.2, t = 0.2)
movej(p[-0.402756478353672, -0.115928995175585, 0.339854691125476, -1.11603274624222, -1.27493824023854, 1.32373217715696], a = 0.2, v = 0.2, t = 0.2)
movej(p[-0.402484108222036, -0.115818470052828, 0.339751594957184, -1.11617994904603, -1.27058697750711, 1.33174467163848], a = 0.2, v = 0.2, t = 0.2)
movej(p[-0.401976654183771, -0.115568812158003, 0.339802538835167, -1.10940943995119, -1.26780082123985, 1.3199922320564], a = 0.2, v = 0.2, t = 0.2)
movej(p[-0.401586833382042, -0.115603830466422, 0.339741604037108, -1.10843958026503, -1.26241161641412, 1.31806743654915], a = 0.2, v = 0.2, t = 0.2)
movej(p[-0.401209077412944, -0.115802997485569, 0.339671915543828, -1.10468019993636, -1.26307750677878, 1.31293518117449], a = 0.2, v = 0.2, t = 0.2)
movej(p[-0.400874440607956, -0.11589892485865, 0.339596654252071, -1.1010523974412, -1.26187285849911, 1.31741541905738], a = 0.2, v = 0.2, t = 0.2)
movej(p[-0.400380270758926, -0.115784467702744, 0.339645018820678, -1.09888545669778, -1.25984411014075, 1.32419149650534], a = 0.2, v = 0.2, t = 0.2)
movej(p[-0.399951776292412, -0.115837739113831, 0.339614351819374, -1.09074833748831, -1.2551118877741, 1.31838490810456], a = 0.2, v = 0.2, t = 0.2)
movej(p[-0.399717467630596, -0.116129762349903, 0.339508901313959, -1.08620081768483, -1.25895859005676, 1.31730065178066], a = 0.2, v = 0.2, t = 0.2)
movej(p[-0.399665713976022, -0.116359809469098, 0.339497791827555, -1.07823105355441, -1.26366463259064, 1.31197854001712], a = 0.2, v = 0.2, t = 0.2)
movej(p[-0.399880945078824, -0.11631157002534, 0.339690935453265, -1.07773645127693, -1.26801066826982, 1.31793714300096], a = 0.2, v = 0.2, t = 0.2)
movej(p[-0.400233914414229, -0.116303929022022, 0.339850946166132, -1.07601276449886, -1.26709712651127, 1.31215872871894], a = 0.2, v = 0.2, t = 0.2)
movej(p[-0.400850114812745, -0.116514837901229, 0.339883863736532, -1.07270586366953, -1.27541927749725, 1.29743240180368], a = 0.2, v = 0.2, t = 0.2)
movej(p[-0.401354352648131, -0.116660836509526, 0.339837829681312, -1.07226773978443, -1.28240996296296, 1.28916160758798], a = 0.2, v = 0.2, t = 0.2)
movej(p[-0.40179823796433, -0.116584178251031, 0.339870275424755, -1.07643518609462, -1.28803525083951, 1.28928650119253], a = 0.2, v = 0.2, t = 0.2)
movej(p[-0.402033674621764, -0.116343170840261, 0.339922577807017, -1.08015946670693, -1.28724257703127, 1.28885378398786], a = 0.2, v = 0.2, t = 0.2)
movej(p[-0.402322172186507, -0.116309190898344, 0.339853530712331, -1.08667627876243, -1.28567549333887, 1.29209430879719], a = 0.2, v = 0.2, t = 0.2)
movej(p[-0.402502022366356, -0.116294889963957, 0.339770772877536, -1.08918095047152, -1.28727218288902, 1.29071567857668], a = 0.2, v = 0.2, t = 0.2)
movej(p[-0.402661466039198, -0.116145958124342, 0.339779774313602, -1.0989831213854, -1.2858336676225, 1.30357202351551], a = 0.2, v = 0.2, t = 0.2)
movej(p[-0.402631563886493, -0.115894188399588, 0.339878049139478, -1.09979177260183, -1.28527352168078, 1.29791149936754], a = 0.2, v = 0.2, t = 0.2)
movej(p[-0.402548842517028, -0.115865210918714, 0.339815182280482, -1.1000351226311, -1.28154491401582, 1.29669396794744], a = 0.2, v = 0.2, t = 0.2)
movej(p[-0.402252101911408, -0.115954822320357, 0.339677722793331, -1.09977205142312, -1.27713476498843, 1.29993700509312], a = 0.2, v = 0.2, t = 0.2)
movej(p[-0.401764873886302, -0.115888785039964, 0.339603424488839, -1.10028475598278, -1.27195056398972, 1.3075948426391], a = 0.2, v = 0.2, t = 0.2)
movej(p[-0.401094612781613, -0.115684420972778, 0.339695550166492, -1.10162074028191, -1.26687991551114, 1.3136215472587], a = 0.2, v = 0.2, t = 0.2)
movej(p[-0.400422608021236, -0.115650789037061, 0.339731586028236, -1.0927974286855, -1.26241510040461, 1.30251444101015], a = 0.2, v = 0.2, t = 0.2)
movej(p[-0.39995466712165, -0.11592224102118, 0.3396064614163, -1.09107079296924, -1.26216999613302, 1.30787393444396], a = 0.2, v = 0.2, t = 0.2)
movej(p[-0.39959856109192, -0.116147160241553, 0.339541768016353, -1.08417948456861, -1.26234909062725, 1.30905998596152], a = 0.2, v = 0.2, t = 0.2)
movej(p[-0.399275532642275, -0.11613680322283, 0.339615841402823, -1.08670210408849, -1.26251357897618, 1.32622300738279], a = 0.2, v = 0.2, t = 0.2)
movej(p[-0.399151919812135, -0.116110537793925, 0.339800193971748, -1.079983039298, -1.25974958550372, 1.32255557987835], a = 0.2, v = 0.2, t = 0.2)
movej(p[-0.399528472400419, -0.116289753168981, 0.339885589932424, -1.07919166993659, -1.26334710534885, 1.32188884395762], a = 0.2, v = 0.2, t = 0.2)
movej(p[-0.400173226865432, -0.11658046685554, 0.339893748332604, -1.07665287471479, -1.26741017287494, 1.31379947633522], a = 0.2, v = 0.2, t = 0.2)
movej(p[-0.400905319096877, -0.116657095644639, 0.339904665742523, -1.07996379946535, -1.2730336625401, 1.31247419689387], a = 0.2, v = 0.2, t = 0.2)
movej(p[-0.401326999855712, -0.116613957283245, 0.339914798146219, -1.08394630212878, -1.27123434336614, 1.31065556751862], a = 0.2, v = 0.2, t = 0.2)
movej(p[-0.401780671251436, -0.11664732537144, 0.339797708796183, -1.0848374100096, -1.27337647588574, 1.30670655036702], a = 0.2, v = 0.2, t = 0.2)
movej(p[-0.402095209014717, -0.116680030628444, 0.339678034803458, -1.08811568186941, -1.27625497708146, 1.30487571861868], a = 0.2, v = 0.2, t = 0.2)
movej(p[-0.402394552384173, -0.116567729527334, 0.339642939856624, -1.08686084734202, -1.28314874643547, 1.29851295146595], a = 0.2, v = 0.2, t = 0.2)
movej(p[-0.402568343575496, -0.116259352055011, 0.339755135032739, -1.09479534893099, -1.28113702922458, 1.30673476790089], a = 0.2, v = 0.2, t = 0.2)
movej(p[-0.402711165490859, -0.116162138820966, 0.339800217150743, -1.09307766158065, -1.27927415227852, 1.29803382731732], a = 0.2, v = 0.2, t = 0.2)
movej(p[-0.402824587312868, -0.116219223479314, 0.339741999824513, -1.09426366934883, -1.28130927248168, 1.2966203038357], a = 0.2, v = 0.2, t = 0.2)
movej(p[-0.40287300602879, -0.11619509975178, 0.339705316159983, -1.09533612522896, -1.28281845093035, 1.29804408534607], a = 0.2, v = 0.2, t = 0.2)
movej(p[-0.402820192002899, -0.11587184253387, 0.339754868043241, -1.10230107027872, -1.28079433151751, 1.31233966773594], a = 0.2, v = 0.2, t = 0.2)
movej(p[-0.402616167145441, -0.115658955696281, 0.339768213502257, -1.10684348143591, -1.26955586272915, 1.31685148116291], a = 0.2, v = 0.2, t = 0.2)
movej(p[-0.40247562327344, -0.115723799141168, 0.339680603052458, -1.10876124694535, -1.26474675818687, 1.31770150396878], a = 0.2, v = 0.2, t = 0.2)
movej(p[-0.402180440278585, -0.11580456762202, 0.339616864857867, -1.11039765307058, -1.26052620535175, 1.32040618349377], a = 0.2, v = 0.2, t = 0.2)
movej(p[-0.401832136931339, -0.115728660221181, 0.339653502954092, -1.11319851474513, -1.25980641163491, 1.3299538338374], a = 0.2, v = 0.2, t = 0.2)
movej(p[-0.401244995016716, -0.115477769438842, 0.339759915913497, -1.1107652153526, -1.25729594932268, 1.32919449727681], a = 0.2, v = 0.2, t = 0.2)
movej(p[-0.400801990385755, -0.115558103579038, 0.339665322537056, -1.10821744352763, -1.25319465706814, 1.32956157940445], a = 0.2, v = 0.2, t = 0.2)
movej(p[-0.400367357393239, -0.11576418165537, 0.339549173024635, -1.10197942090793, -1.25403811937031, 1.32661354593706], a = 0.2, v = 0.2, t = 0.2)
movej(p[-0.400055424994788, -0.115897750464503, 0.339513552101189, -1.09594320585925, -1.25518970541828, 1.32785372180899], a = 0.2, v = 0.2, t = 0.2)
movej(p[-0.399651372346069, -0.115848084908857, 0.339666799393648, -1.08300330752683, -1.26043018312177, 1.31305019572059], a = 0.2, v = 0.2, t = 0.2)
movej(p[-0.399554836031574, -0.115985344964477, 0.339757346707328, -1.07774870969764, -1.2624657985407, 1.30671476610845], a = 0.2, v = 0.2, t = 0.2)
movej(p[-0.399739610702411, -0.116270527028047, 0.339806471793943, -1.07264547514255, -1.26708534689249, 1.3016445042629], a = 0.2, v = 0.2, t = 0.2)
movej(p[-0.400192794123566, -0.116517213102475, 0.339851392172103, -1.07519663664432, -1.26987223593941, 1.30790430498744], a = 0.2, v = 0.2, t = 0.2)
movej(p[-0.400659976775851, -0.116526253289903, 0.33991680405875, -1.0755040641013, -1.27249426414985, 1.30928400551948], a = 0.2, v = 0.2, t = 0.2)
movej(p[-0.401074543471763, -0.116530497372772, 0.339878462471643, -1.07930736417593, -1.27150830842006, 1.3064603635478], a = 0.2, v = 0.2, t = 0.2)
movej(p[-0.401582957670625, -0.11662254100446, 0.339751541499141, -1.08846764131998, -1.27314098895447, 1.31162695522083], a = 0.2, v = 0.2, t = 0.2)
movej(p[-0.402002464314512, -0.116617160646514, 0.339709166346241, -1.09475362602599, -1.27410742696686, 1.31632137009921], a = 0.2, v = 0.2, t = 0.2)
movej(p[-0.402343500234452, -0.116397589204639, 0.339789342018504, -1.10210234951945, -1.27564385234165, 1.32464059137701], a = 0.2, v = 0.2, t = 0.2)
movej(p[-0.402444709359186, -0.116172369670892, 0.339871634082299, -1.09810085875635, -1.27642189194268, 1.31325271401142], a = 0.2, v = 0.2, t = 0.2)
movej(p[-0.402608351209231, -0.116134635256472, 0.33981581464921, -1.10048345793388, -1.27864248689899, 1.31133319465996], a = 0.2, v = 0.2, t = 0.2)
movej(p[-0.402676115372032, -0.116143378418141, 0.339745831223224, -1.10187550127572, -1.27980363678408, 1.31140669809761], a = 0.2, v = 0.2, t = 0.2)
movej(p[-0.402759185421678, -0.115998079260448, 0.339739900755229, -1.10535525946755, -1.27894343418554, 1.31992878320204], a = 0.2, v = 0.2, t = 0.2)
movej(p[-0.402613404468935, -0.115732301883315, 0.339823102190592, -1.1095145055535, -1.27317931416718, 1.32421354295604], a = 0.2, v = 0.2, t = 0.2)
movej(p[-0.402511501339923, -0.11570144437506, 0.339768638769089, -1.11040160966875, -1.26757598285405, 1.32191176320443], a = 0.2, v = 0.2, t = 0.2)
movej(p[-0.40227650607373, -0.11577161571077, 0.339676990082592, -1.11306443090716, -1.26502933339561, 1.32495724378703], a = 0.2, v = 0.2, t = 0.2)
movej(p[-0.402055939985575, -0.115742475321742, 0.339636402111675, -1.11023650159577, -1.26527002811782, 1.32432730369433], a = 0.2, v = 0.2, t = 0.2)
movej(p[-0.401605394685607, -0.115525079653633, 0.339737509895573, -1.11142995230839, -1.26295659205947, 1.33048893810799], a = 0.2, v = 0.2, t = 0.2)
movej(p[-0.401206123537972, -0.115530018724938, 0.339728358390736, -1.1057617262808, -1.25763999369521, 1.32341775628721], a = 0.2, v = 0.2, t = 0.2)
movej(p[-0.400871766953087, -0.115790048906105, 0.339610479440072, -1.10490362441446, -1.25702073355014, 1.32517012328013], a = 0.2, v = 0.2, t = 0.2)
movej(p[-0.400585648779645, -0.115962364620324, 0.339506285923461, -1.10151477622343, -1.25572652571867, 1.32819901668658], a = 0.2, v = 0.2, t = 0.2)
movej(p[-0.400282125758867, -0.115864176416522, 0.339566661307584, -1.10213148702761, -1.25699126286334, 1.33484939692522], a = 0.2, v = 0.2, t = 0.2)
movej(p[-0.399859524134891, -0.115785135292342, 0.33967731811291, -1.09543568879001, -1.2538347264143, 1.32971223849375], a = 0.2, v = 0.2, t = 0.2)
movej(p[-0.399695174765866, -0.115998764956825, 0.339700487643297, -1.0909675116739, -1.25798733948852, 1.3275074633473], a = 0.2, v = 0.2, t = 0.2)
movej(p[-0.399705581192653, -0.116190900669357, 0.339791405315679, -1.08668601294517, -1.25981889759149, 1.3283651760931], a = 0.2, v = 0.2, t = 0.2)
movej(p[-0.400032037874955, -0.116281927438887, 0.339938642872059, -1.08670648932905, -1.26358945529157, 1.33296117424039], a = 0.2, v = 0.2, t = 0.2)
movej(p[-0.400551213983249, -0.11618104951302, 0.340141838694068, -1.0855102083444, -1.26253357014065, 1.32793119026188], a = 0.2, v = 0.2, t = 0.2)
movej(p[-0.401201873708411, -0.116303632996482, 0.340075963875612, -1.08581871678252, -1.26558454327333, 1.31630117647209], a = 0.2, v = 0.2, t = 0.2)
movej(p[-0.401790474462807, -0.116392040775616, 0.339976504103957, -1.09082458824036, -1.271989411092, 1.31541729257208], a = 0.2, v = 0.2, t = 0.2)
movej(p[-0.402098081961073, -0.116218687013206, 0.339932850983005, -1.09634145552859, -1.27720582049395, 1.31672788856917], a = 0.2, v = 0.2, t = 0.2)
movej(p[-0.402253858761516, -0.11586835689523, 0.340031782349529, -1.10043974250502, -1.27916596201528, 1.31898029821664], a = 0.2, v = 0.2, t = 0.2)
movej(p[-0.402293803520304, -0.115708537369651, 0.340027672411664, -1.10054219670043, -1.27564032214497, 1.3147325989496], a = 0.2, v = 0.2, t = 0.2)
movej(p[-0.402379200338914, -0.115776486649448, 0.339977109958733, -1.10219054165503, -1.27632827731196, 1.31248325883193], a = 0.2, v = 0.2, t = 0.2)
movej(p[-0.402453153333384, -0.115787358654971, 0.339968393544974, -1.10378617949204, -1.27721098614291, 1.31456335747342], a = 0.2, v = 0.2, t = 0.2)
movej(p[-0.402484166049902, -0.115597609034927, 0.340052548796483, -1.10681749463853, -1.27785828529558, 1.31892132308988], a = 0.2, v = 0.2, t = 0.2)
movej(p[-0.402311004265595, -0.115379580459024, 0.340075251455494, -1.10876982031694, -1.27112917220175, 1.3219186651666], a = 0.2, v = 0.2, t = 0.2)
movej(p[-0.402132963184508, -0.11544551088777, 0.339940405114755, -1.10917895429108, -1.2652709525328, 1.32361738455279], a = 0.2, v = 0.2, t = 0.2)
movej(p[-0.401782857768723, -0.115465802103775, 0.339858794757011, -1.10769200793827, -1.26131180544934, 1.32117447285829], a = 0.2, v = 0.2, t = 0.2)
movej(p[-0.401407933335246, -0.115402940524388, 0.339892542453511, -1.10880268627517, -1.25932726121894, 1.32526932913571], a = 0.2, v = 0.2, t = 0.2)
movej(p[-0.400861852199405, -0.115309958313668, 0.339992452955301, -1.10254167632849, -1.25870613242301, 1.31176784061537], a = 0.2, v = 0.2, t = 0.2)
movej(p[-0.400527886721549, -0.115540421644308, 0.339925063780129, -1.10309991052468, -1.2565247844805, 1.31617238331174], a = 0.2, v = 0.2, t = 0.2)
movej(p[-0.400164573854085, -0.11584166549185, 0.339820530702694, -1.09842158102526, -1.2569049548617, 1.31715013830943], a = 0.2, v = 0.2, t = 0.2)
movej(p[-0.399901752770945, -0.116000068062963, 0.339803099092132, -1.09560900804834, -1.2591133959052, 1.32522675717939], a = 0.2, v = 0.2, t = 0.2)
movej(p[-0.399528236196293, -0.115910658268725, 0.33994653625313, -1.09081271062152, -1.26210252542191, 1.32491355041187], a = 0.2, v = 0.2, t = 0.2)
movej(p[-0.399302426929587, -0.115955631012492, 0.340028019666637, -1.08730529898668, -1.26252056302755, 1.32244267634812], a = 0.2, v = 0.2, t = 0.2)
movej(p[-0.399371772474282, -0.116179611919998, 0.340057208664983, -1.08449116818754, -1.26546342916287, 1.32207240428715], a = 0.2, v = 0.2, t = 0.2)
movej(p[-0.399772137359343, -0.116344267935641, 0.340085008242789, -1.08045475397712, -1.26695931445875, 1.32245229489702], a = 0.2, v = 0.2, t = 0.2)
movej(p[-0.400376727425348, -0.116352288590081, 0.340225812679275, -1.07917906958988, -1.26948546265257, 1.32313237477788], a = 0.2, v = 0.2, t = 0.2)
movej(p[-0.400902935980411, -0.116352110277564, 0.340321285559653, -1.0782757305597, -1.2680802859533, 1.31494965553094], a = 0.2, v = 0.2, t = 0.2)
movej(p[-0.401438865658886, -0.116473003223391, 0.340271367551091, -1.08341438412718, -1.27210872674387, 1.31256886749627], a = 0.2, v = 0.2, t = 0.2)
movej(p[-0.401823424001626, -0.116532454028318, 0.340173194029944, -1.08624261389573, -1.27606196919242, 1.30899765514658], a = 0.2, v = 0.2, t = 0.2)
movej(p[-0.402149567119382, -0.116385115673758, 0.340111159196403, -1.0974403877737, -1.27760245359703, 1.32230610106464], a = 0.2, v = 0.2, t = 0.2)
movej(p[-0.402303383849002, -0.116163835082733, 0.340136007360257, -1.09870597234138, -1.27853991662057, 1.31845629467527], a = 0.2, v = 0.2, t = 0.2)
movej(p[-0.402482986258944, -0.116136089926104, 0.340084213993928, -1.10475031258973, -1.27716684166186, 1.32055210423402], a = 0.2, v = 0.2, t = 0.2)
movej(p[-0.402577041918569, -0.116188922395598, 0.339978965533357, -1.10711130769825, -1.27770767089173, 1.31890373784196], a = 0.2, v = 0.2, t = 0.2)
movej(p[-0.402697666519619, -0.116086816367607, 0.339920758498916, -1.1107497494635, -1.27884797066757, 1.32259101359075], a = 0.2, v = 0.2, t = 0.2)
movej(p[-0.402658759773716, -0.115804824600822, 0.339959581529682, -1.10926824300994, -1.27827020135667, 1.3199241636725], a = 0.2, v = 0.2, t = 0.2)
movej(p[-0.402550294691483, -0.115659612766445, 0.339927161689628, -1.10734772081158, -1.27487101145831, 1.31510243502809], a = 0.2, v = 0.2, t = 0.2)
movej(p[-0.402310363921518, -0.115701537534717, 0.339824695238508, -1.10991777394648, -1.27063652395037, 1.32067827626359], a = 0.2, v = 0.2, t = 0.2)
movej(p[-0.401912135102671, -0.115633492257109, 0.33974597764305, -1.10814459196309, -1.26819375467183, 1.31888969061103], a = 0.2, v = 0.2, t = 0.2)
movej(p[-0.401331084281217, -0.115479104787682, 0.339798780707091, -1.11116514642375, -1.26415764452594, 1.32922235406662], a = 0.2, v = 0.2, t = 0.2)
movej(p[-0.400589589223286, -0.115418933070213, 0.339861732828425, -1.10043363289927, -1.26007399152396, 1.31551302807556], a = 0.2, v = 0.2, t = 0.2)
movej(p[-0.400097457439575, -0.115707197787051, 0.339778642195516, -1.09719595121873, -1.25862280933452, 1.31942198906809], a = 0.2, v = 0.2, t = 0.2)
movej(p[-0.399645285317713, -0.116027823397179, 0.339673137248287, -1.08740707680956, -1.25974509217466, 1.31708249969993], a = 0.2, v = 0.2, t = 0.2)
movej(p[-0.399330150715328, -0.116116553139103, 0.339661538158781, -1.08766461463416, -1.25912495213688, 1.33207673518258], a = 0.2, v = 0.2, t = 0.2)
movej(p[-0.398888402162803, -0.116044026150505, 0.339783238303674, -1.08086584704982, -1.25818167702904, 1.3304398371433], a = 0.2, v = 0.2, t = 0.2)
movej(p[-0.39885854856585, -0.116137025301323, 0.339844492978565, -1.07483534205919, -1.26123204397649, 1.32530426064362], a = 0.2, v = 0.2, t = 0.2)
movej(p[-0.399112114408297, -0.116363531753621, 0.339881249097942, -1.06767048272344, -1.26703092026342, 1.31630598815738], a = 0.2, v = 0.2, t = 0.2)
movej(p[-0.399751844144589, -0.116525921040331, 0.339943796940155, -1.0652857281039, -1.27157998675822, 1.31292995674449], a = 0.2, v = 0.2, t = 0.2)
movej(p[-0.400443149867667, -0.116530004780326, 0.340034387589211, -1.07166062584502, -1.27156934130005, 1.31436513008427], a = 0.2, v = 0.2, t = 0.2)
movej(p[-0.401137380005101, -0.116582801851518, 0.340005424363882, -1.07805644011932, -1.26997910190785, 1.30941614114722], a = 0.2, v = 0.2, t = 0.2)
movej(p[-0.40173613663707, -0.116673167249649, 0.33993288990453, -1.08501948333536, -1.27678424103213, 1.30490192377524], a = 0.2, v = 0.2, t = 0.2)
movej(p[-0.402214227838081, -0.116616115257976, 0.339904384302249, -1.08737584875967, -1.28243229796783, 1.30227643676293], a = 0.2, v = 0.2, t = 0.2)
movej(p[-0.402580633059834, -0.116304094555364, 0.340021353044716, -1.09612895027687, -1.28652585042194, 1.31261150366298], a = 0.2, v = 0.2, t = 0.2)
movej(p[-0.402686340620144, -0.116109802334385, 0.340045909522808, -1.0983741672162, -1.28232289135177, 1.31047706824475], a = 0.2, v = 0.2, t = 0.2)
movej(p[-0.402830844885061, -0.116112362528562, 0.339962568765868, -1.0980678586151, -1.28616863941891, 1.30326314204759], a = 0.2, v = 0.2, t = 0.2)
movej(p[-0.402822445621979, -0.11610838180922, 0.339881341479214, -1.09955622970415, -1.28592782861117, 1.30306933626731], a = 0.2, v = 0.2, t = 0.2)
movej(p[-0.402802882355009, -0.115930430587522, 0.339908747145978, -1.10377969506493, -1.28659537619678, 1.31176281590164], a = 0.2, v = 0.2, t = 0.2)
movej(p[-0.402505529694612, -0.115648717485006, 0.339972412429306, -1.10732073495868, -1.27697138723082, 1.31755219782485], a = 0.2, v = 0.2, t = 0.2)
movej(p[-0.402288716403343, -0.115691829271066, 0.339851790270778, -1.10332819114607, -1.27251835018775, 1.31330956555], a = 0.2, v = 0.2, t = 0.2)
movej(p[-0.401906277758435, -0.115733661832721, 0.339719597230996, -1.09965314811017, -1.26876552907447, 1.30945636190059], a = 0.2, v = 0.2, t = 0.2)
movej(p[-0.401543131466255, -0.115704578113391, 0.339674847036075, -1.09987168123345, -1.26634876198494, 1.31735885510248], a = 0.2, v = 0.2, t = 0.2)
movej(p[-0.401005240272221, -0.115515737006936, 0.339785053627504, -1.10005883026984, -1.26313275614225, 1.31858106438281], a = 0.2, v = 0.2, t = 0.2)
movej(p[-0.400620703391376, -0.115640861090755, 0.33976118181529, -1.09731194917306, -1.25992592791929, 1.31492279498533], a = 0.2, v = 0.2, t = 0.2)
movej(p[-0.400306034098824, -0.115928976064509, 0.339648112221129, -1.09330397063322, -1.26002242433132, 1.31418058412181], a = 0.2, v = 0.2, t = 0.2)
movej(p[-0.400097947523257, -0.116061519408762, 0.339554933716295, -1.09000632069624, -1.26031102138241, 1.3195677201087], a = 0.2, v = 0.2, t = 0.2)
movej(p[-0.399718464238132, -0.115944564561686, 0.339638660233935, -1.08538039550855, -1.26207918988392, 1.32324720254533], a = 0.2, v = 0.2, t = 0.2)
movej(p[-0.399473788458783, -0.115897482226201, 0.339772897818781, -1.07831008504542, -1.26233736741595, 1.3200195052507], a = 0.2, v = 0.2, t = 0.2)
movej(p[-0.39964261033556, -0.116068575595273, 0.339860819846631, -1.07384251695232, -1.26806131568169, 1.31495829243392], a = 0.2, v = 0.2, t = 0.2)
movej(p[-0.400251050838689, -0.116267300460284, 0.33992013417103, -1.07203567213174, -1.27208940090418, 1.31484898543489], a = 0.2, v = 0.2, t = 0.2)
movej(p[-0.401033356197009, -0.116265165275472, 0.339977266704046, -1.0786973032377, -1.27542304741658, 1.32043989451236], a = 0.2, v = 0.2, t = 0.2)
movej(p[-0.401608551741978, -0.116212000324831, 0.340028221194243, -1.08209156810804, -1.27488852336878, 1.31507951506105], a = 0.2, v = 0.2, t = 0.2)
movej(p[-0.40214821997906, -0.116232362854084, 0.33998457479018, -1.09008540737939, -1.27648267464309, 1.31681659310461], a = 0.2, v = 0.2, t = 0.2)
movej(p[-0.402472571065959, -0.116233201699427, 0.339951039841398, -1.09480873493159, -1.27942998202412, 1.31434174591651], a = 0.2, v = 0.2, t = 0.2)
movej(p[-0.402705889925495, -0.116056856542129, 0.339982587306749, -1.10492499047843, -1.28062616500499, 1.3244040218578], a = 0.2, v = 0.2, t = 0.2)
movej(p[-0.402713759714066, -0.11582238151064, 0.34008131121743, -1.10783738864621, -1.28027894595535, 1.31884657071225], a = 0.2, v = 0.2, t = 0.2)
movej(p[-0.402749152268975, -0.11579720350084, 0.340050649549512, -1.11031103623875, -1.28000804514162, 1.3152722490533], a = 0.2, v = 0.2, t = 0.2)
movej(p[-0.402658029779071, -0.115874946272391, 0.339898930699645, -1.11191069898595, -1.27809053746129, 1.31871579789527], a = 0.2, v = 0.2, t = 0.2)
movej(p[-0.40235187021578, -0.115754244441206, 0.339794043856076, -1.10981097636987, -1.27677895092049, 1.31990439507457], a = 0.2, v = 0.2, t = 0.2)
movej(p[-0.401745887101298, -0.115467851415656, 0.339799034815821, -1.1097983203238, -1.2701391678836, 1.32772642134557], a = 0.2, v = 0.2, t = 0.2)
movej(p[-0.400969423211782, -0.115319117314617, 0.339817609108976, -1.10214606820707, -1.26300612083885, 1.31665779050708], a = 0.2, v = 0.2, t = 0.2)
movej(p[-0.400420776136128, -0.115617201704067, 0.3396658124343, -1.09972963716788, -1.25965257217212, 1.31928817847718], a = 0.2, v = 0.2, t = 0.2)
movej(p[-0.399969562383121, -0.115896282866576, 0.339545088731862, -1.09430780560687, -1.25875872547374, 1.3169903504345], a = 0.2, v = 0.2, t = 0.2)
movej(p[-0.39962630298262, -0.116000218502015, 0.339562048476949, -1.09369756301325, -1.26011669731793, 1.32659702056053], a = 0.2, v = 0.2, t = 0.2)
movej(p[-0.399236212089787, -0.115962572962881, 0.339688644985636, -1.08558218925854, -1.26000309449599, 1.31860419275972], a = 0.2, v = 0.2, t = 0.2)
movej(p[-0.399087763821933, -0.116206986817225, 0.339656058435098, -1.0827081400367, -1.25901128007774, 1.32256262250103], a = 0.2, v = 0.2, t = 0.2)
movej(p[-0.399026216907692, -0.116473584671182, 0.339658999797547, -1.07162609891727, -1.26477718955844, 1.31578856870048], a = 0.2, v = 0.2, t = 0.2)
movej(p[-0.399149818358581, -0.116539047270973, 0.339712866086324, -1.06734525546776, -1.26756801305612, 1.32185049776151], a = 0.2, v = 0.2, t = 0.2)
movej(p[-0.399210878481973, -0.116319160049401, 0.339899708602687, -1.06039009861562, -1.27258692189235, 1.31657024975326], a = 0.2, v = 0.2, t = 0.2)
movej(p[-0.399488253096362, -0.116296694329123, 0.339887482437907, -1.06243412420603, -1.27025344585605, 1.3134474304139], a = 0.2, v = 0.2, t = 0.2)
movej(p[-0.400019206604752, -0.116528841956205, 0.33978848269211, -1.06549378769475, -1.27262785303794, 1.30789528843558], a = 0.2, v = 0.2, t = 0.2)
movej(p[-0.400746732112614, -0.116732683287529, 0.339749111332541, -1.06832442444174, -1.27492022591318, 1.30606576665262], a = 0.2, v = 0.2, t = 0.2)
movej(p[-0.401371703147989, -0.116665416163896, 0.339837282213909, -1.07420484176029, -1.27661985725174, 1.31183069792325], a = 0.2, v = 0.2, t = 0.2)
movej(p[-0.401757879645286, -0.116558434561541, 0.339894303871134, -1.0740988757247, -1.27710474684251, 1.30380662788359], a = 0.2, v = 0.2, t = 0.2)
movej(p[-0.402089177829578, -0.116579834131916, 0.339821512569643, -1.08153487200235, -1.27811771726668, 1.30860017231215], a = 0.2, v = 0.2, t = 0.2)
movej(p[-0.402308731062338, -0.116580101442566, 0.33976270089283, -1.08358363741337, -1.27980483715786, 1.30457655153322], a = 0.2, v = 0.2, t = 0.2)
movej(p[-0.402505488320093, -0.116406974126846, 0.339786732103813, -1.09338220804754, -1.27772719035699, 1.31722419834445], a = 0.2, v = 0.2, t = 0.2)
movej(p[-0.402510830191222, -0.116210062490726, 0.339831594134636, -1.0943992106747, -1.27487716724005, 1.31186526158327], a = 0.2, v = 0.2, t = 0.2)
movej(p[-0.402488419909356, -0.116181249195736, 0.339709091453505, -1.09446142763685, -1.27310110814798, 1.30762132531276], a = 0.2, v = 0.2, t = 0.2)
movej(p[-0.402300824842177, -0.11617968566112, 0.339523080498347, -1.09296790597383, -1.27142883626315, 1.30844552018545], a = 0.2, v = 0.2, t = 0.2)
movej(p[-0.402119257488712, -0.116020912520825, 0.33942222330417, -1.09418227602353, -1.26943203926249, 1.31679094176391], a = 0.2, v = 0.2, t = 0.2)
movej(p[-0.401813081768924, -0.115725355520167, 0.339511308220939, -1.09952571391694, -1.26557024492403, 1.32720907373523], a = 0.2, v = 0.2, t = 0.2)
movej(p[-0.401580650596524, -0.115696192749343, 0.339543690725386, -1.09626954000576, -1.26148151798961, 1.31865477644117], a = 0.2, v = 0.2, t = 0.2)
movej(p[-0.401357235389525, -0.115901763974002, 0.339466204724076, -1.0968129176355, -1.26204556884929, 1.31521074829475], a = 0.2, v = 0.2, t = 0.2)
movej(p[-0.401136813691584, -0.116035312064756, 0.339405540580154, -1.09049647231626, -1.26165389643553, 1.30903601628963], a = 0.2, v = 0.2, t = 0.2)
movej(p[-0.400778774131103, -0.115981131227633, 0.339427660526327, -1.09448836909833, -1.26046371227573, 1.32197563366074], a = 0.2, v = 0.2, t = 0.2)
movej(p[-0.400217328973975, -0.115953127685163, 0.339510506620061, -1.08390540216227, -1.257120430918, 1.30867710992777], a = 0.2, v = 0.2, t = 0.2)
movej(p[-0.399907238579167, -0.116241938802529, 0.339447422580608, -1.08051346547935, -1.25670033137198, 1.30885268989629], a = 0.2, v = 0.2, t = 0.2)
movej(p[-0.399776517391401, -0.116608031791528, 0.339430998236637, -1.07131919240207, -1.26079772334818, 1.30019957409561], a = 0.2, v = 0.2, t = 0.2)
movej(p[-0.40009518577546, -0.116746084822078, 0.339518989442202, -1.07269119147728, -1.26456100393879, 1.30916801421735], a = 0.2, v = 0.2, t = 0.2)
movej(p[-0.4004491597824, -0.116681863947889, 0.339740777167358, -1.06566350724038, -1.27207610727183, 1.29634279326504], a = 0.2, v = 0.2, t = 0.2)
movej(p[-0.400947203841154, -0.116713965083658, 0.339782133194999, -1.06748985435232, -1.27329849988391, 1.29294161729764], a = 0.2, v = 0.2, t = 0.2)
movej(p[-0.401386653848876, -0.116850942472335, 0.339692934081189, -1.06967607582414, -1.27683754622157, 1.29114740833649], a = 0.2, v = 0.2, t = 0.2)
movej(p[-0.4017496581016, -0.11680993746081, 0.339612598074106, -1.07759101139476, -1.27665517844114, 1.29919724550788], a = 0.2, v = 0.2, t = 0.2)
movej(p[-0.401946743219936, -0.116554096159682, 0.339679554361845, -1.08216473586731, -1.28026820008448, 1.30128169580852], a = 0.2, v = 0.2, t = 0.2)
movej(p[-0.401945202814804, -0.116260729740803, 0.339751822406829, -1.0825105101558, -1.27953148528951, 1.29474611212503], a = 0.2, v = 0.2, t = 0.2)
movej(p[-0.402094793328717, -0.116244254613987, 0.339714571976714, -1.08727817042754, -1.27953879514007, 1.29708175786], a = 0.2, v = 0.2, t = 0.2)
movej(p[-0.402276481623157, -0.116224397030131, 0.33968237911218, -1.09114704458309, -1.27898786006397, 1.30156294208477], a = 0.2, v = 0.2, t = 0.2)
movej(p[-0.402529910849266, -0.116106758952122, 0.339735833029825, -1.10055176445695, -1.27860789814723, 1.31618818406709], a = 0.2, v = 0.2, t = 0.2)
movej(p[-0.402644844644116, -0.115861567918091, 0.339876300090342, -1.10372739147313, -1.27662775744737, 1.31764976713189], a = 0.2, v = 0.2, t = 0.2)
movej(p[-0.402744971557755, -0.115883939338826, 0.339825477659032, -1.10402318362177, -1.2742267202832, 1.31546539652296], a = 0.2, v = 0.2, t = 0.2)
movej(p[-0.402666865239683, -0.115911757203047, 0.339680228724071, -1.10108956064697, -1.27438698508702, 1.31106483581162], a = 0.2, v = 0.2, t = 0.2)
movej(p[-0.402400100080831, -0.11578404893904, 0.339584316968133, -1.09930162308701, -1.27285251646357, 1.31370083701876], a = 0.2, v = 0.2, t = 0.2)
movej(p[-0.402001220001926, -0.115426905750894, 0.339651328603041, -1.10256609606568, -1.27119263469414, 1.31926280194618], a = 0.2, v = 0.2, t = 0.2)
movej(p[-0.401598366719213, -0.115285430479709, 0.339672010257969, -1.10166701491865, -1.26461226908953, 1.31537035816058], a = 0.2, v = 0.2, t = 0.2)
movej(p[-0.401353066948496, -0.115472147672919, 0.339538297407255, -1.10510015253714, -1.26298749853698, 1.31915754160556], a = 0.2, v = 0.2, t = 0.2)
movej(p[-0.401029708610339, -0.115630290752985, 0.33941646010315, -1.09983197877432, -1.2612650209709, 1.31893078741403], a = 0.2, v = 0.2, t = 0.2)
movej(p[-0.400433582236969, -0.115656996391659, 0.339431086067607, -1.09573507228772, -1.26286462819582, 1.32282927189168], a = 0.2, v = 0.2, t = 0.2)
movej(p[-0.399477545586683, -0.115615206433811, 0.339589732906078, -1.07941921673954, -1.26074358505106, 1.30898200887273], a = 0.2, v = 0.2, t = 0.2)
movej(p[-0.398944773812991, -0.115973402664315, 0.339613108633559, -1.06946030796905, -1.2626413244271, 1.30469674669786], a = 0.2, v = 0.2, t = 0.2)
movej(p[-0.398918414220362, -0.116354487836807, 0.339659710252449, -1.06050500013205, -1.26701767705343, 1.3039740877901], a = 0.2, v = 0.2, t = 0.2)
movej(p[-0.399528801381191, -0.116593932027493, 0.339721452341342, -1.06156915537904, -1.27184339049799, 1.31167596299019], a = 0.2, v = 0.2, t = 0.2)
movej(p[-0.400184358720315, -0.116581116439534, 0.339848553160877, -1.06194865223186, -1.27588398242007, 1.30746909890823], a = 0.2, v = 0.2, t = 0.2)
movej(p[-0.400817566766259, -0.11663890803491, 0.339811674331503, -1.0708392132528, -1.27350314489937, 1.31145907977818], a = 0.2, v = 0.2, t = 0.2)
movej(p[-0.401369880066181, -0.116721859483091, 0.339705781987708, -1.07890399647661, -1.27529258292961, 1.31310059397683], a = 0.2, v = 0.2, t = 0.2)
movej(p[-0.4018188322637, -0.116652783893181, 0.339655635644661, -1.0878080698973, -1.27578223449792, 1.32164337801481], a = 0.2, v = 0.2, t = 0.2)
movej(p[-0.402169674331555, -0.116391545875367, 0.339771623588742, -1.09640397757284, -1.27747650840548, 1.32980566820096], a = 0.2, v = 0.2, t = 0.2)
movej(p[-0.402367075410213, -0.116191016378412, 0.339851789092516, -1.09823738663584, -1.27605742403731, 1.32761510610684], a = 0.2, v = 0.2, t = 0.2)
movej(p[-0.40261050742065, -0.116221827963515, 0.339820911770445, -1.10112897487924, -1.27653513961101, 1.32519856844176], a = 0.2, v = 0.2, t = 0.2)
movej(p[-0.40273899896746, -0.116176518677087, 0.339749910197006, -1.10055620493231, -1.27833801004361, 1.32328505102553], a = 0.2, v = 0.2, t = 0.2)
movej(p[-0.402847415919181, -0.116001679917364, 0.339775521138159, -1.10814127438738, -1.27859107639359, 1.33258679258302], a = 0.2, v = 0.2, t = 0.2)
movej(p[-0.402791919620165, -0.115755746048351, 0.33988487989395, -1.10733189504409, -1.27811268910919, 1.32762498091231], a = 0.2, v = 0.2, t = 0.2)
movej(p[-0.402806995836024, -0.115760447896054, 0.339821444004711, -1.11114475190495, -1.27422026829545, 1.32998258939725], a = 0.2, v = 0.2, t = 0.2)
movej(p[-0.402655837577849, -0.115766039479091, 0.339737482440977, -1.1081205161847, -1.27338612849577, 1.32431048485449], a = 0.2, v = 0.2, t = 0.2)
movej(p[-0.402368913921019, -0.115576455794525, 0.339696663177176, -1.11349891758887, -1.26895411524351, 1.33830274326613], a = 0.2, v = 0.2, t = 0.2)
movej(p[-0.401876598230534, -0.115204895451696, 0.33983108640411, -1.11328255274335, -1.26768985238369, 1.3379333160289], a = 0.2, v = 0.2, t = 0.2)
movej(p[-0.401451090504152, -0.115163944183268, 0.339821679449035, -1.11073460608274, -1.26189149163515, 1.33371339106483], a = 0.2, v = 0.2, t = 0.2)
movej(p[-0.40107618574779, -0.115371165865636, 0.339716033271091, -1.1062659512382, -1.26162111370423, 1.32855318451908], a = 0.2, v = 0.2, t = 0.2)
movej(p[-0.400795418440326, -0.115526025488057, 0.339663571733724, -1.10096545080295, -1.25973932402259, 1.32817169104067], a = 0.2, v = 0.2, t = 0.2)
movej(p[-0.400433750176528, -0.115457763646992, 0.339785148290739, -1.10058989826823, -1.26110186089966, 1.33486002728042], a = 0.2, v = 0.2, t = 0.2)
movej(p[-0.400142596384028, -0.115457680859161, 0.339853431123566, -1.09588031511785, -1.2573594115573, 1.328054998015], a = 0.2, v = 0.2, t = 0.2)
movej(p[-0.400089431938511, -0.115776518787366, 0.339756365667239, -1.09484842263245, -1.2604196031028, 1.32700187498913], a = 0.2, v = 0.2, t = 0.2)
movej(p[-0.400103810086837, -0.11602303044994, 0.339664111869774, -1.08839868075378, -1.26241339333041, 1.32372218231249], a = 0.2, v = 0.2, t = 0.2)
movej(p[-0.400330260712163, -0.116087341821405, 0.339685921014404, -1.09211725032126, -1.26484639866926, 1.33665056117989], a = 0.2, v = 0.2, t = 0.2)
movej(p[-0.400589762075633, -0.116072390551467, 0.339794667436344, -1.08985985464731, -1.26465345620428, 1.3316650996257], a = 0.2, v = 0.2, t = 0.2)
movej(p[-0.401119277140985, -0.116261465293548, 0.339781780156887, -1.09202095794641, -1.26778165142731, 1.32645478751926], a = 0.2, v = 0.2, t = 0.2)
movej(p[-0.401571141638617, -0.116470149571793, 0.339702833663659, -1.09096154500009, -1.27444283214969, 1.31440262280722], a = 0.2, v = 0.2, t = 0.2)
movej(p[-0.40195830946678, -0.116414503603248, 0.339693696031554, -1.09345122173948, -1.27781115282667, 1.31526800508573], a = 0.2, v = 0.2, t = 0.2)
movej(p[-0.402148640396595, -0.116180149649885, 0.339784391228776, -1.09258200291831, -1.27976552725796, 1.31072276840098], a = 0.2, v = 0.2, t = 0.2)
movej(p[-0.402294250840306, -0.116093174176149, 0.339824505168692, -1.09111487991427, -1.2777250505355, 1.30550474224008], a = 0.2, v = 0.2, t = 0.2)
movej(p[-0.402443706648227, -0.116179299443193, 0.339773476138782, -1.09278119010235, -1.27887935242582, 1.30514765316499], a = 0.2, v = 0.2, t = 0.2)
movej(p[-0.402624940802698, -0.116152392776206, 0.339701823098666, -1.09657713660101, -1.27788877922455, 1.30758643338667], a = 0.2, v = 0.2, t = 0.2)
movej(p[-0.402796206846893, -0.116045410872399, 0.339750228048449, -1.11360192386446, -1.27236403390636, 1.33502119173431], a = 0.2, v = 0.2, t = 0.2)
movej(p[-0.402680268245754, -0.115788746604153, 0.339837587550922, -1.11205363927191, -1.27294864341106, 1.32106569427387], a = 0.2, v = 0.2, t = 0.2)
movej(p[-0.402663365681709, -0.115850890811731, 0.339782749686328, -1.11839978516166, -1.273903181739, 1.32512546966224], a = 0.2, v = 0.2, t = 0.2)
movej(p[-0.402462303151684, -0.115812693352461, 0.339709733175081, -1.10965166341786, -1.27793101689348, 1.31150741490586], a = 0.2, v = 0.2, t = 0.2)
movej(p[-0.402406611962262, -0.115652398160326, 0.339703692356569, -1.11985649274181, -1.27437602661803, 1.33730237516243], a = 0.2, v = 0.2, t = 0.2)
movej(p[-0.402151014764121, -0.115420478099941, 0.339818790227069, -1.1170978739757, -1.27187815359657, 1.33368777725286], a = 0.2, v = 0.2, t = 0.2)
movej(p[-0.401775155546619, -0.115324366348084, 0.339841622081431, -1.12007666625879, -1.27415703684283, 1.34203020254914], a = 0.2, v = 0.2, t = 0.2)
movej(p[-0.401500974012355, -0.115301469163528, 0.33976476990314, -1.11455282594541, -1.27033531422417, 1.32984490126209], a = 0.2, v = 0.2, t = 0.2)
movej(p[-0.401375238580241, -0.115500668302979, 0.339765465857764, -1.1243498807239, -1.26280406766963, 1.34919298094754], a = 0.2, v = 0.2, t = 0.2)
movej(p[-0.401113589648505, -0.11510239981883, 0.339819961967301, -1.12057723997694, -1.26106799099299, 1.34362217568184], a = 0.2, v = 0.2, t = 0.2)
movej(p[-0.400680799409147, -0.115281285145548, 0.33988187648823, -1.11581462415348, -1.2581334511626, 1.33482448700406], a = 0.2, v = 0.2, t = 0.2)
movej(p[-0.400075137948739, -0.115345321423791, 0.339776012174389, -1.09968159843351, -1.26549580773096, 1.32170983106633], a = 0.2, v = 0.2, t = 0.2)
movej(p[-0.399585593694098, -0.115705330518983, 0.339691943398454, -1.08838453888527, -1.26412010177969, 1.31386675761392], a = 0.2, v = 0.2, t = 0.2)
movej(p[-0.399272149161234, -0.115797731199855, 0.339683105756621, -1.08578009650419, -1.26401579792159, 1.32920423226317], a = 0.2, v = 0.2, t = 0.2)
movej(p[-0.399202306261933, -0.115777188707095, 0.339782859036309, -1.07713757632682, -1.26298691916033, 1.31626736664148], a = 0.2, v = 0.2, t = 0.2)
movej(p[-0.399665494096867, -0.116043977905518, 0.339799554427126, -1.07927990555438, -1.26628301825276, 1.31745825952492], a = 0.2, v = 0.2, t = 0.2)
movej(p[-0.400440846760066, -0.116294377666529, 0.339810199137349, -1.07817032276513, -1.27332678352391, 1.30806460258051], a = 0.2, v = 0.2, t = 0.2)
movej(p[-0.401299228850782, -0.116371194361401, 0.339888579794569, -1.08800445511065, -1.27775863647908, 1.31905527549064], a = 0.2, v = 0.2, t = 0.2)
movej(p[-0.401923715332935, -0.116242519892372, 0.340019926838801, -1.09381296244448, -1.28076013562548, 1.31681674145462], a = 0.2, v = 0.2, t = 0.2)
movej(p[-0.402456784918292, -0.116215181633349, 0.340109091722505, -1.10265549852218, -1.28395981563189, 1.31531693166196], a = 0.2, v = 0.2, t = 0.2)
movej(p[-0.402734555523494, -0.116216433891335, 0.340239226730287, -1.11064163113867, -1.28731009325906, 1.3168956935105], a = 0.2, v = 0.2, t = 0.2)
movej(p[-0.402905132085811, -0.116089701836445, 0.340424431859811, -1.11417211148106, -1.28833594533029, 1.31896422486684], a = 0.2, v = 0.2, t = 0.2)
movej(p[-0.402912203360693, -0.115789147983473, 0.340655951083072, -1.1205504846604, -1.28343358241957, 1.33000518226371], a = 0.2, v = 0.2, t = 0.2)
movej(p[-0.40286861351668, -0.11566753376453, 0.340687053808834, -1.11793023712629, -1.27910021528675, 1.32094672420518], a = 0.2, v = 0.2, t = 0.2)
movej(p[-0.402704126995911, -0.115747586468448, 0.34050661230784, -1.12083897175393, -1.27754042286113, 1.32281264519587], a = 0.2, v = 0.2, t = 0.2)
movej(p[-0.402288935290304, -0.115706843623722, 0.340385997682279, -1.1179204216613, -1.27377322996124, 1.32159718084556], a = 0.2, v = 0.2, t = 0.2)
movej(p[-0.401698438216591, -0.115444876748262, 0.340375017413734, -1.12066507533194, -1.26673359058822, 1.33587428087213], a = 0.2, v = 0.2, t = 0.2)
movej(p[-0.401033589830372, -0.115318123858774, 0.340424060234298, -1.11255234315883, -1.25863750218132, 1.32997889182659], a = 0.2, v = 0.2, t = 0.2)
movej(p[-0.400589111613248, -0.115524043626858, 0.340357526451791, -1.10179902362099, -1.26064701653148, 1.31994815964304], a = 0.2, v = 0.2, t = 0.2)
movej(p[-0.400148937321197, -0.115804261115141, 0.340262741764109, -1.09522648167874, -1.25965789796812, 1.32212047730792], a = 0.2, v = 0.2, t = 0.2)
movej(p[-0.399780694343653, -0.115910529524272, 0.340273146100282, -1.09342740685379, -1.25885935085487, 1.33331401721264], a = 0.2, v = 0.2, t = 0.2)
movej(p[-0.399309802304036, -0.115844208488138, 0.34035593662022, -1.09277318098313, -1.25369724721188, 1.34278048184046], a = 0.2, v = 0.2, t = 0.2)
movej(p[-0.39909981691448, -0.116078919804888, 0.34031077417938, -1.08709485270796, -1.25356988201991, 1.3382344134067], a = 0.2, v = 0.2, t = 0.2)
movej(p[-0.398991044667404, -0.116376634582459, 0.340262885163084, -1.07785635125593, -1.26095336045801, 1.3281637950707], a = 0.2, v = 0.2, t = 0.2)
movej(p[-0.399096911426271, -0.116555375986306, 0.340394464204036, -1.06843450968694, -1.26915785930837, 1.31877098987643], a = 0.2, v = 0.2, t = 0.2)
movej(p[-0.399383074398015, -0.11653922190512, 0.34064738755856, -1.06466143913613, -1.27470089918603, 1.31442812324845], a = 0.2, v = 0.2, t = 0.2)
movej(p[-0.399880315418516, -0.116664787747748, 0.340716306392684, -1.06563314325903, -1.27308415710723, 1.31056952032263], a = 0.2, v = 0.2, t = 0.2)
movej(p[-0.40055848814006, -0.116911276790573, 0.340548115795087, -1.06754757268267, -1.27705483818916, 1.30478679618576], a = 0.2, v = 0.2, t = 0.2)
movej(p[-0.401046239462772, -0.116970788643243, 0.340355658256433, -1.07238120385234, -1.27855401547513, 1.30696390100949], a = 0.2, v = 0.2, t = 0.2)
movej(p[-0.401405562864887, -0.11673819106069, 0.340322409704852, -1.07984369713254, -1.28254984647212, 1.31177794425283], a = 0.2, v = 0.2, t = 0.2)
movej(p[-0.401567814838406, -0.116463453403711, 0.340380835707855, -1.09030921994415, -1.2773564487037, 1.32029121293197], a = 0.2, v = 0.2, t = 0.2)
movej(p[-0.401881366312362, -0.116398171462634, 0.340350514409244, -1.09039541519218, -1.28335891142052, 1.30597680737852], a = 0.2, v = 0.2, t = 0.2)
movej(p[-0.402038897019819, -0.116306346842475, 0.340345309888063, -1.08938397793215, -1.28447336073204, 1.3016925171542], a = 0.2, v = 0.2, t = 0.2)
movej(p[-0.402294077371202, -0.116157882635317, 0.340346889808995, -1.09075133372379, -1.28732128808013, 1.30429567226513], a = 0.2, v = 0.2, t = 0.2)
movej(p[-0.402490171072965, -0.115944789657018, 0.340416552578116, -1.0999313874516, -1.2792081349341, 1.31811533788017], a = 0.2, v = 0.2, t = 0.2)
movej(p[-0.402887758677958, -0.11601763483871, 0.340365242926547, -1.10237329775725, -1.27647936506629, 1.31653163364956], a = 0.2, v = 0.2, t = 0.2)
movej(p[-0.403205702588763, -0.116118857716551, 0.340274421106076, -1.10253756892101, -1.27770533683865, 1.31273424681527], a = 0.2, v = 0.2, t = 0.2)
movej(p[-0.403664809082329, -0.116087752604938, 0.340249315981719, -1.10283487888891, -1.2773764645641, 1.31723392677403], a = 0.2, v = 0.2, t = 0.2)
movej(p[-0.404005672624422, -0.11578713957233, 0.340399217031056, -1.11171691825956, -1.27356325325683, 1.33288120697376], a = 0.2, v = 0.2, t = 0.2)
movej(p[-0.404168457067746, -0.11573778288828, 0.340435010042266, -1.11366176116156, -1.26282669612189, 1.33591158385014], a = 0.2, v = 0.2, t = 0.2)
movej(p[-0.404058157280056, -0.115928712838733, 0.340385828541115, -1.10626454654068, -1.2645933524098, 1.32063693529947], a = 0.2, v = 0.2, t = 0.2)
movej(p[-0.403562121588505, -0.116118427945172, 0.340260780841497, -1.09594195022136, -1.26396984719232, 1.31067936082462], a = 0.2, v = 0.2, t = 0.2)
movej(p[-0.403041050478995, -0.116094559904004, 0.340275566324157, -1.09255901613174, -1.26609020961427, 1.31205768438677], a = 0.2, v = 0.2, t = 0.2)
movej(p[-0.402414100145587, -0.116038339073156, 0.340319693510353, -1.09184273868462, -1.25919745008434, 1.31924837794278], a = 0.2, v = 0.2, t = 0.2)
movej(p[-0.402093374380359, -0.11633543680708, 0.340221799812556, -1.08402555610481, -1.26202911752034, 1.31258498383774], a = 0.2, v = 0.2, t = 0.2)
movej(p[-0.401779928330303, -0.116630691874369, 0.340113181824633, -1.07876894194274, -1.26410906914664, 1.31687097664458], a = 0.2, v = 0.2, t = 0.2)
movej(p[-0.401676111090984, -0.116780037635557, 0.340157223810924, -1.07392463688319, -1.2684855332372, 1.32089788531448], a = 0.2, v = 0.2, t = 0.2)
movej(p[-0.401670827677448, -0.116662993869101, 0.340422234726737, -1.07473541396245, -1.26687644908619, 1.32791169275096], a = 0.2, v = 0.2, t = 0.2)
movej(p[-0.402092747995457, -0.116785215070976, 0.340570858879093, -1.07079930697056, -1.26650853699757, 1.31805766808793], a = 0.2, v = 0.2, t = 0.2)
movej(p[-0.403503839245706, -0.117193320408194, 0.3405535886763, -1.06254529629591, -1.27336308240394, 1.29838665718447], a = 0.2, v = 0.2, t = 0.2)
movej(p[-0.405741777441353, -0.11761107080407, 0.340468767498453, -1.06399641432752, -1.27654714289215, 1.29670476738562], a = 0.2, v = 0.2, t = 0.2)
movej(p[-0.407924195768855, -0.117693673595717, 0.340558085173596, -1.07150250848812, -1.28038230443799, 1.30364867224896], a = 0.2, v = 0.2, t = 0.2)
movej(p[-0.409295803455712, -0.11769910337236, 0.340605998301023, -1.08265764912611, -1.2767025569038, 1.30978267210064], a = 0.2, v = 0.2, t = 0.2)
movej(p[-0.409742425840352, -0.11770844899962, 0.340592032471647, -1.08366586662289, -1.28368706638284, 1.30021943330148], a = 0.2, v = 0.2, t = 0.2)
movej(p[-0.409419100967183, -0.117620005080478, 0.340544388563681, -1.08571227553736, -1.2873520950987, 1.29727324475162], a = 0.2, v = 0.2, t = 0.2)
movej(p[-0.408665355224288, -0.117295983315279, 0.340584012187859, -1.08804320047446, -1.2921801969264, 1.29979714597288], a = 0.2, v = 0.2, t = 0.2)
movej(p[-0.407354747087422, -0.116842229800477, 0.340638216513856, -1.09890859165262, -1.2864938130107, 1.31142680354939], a = 0.2, v = 0.2, t = 0.2)
movej(p[-0.406015174067164, -0.116594959986717, 0.340550754868322, -1.10100920341483, -1.28470966837944, 1.30822361667745], a = 0.2, v = 0.2, t = 0.2)
movej(p[-0.404674479171288, -0.116450154431354, 0.340409414117094, -1.10837617834214, -1.28277991257904, 1.31630244598073], a = 0.2, v = 0.2, t = 0.2)
movej(p[-0.403349440067145, -0.116112325828613, 0.340357085879942, -1.10791770444463, -1.28435455515188, 1.32101385789701], a = 0.2, v = 0.2, t = 0.2)
movej(p[-0.401640195348769, -0.115549827312805, 0.340447962837511, -1.11426559628836, -1.27953046256944, 1.33209485277286], a = 0.2, v = 0.2, t = 0.2)
movej(p[-0.399977212668417, -0.115160839935564, 0.340479013270601, -1.11084835890142, -1.27086324236743, 1.32379068798214], a = 0.2, v = 0.2, t = 0.2)
movej(p[-0.398641934721763, -0.115136052528389, 0.340351383058951, -1.11351988056605, -1.26763133680782, 1.32550679064179], a = 0.2, v = 0.2, t = 0.2)
movej(p[-0.397881703006948, -0.115159552182289, 0.340200643916537, -1.1089610514833, -1.26441963619205, 1.32543997239417], a = 0.2, v = 0.2, t = 0.2)
movej(p[-0.397349761002187, -0.115035646993468, 0.340162028983487, -1.11427682985781, -1.26311552421821, 1.34181945808244], a = 0.2, v = 0.2, t = 0.2)
movej(p[-0.396792364565554, -0.114884653549417, 0.340204912668994, -1.10877837271973, -1.26096207454808, 1.33580548366174], a = 0.2, v = 0.2, t = 0.2)
movej(p[-0.396590232653849, -0.115086908281855, 0.340121038933672, -1.10868608567619, -1.25886627196556, 1.33738627525348], a = 0.2, v = 0.2, t = 0.2)
movej(p[-0.396464232310098, -0.115359252075129, 0.340011221941656, -1.10340306202035, -1.2603339504441, 1.33491237829537], a = 0.2, v = 0.2, t = 0.2)
movej(p[-0.396449692411703, -0.115483346265658, 0.339944369261524, -1.10065342926212, -1.2606164745591, 1.33851983184369], a = 0.2, v = 0.2, t = 0.2)
movej(p[-0.396284481636247, -0.115319049902723, 0.340080663563757, -1.09633070126021, -1.26370749031735, 1.33719617474605], a = 0.2, v = 0.2, t = 0.2)
movej(p[-0.39631812698232, -0.115337031499687, 0.340242323364754, -1.09104967345089, -1.26495657598845, 1.32548809951367], a = 0.2, v = 0.2, t = 0.2)
movej(p[-0.39659446860388, -0.115619650821673, 0.340309069764909, -1.08782047201282, -1.2712529035211, 1.31760746711497], a = 0.2, v = 0.2, t = 0.2)
movej(p[-0.397094364599713, -0.115849450569938, 0.340352589480516, -1.08662912098909, -1.27575522729937, 1.31539163665375], a = 0.2, v = 0.2, t = 0.2)
movej(p[-0.397561715360975, -0.115858357813704, 0.340388457943776, -1.08878953161223, -1.28095083396045, 1.319260692161], a = 0.2, v = 0.2, t = 0.2)
movej(p[-0.397896941830885, -0.115733418985329, 0.340433038072044, -1.08530419618271, -1.28197012835161, 1.30997701808926], a = 0.2, v = 0.2, t = 0.2)
movej(p[-0.398214992041643, -0.115747751308932, 0.340371600669457, -1.08920963276303, -1.2829007637838, 1.30962300160735], a = 0.2, v = 0.2, t = 0.2)
movej(p[-0.398429467068639, -0.115782233960038, 0.340270836586234, -1.09077236941166, -1.28344734467582, 1.30710746439575], a = 0.2, v = 0.2, t = 0.2)
movej(p[-0.398614696238209, -0.115624860985548, 0.340259430336187, -1.10253135541274, -1.28088633867821, 1.32495313013043], a = 0.2, v = 0.2, t = 0.2)
movej(p[-0.398689329761653, -0.115368851068293, 0.340356038830874, -1.10279782025911, -1.28081687848246, 1.31932726987613], a = 0.2, v = 0.2, t = 0.2)
movej(p[-0.398763085564136, -0.11530629297006, 0.340364895198388, -1.10493080090774, -1.27876513944716, 1.31724053872124], a = 0.2, v = 0.2, t = 0.2)
movej(p[-0.398844287034904, -0.115413637782546, 0.340276833053984, -1.10546803863797, -1.27968082056097, 1.31315978388771], a = 0.2, v = 0.2, t = 0.2)
movej(p[-0.398895488755745, -0.115371876812729, 0.340217823955678, -1.10650937732771, -1.27971110191207, 1.31584957381418], a = 0.2, v = 0.2, t = 0.2)
movej(p[-0.398906655733285, -0.115190263728894, 0.340232586641504, -1.11143145753402, -1.27693780347294, 1.32427875312302], a = 0.2, v = 0.2, t = 0.2)
movej(p[-0.399104381823895, -0.115075113546747, 0.340222194921546, -1.10749205788146, -1.26982097188301, 1.31958963219415], a = 0.2, v = 0.2, t = 0.2)
movej(p[-0.399638284479273, -0.115279216146283, 0.340011448068444, -1.11243282252261, -1.26509298331583, 1.32939758712343], a = 0.2, v = 0.2, t = 0.2)
movej(p[-0.400006211771566, -0.115380952935649, 0.339855149272914, -1.11054291682706, -1.26249304823563, 1.33178332056144], a = 0.2, v = 0.2, t = 0.2)
movej(p[-0.400054628950421, -0.11529672046776, 0.339798846496382, -1.11926392068934, -1.26022092978421, 1.34845337413815], a = 0.2, v = 0.2, t = 0.2)
movej(p[-0.399446607483216, -0.115082416700007, 0.339918391940233, -1.11394017692942, -1.25835025044253, 1.33910589742497], a = 0.2, v = 0.2, t = 0.2)
movej(p[-0.398821350412507, -0.115262436777613, 0.339919839001568, -1.10408682453335, -1.25810746607185, 1.32861194932175], a = 0.2, v = 0.2, t = 0.2)
movej(p[-0.398107567252471, -0.115597410847161, 0.339910819368593, -1.08944823785413, -1.26054277568763, 1.31828641017567], a = 0.2, v = 0.2, t = 0.2)
movej(p[-0.397639486270222, -0.115812253304312, 0.339938789914237, -1.08016518638753, -1.26130478190653, 1.31929750287574], a = 0.2, v = 0.2, t = 0.2)
movej(p[-0.397275273414772, -0.115783649421071, 0.340104969606777, -1.07500830175776, -1.26480505187413, 1.31871710657201], a = 0.2, v = 0.2, t = 0.2)
movej(p[-0.397101129630308, -0.115852709820856, 0.340173101725657, -1.07060752553509, -1.26446836333228, 1.31564950675676], a = 0.2, v = 0.2, t = 0.2)
movej(p[-0.397127711782992, -0.116117273167029, 0.34021406986474, -1.06649765724495, -1.27105870213787, 1.31276079551949], a = 0.2, v = 0.2, t = 0.2)
movej(p[-0.397462724334241, -0.116334851500234, 0.340255129089347, -1.06355612847929, -1.27248174578633, 1.31433060034399], a = 0.2, v = 0.2, t = 0.2)
movej(p[-0.397998704544486, -0.116434885272486, 0.340365956991228, -1.06265068420571, -1.27693320192768, 1.31561706782567], a = 0.2, v = 0.2, t = 0.2)
movej(p[-0.398593973251862, -0.116496496056516, 0.340412714329791, -1.06052005327026, -1.2764709930664, 1.30534826917666], a = 0.2, v = 0.2, t = 0.2)
movej(p[-0.399306282395026, -0.116668907999499, 0.340302579909281, -1.06845779581751, -1.27945272664221, 1.30500690737385], a = 0.2, v = 0.2, t = 0.2)
movej(p[-0.399830983041971, -0.116705340864648, 0.340180675537095, -1.07545477731385, -1.28141333497075, 1.30443094956138], a = 0.2, v = 0.2, t = 0.2)
movej(p[-0.400252744837312, -0.11651608695628, 0.340209197785862, -1.08622361724838, -1.2818488841219, 1.31530934003354], a = 0.2, v = 0.2, t = 0.2)
movej(p[-0.400417255051022, -0.116288516493782, 0.340280756304884, -1.08677794052879, -1.28097708768479, 1.30772854984177], a = 0.2, v = 0.2, t = 0.2)
movej(p[-0.400620712427086, -0.11621531253306, 0.340280696640633, -1.08973526272651, -1.28043524260956, 1.30670586819396], a = 0.2, v = 0.2, t = 0.2)
movej(p[-0.400771855616148, -0.116222281177896, 0.340197003703355, -1.09269526765851, -1.28167265992681, 1.30734873584754], a = 0.2, v = 0.2, t = 0.2)
movej(p[-0.40093547623096, -0.116081039581183, 0.340166823784826, -1.09834680488156, -1.28176740280722, 1.31833721490765], a = 0.2, v = 0.2, t = 0.2)
movej(p[-0.400752427902061, -0.115783666031794, 0.340218040862884, -1.10462356328135, -1.2775949447847, 1.32799414504455], a = 0.2, v = 0.2, t = 0.2)
movej(p[-0.400459900772567, -0.115662199797532, 0.340185110045509, -1.10202925148439, -1.27116864142185, 1.32054862940534], a = 0.2, v = 0.2, t = 0.2)
movej(p[-0.400065555361436, -0.115751551330704, 0.339991167707125, -1.10461451592522, -1.26638357462109, 1.32219564667623], a = 0.2, v = 0.2, t = 0.2)
movej(p[-0.399707010036301, -0.11579391183423, 0.339845055081667, -1.10028992240454, -1.26290125206778, 1.32046385685121], a = 0.2, v = 0.2, t = 0.2)
movej(p[-0.399285770604822, -0.115640796341607, 0.339841883074351, -1.10451758818071, -1.25969314833692, 1.33377079201584], a = 0.2, v = 0.2, t = 0.2)
movej(p[-0.398901655385582, -0.115613052353243, 0.339871383179328, -1.09688203228745, -1.25613876408683, 1.3244264902155], a = 0.2, v = 0.2, t = 0.2)
movej(p[-0.398741879780064, -0.115888839283195, 0.339775696309833, -1.09726489377569, -1.25716055618887, 1.32609992193313], a = 0.2, v = 0.2, t = 0.2)
movej(p[-0.398572843358193, -0.116175242902017, 0.339643952156998, -1.09272583888175, -1.25876783708348, 1.32513682270453], a = 0.2, v = 0.2, t = 0.2)
movej(p[-0.398402654540222, -0.116208687143119, 0.339656781419444, -1.09415251202939, -1.26079077618312, 1.33687469675025], a = 0.2, v = 0.2, t = 0.2)
movej(p[-0.398032995748157, -0.116030422417925, 0.339899988508569, -1.09256296300655, -1.26188601920168, 1.33816446363146], a = 0.2, v = 0.2, t = 0.2)
movej(p[-0.398157886395752, -0.116094958195681, 0.340107897508011, -1.09148953069149, -1.26566484323884, 1.33693639401091], a = 0.2, v = 0.2, t = 0.2)
movej(p[-0.398462627706589, -0.116308546490886, 0.340267773619787, -1.08847463714875, -1.27061223484846, 1.32964818021396], a = 0.2, v = 0.2, t = 0.2)
movej(p[-0.399112830346657, -0.116491543059761, 0.340320827463462, -1.08619002168009, -1.27274986382333, 1.32712410335122], a = 0.2, v = 0.2, t = 0.2)
movej(p[-0.399554201477672, -0.116411683614439, 0.34040262829353, -1.08618772666134, -1.27188936166095, 1.32220182458447], a = 0.2, v = 0.2, t = 0.2)
movej(p[-0.399949552512507, -0.116382287424062, 0.340374632255482, -1.08529382293035, -1.27280991944507, 1.31321656550528], a = 0.2, v = 0.2, t = 0.2)
movej(p[-0.400265585093504, -0.116397396941199, 0.340290134106152, -1.08848164031312, -1.27876963011839, 1.3061418492534], a = 0.2, v = 0.2, t = 0.2)
movej(p[-0.400480616440745, -0.116317689365845, 0.340227873986213, -1.08870252263402, -1.28292214584867, 1.30153335268333], a = 0.2, v = 0.2, t = 0.2)
movej(p[-0.400697769939581, -0.116033899165317, 0.340293064933646, -1.09683071173472, -1.28244636826303, 1.31166175046853], a = 0.2, v = 0.2, t = 0.2)
movej(p[-0.400783560680185, -0.11584795163088, 0.340322924455391, -1.10066171083793, -1.2751073049589, 1.31398232241863], a = 0.2, v = 0.2, t = 0.2)
movej(p[-0.400851323717854, -0.11587320375804, 0.340216837790428, -1.09832056377509, -1.27658645321543, 1.30925911370538], a = 0.2, v = 0.2, t = 0.2)
movej(p[-0.400609909329655, -0.115824230019103, 0.340058987402023, -1.09742838666956, -1.27468239716783, 1.31289250342815], a = 0.2, v = 0.2, t = 0.2)
movej(p[-0.400252233333628, -0.11556092286649, 0.340027078591828, -1.09862063163627, -1.2747336044662, 1.32127173202996], a = 0.2, v = 0.2, t = 0.2)
movej(p[-0.399707840404041, -0.115247056324446, 0.340112199481065, -1.10345941515841, -1.26562613245254, 1.32957929899263], a = 0.2, v = 0.2, t = 0.2)
