def moving():
set_payload_mass(0)
set_tcp(p[0,0,0,0,0,0])
movej(p[0.4182, 0.2184, 0.3067, -1.405, 0.76, -0.761], a = 0.2, v = 0.2, t = 0.2)
movej(p[0.41819468851737, 0.218390560189487, 0.307099853320769, -1.405, 0.76, -0.761], a = 0.2, v = 0.2, t = 0.2)
movej(p[0.4182, 0.2184, 0.3067, -1.405, 0.76, -0.761], a = 0.2, v = 0.2, t = 0.2)
movej(p[0.41819468851737, 0.218390560189487, 0.307099853320769, -1.405, 0.76, -0.761], a = 0.2, v = 0.2, t = 0.2)
movej(p[0.4182, 0.2184, 0.3067, -1.405, 0.76, -0.761], a = 0.2, v = 0.2, t = 0.2)
movej(p[0.41819468851737, 0.218390560189487, 0.307099853320769, -1.405, 0.76, -0.761], a = 0.2, v = 0.2, t = 0.2)
movej(p[0.4182, 0.2184, 0.3067, -1.405, 0.76, -0.761], a = 0.2, v = 0.2, t = 0.2)
movej(p[0.41819468851737, 0.218390560189487, 0.307099853320769, -1.405, 0.76, -0.761], a = 0.2, v = 0.2, t = 0.2)
movej(p[0.4182, 0.2184, 0.3067, -1.405, 0.76, -0.761], a = 0.2, v = 0.2, t = 0.2)
movej(p[0.41819468851737, 0.218390560189487, 0.307099853320769, -1.405, 0.76, -0.761], a = 0.2, v = 0.2, t = 0.2)
movej(p[0.4182, 0.2184, 0.3067, -1.405, 0.76, -0.761], a = 0.2, v = 0.2, t = 0.2)
movej(p[0.418199005557665, 0.218398232631477, 0.306774862537981, -1.405, 0.76, -0.761], a = 0.2, v = 0.2, t = 0.2)
movej(p[0.418195594257946, 0.218392169913175, 0.307031668333245, -1.405, 0.76, -0.761], a = 0.2, v = 0.2, t = 0.2)
movej(p[0.418195253924696, 0.218391565057316, 0.307057288934773, -1.405, 0.76, -0.761], a = 0.2, v = 0.2, t = 0.2)
movej(p[0.418195389633078, 0.218391806244475, 0.307047072682427, -1.405, 0.76, -0.761], a = 0.2, v = 0.2, t = 0.2)
movej(p[0.418196170819385, 0.218393194604606, 0.306988264255275, -1.405, 0.76, -0.761], a = 0.2, v = 0.2, t = 0.2)
movej(p[0.418197953751317, 0.218396363313, 0.306854043491826, -1.405, 0.76, -0.761], a = 0.2, v = 0.2, t = 0.2)
movej(p[0.418204341074753, 0.218407715157132, 0.306373199880936, -1.405, 0.76, -0.761], a = 0.2, v = 0.2, t = 0.2)
movej(p[0.418216227907304, 0.218428840981069, 0.305478348141721, -1.405, 0.76, -0.761], a = 0.2, v = 0.2, t = 0.2)
movej(p[0.418228847990032, 0.218451269970847, 0.304528296651575, -1.405, 0.76, -0.761], a = 0.2, v = 0.2, t = 0.2)
movej(p[0.418241554384353, 0.218473852357546, 0.303571747544966, -1.405, 0.76, -0.761], a = 0.2, v = 0.2, t = 0.2)
movej(p[0.418252826678363, 0.218493885995406, 0.302723158834965, -1.405, 0.76, -0.761], a = 0.2, v = 0.2, t = 0.2)
movej(p[0.4182597488681, 0.218506188428457, 0.302202049994673, -1.405, 0.76, -0.761], a = 0.2, v = 0.2, t = 0.2)
movej(p[0.418257329487763, 0.218501888594768, 0.302384183182283, -1.405, 0.76, -0.761], a = 0.2, v = 0.2, t = 0.2)
movej(p[0.418245470274921, 0.218480811857846, 0.303276955684229, -1.405, 0.76, -0.761], a = 0.2, v = 0.2, t = 0.2)
movej(p[0.418230902205939, 0.218454920817562, 0.304373653379768, -1.405, 0.76, -0.761], a = 0.2, v = 0.2, t = 0.2)
movej(p[0.418215266528948, 0.218427132375366, 0.305550721592781, -1.405, 0.76, -0.761], a = 0.2, v = 0.2, t = 0.2)
movej(p[0.418203115981285, 0.218405537864837, 0.306465426049371, -1.405, 0.76, -0.761], a = 0.2, v = 0.2, t = 0.2)
movej(p[0.418196330562225, 0.218393478506907, 0.306976238666653, -1.405, 0.76, -0.761], a = 0.2, v = 0.2, t = 0.2)
movej(p[0.418195526005394, 0.21839204861161, 0.307036806448416, -1.405, 0.76, -0.761], a = 0.2, v = 0.2, t = 0.2)
movej(p[0.418196248632606, 0.21839333289783, 0.306982406404126, -1.405, 0.76, -0.761], a = 0.2, v = 0.2, t = 0.2)
movej(p[0.418200607434432, 0.21840107956033, 0.306654271774604, -1.405, 0.76, -0.761], a = 0.2, v = 0.2, t = 0.2)
movej(p[0.418209881482284, 0.218417561823478, 0.305956112882042, -1.405, 0.76, -0.761], a = 0.2, v = 0.2, t = 0.2)
movej(p[0.418222194030168, 0.218439444248227, 0.305029212899168, -1.405, 0.76, -0.761], a = 0.2, v = 0.2, t = 0.2)
movej(p[0.418235932179989, 0.218463860318118, 0.303994992285, -1.405, 0.76, -0.761], a = 0.2, v = 0.2, t = 0.2)
movej(p[0.418247120818148, 0.218483745278963, 0.3031527012648, -1.405, 0.76, -0.761], a = 0.2, v = 0.2, t = 0.2)
movej(p[0.418257049307054, 0.218501390644763, 0.302405275444953, -1.405, 0.76, -0.761], a = 0.2, v = 0.2, t = 0.2)
movej(p[0.418258998621179, 0.218504855055222, 0.302258529276231, -1.405, 0.76, -0.761], a = 0.2, v = 0.2, t = 0.2)
movej(p[0.418253369777462, 0.218494851216031, 0.302682273832916, -1.405, 0.76, -0.761], a = 0.2, v = 0.2, t = 0.2)
movej(p[0.418240416399199, 0.218471829878143, 0.303657416118941, -1.405, 0.76, -0.761], a = 0.2, v = 0.2, t = 0.2)
movej(p[0.418224787361562, 0.21844405323571, 0.304833984515303, -1.405, 0.76, -0.761], a = 0.2, v = 0.2, t = 0.2)
movej(p[0.418210232969647, 0.218418186502938, 0.30592965258854, -1.405, 0.76, -0.761], a = 0.2, v = 0.2, t = 0.2)
movej(p[0.418201451628203, 0.218402579900213, 0.306590720087434, -1.405, 0.76, -0.761], a = 0.2, v = 0.2, t = 0.2)
movej(p[0.418198462325779, 0.218397267174857, 0.306815757536363, -1.405, 0.76, -0.761], a = 0.2, v = 0.2, t = 0.2)
movej(p[0.418197983097258, 0.218396415467953, 0.306851834302229, -1.405, 0.76, -0.761], a = 0.2, v = 0.2, t = 0.2)
movej(p[0.418199513202617, 0.218399134841367, 0.306736646556848, -1.405, 0.76, -0.761], a = 0.2, v = 0.2, t = 0.2)
movej(p[0.418205346140054, 0.218409501405276, 0.306297537636313, -1.405, 0.76, -0.761], a = 0.2, v = 0.2, t = 0.2)
movej(p[0.418215265201077, 0.218427130015413, 0.305550821556111, -1.405, 0.76, -0.761], a = 0.2, v = 0.2, t = 0.2)
movej(p[0.418227768431188, 0.21844935132936, 0.304609566839021, -1.405, 0.76, -0.761], a = 0.2, v = 0.2, t = 0.2)
movej(p[0.418241019252478, 0.218472901296636, 0.303612032767033, -1.405, 0.76, -0.761], a = 0.2, v = 0.2, t = 0.2)
movej(p[0.418252970088394, 0.21849414087029, 0.302712362795304, -1.405, 0.76, -0.761], a = 0.2, v = 0.2, t = 0.2)
movej(p[0.418258363899005, 0.218503726997865, 0.302306311748063, -1.405, 0.76, -0.761], a = 0.2, v = 0.2, t = 0.2)
movej(p[0.418257087815303, 0.21850145908339, 0.302402376508378, -1.405, 0.76, -0.761], a = 0.2, v = 0.2, t = 0.2)
movej(p[0.418250080641844, 0.218489005613371, 0.302929883001802, -1.405, 0.76, -0.761], a = 0.2, v = 0.2, t = 0.2)
movej(p[0.418236699689229, 0.218465224370737, 0.303937213480149, -1.405, 0.76, -0.761], a = 0.2, v = 0.2, t = 0.2)
movej(p[0.418220624487051, 0.218436654784221, 0.305147369555455, -1.405, 0.76, -0.761], a = 0.2, v = 0.2, t = 0.2)
movej(p[0.418206989645566, 0.218412422318644, 0.306173813022534, -1.405, 0.76, -0.761], a = 0.2, v = 0.2, t = 0.2)
movej(p[0.418201136325315, 0.218402019529462, 0.306614456380188, -1.405, 0.76, -0.761], a = 0.2, v = 0.2, t = 0.2)
movej(p[0.418198341356762, 0.218397052183172, 0.306824864195743, -1.405, 0.76, -0.761], a = 0.2, v = 0.2, t = 0.2)
movej(p[0.418197899175833, 0.218396266318947, 0.306858151984697, -1.405, 0.76, -0.761], a = 0.2, v = 0.2, t = 0.2)
movej(p[0.418201041342727, 0.21840185072205, 0.306621606757197, -1.405, 0.76, -0.761], a = 0.2, v = 0.2, t = 0.2)
movej(p[0.418208792761132, 0.218415626898318, 0.306038072816466, -1.405, 0.76, -0.761], a = 0.2, v = 0.2, t = 0.2)
movej(p[0.418221453078341, 0.21843812739466, 0.305084992437415, -1.405, 0.76, -0.761], a = 0.2, v = 0.2, t = 0.2)
movej(p[0.418235208490481, 0.218462574143936, 0.304049472299954, -1.405, 0.76, -0.761], a = 0.2, v = 0.2, t = 0.2)
movej(p[0.418248604049673, 0.218486381346048, 0.303041042224976, -1.405, 0.76, -0.761], a = 0.2, v = 0.2, t = 0.2)
movej(p[0.418257235208946, 0.218501721038131, 0.302391280578727, -1.405, 0.76, -0.761], a = 0.2, v = 0.2, t = 0.2)
movej(p[0.418259106178702, 0.218505046211384, 0.302250432246486, -1.405, 0.76, -0.761], a = 0.2, v = 0.2, t = 0.2)
movej(p[0.418255103976541, 0.218497933314163, 0.302551721723685, -1.405, 0.76, -0.761], a = 0.2, v = 0.2, t = 0.2)
movej(p[0.418242252844318, 0.218475093692628, 0.303519166833285, -1.405, 0.76, -0.761], a = 0.2, v = 0.2, t = 0.2)
movej(p[0.41822524946055, 0.218444874499224, 0.304799197276396, -1.405, 0.76, -0.761], a = 0.2, v = 0.2, t = 0.2)
movej(p[0.418209642332779, 0.218417136796009, 0.305974116277809, -1.405, 0.76, -0.761], a = 0.2, v = 0.2, t = 0.2)
movej(p[0.418201999242062, 0.218403553144677, 0.306549495210063, -1.405, 0.76, -0.761], a = 0.2, v = 0.2, t = 0.2)
movej(p[0.418198518494708, 0.218397367000853, 0.306811529087495, -1.405, 0.76, -0.761], a = 0.2, v = 0.2, t = 0.2)
movej(p[0.418198013239922, 0.218396469038878, 0.306849565134634, -1.405, 0.76, -0.761], a = 0.2, v = 0.2, t = 0.2)
movej(p[0.418201315348837, 0.218402337698275, 0.306600979324012, -1.405, 0.76, -0.761], a = 0.2, v = 0.2, t = 0.2)
movej(p[0.418207632600539, 0.218413565007707, 0.306125410778055, -1.405, 0.76, -0.761], a = 0.2, v = 0.2, t = 0.2)
movej(p[0.418219060255416, 0.218433874760025, 0.305265126358421, -1.405, 0.76, -0.761], a = 0.2, v = 0.2, t = 0.2)
movej(p[0.418232263273363, 0.218457339769006, 0.304271190966321, -1.405, 0.76, -0.761], a = 0.2, v = 0.2, t = 0.2)
movej(p[0.418244763847732, 0.218479556363048, 0.303330136175892, -1.405, 0.76, -0.761], a = 0.2, v = 0.2, t = 0.2)
movej(p[0.418252914317827, 0.218494041752279, 0.302716561255172, -1.405, 0.76, -0.761], a = 0.2, v = 0.2, t = 0.2)
movej(p[0.418257488832241, 0.218502171789083, 0.30237218758266, -1.405, 0.76, -0.761], a = 0.2, v = 0.2, t = 0.2)
movej(p[0.418256147682877, 0.218499788236929, 0.302473150546154, -1.405, 0.76, -0.761], a = 0.2, v = 0.2, t = 0.2)
movej(p[0.418246268325186, 0.218482230189375, 0.303216877722784, -1.405, 0.76, -0.761], a = 0.2, v = 0.2, t = 0.2)
movej(p[0.418229735007631, 0.218452846419202, 0.304461521147007, -1.405, 0.76, -0.761], a = 0.2, v = 0.2, t = 0.2)
movej(p[0.418213833756509, 0.21842458598648, 0.305658582026058, -1.405, 0.76, -0.761], a = 0.2, v = 0.2, t = 0.2)
movej(p[0.418204167123697, 0.218407406003338, 0.306386295077191, -1.405, 0.76, -0.761], a = 0.2, v = 0.2, t = 0.2)
movej(p[0.418199137123089, 0.218398466455583, 0.306764958171225, -1.405, 0.76, -0.761], a = 0.2, v = 0.2, t = 0.2)
movej(p[0.418198363133841, 0.218397090886395, 0.306823224797128, -1.405, 0.76, -0.761], a = 0.2, v = 0.2, t = 0.2)
movej(p[0.418200932138644, 0.218401656639546, 0.306629827741472, -1.405, 0.76, -0.761], a = 0.2, v = 0.2, t = 0.2)
movej(p[0.41820782168932, 0.218413901064961, 0.306111175999836, -1.405, 0.76, -0.761], a = 0.2, v = 0.2, t = 0.2)
movej(p[0.418219003156978, 0.218433773282062, 0.30526942478162, -1.405, 0.76, -0.761], a = 0.2, v = 0.2, t = 0.2)
movej(p[0.418232421289971, 0.218457620603369, 0.304259295330028, -1.405, 0.76, -0.761], a = 0.2, v = 0.2, t = 0.2)
movej(p[0.418244543421202, 0.218479164610911, 0.303346730088703, -1.405, 0.76, -0.761], a = 0.2, v = 0.2, t = 0.2)
movej(p[0.418253226367431, 0.218494596341147, 0.302693069872577, -1.405, 0.76, -0.761], a = 0.2, v = 0.2, t = 0.2)
movej(p[0.418258019980504, 0.218503115770135, 0.302332202250583, -1.405, 0.76, -0.761], a = 0.2, v = 0.2, t = 0.2)
movej(p[0.418259574917044, 0.218505879274662, 0.302215145190928, -1.405, 0.76, -0.761], a = 0.2, v = 0.2, t = 0.2)
movej(p[0.418250772462456, 0.21849023514869, 0.302877802106772, -1.405, 0.76, -0.761], a = 0.2, v = 0.2, t = 0.2)
movej(p[0.418235420949786, 0.218462951736356, 0.304033478167124, -1.405, 0.76, -0.761], a = 0.2, v = 0.2, t = 0.2)
movej(p[0.41821787579479, 0.21843176968228, 0.305354293648953, -1.405, 0.76, -0.761], a = 0.2, v = 0.2, t = 0.2)
movej(p[0.418205395669629, 0.218409589431509, 0.306293809004097, -1.405, 0.76, -0.761], a = 0.2, v = 0.2, t = 0.2)
movej(p[0.418198141910589, 0.218396697718287, 0.306839878687938, -1.405, 0.76, -0.761], a = 0.2, v = 0.2, t = 0.2)
movej(p[0.418196451929603, 0.218393694206578, 0.306967102018273, -1.405, 0.76, -0.761], a = 0.2, v = 0.2, t = 0.2)
movej(p[0.418197457526052, 0.218395481398703, 0.306891399788319, -1.405, 0.76, -0.761], a = 0.2, v = 0.2, t = 0.2)
movej(p[0.418200871720529, 0.218401549261701, 0.306634376072995, -1.405, 0.76, -0.761], a = 0.2, v = 0.2, t = 0.2)
movej(p[0.418209289650332, 0.218416509992591, 0.306000666538309, -1.405, 0.76, -0.761], a = 0.2, v = 0.2, t = 0.2)
movej(p[0.418222856637626, 0.218440621864588, 0.304979331197402, -1.405, 0.76, -0.761], a = 0.2, v = 0.2, t = 0.2)
movej(p[0.41823664126292, 0.218465120532821, 0.303941611866677, -1.405, 0.76, -0.761], a = 0.2, v = 0.2, t = 0.2)
movej(p[0.41824841681991, 0.218486048592728, 0.303055137054533, -1.405, 0.76, -0.761], a = 0.2, v = 0.2, t = 0.2)
movej(p[0.418257723865348, 0.218502589500699, 0.302354494073216, -1.405, 0.76, -0.761], a = 0.2, v = 0.2, t = 0.2)
movej(p[0.418261650378882, 0.21850956788062, 0.302058902505838, -1.405, 0.76, -0.761], a = 0.2, v = 0.2, t = 0.2)
movej(p[0.418257114372716, 0.218501506282442, 0.302400377241774, -1.405, 0.76, -0.761], a = 0.2, v = 0.2, t = 0.2)
movej(p[0.418242420156021, 0.218475391046659, 0.303506571453681, -1.405, 0.76, -0.761], a = 0.2, v = 0.2, t = 0.2)
movej(p[0.418225144558769, 0.218444688062967, 0.304807094379481, -1.405, 0.76, -0.761], a = 0.2, v = 0.2, t = 0.2)
movej(p[0.41821002104149, 0.218417809854499, 0.305945606736039, -1.405, 0.76, -0.761], a = 0.2, v = 0.2, t = 0.2)
movej(p[0.418199972348421, 0.218399950856346, 0.306702081636388, -1.405, 0.76, -0.761], a = 0.2, v = 0.2, t = 0.2)
movej(p[0.418195524146375, 0.218392045307676, 0.307036946397079, -1.405, 0.76, -0.761], a = 0.2, v = 0.2, t = 0.2)
movej(p[0.418195718546639, 0.218392390804741, 0.307022311765539, -1.405, 0.76, -0.761], a = 0.2, v = 0.2, t = 0.2)
movej(p[0.418196290327744, 0.218393407000343, 0.306979267555558, -1.405, 0.76, -0.761], a = 0.2, v = 0.2, t = 0.2)
movej(p[0.418199671352012, 0.218399415911725, 0.306724740924223, -1.405, 0.76, -0.761], a = 0.2, v = 0.2, t = 0.2)
movej(p[0.418207358528035, 0.218413077913484, 0.306146043209407, -1.405, 0.76, -0.761], a = 0.2, v = 0.2, t = 0.2)
movej(p[0.418217873139049, 0.218431764962375, 0.305354493575613, -1.405, 0.76, -0.761], a = 0.2, v = 0.2, t = 0.2)
movej(p[0.418231304550748, 0.218455635883209, 0.304343364490719, -1.405, 0.76, -0.761], a = 0.2, v = 0.2, t = 0.2)
movej(p[0.418242895533717, 0.2184762359097, 0.303470784581472, -1.405, 0.76, -0.761], a = 0.2, v = 0.2, t = 0.2)
movej(p[0.418251841398335, 0.218492134910556, 0.302797331625967, -1.405, 0.76, -0.761], a = 0.2, v = 0.2, t = 0.2)
movej(p[0.418252384497434, 0.218493100131181, 0.302756446623919, -1.405, 0.76, -0.761], a = 0.2, v = 0.2, t = 0.2)
movej(p[0.41824564953746, 0.218481130451451, 0.303263460634653, -1.405, 0.76, -0.761], a = 0.2, v = 0.2, t = 0.2)
movej(p[0.41823302547112, 0.218458694381815, 0.30421381201479, -1.405, 0.76, -0.761], a = 0.2, v = 0.2, t = 0.2)
movej(p[0.418217758942172, 0.218431562006449, 0.30536309042201, -1.405, 0.76, -0.761], a = 0.2, v = 0.2, t = 0.2)
movej(p[0.418206003701603, 0.218410670053818, 0.306248035795202, -1.405, 0.76, -0.761], a = 0.2, v = 0.2, t = 0.2)
movej(p[0.418199095003032, 0.218398391597886, 0.306768129008059, -1.405, 0.76, -0.761], a = 0.2, v = 0.2, t = 0.2)
movej(p[0.41819745672933, 0.218395479982731, 0.306891459766317, -1.405, 0.76, -0.761], a = 0.2, v = 0.2, t = 0.2)
movej(p[0.418196617116713, 0.218393987784685, 0.306954666579998, -1.405, 0.76, -0.761], a = 0.2, v = 0.2, t = 0.2)
movej(p[0.4181974467703, 0.218395462283087, 0.306892209491293, -1.405, 0.76, -0.761], a = 0.2, v = 0.2, t = 0.2)
movej(p[0.418200692218974, 0.218401230243305, 0.306647889115971, -1.405, 0.76, -0.761], a = 0.2, v = 0.2, t = 0.2)
movej(p[0.418207321746018, 0.218413012542796, 0.306148812193653, -1.405, 0.76, -0.761], a = 0.2, v = 0.2, t = 0.2)
movej(p[0.418217669974838, 0.218431403889623, 0.305369787965133, -1.405, 0.76, -0.761], a = 0.2, v = 0.2, t = 0.2)
movej(p[0.418230898222327, 0.218454913737705, 0.304373953269758, -1.405, 0.76, -0.761], a = 0.2, v = 0.2, t = 0.2)
movej(p[0.418241788089588, 0.218474267709208, 0.303554153998852, -1.405, 0.76, -0.761], a = 0.2, v = 0.2, t = 0.2)
movej(p[0.418248311918128, 0.21848586215647, 0.303063034157618, -1.405, 0.76, -0.761], a = 0.2, v = 0.2, t = 0.2)
movej(p[0.418250538757221, 0.218489819797028, 0.302895395652886, -1.405, 0.76, -0.761], a = 0.2, v = 0.2, t = 0.2)
movej(p[0.418248889541864, 0.218486888735863, 0.303019550108984, -1.405, 0.76, -0.761], a = 0.2, v = 0.2, t = 0.2)
movej(p[0.418239413856853, 0.218470048113909, 0.303732888433236, -1.405, 0.76, -0.761], a = 0.2, v = 0.2, t = 0.2)
movej(p[0.418225428723089, 0.218445193092829, 0.30478570222682, -1.405, 0.76, -0.761], a = 0.2, v = 0.2, t = 0.2)
movej(p[0.418211649807639, 0.218420704572393, 0.305822991715225, -1.405, 0.76, -0.761], a = 0.2, v = 0.2, t = 0.2)
movej(p[0.41820371670997, 0.218406605507406, 0.306420202638792, -1.405, 0.76, -0.761], a = 0.2, v = 0.2, t = 0.2)
movej(p[0.418198811741664, 0.218397888172791, 0.306789453185656, -1.405, 0.76, -0.761], a = 0.2, v = 0.2, t = 0.2)
movej(p[0.418197154904329, 0.218394943565499, 0.30691418143127, -1.405, 0.76, -0.761], a = 0.2, v = 0.2, t = 0.2)
movej(p[0.418197841679033, 0.218396164132998, 0.306862480396894, -1.405, 0.76, -0.761], a = 0.2, v = 0.2, t = 0.2)
movej(p[0.418198560986569, 0.218397442519337, 0.306808330260929, -1.405, 0.76, -0.761], a = 0.2, v = 0.2, t = 0.2)
movej(p[0.418199522975745, 0.218399152210618, 0.306735910826738, -1.405, 0.76, -0.761], a = 0.2, v = 0.2, t = 0.2)
movej(p[0.418201822502477, 0.218403239034982, 0.306562800329311, -1.405, 0.76, -0.761], a = 0.2, v = 0.2, t = 0.2)
movej(p[0.418209642332779, 0.218417136796009, 0.305974116277809, -1.405, 0.76, -0.761], a = 0.2, v = 0.2, t = 0.2)
movej(p[0.418217912975168, 0.218431835760954, 0.305351494675707, -1.405, 0.76, -0.761], a = 0.2, v = 0.2, t = 0.2)
movej(p[0.418227123086048, 0.218448204392383, 0.304658149017495, -1.405, 0.76, -0.761], a = 0.2, v = 0.2, t = 0.2)
movej(p[0.418235195211774, 0.218462550544409, 0.304050471933256, -1.405, 0.76, -0.761], a = 0.2, v = 0.2, t = 0.2)
movej(p[0.418242903500941, 0.218476250069416, 0.303470184801491, -1.405, 0.76, -0.761], a = 0.2, v = 0.2, t = 0.2)
movej(p[0.418246278948152, 0.218482249068996, 0.303216078016142, -1.405, 0.76, -0.761], a = 0.2, v = 0.2, t = 0.2)
movej(p[0.418245025438251, 0.218480021273716, 0.303310443399844, -1.405, 0.76, -0.761], a = 0.2, v = 0.2, t = 0.2)
movej(p[0.418238837560988, 0.218469023894468, 0.303776272518539, -1.405, 0.76, -0.761], a = 0.2, v = 0.2, t = 0.2)
movej(p[0.418226229429096, 0.218446616144264, 0.304725424338714, -1.405, 0.76, -0.761], a = 0.2, v = 0.2, t = 0.2)
movej(p[0.418213374313261, 0.218423769442871, 0.305693169338304, -1.405, 0.76, -0.761], a = 0.2, v = 0.2, t = 0.2)
movej(p[0.418203462024378, 0.218406152868492, 0.306439375605523, -1.405, 0.76, -0.761], a = 0.2, v = 0.2, t = 0.2)
movej(p[0.418199919183136, 0.218399856368563, 0.306706083968202, -1.405, 0.76, -0.761], a = 0.2, v = 0.2, t = 0.2)
movej(p[0.418198418638834, 0.218397189532415, 0.306819046329926, -1.405, 0.76, -0.761], a = 0.2, v = 0.2, t = 0.2)
movej(p[0.418198071799018, 0.218396573112789, 0.306845156751772, -1.405, 0.76, -0.761], a = 0.2, v = 0.2, t = 0.2)
movej(p[0.41819893897823, 0.218398114303452, 0.306779874699357, -1.405, 0.76, -0.761], a = 0.2, v = 0.2, t = 0.2)
movej(p[0.418199555428904, 0.21839920988786, 0.306733467722948, -1.405, 0.76, -0.761], a = 0.2, v = 0.2, t = 0.2)
movej(p[0.418201348718227, 0.218402397003884, 0.306598467245524, -1.405, 0.76, -0.761], a = 0.2, v = 0.2, t = 0.2)
movej(p[0.418206957378309, 0.218412364971795, 0.306176242131458, -1.405, 0.76, -0.761], a = 0.2, v = 0.2, t = 0.2)
movej(p[0.418216952924683, 0.218430129515204, 0.305423768163436, -1.405, 0.76, -0.761], a = 0.2, v = 0.2, t = 0.2)
movej(p[0.418226999594077, 0.218447984916788, 0.304667445607202, -1.405, 0.76, -0.761], a = 0.2, v = 0.2, t = 0.2)
movej(p[0.41823660009893, 0.21846504737429, 0.303944710729913, -1.405, 0.76, -0.761], a = 0.2, v = 0.2, t = 0.2)
movej(p[0.418245033405475, 0.218480035433431, 0.303309843619863, -1.405, 0.76, -0.761], a = 0.2, v = 0.2, t = 0.2)
movej(p[0.418250277166701, 0.21848935488636, 0.302915088428934, -1.405, 0.76, -0.761], a = 0.2, v = 0.2, t = 0.2)
movej(p[0.418247010604884, 0.218483549402895, 0.303160998221206, -1.405, 0.76, -0.761], a = 0.2, v = 0.2, t = 0.2)
movej(p[0.418237951871259, 0.218467449806065, 0.303842948059777, -1.405, 0.76, -0.761], a = 0.2, v = 0.2, t = 0.2)
movej(p[0.418226333003007, 0.218446800220569, 0.304717627198959, -1.405, 0.76, -0.761], a = 0.2, v = 0.2, t = 0.2)
movej(p[0.418213693002219, 0.218424335831502, 0.305669178139058, -1.405, 0.76, -0.761], a = 0.2, v = 0.2, t = 0.2)
movej(p[0.418204480501172, 0.218407962952158, 0.306362703731266, -1.405, 0.76, -0.761], a = 0.2, v = 0.2, t = 0.2)
movej(p[0.41819902613966, 0.218398269210743, 0.306773313106363, -1.405, 0.76, -0.761], a = 0.2, v = 0.2, t = 0.2)
movej(p[0.418198085608873, 0.218396597656296, 0.306844117133138, -1.405, 0.76, -0.761], a = 0.2, v = 0.2, t = 0.2)
movej(p[0.418197365637403, 0.218395318089981, 0.306898317250768, -1.405, 0.76, -0.761], a = 0.2, v = 0.2, t = 0.2)
movej(p[0.418197978184137, 0.218396406736128, 0.306852204166551, -1.405, 0.76, -0.761], a = 0.2, v = 0.2, t = 0.2)
movej(p[0.418199782786918, 0.218399613958949, 0.306716352001553, -1.405, 0.76, -0.761], a = 0.2, v = 0.2, t = 0.2)
movej(p[0.418204856686929, 0.218408631526737, 0.306334384119822, -1.405, 0.76, -0.761], a = 0.2, v = 0.2, t = 0.2)
movej(p[0.418213102365351, 0.218423286124573, 0.305713641828328, -1.405, 0.76, -0.761], a = 0.2, v = 0.2, t = 0.2)
movej(p[0.41822565180536, 0.218445589564871, 0.304768908387347, -1.405, 0.76, -0.761], a = 0.2, v = 0.2, t = 0.2)
movej(p[0.418237067509401, 0.218465878077615, 0.303909523637685, -1.405, 0.76, -0.761], a = 0.2, v = 0.2, t = 0.2)
movej(p[0.418244836880618, 0.218479686160442, 0.303324638192731, -1.405, 0.76, -0.761], a = 0.2, v = 0.2, t = 0.2)
movej(p[0.418251149577723, 0.218490905375237, 0.302849412520997, -1.405, 0.76, -0.761], a = 0.2, v = 0.2, t = 0.2)
movej(p[0.418255145140531, 0.218498006472695, 0.302548622860449, -1.405, 0.76, -0.761], a = 0.2, v = 0.2, t = 0.2)
movej(p[0.418250735282078, 0.218490169070017, 0.302880601080017, -1.405, 0.76, -0.761], a = 0.2, v = 0.2, t = 0.2)
movej(p[0.418238447167014, 0.218468330068396, 0.303805661737616, -1.405, 0.76, -0.761], a = 0.2, v = 0.2, t = 0.2)
movej(p[0.418222775637516, 0.218440477907478, 0.304985428960544, -1.405, 0.76, -0.761], a = 0.2, v = 0.2, t = 0.2)
movej(p[0.418209892636398, 0.21841758164708, 0.305955273190068, -1.405, 0.76, -0.761], a = 0.2, v = 0.2, t = 0.2)
movej(p[0.418200277471853, 0.218400493135701, 0.306679111662523, -1.405, 0.76, -0.761], a = 0.2, v = 0.2, t = 0.2)
movej(p[0.418196389785257, 0.218393583760795, 0.306971780302126, -1.405, 0.76, -0.761], a = 0.2, v = 0.2, t = 0.2)
movej(p[0.418196346895034, 0.218393507534325, 0.306975009117692, -1.405, 0.76, -0.761], a = 0.2, v = 0.2, t = 0.2)
movej(p[0.418196516596904, 0.218393809136271, 0.306962233804093, -1.405, 0.76, -0.761], a = 0.2, v = 0.2, t = 0.2)
movej(p[0.418196680588931, 0.21839410059042, 0.306949888332814, -1.405, 0.76, -0.761], a = 0.2, v = 0.2, t = 0.2)
movej(p[0.41819757663605, 0.218395693086454, 0.306882433077601, -1.405, 0.76, -0.761], a = 0.2, v = 0.2, t = 0.2)
movej(p[0.41820303113035, 0.218405387063864, 0.30647181370617, -1.405, 0.76, -0.761], a = 0.2, v = 0.2, t = 0.2)
movej(p[0.418211451158188, 0.218420351523479, 0.305837946229422, -1.405, 0.76, -0.761], a = 0.2, v = 0.2, t = 0.2)
movej(p[0.418222564506081, 0.21844010267501, 0.305001323130044, -1.405, 0.76, -0.761], a = 0.2, v = 0.2, t = 0.2)
movej(p[0.418233257848485, 0.218459107373525, 0.304196318432007, -1.405, 0.76, -0.761], a = 0.2, v = 0.2, t = 0.2)
movej(p[0.418240689940555, 0.218472316028385, 0.303636823672921, -1.405, 0.76, -0.761], a = 0.2, v = 0.2, t = 0.2)
movej(p[0.418245985488736, 0.218481727519466, 0.303238169912115, -1.405, 0.76, -0.761], a = 0.2, v = 0.2, t = 0.2)
movej(p[0.418247350539772, 0.218484153550767, 0.303135407608677, -1.405, 0.76, -0.761], a = 0.2, v = 0.2, t = 0.2)
movej(p[0.418244969667683, 0.218479922155705, 0.303314641859712, -1.405, 0.76, -0.761], a = 0.2, v = 0.2, t = 0.2)
movej(p[0.418234147521826, 0.218460688541786, 0.304129343000778, -1.405, 0.76, -0.761], a = 0.2, v = 0.2, t = 0.2)
movej(p[0.418221109159841, 0.21843751616693, 0.305110882939935, -1.405, 0.76, -0.761], a = 0.2, v = 0.2, t = 0.2)
movej(p[0.418209885200322, 0.218417568431345, 0.305955832984717, -1.405, 0.76, -0.761], a = 0.2, v = 0.2, t = 0.2)
movej(p[0.418202260965368, 0.21840401829134, 0.306529792437682, -1.405, 0.76, -0.761], a = 0.2, v = 0.2, t = 0.2)
movej(p[0.418199157399674, 0.21839850249206, 0.306763431731173, -1.405, 0.76, -0.761], a = 0.2, v = 0.2, t = 0.2)
movej(p[0.418198292491122, 0.218396965336915, 0.306828542846294, -1.405, 0.76, -0.761], a = 0.2, v = 0.2, t = 0.2)
movej(p[0.418199288819033, 0.218398736056571, 0.306753538360384, -1.405, 0.76, -0.761], a = 0.2, v = 0.2, t = 0.2)
movej(p[0.418198876515194, 0.21839800329128, 0.306784576974409, -1.405, 0.76, -0.761], a = 0.2, v = 0.2, t = 0.2)
movej(p[0.418199493643082, 0.218399100079264, 0.306738119016702, -1.405, 0.76, -0.761], a = 0.2, v = 0.2, t = 0.2)
movej(p[0.418203319012708, 0.218405898701594, 0.306450141656185, -1.405, 0.76, -0.761], a = 0.2, v = 0.2, t = 0.2)
movej(p[0.418209920256107, 0.218417630734094, 0.3059531939528, -1.405, 0.76, -0.761], a = 0.2, v = 0.2, t = 0.2)
movej(p[0.41821904830458, 0.218433853520451, 0.305266026028393, -1.405, 0.76, -0.761], a = 0.2, v = 0.2, t = 0.2)
movej(p[0.41822882276049, 0.218451225131747, 0.304530195954849, -1.405, 0.76, -0.761], a = 0.2, v = 0.2, t = 0.2)
movej(p[0.418237861576054, 0.218467289329287, 0.30384974556623, -1.405, 0.76, -0.761], a = 0.2, v = 0.2, t = 0.2)
movej(p[0.418244095928791, 0.218478369306876, 0.303380417730978, -1.405, 0.76, -0.761], a = 0.2, v = 0.2, t = 0.2)
movej(p[0.418246552489507, 0.218482735219238, 0.303195485570123, -1.405, 0.76, -0.761], a = 0.2, v = 0.2, t = 0.2)
movej(p[0.418244393371818, 0.218478897936265, 0.303358025945015, -1.405, 0.76, -0.761], a = 0.2, v = 0.2, t = 0.2)
movej(p[0.418235535146663, 0.218463154692282, 0.304024881320727, -1.405, 0.76, -0.761], a = 0.2, v = 0.2, t = 0.2)
movej(p[0.418222466243653, 0.218439928038516, 0.305008720416479, -1.405, 0.76, -0.761], a = 0.2, v = 0.2, t = 0.2)
movej(p[0.418210193664676, 0.218418116648341, 0.305932611503114, -1.405, 0.76, -0.761], a = 0.2, v = 0.2, t = 0.2)
movej(p[0.418204072579306, 0.218407237974711, 0.306393412466301, -1.405, 0.76, -0.761], a = 0.2, v = 0.2, t = 0.2)
movej(p[0.418199956737974, 0.218399923112743, 0.306703256805298, -1.405, 0.76, -0.761], a = 0.2, v = 0.2, t = 0.2)
movej(p[0.418198969041222, 0.21839816773278, 0.306777611529561, -1.405, 0.76, -0.761], a = 0.2, v = 0.2, t = 0.2)
movej(p[0.418197769044509, 0.218396035043589, 0.306867948391056, -1.405, 0.76, -0.761], a = 0.2, v = 0.2, t = 0.2)
movej(p[0.418199258251451, 0.218398681730462, 0.306755839516245, -1.405, 0.76, -0.761], a = 0.2, v = 0.2, t = 0.2)
movej(p[0.418202734484045, 0.218404859850447, 0.306494145514135, -1.405, 0.76, -0.761], a = 0.2, v = 0.2, t = 0.2)
movej(p[0.418210467338818, 0.218418603034577, 0.305912009060761, -1.405, 0.76, -0.761], a = 0.2, v = 0.2, t = 0.2)
movej(p[0.41822203734143, 0.218439165773817, 0.305041008572131, -1.405, 0.76, -0.761], a = 0.2, v = 0.2, t = 0.2)
movej(p[0.418232741306799, 0.218458189351952, 0.304235204167451, -1.405, 0.76, -0.761], a = 0.2, v = 0.2, t = 0.2)
movej(p[0.418241485335078, 0.218473729640009, 0.303576945638136, -1.405, 0.76, -0.761], a = 0.2, v = 0.2, t = 0.2)
movej(p[0.41824869965636, 0.218486551262638, 0.303033844865202, -1.405, 0.76, -0.761], a = 0.2, v = 0.2, t = 0.2)
movej(p[0.418252565087844, 0.218493421084738, 0.302742851611013, -1.405, 0.76, -0.761], a = 0.2, v = 0.2, t = 0.2)
movej(p[0.418247539097406, 0.218484488664041, 0.30312121281579, -1.405, 0.76, -0.761], a = 0.2, v = 0.2, t = 0.2)
movej(p[0.418235808688018, 0.218463640842523, 0.304004288874708, -1.405, 0.76, -0.761], a = 0.2, v = 0.2, t = 0.2)
movej(p[0.418220668306782, 0.218436732662657, 0.305144070765559, -1.405, 0.76, -0.761], a = 0.2, v = 0.2, t = 0.2)
movej(p[0.418208244084976, 0.218414651765892, 0.306079377664502, -1.405, 0.76, -0.761], a = 0.2, v = 0.2, t = 0.2)
movej(p[0.418199630201301, 0.218399342776793, 0.306727838787825, -1.405, 0.76, -0.761], a = 0.2, v = 0.2, t = 0.2)
movej(p[0.418197133127251, 0.218394904862276, 0.306915820829885, -1.405, 0.76, -0.761], a = 0.2, v = 0.2, t = 0.2)
movej(p[0.418197564021279, 0.218395670666904, 0.306883382729238, -1.405, 0.76, -0.761], a = 0.2, v = 0.2, t = 0.2)
movej(p[0.418197377721026, 0.21839533956555, 0.306897407584463, -1.405, 0.76, -0.761], a = 0.2, v = 0.2, t = 0.2)
movej(p[0.418197890677461, 0.21839625121525, 0.30685879175001, -1.405, 0.76, -0.761], a = 0.2, v = 0.2, t = 0.2)
movej(p[0.418201595967743, 0.218402836427064, 0.306579854073442, -1.405, 0.76, -0.761], a = 0.2, v = 0.2, t = 0.2)
movej(p[0.418209137343568, 0.218416239306025, 0.306012132332282, -1.405, 0.76, -0.761], a = 0.2, v = 0.2, t = 0.2)
movej(p[0.418220538175458, 0.2184365013873, 0.305153867171918, -1.405, 0.76, -0.761], a = 0.2, v = 0.2, t = 0.2)
movej(p[0.418232714749386, 0.2184581421529, 0.304237203434055, -1.405, 0.76, -0.761], a = 0.2, v = 0.2, t = 0.2)
movej(p[0.41824397243682, 0.218478149831281, 0.303389714320686, -1.405, 0.76, -0.761], a = 0.2, v = 0.2, t = 0.2)
movej(p[0.418250876036368, 0.218490419224995, 0.302870004967017, -1.405, 0.76, -0.761], a = 0.2, v = 0.2, t = 0.2)
movej(p[0.418252704514263, 0.218493668879764, 0.302732355461342, -1.405, 0.76, -0.761], a = 0.2, v = 0.2, t = 0.2)
movej(p[0.418248768705634, 0.218486673980174, 0.303028646772032, -1.405, 0.76, -0.761], a = 0.2, v = 0.2, t = 0.2)
movej(p[0.41823767036268, 0.218466949496108, 0.303864140285778, -1.405, 0.76, -0.761], a = 0.2, v = 0.2, t = 0.2)
movej(p[0.418222775637516, 0.218440477907478, 0.304985428960544, -1.405, 0.76, -0.761], a = 0.2, v = 0.2, t = 0.2)
movej(p[0.418209444347264, 0.218416784927073, 0.305989020810341, -1.405, 0.76, -0.761], a = 0.2, v = 0.2, t = 0.2)
movej(p[0.418201985830568, 0.218403529309155, 0.306550504839698, -1.405, 0.76, -0.761], a = 0.2, v = 0.2, t = 0.2)
movej(p[0.418197864252835, 0.218396204252193, 0.306860781020281, -1.405, 0.76, -0.761], a = 0.2, v = 0.2, t = 0.2)
movej(p[0.418197121707563, 0.218394884566683, 0.306916680514525, -1.405, 0.76, -0.761], a = 0.2, v = 0.2, t = 0.2)
movej(p[0.418197202176525, 0.218395027579812, 0.306910622736715, -1.405, 0.76, -0.761], a = 0.2, v = 0.2, t = 0.2)
movej(p[0.418197918961106, 0.218396301482241, 0.306856662531077, -1.405, 0.76, -0.761], a = 0.2, v = 0.2, t = 0.2)
movej(p[0.418199731730291, 0.218399523218771, 0.306720195591599, -1.405, 0.76, -0.761], a = 0.2, v = 0.2, t = 0.2)
movej(p[0.41820563229618, 0.218410009975068, 0.306275995538657, -1.405, 0.76, -0.761], a = 0.2, v = 0.2, t = 0.2)
movej(p[0.41821516959439, 0.218426960098824, 0.305558018915885, -1.405, 0.76, -0.761], a = 0.2, v = 0.2, t = 0.2)
movej(p[0.418225051607822, 0.218444522866283, 0.304814091812594, -1.405, 0.76, -0.761], a = 0.2, v = 0.2, t = 0.2)
movej(p[0.418235199195386, 0.218462557624267, 0.304050172043266, -1.405, 0.76, -0.761], a = 0.2, v = 0.2, t = 0.2)
movej(p[0.418244763847732, 0.218479556363048, 0.303330136175892, -1.405, 0.76, -0.761], a = 0.2, v = 0.2, t = 0.2)
movej(p[0.418251356725546, 0.218491273527847, 0.302833818241487, -1.405, 0.76, -0.761], a = 0.2, v = 0.2, t = 0.2)
movej(p[0.418252292874359, 0.218492937294449, 0.302763344093702, -1.405, 0.76, -0.761], a = 0.2, v = 0.2, t = 0.2)
movej(p[0.418246423686053, 0.218482506303833, 0.303205182013151, -1.405, 0.76, -0.761], a = 0.2, v = 0.2, t = 0.2)
movej(p[0.4182356918354, 0.218463433166692, 0.304013085647764, -1.405, 0.76, -0.761], a = 0.2, v = 0.2, t = 0.2)
movej(p[0.4182203190768, 0.218436111995116, 0.305170361121399, -1.405, 0.76, -0.761], a = 0.2, v = 0.2, t = 0.2)
movej(p[0.418207868164793, 0.218413983663303, 0.306107677283279, -1.405, 0.76, -0.761], a = 0.2, v = 0.2, t = 0.2)
movej(p[0.418200863740027, 0.218401535078386, 0.30663497685261, -1.405, 0.76, -0.761], a = 0.2, v = 0.2, t = 0.2)
movej(p[0.418198213217243, 0.218396824447744, 0.306834510657107, -1.405, 0.76, -0.761], a = 0.2, v = 0.2, t = 0.2)
movej(p[0.418196832364547, 0.218394370333006, 0.306938462524173, -1.405, 0.76, -0.761], a = 0.2, v = 0.2, t = 0.2)
movej(p[0.418196913364657, 0.218394514290116, 0.306932364761032, -1.405, 0.76, -0.761], a = 0.2, v = 0.2, t = 0.2)
movej(p[0.418198390089615, 0.218397138793434, 0.306821195541525, -1.405, 0.76, -0.761], a = 0.2, v = 0.2, t = 0.2)
movej(p[0.418202334529403, 0.218404149032716, 0.306524254469189, -1.405, 0.76, -0.761], a = 0.2, v = 0.2, t = 0.2)
movej(p[0.418210400015776, 0.218418483384979, 0.305917077201602, -1.405, 0.76, -0.761], a = 0.2, v = 0.2, t = 0.2)
movej(p[0.418221623045785, 0.218438429468597, 0.305072197131151, -1.405, 0.76, -0.761], a = 0.2, v = 0.2, t = 0.2)
movej(p[0.418231262058887, 0.218455560364725, 0.304346563317286, -1.405, 0.76, -0.761], a = 0.2, v = 0.2, t = 0.2)
movej(p[0.418237434001703, 0.21846652942454, 0.303881933758552, -1.405, 0.76, -0.761], a = 0.2, v = 0.2, t = 0.2)
movej(p[0.418236870984544, 0.218465528804626, 0.303924318210554, -1.405, 0.76, -0.761], a = 0.2, v = 0.2, t = 0.2)
movej(p[0.418231309862231, 0.218455645323019, 0.304342964637399, -1.405, 0.76, -0.761], a = 0.2, v = 0.2, t = 0.2)
movej(p[0.41821882522231, 0.218433457048409, 0.305282819867865, -1.405, 0.76, -0.761], a = 0.2, v = 0.2, t = 0.2)
movej(p[0.418207631405455, 0.218413562883749, 0.306125500745053, -1.405, 0.76, -0.761], a = 0.2, v = 0.2, t = 0.2)
movej(p[0.418199389551301, 0.218398915082578, 0.306745955142156, -1.405, 0.76, -0.761], a = 0.2, v = 0.2, t = 0.2)
movej(p[0.418196236416196, 0.218393311186266, 0.306983326066764, -1.405, 0.76, -0.761], a = 0.2, v = 0.2, t = 0.2)
movej(p[0.418194992732538, 0.218391100854635, 0.307076951721822, -1.405, 0.76, -0.761], a = 0.2, v = 0.2, t = 0.2)
movej(p[0.418195615105515, 0.218392206964431, 0.307030098908961, -1.405, 0.76, -0.761], a = 0.2, v = 0.2, t = 0.2)
movej(p[0.418200621841829, 0.218401105165816, 0.306653187172471, -1.405, 0.76, -0.761], a = 0.2, v = 0.2, t = 0.2)
movej(p[0.418208763946339, 0.218415575687346, 0.306040242020732, -1.405, 0.76, -0.761], a = 0.2, v = 0.2, t = 0.2)
movej(p[0.418222203325262, 0.218439460767895, 0.305028513155857, -1.405, 0.76, -0.761], a = 0.2, v = 0.2, t = 0.2)
movej(p[0.418236452705287, 0.218464785419548, 0.303955806659564, -1.405, 0.76, -0.761], a = 0.2, v = 0.2, t = 0.2)
movej(p[0.418248298639422, 0.218485838556944, 0.30306403379092, -1.405, 0.76, -0.761], a = 0.2, v = 0.2, t = 0.2)
movej(p[0.418255346976871, 0.218498365185494, 0.30253342843426, -1.405, 0.76, -0.761], a = 0.2, v = 0.2, t = 0.2)
movej(p[0.418257986783738, 0.218503056771319, 0.302334701333838, -1.405, 0.76, -0.761], a = 0.2, v = 0.2, t = 0.2)
movej(p[0.418255412042533, 0.218498480823173, 0.30252853023108, -1.405, 0.76, -0.761], a = 0.2, v = 0.2, t = 0.2)
movej(p[0.418245097143267, 0.218480148711157, 0.303305045380013, -1.405, 0.76, -0.761], a = 0.2, v = 0.2, t = 0.2)
movej(p[0.4182310668619, 0.218455213451688, 0.304361257926824, -1.405, 0.76, -0.761], a = 0.2, v = 0.2, t = 0.2)
movej(p[0.418216700629258, 0.218429681124204, 0.305442761196173, -1.405, 0.76, -0.761], a = 0.2, v = 0.2, t = 0.2)
movej(p[0.418205778361953, 0.218410269569857, 0.306264999572336, -1.405, 0.76, -0.761], a = 0.2, v = 0.2, t = 0.2)
movej(p[0.41819827084683, 0.218396926869688, 0.306830172248576, -1.405, 0.76, -0.761], a = 0.2, v = 0.2, t = 0.2)
movej(p[0.418196123148829, 0.218393109882307, 0.306991852938829, -1.405, 0.76, -0.761], a = 0.2, v = 0.2, t = 0.2)
movej(p[0.418198060910479, 0.218396553761177, 0.30684597645108, -1.405, 0.76, -0.761], a = 0.2, v = 0.2, t = 0.2)
movej(p[0.418203812316657, 0.218406775423995, 0.306413005279018, -1.405, 0.76, -0.761], a = 0.2, v = 0.2, t = 0.2)
movej(p[0.418215131086141, 0.218426891660198, 0.30556091785246, -1.405, 0.76, -0.761], a = 0.2, v = 0.2, t = 0.2)
movej(p[0.418230203745973, 0.21845367948248, 0.304426234091449, -1.405, 0.76, -0.761], a = 0.2, v = 0.2, t = 0.2)
movej(p[0.418245868636119, 0.218481519843634, 0.303246966685172, -1.405, 0.76, -0.761], a = 0.2, v = 0.2, t = 0.2)
movej(p[0.418258933555517, 0.218504739417543, 0.302263427479411, -1.405, 0.76, -0.761], a = 0.2, v = 0.2, t = 0.2)
movej(p[0.418265997827414, 0.218517294365525, 0.301731622562788, -1.405, 0.76, -0.761], a = 0.2, v = 0.2, t = 0.2)
movej(p[0.418266935304098, 0.21851896049208, 0.301661048451673, -1.405, 0.76, -0.761], a = 0.2, v = 0.2, t = 0.2)
movej(p[0.418256510191567, 0.218500432503996, 0.302445860557012, -1.405, 0.76, -0.761], a = 0.2, v = 0.2, t = 0.2)
movej(p[0.418240944891721, 0.218472769139289, 0.303617630713524, -1.405, 0.76, -0.761], a = 0.2, v = 0.2, t = 0.2)
movej(p[0.41822425886904, 0.218443113974564, 0.304873769920719, -1.405, 0.76, -0.761], a = 0.2, v = 0.2, t = 0.2)
movej(p[0.418210788417943, 0.218419173671123, 0.305887837927521, -1.405, 0.76, -0.761], a = 0.2, v = 0.2, t = 0.2)
movej(p[0.418201555600475, 0.218402764684504, 0.30658289295868, -1.405, 0.76, -0.761], a = 0.2, v = 0.2, t = 0.2)
movej(p[0.41819707071733, 0.218394793944502, 0.306920519106404, -1.405, 0.76, -0.761], a = 0.2, v = 0.2, t = 0.2)
movej(p[0.418196757074281, 0.218394236523692, 0.306944130444995, -1.405, 0.76, -0.761], a = 0.2, v = 0.2, t = 0.2)
movej(p[0.418196606626535, 0.218393969141059, 0.306955456290306, -1.405, 0.76, -0.761], a = 0.2, v = 0.2, t = 0.2)
movej(p[0.418200058648063, 0.218400104232028, 0.306695584919595, -1.405, 0.76, -0.761], a = 0.2, v = 0.2, t = 0.2)
movej(p[0.418208453622966, 0.218415024166417, 0.306063603450998, -1.405, 0.76, -0.761], a = 0.2, v = 0.2, t = 0.2)
movej(p[0.418221180864856, 0.218437643604372, 0.305105484920105, -1.405, 0.76, -0.761], a = 0.2, v = 0.2, t = 0.2)
movej(p[0.418235462113776, 0.218463024894888, 0.304030379303888, -1.405, 0.76, -0.761], a = 0.2, v = 0.2, t = 0.2)
movej(p[0.418248795263047, 0.218486721179227, 0.303026647505428, -1.405, 0.76, -0.761], a = 0.2, v = 0.2, t = 0.2)
movej(p[0.418259799327185, 0.218506278106656, 0.302198251388126, -1.405, 0.76, -0.761], a = 0.2, v = 0.2, t = 0.2)
movej(p[0.41826269674096, 0.218511427523291, 0.301980131401646, -1.405, 0.76, -0.761], a = 0.2, v = 0.2, t = 0.2)
movej(p[0.41825774776702, 0.218502631979846, 0.302352694733272, -1.405, 0.76, -0.761], a = 0.2, v = 0.2, t = 0.2)
movej(p[0.418246027980597, 0.21848180303795, 0.303234971085549, -1.405, 0.76, -0.761], a = 0.2, v = 0.2, t = 0.2)
movej(p[0.418230928763352, 0.218454968016615, 0.304371654113164, -1.405, 0.76, -0.761], a = 0.2, v = 0.2, t = 0.2)
movej(p[0.4182146849216, 0.218426098716115, 0.305594505531405, -1.405, 0.76, -0.761], a = 0.2, v = 0.2, t = 0.2)
movej(p[0.418202443016436, 0.218404341840845, 0.306516087465112, -1.405, 0.76, -0.761], a = 0.2, v = 0.2, t = 0.2)
movej(p[0.418197901034852, 0.218396269622881, 0.306858012036035, -1.405, 0.76, -0.761], a = 0.2, v = 0.2, t = 0.2)
movej(p[0.418195813754966, 0.218392560013344, 0.307015144394764, -1.405, 0.76, -0.761], a = 0.2, v = 0.2, t = 0.2)
movej(p[0.418196894110532, 0.218394480070803, 0.306933814229319, -1.405, 0.76, -0.761], a = 0.2, v = 0.2, t = 0.2)
movej(p[0.418201297210124, 0.218402305461322, 0.306602344823102, -1.405, 0.76, -0.761], a = 0.2, v = 0.2, t = 0.2)
movej(p[0.418210226994229, 0.218418175883152, 0.305930102423526, -1.405, 0.76, -0.761], a = 0.2, v = 0.2, t = 0.2)
movej(p[0.418222532637185, 0.218440046036147, 0.305003722249969, -1.405, 0.76, -0.761], a = 0.2, v = 0.2, t = 0.2)
movej(p[0.418235925540636, 0.218463848518355, 0.303995492101651, -1.405, 0.76, -0.761], a = 0.2, v = 0.2, t = 0.2)
movej(p[0.418248483213443, 0.218486166590359, 0.303050138888023, -1.405, 0.76, -0.761], a = 0.2, v = 0.2, t = 0.2)
movej(p[0.418255620518226, 0.218498851335736, 0.30251283598824, -1.405, 0.76, -0.761], a = 0.2, v = 0.2, t = 0.2)
movej(p[0.418257195372826, 0.218501650239553, 0.302394279478632, -1.405, 0.76, -0.761], a = 0.2, v = 0.2, t = 0.2)
movej(p[0.418253126777132, 0.2184944193447, 0.302700567122341, -1.405, 0.76, -0.761], a = 0.2, v = 0.2, t = 0.2)
movej(p[0.418243546190339, 0.218477392286488, 0.303421802549678, -1.405, 0.76, -0.761], a = 0.2, v = 0.2, t = 0.2)
movej(p[0.418230190467267, 0.218453655882954, 0.304427233724751, -1.405, 0.76, -0.761], a = 0.2, v = 0.2, t = 0.2)
movej(p[0.418216311563155, 0.218428989658084, 0.305472050451919, -1.405, 0.76, -0.761], a = 0.2, v = 0.2, t = 0.2)
movej(p[0.418206939584843, 0.21841233334843, 0.306177581640083, -1.405, 0.76, -0.761], a = 0.2, v = 0.2, t = 0.2)
movej(p[0.418200231421298, 0.218400411292544, 0.306682578390814, -1.405, 0.76, -0.761], a = 0.2, v = 0.2, t = 0.2)
movej(p[0.418197820433103, 0.218396126373756, 0.306864079810177, -1.405, 0.76, -0.761], a = 0.2, v = 0.2, t = 0.2)
movej(p[0.418198498443861, 0.218397331365568, 0.306813038533781, -1.405, 0.76, -0.761], a = 0.2, v = 0.2, t = 0.2)
movej(p[0.418203192732209, 0.218405674270099, 0.306459648168886, -1.405, 0.76, -0.761], a = 0.2, v = 0.2, t = 0.2)
movej(p[0.41821159589609, 0.218420608758316, 0.305827050226431, -1.405, 0.76, -0.761], a = 0.2, v = 0.2, t = 0.2)
movej(p[0.418223580327134, 0.218441908038771, 0.304924851182447, -1.405, 0.76, -0.761], a = 0.2, v = 0.2, t = 0.2)
movej(p[0.418236694377747, 0.218465214930926, 0.303937613333469, -1.405, 0.76, -0.761], a = 0.2, v = 0.2, t = 0.2)
movej(p[0.418245553930773, 0.218480960534862, 0.303270657994427, -1.405, 0.76, -0.761], a = 0.2, v = 0.2, t = 0.2)
movej(p[0.418251808201569, 0.21849207591174, 0.302799830709222, -1.405, 0.76, -0.761], a = 0.2, v = 0.2, t = 0.2)
movej(p[0.418253691122161, 0.218495422324567, 0.30265808270701, -1.405, 0.76, -0.761], a = 0.2, v = 0.2, t = 0.2)
movej(p[0.418248902820571, 0.21848691233539, 0.303018550475682, -1.405, 0.76, -0.761], a = 0.2, v = 0.2, t = 0.2)
movej(p[0.418236323901833, 0.218464556504143, 0.303965503102593, -1.405, 0.76, -0.761], a = 0.2, v = 0.2, t = 0.2)
movej(p[0.418219292632781, 0.218434287751734, 0.305247632775638, -1.405, 0.76, -0.761], a = 0.2, v = 0.2, t = 0.2)
movej(p[0.418207718779344, 0.218413718168632, 0.306118923157926, -1.405, 0.76, -0.761], a = 0.2, v = 0.2, t = 0.2)
movej(p[0.418198960343669, 0.21839815227509, 0.306778266289374, -1.405, 0.76, -0.761], a = 0.2, v = 0.2, t = 0.2)
movej(p[0.418196516862479, 0.218393809608261, 0.306962213811427, -1.405, 0.76, -0.761], a = 0.2, v = 0.2, t = 0.2)
movej(p[0.418195511000456, 0.218392021944145, 0.307037936034048, -1.405, 0.76, -0.761], a = 0.2, v = 0.2, t = 0.2)
movej(p[0.418197984159555, 0.218396417355915, 0.306851754331565, -1.405, 0.76, -0.761], a = 0.2, v = 0.2, t = 0.2)
movej(p[0.418203930497146, 0.218406985459779, 0.306404108542631, -1.405, 0.76, -0.761], a = 0.2, v = 0.2, t = 0.2)
movej(p[0.418214982364627, 0.218426627345503, 0.305572113745442, -1.405, 0.76, -0.761], a = 0.2, v = 0.2, t = 0.2)
movej(p[0.41822823716953, 0.218450184392638, 0.304574279783463, -1.405, 0.76, -0.761], a = 0.2, v = 0.2, t = 0.2)
movej(p[0.418239655529313, 0.218470477625287, 0.303714695107141, -1.405, 0.76, -0.761], a = 0.2, v = 0.2, t = 0.2)
movej(p[0.418248663803852, 0.218486487543917, 0.303036543875117, -1.405, 0.76, -0.761], a = 0.2, v = 0.2, t = 0.2)
movej(p[0.418255826338178, 0.218499217128393, 0.30249734167206, -1.405, 0.76, -0.761], a = 0.2, v = 0.2, t = 0.2)
movej(p[0.418259146014822, 0.218505117009963, 0.30224743334658, -1.405, 0.76, -0.761], a = 0.2, v = 0.2, t = 0.2)
movej(p[0.418254170483469, 0.218496274267466, 0.30262199594481, -1.405, 0.76, -0.761], a = 0.2, v = 0.2, t = 0.2)
movej(p[0.418241954073421, 0.218474562703287, 0.303541658582578, -1.405, 0.76, -0.761], a = 0.2, v = 0.2, t = 0.2)
movej(p[0.418227355463413, 0.218448617384093, 0.304640655434711, -1.405, 0.76, -0.761], a = 0.2, v = 0.2, t = 0.2)
movej(p[0.418212641859807, 0.218422467693001, 0.305748309111238, -1.405, 0.76, -0.761], a = 0.2, v = 0.2, t = 0.2)
movej(p[0.418202665301984, 0.218404736896915, 0.306499353603638, -1.405, 0.76, -0.761], a = 0.2, v = 0.2, t = 0.2)
movej(p[0.41819794817426, 0.218396353401199, 0.306854463337813, -1.405, 0.76, -0.761], a = 0.2, v = 0.2, t = 0.2)
movej(p[0.418197015212336, 0.218394695298482, 0.306924697573606, -1.405, 0.76, -0.761], a = 0.2, v = 0.2, t = 0.2)
movej(p[0.418196626279021, 0.218394004068358, 0.306953976833019, -1.405, 0.76, -0.761], a = 0.2, v = 0.2, t = 0.2)
movej(p[0.418197993853011, 0.218396434583569, 0.306851024599254, -1.405, 0.76, -0.761], a = 0.2, v = 0.2, t = 0.2)
movej(p[0.418204711152305, 0.218408372875929, 0.306345340100811, -1.405, 0.76, -0.761], a = 0.2, v = 0.2, t = 0.2)
movej(p[0.418213938658291, 0.218424772422738, 0.305650684922973, -1.405, 0.76, -0.761], a = 0.2, v = 0.2, t = 0.2)
movej(p[0.418226688872343, 0.218447432687873, 0.304690837026467, -1.405, 0.76, -0.761], a = 0.2, v = 0.2, t = 0.2)
movej(p[0.418239371364992, 0.218469972595425, 0.303736087259802, -1.405, 0.76, -0.761], a = 0.2, v = 0.2, t = 0.2)
movej(p[0.418249785854558, 0.218488481703887, 0.302952074861105, -1.405, 0.76, -0.761], a = 0.2, v = 0.2, t = 0.2)
movej(p[0.418256142371395, 0.218499778797118, 0.302473550399475, -1.405, 0.76, -0.761], a = 0.2, v = 0.2, t = 0.2)
movej(p[0.418255226140641, 0.218498150429805, 0.302542525097307, -1.405, 0.76, -0.761], a = 0.2, v = 0.2, t = 0.2)
movej(p[0.418248540311881, 0.218486268068322, 0.303045840464825, -1.405, 0.76, -0.761], a = 0.2, v = 0.2, t = 0.2)
movej(p[0.418233648242459, 0.218459801199597, 0.30416692921293, -1.405, 0.76, -0.761], a = 0.2, v = 0.2, t = 0.2)
movej(p[0.418217032596922, 0.218430271112361, 0.305417770363625, -1.405, 0.76, -0.761], a = 0.2, v = 0.2, t = 0.2)
movej(p[0.418202994082758, 0.218405321221186, 0.306474602683083, -1.405, 0.76, -0.761], a = 0.2, v = 0.2, t = 0.2)
movej(p[0.418197515421213, 0.218395584292637, 0.306887041387123, -1.405, 0.76, -0.761], a = 0.2, v = 0.2, t = 0.2)
movej(p[0.418194513238444, 0.21839024867574, 0.307113048480354, -1.405, 0.76, -0.761], a = 0.2, v = 0.2, t = 0.2)
movej(p[0.418194930853765, 0.218390990880842, 0.307081610013009, -1.405, 0.76, -0.761], a = 0.2, v = 0.2, t = 0.2)
movej(p[0.418198142707312, 0.218396699134259, 0.30683981870994, -1.405, 0.76, -0.761], a = 0.2, v = 0.2, t = 0.2)
movej(p[0.418205624727318, 0.218409996523338, 0.306276565329639, -1.405, 0.76, -0.761], a = 0.2, v = 0.2, t = 0.2)
movej(p[0.418218287434694, 0.218432501267595, 0.305323305016593, -1.405, 0.76, -0.761], a = 0.2, v = 0.2, t = 0.2)
movej(p[0.41823310647123, 0.218458838338925, 0.304207714251649, -1.405, 0.76, -0.761], a = 0.2, v = 0.2, t = 0.2)
movej(p[0.418247867081458, 0.21848507157234, 0.303096521873232, -1.405, 0.76, -0.761], a = 0.2, v = 0.2, t = 0.2)
movej(p[0.418257900472145, 0.218502903374398, 0.3023411989503, -1.405, 0.76, -0.761], a = 0.2, v = 0.2, t = 0.2)
movej(p[0.418263481512518, 0.218512822255294, 0.301921053073503, -1.405, 0.76, -0.761], a = 0.2, v = 0.2, t = 0.2)
movej(p[0.418263956890214, 0.218513667118335, 0.301885266201294, -1.405, 0.76, -0.761], a = 0.2, v = 0.2, t = 0.2)
movej(p[0.418254424106764, 0.218496725018418, 0.302602902948743, -1.405, 0.76, -0.761], a = 0.2, v = 0.2, t = 0.2)
movej(p[0.418238613150846, 0.218468625062474, 0.303793166321342, -1.405, 0.76, -0.761], a = 0.2, v = 0.2, t = 0.2)
movej(p[0.418219987109135, 0.218435522006959, 0.305195351953947, -1.405, 0.76, -0.761], a = 0.2, v = 0.2, t = 0.2)
movej(p[0.41820711167688, 0.218412639198291, 0.30616462639249, -1.405, 0.76, -0.761], a = 0.2, v = 0.2, t = 0.2)
movej(p[0.418199349768296, 0.218398844378397, 0.306748950043528, -1.405, 0.76, -0.761], a = 0.2, v = 0.2, t = 0.2)
movej(p[0.418196043343802, 0.218392968049154, 0.306997860734974, -1.405, 0.76, -0.761], a = 0.2, v = 0.2, t = 0.2)
movej(p[0.418196497873928, 0.218393775860938, 0.306963643287049, -1.405, 0.76, -0.761], a = 0.2, v = 0.2, t = 0.2)
movej(p[0.418200225884078, 0.218400401451542, 0.306682995237901, -1.405, 0.76, -0.761], a = 0.2, v = 0.2, t = 0.2)
movej(p[0.41820793123865, 0.218414095761053, 0.306102929025095, -1.405, 0.76, -0.761], a = 0.2, v = 0.2, t = 0.2)
movej(p[0.418219220927766, 0.218434160314293, 0.305253030795468, -1.405, 0.76, -0.761], a = 0.2, v = 0.2, t = 0.2)
movej(p[0.418232516896658, 0.218457790519958, 0.304252097970254, -1.405, 0.76, -0.761], a = 0.2, v = 0.2, t = 0.2)
movej(p[0.418242819845089, 0.2184761013924, 0.303476482491293, -1.405, 0.76, -0.761], a = 0.2, v = 0.2, t = 0.2)
movej(p[0.418251269086082, 0.218491117770973, 0.30284041582128, -1.405, 0.76, -0.761], a = 0.2, v = 0.2, t = 0.2)
movej(p[0.418256176896032, 0.218499840155887, 0.30247095135289, -1.405, 0.76, -0.761], a = 0.2, v = 0.2, t = 0.2)
movej(p[0.418257904455757, 0.218502910454256, 0.30234089906031, -1.405, 0.76, -0.761], a = 0.2, v = 0.2, t = 0.2)
movej(p[0.418251751103131, 0.218491974433777, 0.30280412913242, -1.405, 0.76, -0.761], a = 0.2, v = 0.2, t = 0.2)
movej(p[0.418240587694514, 0.218472134312032, 0.303644520849346, -1.405, 0.76, -0.761], a = 0.2, v = 0.2, t = 0.2)
movej(p[0.418227864037875, 0.218449521245949, 0.304602369479247, -1.405, 0.76, -0.761], a = 0.2, v = 0.2, t = 0.2)
movej(p[0.41821478583977, 0.218426278072515, 0.30558690831831, -1.405, 0.76, -0.761], a = 0.2, v = 0.2, t = 0.2)
movej(p[0.418205047900304, 0.218408971359916, 0.306319989400274, -1.405, 0.76, -0.761], a = 0.2, v = 0.2, t = 0.2)
movej(p[0.418199236739946, 0.218398643499229, 0.306757458922194, -1.405, 0.76, -0.761], a = 0.2, v = 0.2, t = 0.2)
movej(p[0.418198123851548, 0.218396665622932, 0.306841238189228, -1.405, 0.76, -0.761], a = 0.2, v = 0.2, t = 0.2)
movej(p[0.418199315071036, 0.218398782712835, 0.306751562085346, -1.405, 0.76, -0.761], a = 0.2, v = 0.2, t = 0.2)
movej(p[0.418204510511049, 0.218408016287087, 0.306360444560003, -1.405, 0.76, -0.761], a = 0.2, v = 0.2, t = 0.2)
movej(p[0.41821492659406, 0.218426528227493, 0.30557631220531, -1.405, 0.76, -0.761], a = 0.2, v = 0.2, t = 0.2)
movej(p[0.41822617764214, 0.218446524106111, 0.304729322908591, -1.405, 0.76, -0.761], a = 0.2, v = 0.2, t = 0.2)
movej(p[0.418236942689559, 0.218465656242068, 0.303918920190723, -1.405, 0.76, -0.761], a = 0.2, v = 0.2, t = 0.2)
movej(p[0.418246427669665, 0.218482513383691, 0.303204882123161, -1.405, 0.76, -0.761], a = 0.2, v = 0.2, t = 0.2)
movej(p[0.418254823795832, 0.218497435364159, 0.302572813986356, -1.405, 0.76, -0.761], a = 0.2, v = 0.2, t = 0.2)
movej(p[0.418256038797484, 0.218499594720813, 0.30248134753923, -1.405, 0.76, -0.761], a = 0.2, v = 0.2, t = 0.2)
movej(p[0.418249978395803, 0.218488823897019, 0.302937580178227, -1.405, 0.76, -0.761], a = 0.2, v = 0.2, t = 0.2)
movej(p[0.41823720693582, 0.218466125872641, 0.303899027488015, -1.405, 0.76, -0.761], a = 0.2, v = 0.2, t = 0.2)
movej(p[0.418222917719676, 0.218440730422409, 0.304974732884213, -1.405, 0.76, -0.761], a = 0.2, v = 0.2, t = 0.2)
movej(p[0.418208495450892, 0.218415098504924, 0.306060454606096, -1.405, 0.76, -0.761], a = 0.2, v = 0.2, t = 0.2)
movej(p[0.418199349502722, 0.218398843906407, 0.306748970036195, -1.405, 0.76, -0.761], a = 0.2, v = 0.2, t = 0.2)
movej(p[0.418196197509585, 0.218393242039654, 0.306986254992338, -1.405, 0.76, -0.761], a = 0.2, v = 0.2, t = 0.2)
movej(p[0.418195281411619, 0.218391613908336, 0.307055219693838, -1.405, 0.76, -0.761], a = 0.2, v = 0.2, t = 0.2)
movej(p[0.418197476249029, 0.218395514674035, 0.306889990305363, -1.405, 0.76, -0.761], a = 0.2, v = 0.2, t = 0.2)
movej(p[0.418202643524905, 0.218404698193692, 0.306500993002253, -1.405, 0.76, -0.761], a = 0.2, v = 0.2, t = 0.2)
movej(p[0.418213109535852, 0.218423298868317, 0.305713102026345, -1.405, 0.76, -0.761], a = 0.2, v = 0.2, t = 0.2)
movej(p[0.418224509836594, 0.21844356000561, 0.304854876851313, -1.405, 0.76, -0.761], a = 0.2, v = 0.2, t = 0.2)
movej(p[0.418236928082982, 0.218465630282589, 0.303920019787356, -1.405, 0.76, -0.761], a = 0.2, v = 0.2, t = 0.2)
movej(p[0.418248303950904, 0.218485847996754, 0.303063633937599, -1.405, 0.76, -0.761], a = 0.2, v = 0.2, t = 0.2)
movej(p[0.418256364125795, 0.218500172909207, 0.302456856523333, -1.405, 0.76, -0.761], a = 0.2, v = 0.2, t = 0.2)
movej(p[0.418256499568602, 0.218500413624375, 0.302446660263653, -1.405, 0.76, -0.761], a = 0.2, v = 0.2, t = 0.2)
movej(p[0.418248862984451, 0.218486841536811, 0.303021549375588, -1.405, 0.76, -0.761], a = 0.2, v = 0.2, t = 0.2)
movej(p[0.41823662134486, 0.218465085133532, 0.30394311131663, -1.405, 0.76, -0.761], a = 0.2, v = 0.2, t = 0.2)
movej(p[0.418220426634323, 0.218436303151279, 0.305162264091654, -1.405, 0.76, -0.761], a = 0.2, v = 0.2, t = 0.2)
movej(p[0.418207014078387, 0.218412465741772, 0.306171973697259, -1.405, 0.76, -0.761], a = 0.2, v = 0.2, t = 0.2)
movej(p[0.418198659912933, 0.218397618335808, 0.30680088299283, -1.405, 0.76, -0.761], a = 0.2, v = 0.2, t = 0.2)
movej(p[0.418195194568878, 0.218391459567434, 0.307061757295632, -1.405, 0.76, -0.761], a = 0.2, v = 0.2, t = 0.2)
movej(p[0.418193748384945, 0.218388889343027, 0.307170627358545, -1.405, 0.76, -0.761], a = 0.2, v = 0.2, t = 0.2)
movej(p[0.418193695934054, 0.218388796124898, 0.307174575910087, -1.405, 0.76, -0.761], a = 0.2, v = 0.2, t = 0.2)
movej(p[0.418197646083686, 0.218395816511976, 0.306877204995432, -1.405, 0.76, -0.761], a = 0.2, v = 0.2, t = 0.2)
movej(p[0.418204758955649, 0.218408457834224, 0.306341741420924, -1.405, 0.76, -0.761], a = 0.2, v = 0.2, t = 0.2)
movej(p[0.418217012678863, 0.218430235713072, 0.305419269813578, -1.405, 0.76, -0.761], a = 0.2, v = 0.2, t = 0.2)
movej(p[0.418231243468698, 0.218455527325388, 0.304347962803908, -1.405, 0.76, -0.761], a = 0.2, v = 0.2, t = 0.2)
movej(p[0.418243093386445, 0.218476587542642, 0.303455890045273, -1.405, 0.76, -0.761], a = 0.2, v = 0.2, t = 0.2)
movej(p[0.418251898496774, 0.218492236388519, 0.302793033202769, -1.405, 0.76, -0.761], a = 0.2, v = 0.2, t = 0.2)
movej(p[0.418259131408245, 0.218505091050484, 0.302248532943212, -1.405, 0.76, -0.761], a = 0.2, v = 0.2, t = 0.2)
movej(p[0.418265826532099, 0.218516989931636, 0.301744517832383, -1.405, 0.76, -0.761], a = 0.2, v = 0.2, t = 0.2)
movej(p[0.418265552990744, 0.218516503781394, 0.301765110278403, -1.405, 0.76, -0.761], a = 0.2, v = 0.2, t = 0.2)
movej(p[0.41825584891198, 0.218499257247588, 0.302495642295447, -1.405, 0.76, -0.761], a = 0.2, v = 0.2, t = 0.2)
movej(p[0.418240909039213, 0.218472705420568, 0.303620329723439, -1.405, 0.76, -0.761], a = 0.2, v = 0.2, t = 0.2)
movej(p[0.418227231971442, 0.218448397908498, 0.304649952024419, -1.405, 0.76, -0.761], a = 0.2, v = 0.2, t = 0.2)
movej(p[0.418214356937548, 0.218425515807816, 0.305619196473962, -1.405, 0.76, -0.761], a = 0.2, v = 0.2, t = 0.2)
movej(p[0.418204531491405, 0.218408053574339, 0.306358865139386, -1.405, 0.76, -0.761], a = 0.2, v = 0.2, t = 0.2)
movej(p[0.418198377342057, 0.218397116137888, 0.306822155189495, -1.405, 0.76, -0.761], a = 0.2, v = 0.2, t = 0.2)
movej(p[0.418196327242549, 0.218393472607026, 0.306976488574979, -1.405, 0.76, -0.761], a = 0.2, v = 0.2, t = 0.2)
movej(p[0.418195096439236, 0.218391285166935, 0.307069144585734, -1.405, 0.76, -0.761], a = 0.2, v = 0.2, t = 0.2)
movej(p[0.418195136009782, 0.218391355493523, 0.307066165678494, -1.405, 0.76, -0.761], a = 0.2, v = 0.2, t = 0.2)
movej(p[0.418196174271849, 0.218393200740483, 0.306988004350617, -1.405, 0.76, -0.761], a = 0.2, v = 0.2, t = 0.2)
movej(p[0.418199426081023, 0.218398980004875, 0.306743205150942, -1.405, 0.76, -0.761], a = 0.2, v = 0.2, t = 0.2)
movej(p[0.418207209009799, 0.218412812182818, 0.306157299080387, -1.405, 0.76, -0.761], a = 0.2, v = 0.2, t = 0.2)
movej(p[0.418220040223961, 0.218435616405064, 0.30519135342074, -1.405, 0.76, -0.761], a = 0.2, v = 0.2, t = 0.2)
movej(p[0.418232978995647, 0.218458611783473, 0.304217310731347, -1.405, 0.76, -0.761], a = 0.2, v = 0.2, t = 0.2)
movej(p[0.418242769386004, 0.2184760117142, 0.30348028109784, -1.405, 0.76, -0.761], a = 0.2, v = 0.2, t = 0.2)
movej(p[0.418250140396023, 0.218489111811239, 0.302925384651943, -1.405, 0.76, -0.761], a = 0.2, v = 0.2, t = 0.2)
movej(p[0.418254838402409, 0.218497461323638, 0.302571714389723, -1.405, 0.76, -0.761], a = 0.2, v = 0.2, t = 0.2)
movej(p[0.418251840070465, 0.218492132550603, 0.302797431589297, -1.405, 0.76, -0.761], a = 0.2, v = 0.2, t = 0.2)
movej(p[0.418241636712333, 0.218473998674608, 0.303565549818494, -1.405, 0.76, -0.761], a = 0.2, v = 0.2, t = 0.2)
movej(p[0.418226679577248, 0.218447416168205, 0.304691536769779, -1.405, 0.76, -0.761], a = 0.2, v = 0.2, t = 0.2)
movej(p[0.418214676954376, 0.218426084556399, 0.305595105311386, -1.405, 0.76, -0.761], a = 0.2, v = 0.2, t = 0.2)
movej(p[0.418203230709309, 0.218405741764744, 0.306456789217642, -1.405, 0.76, -0.761], a = 0.2, v = 0.2, t = 0.2)
movej(p[0.418197344657046, 0.218395280802729, 0.306899896671385, -1.405, 0.76, -0.761], a = 0.2, v = 0.2, t = 0.2)
movej(p[0.418195392819967, 0.218391811908361, 0.307046832770435, -1.405, 0.76, -0.761], a = 0.2, v = 0.2, t = 0.2)
movej(p[0.418199802173829, 0.218399648414257, 0.306714892536932, -1.405, 0.76, -0.761], a = 0.2, v = 0.2, t = 0.2)
movej(p[0.418209236933867, 0.218416416302472, 0.306004635082517, -1.405, 0.76, -0.761], a = 0.2, v = 0.2, t = 0.2)
movej(p[0.418223609540289, 0.218441959957729, 0.304922651989183, -1.405, 0.76, -0.761], a = 0.2, v = 0.2, t = 0.2)
movej(p[0.418238978315277, 0.218469274049447, 0.303765676405539, -1.405, 0.76, -0.761], a = 0.2, v = 0.2, t = 0.2)
movej(p[0.41824993192033, 0.218488741298677, 0.302941078894784, -1.405, 0.76, -0.761], a = 0.2, v = 0.2, t = 0.2)
movej(p[0.418256474339059, 0.218500368785275, 0.302448559566927, -1.405, 0.76, -0.761], a = 0.2, v = 0.2, t = 0.2)
movej(p[0.41825742509445, 0.218502058511357, 0.302376985822509, -1.405, 0.76, -0.761], a = 0.2, v = 0.2, t = 0.2)
movej(p[0.418254343106654, 0.218496581061307, 0.302609000711885, -1.405, 0.76, -0.761], a = 0.2, v = 0.2, t = 0.2)
movej(p[0.418244556699909, 0.218479188210438, 0.303345730455401, -1.405, 0.76, -0.761], a = 0.2, v = 0.2, t = 0.2)
movej(p[0.418233662849036, 0.218459827159076, 0.304165829616298, -1.405, 0.76, -0.761], a = 0.2, v = 0.2, t = 0.2)
movej(p[0.418224995837255, 0.218444423748272, 0.304818290272462, -1.405, 0.76, -0.761], a = 0.2, v = 0.2, t = 0.2)
movej(p[0.418219527665888, 0.21843470546335, 0.305229939266194, -1.405, 0.76, -0.761], a = 0.2, v = 0.2, t = 0.2)
movej(p[0.418218716336916, 0.218433263532294, 0.305291016860941, -1.405, 0.76, -0.761], a = 0.2, v = 0.2, t = 0.2)
movej(p[0.418225868248277, 0.218445974237149, 0.304752614364526, -1.405, 0.76, -0.761], a = 0.2, v = 0.2, t = 0.2)
movej(p[0.418239587807909, 0.218470357267703, 0.303719793236981, -1.405, 0.76, -0.761], a = 0.2, v = 0.2, t = 0.2)
movej(p[0.41825405230298, 0.218496064231682, 0.302630892681197, -1.405, 0.76, -0.761], a = 0.2, v = 0.2, t = 0.2)
movej(p[0.418266933976228, 0.218518958132127, 0.301661148415003, -1.405, 0.76, -0.761], a = 0.2, v = 0.2, t = 0.2)
movej(p[0.418280131682691, 0.218542413701299, 0.300667612876223, -1.405, 0.76, -0.761], a = 0.2, v = 0.2, t = 0.2)
movej(p[0.418290967107256, 0.218561670914744, 0.299851912101855, -1.405, 0.76, -0.761], a = 0.2, v = 0.2, t = 0.2)
movej(p[0.418297861411709, 0.21857392378879, 0.299332902491497, -1.405, 0.76, -0.761], a = 0.2, v = 0.2, t = 0.2)
movej(p[0.418295545605282, 0.218569808031406, 0.299507238539352, -1.405, 0.76, -0.761], a = 0.2, v = 0.2, t = 0.2)
movej(p[0.418288907579866, 0.218558010628218, 0.300006955226983, -1.405, 0.76, -0.761], a = 0.2, v = 0.2, t = 0.2)
movej(p[0.418276456136712, 0.218535881352424, 0.300944311374195, -1.405, 0.76, -0.761], a = 0.2, v = 0.2, t = 0.2)
movej(p[0.418265179859089, 0.218515840634706, 0.301793199974187, -1.405, 0.76, -0.761], a = 0.2, v = 0.2, t = 0.2)
movej(p[0.418254288663957, 0.21849648430325, 0.302613099208423, -1.405, 0.76, -0.761], a = 0.2, v = 0.2, t = 0.2)
movej(p[0.418244913897116, 0.218479823037695, 0.30331884031958, -1.405, 0.76, -0.761], a = 0.2, v = 0.2, t = 0.2)
movej(p[0.418234691948795, 0.218461656122363, 0.304088358035399, -1.405, 0.76, -0.761], a = 0.2, v = 0.2, t = 0.2)
movej(p[0.418225533624871, 0.218445379529087, 0.304777805123735, -1.405, 0.76, -0.761], a = 0.2, v = 0.2, t = 0.2)
movej(p[0.418218316647848, 0.218432553186553, 0.305321105823329, -1.405, 0.76, -0.761], a = 0.2, v = 0.2, t = 0.2)
movej(p[0.418213388919839, 0.21842379540235, 0.305692069741672, -1.405, 0.76, -0.761], a = 0.2, v = 0.2, t = 0.2)
movej(p[0.418212100221366, 0.218421505068324, 0.305789084153624, -1.405, 0.76, -0.761], a = 0.2, v = 0.2, t = 0.2)
movej(p[0.418216535973297, 0.218429388490078, 0.305455156649117, -1.405, 0.76, -0.761], a = 0.2, v = 0.2, t = 0.2)
movej(p[0.418224714328676, 0.218443923438315, 0.304839482498463, -1.405, 0.76, -0.761], a = 0.2, v = 0.2, t = 0.2)
movej(p[0.418234697260278, 0.218461665562174, 0.304087958182078, -1.405, 0.76, -0.761], a = 0.2, v = 0.2, t = 0.2)
movej(p[0.418243034960136, 0.218476483704726, 0.303460288431802, -1.405, 0.76, -0.761], a = 0.2, v = 0.2, t = 0.2)
movej(p[0.418250095248421, 0.21848903157285, 0.30292878340517, -1.405, 0.76, -0.761], a = 0.2, v = 0.2, t = 0.2)
movej(p[0.418247481998967, 0.218484387186078, 0.303125511238988, -1.405, 0.76, -0.761], a = 0.2, v = 0.2, t = 0.2)
movej(p[0.418238403347283, 0.218468252189959, 0.303808960527512, -1.405, 0.76, -0.761], a = 0.2, v = 0.2, t = 0.2)
movej(p[0.418223513933601, 0.218441790041139, 0.304929849348957, -1.405, 0.76, -0.761], a = 0.2, v = 0.2, t = 0.2)
movej(p[0.418211627366624, 0.218420664689193, 0.305824681095505, -1.405, 0.76, -0.761], a = 0.2, v = 0.2, t = 0.2)
movej(p[0.418203066717283, 0.218405450310595, 0.306469134688921, -1.405, 0.76, -0.761], a = 0.2, v = 0.2, t = 0.2)
movej(p[0.418199107431902, 0.218398413687042, 0.306767193351289, -1.405, 0.76, -0.761], a = 0.2, v = 0.2, t = 0.2)
movej(p[0.418199561948749, 0.218399221475228, 0.306732976902997, -1.405, 0.76, -0.761], a = 0.2, v = 0.2, t = 0.2)
movej(p[0.418203678998443, 0.218406538484752, 0.30642304159737, -1.405, 0.76, -0.761], a = 0.2, v = 0.2, t = 0.2)
movej(p[0.418212366990581, 0.218421979182807, 0.305769001520588, -1.405, 0.76, -0.761], a = 0.2, v = 0.2, t = 0.2)
movej(p[0.418223743655225, 0.218442198312944, 0.304912555692834, -1.405, 0.76, -0.761], a = 0.2, v = 0.2, t = 0.2)
movej(p[0.418235669261599, 0.218463393047498, 0.304014785024378, -1.405, 0.76, -0.761], a = 0.2, v = 0.2, t = 0.2)
movej(p[0.418244421257102, 0.21847894749527, 0.303355926715081, -1.405, 0.76, -0.761], a = 0.2, v = 0.2, t = 0.2)
movej(p[0.418249662362587, 0.218488262228293, 0.302961371450813, -1.405, 0.76, -0.761], a = 0.2, v = 0.2, t = 0.2)
movej(p[0.418250258576512, 0.218489321847023, 0.302916487915556, -1.405, 0.76, -0.761], a = 0.2, v = 0.2, t = 0.2)
movej(p[0.418244766503473, 0.218479561082953, 0.303329936249231, -1.405, 0.76, -0.761], a = 0.2, v = 0.2, t = 0.2)
movej(p[0.418231445305038, 0.218455886038187, 0.304332768377719, -1.405, 0.76, -0.761], a = 0.2, v = 0.2, t = 0.2)
movej(p[0.418216976826355, 0.218430171994351, 0.305421968823493, -1.405, 0.76, -0.761], a = 0.2, v = 0.2, t = 0.2)
movej(p[0.418207103709656, 0.218412625038575, 0.306165226172471, -1.405, 0.76, -0.761], a = 0.2, v = 0.2, t = 0.2)
movej(p[0.418201519216819, 0.218402700021802, 0.306585631953927, -1.405, 0.76, -0.761], a = 0.2, v = 0.2, t = 0.2)
movej(p[0.418199324552033, 0.218398799562897, 0.306750848347169, -1.405, 0.76, -0.761], a = 0.2, v = 0.2, t = 0.2)
movej(p[0.418200007760475, 0.218400013792271, 0.306699415784309, -1.405, 0.76, -0.761], a = 0.2, v = 0.2, t = 0.2)
movej(p[0.418204561368495, 0.218408106673273, 0.306356615964457, -1.405, 0.76, -0.761], a = 0.2, v = 0.2, t = 0.2)
movej(p[0.418212383854538, 0.218422009154205, 0.305767731986295, -1.405, 0.76, -0.761], a = 0.2, v = 0.2, t = 0.2)
movej(p[0.418222757047327, 0.218440444868141, 0.304986828447166, -1.405, 0.76, -0.761], a = 0.2, v = 0.2, t = 0.2)
movej(p[0.418235082342768, 0.218462349948436, 0.304058968816323, -1.405, 0.76, -0.761], a = 0.2, v = 0.2, t = 0.2)
movej(p[0.41824350768209, 0.218477323847862, 0.303424701486253, -1.405, 0.76, -0.761], a = 0.2, v = 0.2, t = 0.2)
movej(p[0.418246895080137, 0.218483344087016, 0.303169695030933, -1.405, 0.76, -0.761], a = 0.2, v = 0.2, t = 0.2)
movej(p[0.418243479796806, 0.218477274288856, 0.303426800716187, -1.405, 0.76, -0.761], a = 0.2, v = 0.2, t = 0.2)
movej(p[0.418235819310983, 0.218463659722145, 0.304003489168066, -1.405, 0.76, -0.761], a = 0.2, v = 0.2, t = 0.2)
movej(p[0.418223665310856, 0.218442059075739, 0.304918453529315, -1.405, 0.76, -0.761], a = 0.2, v = 0.2, t = 0.2)
movej(p[0.418211017210057, 0.218419580290961, 0.305870614245728, -1.405, 0.76, -0.761], a = 0.2, v = 0.2, t = 0.2)
movej(p[0.418201351639542, 0.21840240219578, 0.306598247326197, -1.405, 0.76, -0.761], a = 0.2, v = 0.2, t = 0.2)
movej(p[0.418198730183848, 0.218397743224501, 0.306795592933396, -1.405, 0.76, -0.761], a = 0.2, v = 0.2, t = 0.2)
movej(p[0.418196234822751, 0.218393308354323, 0.30698344602276, -1.405, 0.76, -0.761], a = 0.2, v = 0.2, t = 0.2)
movej(p[0.418195657730163, 0.218392282718911, 0.307026890086061, -1.405, 0.76, -0.761], a = 0.2, v = 0.2, t = 0.2)
movej(p[0.418195030444065, 0.218391167877289, 0.307074112763244, -1.405, 0.76, -0.761], a = 0.2, v = 0.2, t = 0.2)
movej(p[0.418196057419231, 0.218392993064652, 0.306996801123674, -1.405, 0.76, -0.761], a = 0.2, v = 0.2, t = 0.2)
movej(p[0.418197994384159, 0.21839643552755, 0.306850984613922, -1.405, 0.76, -0.761], a = 0.2, v = 0.2, t = 0.2)
movej(p[0.41820436205511, 0.218407752444384, 0.306371620460319, -1.405, 0.76, -0.761], a = 0.2, v = 0.2, t = 0.2)
movej(p[0.418215375414342, 0.218427325891481, 0.305542524599705, -1.405, 0.76, -0.761], a = 0.2, v = 0.2, t = 0.2)
movej(p[0.418226715429756, 0.218447479886926, 0.304688837759864, -1.405, 0.76, -0.761], a = 0.2, v = 0.2, t = 0.2)
movej(p[0.418236999787998, 0.218465757720031, 0.303914621767525, -1.405, 0.76, -0.761], a = 0.2, v = 0.2, t = 0.2)
movej(p[0.418245175487635, 0.218480287948362, 0.303299147543532, -1.405, 0.76, -0.761], a = 0.2, v = 0.2, t = 0.2)
movej(p[0.418253080301659, 0.218494336746358, 0.302704065838898, -1.405, 0.76, -0.761], a = 0.2, v = 0.2, t = 0.2)
movej(p[0.418252741694641, 0.218493734958438, 0.302729556488097, -1.405, 0.76, -0.761], a = 0.2, v = 0.2, t = 0.2)
movej(p[0.41824534545508, 0.218480590022299, 0.303286352237267, -1.405, 0.76, -0.761], a = 0.2, v = 0.2, t = 0.2)
movej(p[0.418231151845623, 0.218455364488657, 0.304354860273692, -1.405, 0.76, -0.761], a = 0.2, v = 0.2, t = 0.2)
movej(p[0.418217260990676, 0.218430677024213, 0.305400576670832, -1.405, 0.76, -0.761], a = 0.2, v = 0.2, t = 0.2)
movej(p[0.418204824419672, 0.218408574179889, 0.306336813228746, -1.405, 0.76, -0.761], a = 0.2, v = 0.2, t = 0.2)
movej(p[0.418197583673765, 0.218395705594203, 0.306881903271951, -1.405, 0.76, -0.761], a = 0.2, v = 0.2, t = 0.2)
movej(p[0.418195409152776, 0.218391840935779, 0.307045603221473, -1.405, 0.76, -0.761], a = 0.2, v = 0.2, t = 0.2)
movej(p[0.418195324832989, 0.218391691078787, 0.307051950892941, -1.405, 0.76, -0.761], a = 0.2, v = 0.2, t = 0.2)
movej(p[0.41819511210811, 0.218391313014376, 0.307067965018437, -1.405, 0.76, -0.761], a = 0.2, v = 0.2, t = 0.2)
movej(p[0.418195456292185, 0.218391924714097, 0.307042054523252, -1.405, 0.76, -0.761], a = 0.2, v = 0.2, t = 0.2)
movej(p[0.418198583958731, 0.218397483346517, 0.306806600895317, -1.405, 0.76, -0.761], a = 0.2, v = 0.2, t = 0.2)
movej(p[0.418204832254109, 0.218408588103609, 0.306336223445098, -1.405, 0.76, -0.761], a = 0.2, v = 0.2, t = 0.2)
movej(p[0.418214730069203, 0.218426178954504, 0.305591106778178, -1.405, 0.76, -0.761], a = 0.2, v = 0.2, t = 0.2)
movej(p[0.41822660256075, 0.218447279290952, 0.30469733464293, -1.405, 0.76, -0.761], a = 0.2, v = 0.2, t = 0.2)
movej(p[0.418237441968927, 0.218466543584256, 0.303881333978571, -1.405, 0.76, -0.761], a = 0.2, v = 0.2, t = 0.2)
movej(p[0.418244172945289, 0.218478506184128, 0.303374619857827, -1.405, 0.76, -0.761], a = 0.2, v = 0.2, t = 0.2)
movej(p[0.418246447587725, 0.21848254878298, 0.303203382673208, -1.405, 0.76, -0.761], a = 0.2, v = 0.2, t = 0.2)
movej(p[0.418246136865991, 0.218481996554065, 0.303226774092473, -1.405, 0.76, -0.761], a = 0.2, v = 0.2, t = 0.2)
movej(p[0.418238129805927, 0.218467766039717, 0.303829552973532, -1.405, 0.76, -0.761], a = 0.2, v = 0.2, t = 0.2)
movej(p[0.418225412788641, 0.218445164773398, 0.304786901786782, -1.405, 0.76, -0.761], a = 0.2, v = 0.2, t = 0.2)
movej(p[0.418210934882077, 0.218419433973898, 0.3058768119722, -1.405, 0.76, -0.761], a = 0.2, v = 0.2, t = 0.2)
movej(p[0.418202834871067, 0.218405038262866, 0.306486588286373, -1.405, 0.76, -0.761], a = 0.2, v = 0.2, t = 0.2)
movej(p[0.41819714853055, 0.218394932237726, 0.306914661255255, -1.405, 0.76, -0.761], a = 0.2, v = 0.2, t = 0.2)
movej(p[0.418195233873849, 0.218391529422032, 0.307058798381059, -1.405, 0.76, -0.761], a = 0.2, v = 0.2, t = 0.2)
movej(p[0.418194026839422, 0.218389384225093, 0.307149665048203, -1.405, 0.76, -0.761], a = 0.2, v = 0.2, t = 0.2)
movej(p[0.418194507926961, 0.21839023923593, 0.307113448333675, -1.405, 0.76, -0.761], a = 0.2, v = 0.2, t = 0.2)
movej(p[0.418194815461805, 0.218390785800959, 0.307090296826402, -1.405, 0.76, -0.761], a = 0.2, v = 0.2, t = 0.2)
movej(p[0.41819844825035, 0.218397242159359, 0.306816817147663, -1.405, 0.76, -0.761], a = 0.2, v = 0.2, t = 0.2)
movej(p[0.418206756471479, 0.218412007910963, 0.306191366583316, -1.405, 0.76, -0.761], a = 0.2, v = 0.2, t = 0.2)
movej(p[0.418215988890586, 0.218428416189596, 0.305496341541156, -1.405, 0.76, -0.761], a = 0.2, v = 0.2, t = 0.2)
movej(p[0.418225926674586, 0.218446078075065, 0.304748215977998, -1.405, 0.76, -0.761], a = 0.2, v = 0.2, t = 0.2)
movej(p[0.41823571175346, 0.218463468565982, 0.304011586197812, -1.405, 0.76, -0.761], a = 0.2, v = 0.2, t = 0.2)
movej(p[0.418244352207828, 0.218478824777733, 0.303361124808251, -1.405, 0.76, -0.761], a = 0.2, v = 0.2, t = 0.2)
movej(p[0.418247715704203, 0.21848480253774, 0.303107917692874, -1.405, 0.76, -0.761], a = 0.2, v = 0.2, t = 0.2)
movej(p[0.418244843519971, 0.218479697960205, 0.30332413837608, -1.405, 0.76, -0.761], a = 0.2, v = 0.2, t = 0.2)
movej(p[0.418237060870048, 0.218465866277852, 0.303910023454336, -1.405, 0.76, -0.761], a = 0.2, v = 0.2, t = 0.2)
movej(p[0.41822373303226, 0.218442179433323, 0.304913355399475, -1.405, 0.76, -0.761], a = 0.2, v = 0.2, t = 0.2)
movej(p[0.418209918529875, 0.218417627666156, 0.30595332390513, -1.405, 0.76, -0.761], a = 0.2, v = 0.2, t = 0.2)
movej(p[0.418200441769289, 0.21840078513264, 0.306666743199678, -1.405, 0.76, -0.761], a = 0.2, v = 0.2, t = 0.2)
movej(p[0.418197053853372, 0.218394763973104, 0.306921788640697, -1.405, 0.76, -0.761], a = 0.2, v = 0.2, t = 0.2)
movej(p[0.418195553093955, 0.218392096754644, 0.307034767196481, -1.405, 0.76, -0.761], a = 0.2, v = 0.2, t = 0.2)
movej(p[0.41819639190985, 0.218393587536719, 0.306971620360798, -1.405, 0.76, -0.761], a = 0.2, v = 0.2, t = 0.2)
movej(p[0.41820072161803, 0.218401282492656, 0.30664567592784, -1.405, 0.76, -0.761], a = 0.2, v = 0.2, t = 0.2)
movej(p[0.41820887429239, 0.218415771799409, 0.306031935067993, -1.405, 0.76, -0.761], a = 0.2, v = 0.2, t = 0.2)
movej(p[0.418219025730779, 0.218433813401256, 0.305267725405006, -1.405, 0.76, -0.761], a = 0.2, v = 0.2, t = 0.2)
movej(p[0.418229760237174, 0.218452891258302, 0.304459621843733, -1.405, 0.76, -0.761], a = 0.2, v = 0.2, t = 0.2)
movej(p[0.41824090372773, 0.218472695980758, 0.30362072957676, -1.405, 0.76, -0.761], a = 0.2, v = 0.2, t = 0.2)
movej(p[0.418246366587615, 0.21848240482587, 0.30320948043635, -1.405, 0.76, -0.761], a = 0.2, v = 0.2, t = 0.2)
movej(p[0.418245321553408, 0.218480547543152, 0.303288151577211, -1.405, 0.76, -0.761], a = 0.2, v = 0.2, t = 0.2)
movej(p[0.418236638607179, 0.218465115812916, 0.303941811793337, -1.405, 0.76, -0.761], a = 0.2, v = 0.2, t = 0.2)
movej(p[0.418224698394228, 0.218443895118884, 0.304840682058426, -1.405, 0.76, -0.761], a = 0.2, v = 0.2, t = 0.2)
movej(p[0.418211079487191, 0.218419690972739, 0.305865925965543, -1.405, 0.76, -0.761], a = 0.2, v = 0.2, t = 0.2)
movej(p[0.418201213408207, 0.218402156524712, 0.30660865350887, -1.405, 0.76, -0.761], a = 0.2, v = 0.2, t = 0.2)
movej(p[0.418197572785225, 0.218395686242591, 0.306882722971258, -1.405, 0.76, -0.761], a = 0.2, v = 0.2, t = 0.2)
movej(p[0.418196305067109, 0.218393433195817, 0.306978157962593, -1.405, 0.76, -0.761], a = 0.2, v = 0.2, t = 0.2)
movej(p[0.418195730364688, 0.218392411808319, 0.3070214220919, -1.405, 0.76, -0.761], a = 0.2, v = 0.2, t = 0.2)
movej(p[0.418197175751899, 0.218394980616755, 0.306912612006986, -1.405, 0.76, -0.761], a = 0.2, v = 0.2, t = 0.2)
movej(p[0.418202867005536, 0.218405095373719, 0.306484169173782, -1.405, 0.76, -0.761], a = 0.2, v = 0.2, t = 0.2)
movej(p[0.418211898119451, 0.218421145883534, 0.305804298572479, -1.405, 0.76, -0.761], a = 0.2, v = 0.2, t = 0.2)
movej(p[0.418223726392906, 0.21844216763356, 0.304913855216126, -1.405, 0.76, -0.761], a = 0.2, v = 0.2, t = 0.2)
movej(p[0.418235493982672, 0.218463081533751, 0.304027980183963, -1.405, 0.76, -0.761], a = 0.2, v = 0.2, t = 0.2)
movej(p[0.418244648322984, 0.218479351047169, 0.303338832985618, -1.405, 0.76, -0.761], a = 0.2, v = 0.2, t = 0.2)
movej(p[0.418248824476202, 0.218486773098185, 0.303024448312164, -1.405, 0.76, -0.761], a = 0.2, v = 0.2, t = 0.2)
movej(p[0.418246409079476, 0.218482480344354, 0.303206281609783, -1.405, 0.76, -0.761], a = 0.2, v = 0.2, t = 0.2)
movej(p[0.418238853495435, 0.2184690522139, 0.303775072958577, -1.405, 0.76, -0.761], a = 0.2, v = 0.2, t = 0.2)
movej(p[0.41822430003303, 0.218443187133095, 0.304870671057483, -1.405, 0.76, -0.761], a = 0.2, v = 0.2, t = 0.2)
movej(p[0.418210602914412, 0.218418843985741, 0.305901802804748, -1.405, 0.76, -0.761], a = 0.2, v = 0.2, t = 0.2)
movej(p[0.418201023071227, 0.218401818249102, 0.30662298225262, -1.405, 0.76, -0.761], a = 0.2, v = 0.2, t = 0.2)
movej(p[0.418197628157432, 0.218395784652616, 0.306878554500389, -1.405, 0.76, -0.761], a = 0.2, v = 0.2, t = 0.2)
movej(p[0.418196479018165, 0.218393742349611, 0.306965062766338, -1.405, 0.76, -0.761], a = 0.2, v = 0.2, t = 0.2)
movej(p[0.418196089288127, 0.218393049703515, 0.306994402003749, -1.405, 0.76, -0.761], a = 0.2, v = 0.2, t = 0.2)
movej(p[0.418197267242187, 0.218395143217491, 0.306905724533535, -1.405, 0.76, -0.761], a = 0.2, v = 0.2, t = 0.2)
movej(p[0.418197347843936, 0.218395286466616, 0.306899656759393, -1.405, 0.76, -0.761], a = 0.2, v = 0.2, t = 0.2)
movej(p[0.418200948776863, 0.218401686209752, 0.306628575200944, -1.405, 0.76, -0.761], a = 0.2, v = 0.2, t = 0.2)
movej(p[0.418207811331929, 0.21841388265733, 0.306111955713812, -1.405, 0.76, -0.761], a = 0.2, v = 0.2, t = 0.2)
movej(p[0.418217642089554, 0.218431354330618, 0.305371887195067, -1.405, 0.76, -0.761], a = 0.2, v = 0.2, t = 0.2)
movej(p[0.418226828298762, 0.218447680482899, 0.304680340876797, -1.405, 0.76, -0.761], a = 0.2, v = 0.2, t = 0.2)
movej(p[0.418235476720354, 0.218463050854366, 0.304029279707256, -1.405, 0.76, -0.761], a = 0.2, v = 0.2, t = 0.2)
movej(p[0.418243283271949, 0.218476925015867, 0.303441595289056, -1.405, 0.76, -0.761], a = 0.2, v = 0.2, t = 0.2)
movej(p[0.418246160767663, 0.218482039033213, 0.303224974752529, -1.405, 0.76, -0.761], a = 0.2, v = 0.2, t = 0.2)
movej(p[0.418243085419221, 0.218476573382926, 0.303456489825254, -1.405, 0.76, -0.761], a = 0.2, v = 0.2, t = 0.2)
movej(p[0.418233528734099, 0.218459588803861, 0.304175925912648, -1.405, 0.76, -0.761], a = 0.2, v = 0.2, t = 0.2)
movej(p[0.418222042652913, 0.218439175213627, 0.30504060871881, -1.405, 0.76, -0.761], a = 0.2, v = 0.2, t = 0.2)
movej(p[0.418209445807921, 0.21841678752302, 0.305988910850678, -1.405, 0.76, -0.761], a = 0.2, v = 0.2, t = 0.2)
movej(p[0.418201545243084, 0.218402746276873, 0.306583672672655, -1.405, 0.76, -0.761], a = 0.2, v = 0.2, t = 0.2)
movej(p[0.418197977785776, 0.218396406028143, 0.30685223415555, -1.405, 0.76, -0.761], a = 0.2, v = 0.2, t = 0.2)
movej(p[0.418196319275325, 0.21839345844731, 0.30697708835496, -1.405, 0.76, -0.761], a = 0.2, v = 0.2, t = 0.2)
movej(p[0.418195468508595, 0.218391946425661, 0.307041134860614, -1.405, 0.76, -0.761], a = 0.2, v = 0.2, t = 0.2)
movej(p[0.418195901128855, 0.218392715298227, 0.307008566807637, -1.405, 0.76, -0.761], a = 0.2, v = 0.2, t = 0.2)
movej(p[0.418197974466099, 0.218396400128261, 0.306852484063875, -1.405, 0.76, -0.761], a = 0.2, v = 0.2, t = 0.2)
movej(p[0.418202625864225, 0.218404666806322, 0.306502322514545, -1.405, 0.76, -0.761], a = 0.2, v = 0.2, t = 0.2)
movej(p[0.418210928906659, 0.218419423354111, 0.305877261807186, -1.405, 0.76, -0.761], a = 0.2, v = 0.2, t = 0.2)
movej(p[0.418222186062944, 0.218439430088511, 0.305029812679149, -1.405, 0.76, -0.761], a = 0.2, v = 0.2, t = 0.2)
movej(p[0.418230640615419, 0.218454455906895, 0.304393346155815, -1.405, 0.76, -0.761], a = 0.2, v = 0.2, t = 0.2)
movej(p[0.418237914690881, 0.218467383727392, 0.303845747033023, -1.405, 0.76, -0.761], a = 0.2, v = 0.2, t = 0.2)
movej(p[0.418243422698368, 0.218477172810893, 0.303431099139386, -1.405, 0.76, -0.761], a = 0.2, v = 0.2, t = 0.2)
movej(p[0.418245320225537, 0.218480545183199, 0.303288251540541, -1.405, 0.76, -0.761], a = 0.2, v = 0.2, t = 0.2)
movej(p[0.418239395266664, 0.218470015074572, 0.303734287919858, -1.405, 0.76, -0.761], a = 0.2, v = 0.2, t = 0.2)
movej(p[0.418227481611126, 0.218448841579592, 0.304631158918343, -1.405, 0.76, -0.761], a = 0.2, v = 0.2, t = 0.2)
movej(p[0.418215158971425, 0.218426941219203, 0.305558818622526, -1.405, 0.76, -0.761], a = 0.2, v = 0.2, t = 0.2)
movej(p[0.418205390092573, 0.218409579519708, 0.306294228850084, -1.405, 0.76, -0.761], a = 0.2, v = 0.2, t = 0.2)
movej(p[0.418199596672567, 0.218399283187989, 0.306730362861913, -1.405, 0.76, -0.761], a = 0.2, v = 0.2, t = 0.2)
movej(p[0.41819612806195, 0.218393118614132, 0.306991483074507, -1.405, 0.76, -0.761], a = 0.2, v = 0.2, t = 0.2)
movej(p[0.418196546872355, 0.21839386294319, 0.306959954640165, -1.405, 0.76, -0.761], a = 0.2, v = 0.2, t = 0.2)
movej(p[0.418198372960084, 0.218397108350045, 0.306822485068484, -1.405, 0.76, -0.761], a = 0.2, v = 0.2, t = 0.2)
movej(p[0.418205769332432, 0.218410253522179, 0.306265679322981, -1.405, 0.76, -0.761], a = 0.2, v = 0.2, t = 0.2)
movej(p[0.418216968859131, 0.218430157834635, 0.305422568603474, -1.405, 0.76, -0.761], a = 0.2, v = 0.2, t = 0.2)
movej(p[0.418228368628725, 0.218450418027948, 0.304564383413774, -1.405, 0.76, -0.761], a = 0.2, v = 0.2, t = 0.2)
movej(p[0.418238202838813, 0.218467895837112, 0.303824054990371, -1.405, 0.76, -0.761], a = 0.2, v = 0.2, t = 0.2)
movej(p[0.41824669988315, 0.21848299717398, 0.303184389640471, -1.405, 0.76, -0.761], a = 0.2, v = 0.2, t = 0.2)
movej(p[0.418252842612811, 0.218493914314837, 0.302721959275002, -1.405, 0.76, -0.761], a = 0.2, v = 0.2, t = 0.2)
movej(p[0.418251751103131, 0.218491974433777, 0.30280412913242, -1.405, 0.76, -0.761], a = 0.2, v = 0.2, t = 0.2)
movej(p[0.418243171730813, 0.218476726779847, 0.303449992208792, -1.405, 0.76, -0.761], a = 0.2, v = 0.2, t = 0.2)
movej(p[0.418229664630486, 0.218452721341713, 0.304466819203507, -1.405, 0.76, -0.761], a = 0.2, v = 0.2, t = 0.2)
movej(p[0.41821607785792, 0.218428574306422, 0.305489643998033, -1.405, 0.76, -0.761], a = 0.2, v = 0.2, t = 0.2)
movej(p[0.418204505066779, 0.218408006611282, 0.306360854409657, -1.405, 0.76, -0.761], a = 0.2, v = 0.2, t = 0.2)
movej(p[0.418198358884655, 0.218397083334547, 0.306823544679785, -1.405, 0.76, -0.761], a = 0.2, v = 0.2, t = 0.2)
movej(p[0.418196398549203, 0.218393599336482, 0.306971120544147, -1.405, 0.76, -0.761], a = 0.2, v = 0.2, t = 0.2)
movej(p[0.41819585066977, 0.218392625620028, 0.307012365414184, -1.405, 0.76, -0.761], a = 0.2, v = 0.2, t = 0.2)
movej(p[0.418195674062972, 0.218392311746328, 0.3070256605371, -1.405, 0.76, -0.761], a = 0.2, v = 0.2, t = 0.2)
movej(p[0.418197327527515, 0.218395250359341, 0.306901186198345, -1.405, 0.76, -0.761], a = 0.2, v = 0.2, t = 0.2)
movej(p[0.418203673023025, 0.218406527864965, 0.306423491432355, -1.405, 0.76, -0.761], a = 0.2, v = 0.2, t = 0.2)
movej(p[0.418211794811114, 0.21842096227922, 0.305812075719568, -1.405, 0.76, -0.761], a = 0.2, v = 0.2, t = 0.2)
movej(p[0.418222944277089, 0.218440777621462, 0.304972733617609, -1.405, 0.76, -0.761], a = 0.2, v = 0.2, t = 0.2)
movej(p[0.418234221882582, 0.218460820699133, 0.304123745054287, -1.405, 0.76, -0.761], a = 0.2, v = 0.2, t = 0.2)
movej(p[0.418243356304835, 0.218477054813262, 0.303436097305895, -1.405, 0.76, -0.761], a = 0.2, v = 0.2, t = 0.2)
movej(p[0.418249273296484, 0.218487570762173, 0.302990660706559, -1.405, 0.76, -0.761], a = 0.2, v = 0.2, t = 0.2)
movej(p[0.418249985035156, 0.218488835696782, 0.302937080361576, -1.405, 0.76, -0.761], a = 0.2, v = 0.2, t = 0.2)
movej(p[0.418244447814515, 0.218478994694322, 0.303353927448477, -1.405, 0.76, -0.761], a = 0.2, v = 0.2, t = 0.2)
movej(p[0.418230988517532, 0.218455074214483, 0.304367155763305, -1.405, 0.76, -0.761], a = 0.2, v = 0.2, t = 0.2)
movej(p[0.418215133741882, 0.218426896380103, 0.3055607179258, -1.405, 0.76, -0.761], a = 0.2, v = 0.2, t = 0.2)
movej(p[0.418202801275939, 0.218404978556064, 0.306489117358627, -1.405, 0.76, -0.761], a = 0.2, v = 0.2, t = 0.2)
movej(p[0.418197622978736, 0.2183957754488, 0.306878944357377, -1.405, 0.76, -0.761], a = 0.2, v = 0.2, t = 0.2)
movej(p[0.418195022742415, 0.218391154189564, 0.307074692550559, -1.405, 0.76, -0.761], a = 0.2, v = 0.2, t = 0.2)
movej(p[0.418196023292955, 0.218392932413869, 0.30699937018126, -1.405, 0.76, -0.761], a = 0.2, v = 0.2, t = 0.2)
movej(p[0.418200262134946, 0.218400465878248, 0.306680266238987, -1.405, 0.76, -0.761], a = 0.2, v = 0.2, t = 0.2)
movej(p[0.418208065751947, 0.218414334824254, 0.306092802739747, -1.405, 0.76, -0.761], a = 0.2, v = 0.2, t = 0.2)
movej(p[0.418219316534453, 0.218434330230882, 0.305245833435694, -1.405, 0.76, -0.761], a = 0.2, v = 0.2, t = 0.2)
movej(p[0.418231805157986, 0.21845652558535, 0.304305678315237, -1.405, 0.76, -0.761], a = 0.2, v = 0.2, t = 0.2)
movej(p[0.418243486436159, 0.218477286088619, 0.303426300899536, -1.405, 0.76, -0.761], a = 0.2, v = 0.2, t = 0.2)
movej(p[0.418250387379966, 0.218489550762428, 0.302906791472528, -1.405, 0.76, -0.761], a = 0.2, v = 0.2, t = 0.2)
movej(p[0.418251806873698, 0.218492073551788, 0.302799930672552, -1.405, 0.76, -0.761], a = 0.2, v = 0.2, t = 0.2)
movej(p[0.418248605377543, 0.218486383706001, 0.303040942261646, -1.405, 0.76, -0.761], a = 0.2, v = 0.2, t = 0.2)
movej(p[0.418236702344971, 0.218465229090642, 0.303937013553488, -1.405, 0.76, -0.761], a = 0.2, v = 0.2, t = 0.2)
movej(p[0.418222184735073, 0.218439427728559, 0.305029912642479, -1.405, 0.76, -0.761], a = 0.2, v = 0.2, t = 0.2)
movej(p[0.418208775631601, 0.218415596454929, 0.306039362343426, -1.405, 0.76, -0.761], a = 0.2, v = 0.2, t = 0.2)
movej(p[0.418201585344778, 0.218402817547443, 0.306580653780084, -1.405, 0.76, -0.761], a = 0.2, v = 0.2, t = 0.2)
movej(p[0.418197649270575, 0.218395822175862, 0.306876965083439, -1.405, 0.76, -0.761], a = 0.2, v = 0.2, t = 0.2)
movej(p[0.418196850821949, 0.218394403136347, 0.306937073033884, -1.405, 0.76, -0.761], a = 0.2, v = 0.2, t = 0.2)
movej(p[0.418199612978818, 0.218399312168207, 0.306729135312218, -1.405, 0.76, -0.761], a = 0.2, v = 0.2, t = 0.2)
movej(p[0.418206503379332, 0.218411558103992, 0.306210419594051, -1.405, 0.76, -0.761], a = 0.2, v = 0.2, t = 0.2)
movej(p[0.418217134842963, 0.218430452828714, 0.3054100731872, -1.405, 0.76, -0.761], a = 0.2, v = 0.2, t = 0.2)
movej(p[0.418229322039857, 0.218452112473935, 0.304492609742696, -1.405, 0.76, -0.761], a = 0.2, v = 0.2, t = 0.2)
movej(p[0.418241077678787, 0.218473005134552, 0.303607634380505, -1.405, 0.76, -0.761], a = 0.2, v = 0.2, t = 0.2)
movej(p[0.418248390262497, 0.218486001393675, 0.303057136321137, -1.405, 0.76, -0.761], a = 0.2, v = 0.2, t = 0.2)
movej(p[0.418251767037579, 0.218492002753209, 0.302802929572458, -1.405, 0.76, -0.761], a = 0.2, v = 0.2, t = 0.2)
movej(p[0.418249504345978, 0.21848798139393, 0.302973267087105, -1.405, 0.76, -0.761], a = 0.2, v = 0.2, t = 0.2)
movej(p[0.418241595548343, 0.218473925516077, 0.30356864868173, -1.405, 0.76, -0.761], a = 0.2, v = 0.2, t = 0.2)
movej(p[0.418226830954503, 0.218447685202805, 0.304680140950137, -1.405, 0.76, -0.761], a = 0.2, v = 0.2, t = 0.2)
movej(p[0.418212042458992, 0.218421402410385, 0.305793432558487, -1.405, 0.76, -0.761], a = 0.2, v = 0.2, t = 0.2)
movej(p[0.418202763829986, 0.2184049120054, 0.306491936324538, -1.405, 0.76, -0.761], a = 0.2, v = 0.2, t = 0.2)
movej(p[0.418197454339163, 0.218395475734817, 0.306891639700311, -1.405, 0.76, -0.761], a = 0.2, v = 0.2, t = 0.2)
movej(p[0.418195424556076, 0.218391868311229, 0.307044443646843, -1.405, 0.76, -0.761], a = 0.2, v = 0.2, t = 0.2)
movej(p[0.418195181954107, 0.218391437147884, 0.307062706947269, -1.405, 0.76, -0.761], a = 0.2, v = 0.2, t = 0.2)
movej(p[0.418196092342229, 0.218393055131406, 0.306994172088089, -1.405, 0.76, -0.761], a = 0.2, v = 0.2, t = 0.2)
movej(p[0.418199449836629, 0.218399022224427, 0.306741416806965, -1.405, 0.76, -0.761], a = 0.2, v = 0.2, t = 0.2)
movej(p[0.418207186435998, 0.218412772063624, 0.306158998457, -1.405, 0.76, -0.761], a = 0.2, v = 0.2, t = 0.2)
movej(p[0.418218977927436, 0.218433728442962, 0.305271324084893, -1.405, 0.76, -0.761], a = 0.2, v = 0.2, t = 0.2)
movej(p[0.418229416318673, 0.218452280030572, 0.304485512346253, -1.405, 0.76, -0.761], a = 0.2, v = 0.2, t = 0.2)
movej(p[0.418238363511163, 0.21846818139138, 0.303811959427418, -1.405, 0.76, -0.761], a = 0.2, v = 0.2, t = 0.2)
movej(p[0.418245896521402, 0.21848156940264, 0.303244867455238, -1.405, 0.76, -0.761], a = 0.2, v = 0.2, t = 0.2)
movej(p[0.41825112302031, 0.218490858176184, 0.302851411787601, -1.405, 0.76, -0.761], a = 0.2, v = 0.2, t = 0.2)
movej(p[0.418249429985222, 0.218487849236583, 0.302978865033596, -1.405, 0.76, -0.761], a = 0.2, v = 0.2, t = 0.2)
movej(p[0.418241300761057, 0.218473401606594, 0.303590840541033, -1.405, 0.76, -0.761], a = 0.2, v = 0.2, t = 0.2)
movej(p[0.418229549105739, 0.218452516025834, 0.304475516013233, -1.405, 0.76, -0.761], a = 0.2, v = 0.2, t = 0.2)
movej(p[0.418216243841752, 0.2184288693005, 0.305477148581759, -1.405, 0.76, -0.761], a = 0.2, v = 0.2, t = 0.2)
movej(p[0.418205241238272, 0.218409314969019, 0.306305434739398, -1.405, 0.76, -0.761], a = 0.2, v = 0.2, t = 0.2)
movej(p[0.418197424860434, 0.218395423343868, 0.306893858886242, -1.405, 0.76, -0.761], a = 0.2, v = 0.2, t = 0.2)
movej(p[0.418195603818615, 0.218392186904834, 0.307030948597267, -1.405, 0.76, -0.761], a = 0.2, v = 0.2, t = 0.2)
movej(p[0.418194433566204, 0.218390107078583, 0.307119046280166, -1.405, 0.76, -0.761], a = 0.2, v = 0.2, t = 0.2)
movej(p[0.418195018094868, 0.21839114592973, 0.307075042422215, -1.405, 0.76, -0.761], a = 0.2, v = 0.2, t = 0.2)
movej(p[0.418198127171225, 0.218396671522813, 0.306840988280903, -1.405, 0.76, -0.761], a = 0.2, v = 0.2, t = 0.2)
movej(p[0.418204176817153, 0.218407423230992, 0.30638556534488, -1.405, 0.76, -0.761], a = 0.2, v = 0.2, t = 0.2)
movej(p[0.418213285345927, 0.218423611326045, 0.305699866881427, -1.405, 0.76, -0.761], a = 0.2, v = 0.2, t = 0.2)
movej(p[0.418224495230017, 0.218443534046132, 0.304855976447945, -1.405, 0.76, -0.761], a = 0.2, v = 0.2, t = 0.2)
movej(p[0.418235167326491, 0.218462500985404, 0.30405257116319, -1.405, 0.76, -0.761], a = 0.2, v = 0.2, t = 0.2)
movej(p[0.418242884910751, 0.218476217030079, 0.303471584288113, -1.405, 0.76, -0.761], a = 0.2, v = 0.2, t = 0.2)
movej(p[0.418246964129411, 0.218483466804553, 0.303164496937763, -1.405, 0.76, -0.761], a = 0.2, v = 0.2, t = 0.2)
movej(p[0.418246067816717, 0.218481873836529, 0.303231972185643, -1.405, 0.76, -0.761], a = 0.2, v = 0.2, t = 0.2)
movej(p[0.418239688726079, 0.218470536624103, 0.303712196023886, -1.405, 0.76, -0.761], a = 0.2, v = 0.2, t = 0.2)
movej(p[0.41822704606955, 0.21844806751513, 0.304663946890646, -1.405, 0.76, -0.761], a = 0.2, v = 0.2, t = 0.2)
movej(p[0.418214197593069, 0.2184252326135, 0.305631192073585, -1.405, 0.76, -0.761], a = 0.2, v = 0.2, t = 0.2)
movej(p[0.418204597619364, 0.21840817109998, 0.306353886965543, -1.405, 0.76, -0.761], a = 0.2, v = 0.2, t = 0.2)
movej(p[0.418199080383176, 0.218398365614807, 0.306769229604325, -1.405, 0.76, -0.761], a = 0.2, v = 0.2, t = 0.2)
movej(p[0.418196620303603, 0.218393993448571, 0.306954426668005, -1.405, 0.76, -0.761], a = 0.2, v = 0.2, t = 0.2)
movej(p[0.418196331093374, 0.218393479450888, 0.306976198681321, -1.405, 0.76, -0.761], a = 0.2, v = 0.2, t = 0.2)
movej(p[0.418197958398864, 0.218396371572834, 0.30685369362017, -1.405, 0.76, -0.761], a = 0.2, v = 0.2, t = 0.2)
movej(p[0.418201956750201, 0.218403477626193, 0.306552694036629, -1.405, 0.76, -0.761], a = 0.2, v = 0.2, t = 0.2)
movej(p[0.418211264459574, 0.21842001971414, 0.305852001073647, -1.405, 0.76, -0.761], a = 0.2, v = 0.2, t = 0.2)
movej(p[0.418224566935033, 0.218443661483574, 0.304850578428115, -1.405, 0.76, -0.761], a = 0.2, v = 0.2, t = 0.2)
movej(p[0.418236739525349, 0.218465295169316, 0.303934214580243, -1.405, 0.76, -0.761], a = 0.2, v = 0.2, t = 0.2)
movej(p[0.418246621538781, 0.218482857936775, 0.303190287476953, -1.405, 0.76, -0.761], a = 0.2, v = 0.2, t = 0.2)
movej(p[0.418254243516355, 0.21849640406486, 0.30261649796165, -1.405, 0.76, -0.761], a = 0.2, v = 0.2, t = 0.2)
movej(p[0.418258339997333, 0.218503684518718, 0.302308111088007, -1.405, 0.76, -0.761], a = 0.2, v = 0.2, t = 0.2)
movej(p[0.418253328613472, 0.218494778057499, 0.302685372696152, -1.405, 0.76, -0.761], a = 0.2, v = 0.2, t = 0.2)
movej(p[0.418240035300321, 0.218471152571739, 0.303686105594706, -1.405, 0.76, -0.761], a = 0.2, v = 0.2, t = 0.2)
movej(p[0.418222755719456, 0.218440442508189, 0.304986928410497, -1.405, 0.76, -0.761], a = 0.2, v = 0.2, t = 0.2)
movej(p[0.418208659442918, 0.218415389959074, 0.306048109134818, -1.405, 0.76, -0.761], a = 0.2, v = 0.2, t = 0.2)
movej(p[0.418198919763942, 0.218398080154937, 0.306781321168745, -1.405, 0.76, -0.761], a = 0.2, v = 0.2, t = 0.2)
movej(p[0.418194991404667, 0.218391098494682, 0.307077051685152, -1.405, 0.76, -0.761], a = 0.2, v = 0.2, t = 0.2)
movej(p[0.418194815063444, 0.218390785092973, 0.307090326815401, -1.405, 0.76, -0.761], a = 0.2, v = 0.2, t = 0.2)
movej(p[0.418195006144032, 0.218391124690156, 0.307075942092187, -1.405, 0.76, -0.761], a = 0.2, v = 0.2, t = 0.2)
movej(p[0.418198915753772, 0.218398073027881, 0.306781623058002, -1.405, 0.76, -0.761], a = 0.2, v = 0.2, t = 0.2)
movej(p[0.418206394626725, 0.218411364823871, 0.306218606590794, -1.405, 0.76, -0.761], a = 0.2, v = 0.2, t = 0.2)
movej(p[0.418217456187662, 0.21843102393725, 0.305385882061294, -1.405, 0.76, -0.761], a = 0.2, v = 0.2, t = 0.2)
movej(p[0.418229198547886, 0.218451892998341, 0.304501906332404, -1.405, 0.76, -0.761], a = 0.2, v = 0.2, t = 0.2)
movej(p[0.418240327431865, 0.218471671761317, 0.303664113662064, -1.405, 0.76, -0.761], a = 0.2, v = 0.2, t = 0.2)
movej(p[0.418251235889316, 0.218491058772157, 0.302842914904535, -1.405, 0.76, -0.761], a = 0.2, v = 0.2, t = 0.2)
movej(p[0.418254741467851, 0.218497289047096, 0.302579011712828, -1.405, 0.76, -0.761], a = 0.2, v = 0.2, t = 0.2)
movej(p[0.418252620858411, 0.218493520202749, 0.302738653151144, -1.405, 0.76, -0.761], a = 0.2, v = 0.2, t = 0.2)
movej(p[0.418243600633036, 0.218477489044546, 0.30341770405314, -1.405, 0.76, -0.761], a = 0.2, v = 0.2, t = 0.2)
movej(p[0.418230100172062, 0.218453495406175, 0.304434031231204, -1.405, 0.76, -0.761], a = 0.2, v = 0.2, t = 0.2)
movej(p[0.418215201463286, 0.218427016737687, 0.30555561979596, -1.405, 0.76, -0.761], a = 0.2, v = 0.2, t = 0.2)
movej(p[0.418204521532376, 0.218408035874694, 0.306359614864363, -1.405, 0.76, -0.761], a = 0.2, v = 0.2, t = 0.2)
movej(p[0.418199271968355, 0.218398706108773, 0.306754806895044, -1.405, 0.76, -0.761], a = 0.2, v = 0.2, t = 0.2)
movej(p[0.418196598128163, 0.218393954037362, 0.306956096055619, -1.405, 0.76, -0.761], a = 0.2, v = 0.2, t = 0.2)
movej(p[0.418196558557617, 0.218393883710774, 0.306959074962859, -1.405, 0.76, -0.761], a = 0.2, v = 0.2, t = 0.2)
movej(p[0.418200501324288, 0.218400890976515, 0.306662259844319, -1.405, 0.76, -0.761], a = 0.2, v = 0.2, t = 0.2)
movej(p[0.418208689054434, 0.218415442586018, 0.306045879952554, -1.405, 0.76, -0.761], a = 0.2, v = 0.2, t = 0.2)
movej(p[0.418220080060081, 0.218435687203643, 0.305188354520834, -1.405, 0.76, -0.761], a = 0.2, v = 0.2, t = 0.2)
movej(p[0.418233462340566, 0.21845947080623, 0.304180924079157, -1.405, 0.76, -0.761], a = 0.2, v = 0.2, t = 0.2)
movej(p[0.418246964129411, 0.218483466804553, 0.303164496937763, -1.405, 0.76, -0.761], a = 0.2, v = 0.2, t = 0.2)
movej(p[0.41825550632135, 0.21849864837981, 0.302521432834637, -1.405, 0.76, -0.761], a = 0.2, v = 0.2, t = 0.2)
movej(p[0.418259281457629, 0.218505357725131, 0.3022372370869, -1.405, 0.76, -0.761], a = 0.2, v = 0.2, t = 0.2)
movej(p[0.418256409273397, 0.218500253147597, 0.302453457770106, -1.405, 0.76, -0.761], a = 0.2, v = 0.2, t = 0.2)
movej(p[0.418246601620721, 0.218482822537485, 0.303191786926906, -1.405, 0.76, -0.761], a = 0.2, v = 0.2, t = 0.2)
movej(p[0.418231702911945, 0.218456343868997, 0.304313375491662, -1.405, 0.76, -0.761], a = 0.2, v = 0.2, t = 0.2)
movej(p[0.418216217284339, 0.218428822101448, 0.305479147848363, -1.405, 0.76, -0.761], a = 0.2, v = 0.2, t = 0.2)
movej(p[0.418206788871523, 0.218412065493807, 0.306188927478059, -1.405, 0.76, -0.761], a = 0.2, v = 0.2, t = 0.2)
movej(p[0.418199751010973, 0.218399557485283, 0.306718744124044, -1.405, 0.76, -0.761], a = 0.2, v = 0.2, t = 0.2)
movej(p[0.418197275342198, 0.218395157613202, 0.306905114757221, -1.405, 0.76, -0.761], a = 0.2, v = 0.2, t = 0.2)
movej(p[0.418196769025116, 0.218394257763265, 0.306943230775024, -1.405, 0.76, -0.761], a = 0.2, v = 0.2, t = 0.2)
movej(p[0.418200926920112, 0.218401647364932, 0.306630220597359, -1.405, 0.76, -0.761], a = 0.2, v = 0.2, t = 0.2)
movej(p[0.418209125658306, 0.218416218538442, 0.306013012009587, -1.405, 0.76, -0.761], a = 0.2, v = 0.2, t = 0.2)
movej(p[0.418222224571193, 0.218439498527137, 0.305026913742574, -1.405, 0.76, -0.761], a = 0.2, v = 0.2, t = 0.2)
movej(p[0.418237119296357, 0.218465970115767, 0.303905625067808, -1.405, 0.76, -0.761], a = 0.2, v = 0.2, t = 0.2)
movej(p[0.418247934802861, 0.218485191929924, 0.303091423743393, -1.405, 0.76, -0.761], a = 0.2, v = 0.2, t = 0.2)
movej(p[0.418256287109296, 0.218500036031955, 0.302462654396484, -1.405, 0.76, -0.761], a = 0.2, v = 0.2, t = 0.2)
movej(p[0.418260193704771, 0.218506979012587, 0.302168562279058, -1.405, 0.76, -0.761], a = 0.2, v = 0.2, t = 0.2)
movej(p[0.418259821900986, 0.218506318225851, 0.302196552011512, -1.405, 0.76, -0.761], a = 0.2, v = 0.2, t = 0.2)
movej(p[0.418249270640743, 0.218487566042268, 0.302990860633219, -1.405, 0.76, -0.761], a = 0.2, v = 0.2, t = 0.2)
movej(p[0.418234751702975, 0.218461762320231, 0.304083859685541, -1.405, 0.76, -0.761], a = 0.2, v = 0.2, t = 0.2)
movej(p[0.418220362896531, 0.218436189873553, 0.305167062331503, -1.405, 0.76, -0.761], a = 0.2, v = 0.2, t = 0.2)
movej(p[0.418208602742841, 0.218415289189097, 0.306052377569017, -1.405, 0.76, -0.761], a = 0.2, v = 0.2, t = 0.2)
movej(p[0.418201027493036, 0.218401826107744, 0.306622649374731, -1.405, 0.76, -0.761], a = 0.2, v = 0.2, t = 0.2)
movej(p[0.418197651129594, 0.218395825479796, 0.306876825134777, -1.405, 0.76, -0.761], a = 0.2, v = 0.2, t = 0.2)
movej(p[0.418198265269773, 0.218396916957887, 0.306830592094563, -1.405, 0.76, -0.761], a = 0.2, v = 0.2, t = 0.2)
movej(p[0.418200014773889, 0.218400026256833, 0.306698887807988, -1.405, 0.76, -0.761], a = 0.2, v = 0.2, t = 0.2)
movej(p[0.418205364597456, 0.218409534208618, 0.306296148146024, -1.405, 0.76, -0.761], a = 0.2, v = 0.2, t = 0.2)
movej(p[0.418215387365178, 0.218427347131055, 0.305541624929733, -1.405, 0.76, -0.761], a = 0.2, v = 0.2, t = 0.2)
movej(p[0.418226014314049, 0.218446233831938, 0.304741618398205, -1.405, 0.76, -0.761], a = 0.2, v = 0.2, t = 0.2)
movej(p[0.418236349131376, 0.218464601343243, 0.303963603799319, -1.405, 0.76, -0.761], a = 0.2, v = 0.2, t = 0.2)
movej(p[0.418244204814185, 0.218478562822991, 0.303372220737902, -1.405, 0.76, -0.761], a = 0.2, v = 0.2, t = 0.2)
movej(p[0.418251287676271, 0.21849115081031, 0.302839016334657, -1.405, 0.76, -0.761], a = 0.2, v = 0.2, t = 0.2)
movej(p[0.418251174807265, 0.218490950214337, 0.302847513217724, -1.405, 0.76, -0.761], a = 0.2, v = 0.2, t = 0.2)
movej(p[0.418243933928571, 0.218478081392655, 0.303392613257262, -1.405, 0.76, -0.761], a = 0.2, v = 0.2, t = 0.2)
movej(p[0.418231605977387, 0.218456171592455, 0.304320672814766, -1.405, 0.76, -0.761], a = 0.2, v = 0.2, t = 0.2)
movej(p[0.418219210304801, 0.218434141434672, 0.30525383050211, -1.405, 0.76, -0.761], a = 0.2, v = 0.2, t = 0.2)
movej(p[0.418207224014737, 0.218412838850283, 0.306156169494755, -1.405, 0.76, -0.761], a = 0.2, v = 0.2, t = 0.2)
movej(p[0.418200023373179, 0.218400041539886, 0.306698240445462, -1.405, 0.76, -0.761], a = 0.2, v = 0.2, t = 0.2)
movej(p[0.418196946826997, 0.218394573760922, 0.306929845685111, -1.405, 0.76, -0.761], a = 0.2, v = 0.2, t = 0.2)
movej(p[0.418196171483321, 0.218393195784583, 0.30698821427361, -1.405, 0.76, -0.761], a = 0.2, v = 0.2, t = 0.2)
movej(p[0.418195809505779, 0.218392552461496, 0.30701546427742, -1.405, 0.76, -0.761], a = 0.2, v = 0.2, t = 0.2)
movej(p[0.418197050135335, 0.218394757365237, 0.306922068538022, -1.405, 0.76, -0.761], a = 0.2, v = 0.2, t = 0.2)
movej(p[0.418201776956514, 0.218403158088607, 0.306566229071537, -1.405, 0.76, -0.761], a = 0.2, v = 0.2, t = 0.2)
movej(p[0.418209339843843, 0.218416599198801, 0.305996887924427, -1.405, 0.76, -0.761], a = 0.2, v = 0.2, t = 0.2)
movej(p[0.418219271386851, 0.218434249992492, 0.305249232188921, -1.405, 0.76, -0.761], a = 0.2, v = 0.2, t = 0.2)
movej(p[0.418231471862451, 0.21845593323724, 0.304330769111115, -1.405, 0.76, -0.761], a = 0.2, v = 0.2, t = 0.2)
movej(p[0.418240512005887, 0.218471999794732, 0.303650218759167, -1.405, 0.76, -0.761], a = 0.2, v = 0.2, t = 0.2)
movej(p[0.41824712480176, 0.218483752358821, 0.30315240137481, -1.405, 0.76, -0.761], a = 0.2, v = 0.2, t = 0.2)
movej(p[0.41824954816571, 0.218488059272367, 0.302969968297209, -1.405, 0.76, -0.761], a = 0.2, v = 0.2, t = 0.2)
movej(p[0.418249815067712, 0.218488533622845, 0.30294987566784, -1.405, 0.76, -0.761], a = 0.2, v = 0.2, t = 0.2)
movej(p[0.418241361843107, 0.218473510164414, 0.303586242227844, -1.405, 0.76, -0.761], a = 0.2, v = 0.2, t = 0.2)
movej(p[0.418227804283695, 0.218449415048081, 0.304606867829106, -1.405, 0.76, -0.761], a = 0.2, v = 0.2, t = 0.2)
movej(p[0.418214011691177, 0.218424902220132, 0.305645186939812, -1.405, 0.76, -0.761], a = 0.2, v = 0.2, t = 0.2)
movej(p[0.418205328081013, 0.21840946930992, 0.306298897137604, -1.405, 0.76, -0.761], a = 0.2, v = 0.2, t = 0.2)
movej(p[0.418199811628269, 0.21839966521712, 0.306714180798021, -1.405, 0.76, -0.761], a = 0.2, v = 0.2, t = 0.2)
movej(p[0.41819689782857, 0.21839448667867, 0.306933534331995, -1.405, 0.76, -0.761], a = 0.2, v = 0.2, t = 0.2)
movej(p[0.418197398037447, 0.218395375672825, 0.306895878145512, -1.405, 0.76, -0.761], a = 0.2, v = 0.2, t = 0.2)
movej(p[0.418198937663638, 0.218398111967099, 0.306779973663054, -1.405, 0.76, -0.761], a = 0.2, v = 0.2, t = 0.2)
movej(p[0.418205600028923, 0.218409952628219, 0.30627842464758, -1.405, 0.76, -0.761], a = 0.2, v = 0.2, t = 0.2)
movej(p[0.418215793693599, 0.218428069276559, 0.305511036150694, -1.405, 0.76, -0.761], a = 0.2, v = 0.2, t = 0.2)
movej(p[0.418228869235963, 0.218451307730089, 0.304526697238292, -1.405, 0.76, -0.761], a = 0.2, v = 0.2, t = 0.2)
movej(p[0.418239858693523, 0.218470838698039, 0.303699400717621, -1.405, 0.76, -0.761], a = 0.2, v = 0.2, t = 0.2)
movej(p[0.418249917313753, 0.218488715339198, 0.302942178491416, -1.405, 0.76, -0.761], a = 0.2, v = 0.2, t = 0.2)
movej(p[0.41825754725855, 0.218502275626999, 0.302367789196131, -1.405, 0.76, -0.761], a = 0.2, v = 0.2, t = 0.2)
movej(p[0.418258397095771, 0.218503785996681, 0.302303812664808, -1.405, 0.76, -0.761], a = 0.2, v = 0.2, t = 0.2)
movej(p[0.418251579807816, 0.218491669999888, 0.302817024402015, -1.405, 0.76, -0.761], a = 0.2, v = 0.2, t = 0.2)
