def moving():
set_payload_mass(0)
set_tcp(p[0,0,0,0,0,0])
movej(p[0.4491, 0.0581, 0.3462, -1.222, 0.971, -1.041], a = 0.2, v = 0.2, t = 0.1)
movej(p[0.44900923609527, 0.0580522093812049, 0.347194725072748, -1.222, 0.971, -1.041], a = 0.2, v = 0.2, t = 0.1)
movej(p[0.448918472190539, 0.0580044187624098, 0.348189450145496, -1.222, 0.971, -1.041], a = 0.2, v = 0.2, t = 0.1)
movej(p[0.448827708285809, 0.0579566281436147, 0.349184175218244, -1.222, 0.971, -1.041], a = 0.2, v = 0.2, t = 0.1)
movej(p[0.448736944381078, 0.0579088375248196, 0.350178900290992, -1.222, 0.971, -1.041], a = 0.2, v = 0.2, t = 0.1)
movej(p[0.448827708285809, 0.0579566281436147, 0.349184175218244, -1.222, 0.971, -1.041], a = 0.2, v = 0.2, t = 0.1)
movej(p[0.448918472190539, 0.0580044187624098, 0.348189450145496, -1.222, 0.971, -1.041], a = 0.2, v = 0.2, t = 0.1)
movej(p[0.44900923609527, 0.0580522093812049, 0.347194725072748, -1.222, 0.971, -1.041], a = 0.2, v = 0.2, t = 0.1)
movej(p[0.449054618047635, 0.0580761046906024, 0.346697362536374, -1.222, 0.971, -1.041], a = 0.2, v = 0.2, t = 0.1)
movej(p[0.449081847219054, 0.058090441876241, 0.34639894501455, -1.222, 0.971, -1.041], a = 0.2, v = 0.2, t = 0.1)
movej(p[0.4491, 0.0581, 0.3462, -1.222, 0.971, -1.041], a = 0.2, v = 0.2, t = 0.1)
movej(p[0.44910000740206, 0.0581000199839034, 0.346200149415036, -1.222, 0.971, -1.041], a = 0.2, v = 0.2, t = 0.1)
movej(p[0.449100092242576, 0.0581003387812184, 0.346202305725394, -1.222, 0.971, -1.041], a = 0.2, v = 0.2, t = 0.1)
movej(p[0.44910008046207, 0.0581014595045101, 0.346207251303775, -1.222, 0.971, -1.041], a = 0.2, v = 0.2, t = 0.1)
movej(p[0.449100224002662, 0.0581038874687039, 0.346213684299576, -1.222, 0.971, -1.041], a = 0.2, v = 0.2, t = 0.1)
movej(p[0.449101789071836, 0.0581059820032688, 0.346219553409597, -1.222, 0.971, -1.041], a = 0.2, v = 0.2, t = 0.1)
movej(p[0.449104381762731, 0.0581056325410054, 0.346222879576617, -1.222, 0.971, -1.041], a = 0.2, v = 0.2, t = 0.1)
movej(p[0.449105518524175, 0.058102576748341, 0.346223706075021, -1.222, 0.971, -1.041], a = 0.2, v = 0.2, t = 0.1)
movej(p[0.449102954488296, 0.0580979315186661, 0.346221708819334, -1.222, 0.971, -1.041], a = 0.2, v = 0.2, t = 0.1)
movej(p[0.449095555786725, 0.0580929846084273, 0.346217485591167, -1.222, 0.971, -1.041], a = 0.2, v = 0.2, t = 0.1)
movej(p[0.449083357541448, 0.0580892848421306, 0.34621231333339, -1.222, 0.971, -1.041], a = 0.2, v = 0.2, t = 0.1)
movej(p[0.449067659318417, 0.0580865060966129, 0.346206446757643, -1.222, 0.971, -1.041], a = 0.2, v = 0.2, t = 0.1)
movej(p[0.449050066548377, 0.0580837414399413, 0.346199370517835, -1.222, 0.971, -1.041], a = 0.2, v = 0.2, t = 0.1)
movej(p[0.449031873535046, 0.058080692332548, 0.346191211491909, -1.222, 0.971, -1.041], a = 0.2, v = 0.2, t = 0.1)
movej(p[0.449013791675435, 0.0580776010340838, 0.346182575019898, -1.222, 0.971, -1.041], a = 0.2, v = 0.2, t = 0.1)
movej(p[0.448996368580262, 0.0580745748456257, 0.346173788660925, -1.222, 0.971, -1.041], a = 0.2, v = 0.2, t = 0.1)
movej(p[0.448981043745469, 0.0580708483521041, 0.346165116884659, -1.222, 0.971, -1.041], a = 0.2, v = 0.2, t = 0.1)
movej(p[0.448969465329181, 0.0580674101031899, 0.346156407726166, -1.222, 0.971, -1.041], a = 0.2, v = 0.2, t = 0.1)
movej(p[0.44896331519281, 0.0580652594756657, 0.346148569389297, -1.222, 0.971, -1.041], a = 0.2, v = 0.2, t = 0.1)
movej(p[0.448963409930893, 0.0580652137532882, 0.346142419362048, -1.222, 0.971, -1.041], a = 0.2, v = 0.2, t = 0.1)
movej(p[0.448969907799398, 0.0580686168575809, 0.346138564435972, -1.222, 0.971, -1.041], a = 0.2, v = 0.2, t = 0.1)
movej(p[0.448983020456015, 0.0580763698831286, 0.346138074529555, -1.222, 0.971, -1.041], a = 0.2, v = 0.2, t = 0.1)
movej(p[0.449001576895809, 0.0580870931292705, 0.346140861958543, -1.222, 0.971, -1.041], a = 0.2, v = 0.2, t = 0.1)
movej(p[0.449022711836158, 0.0580966408012033, 0.346147519656276, -1.222, 0.971, -1.041], a = 0.2, v = 0.2, t = 0.1)
movej(p[0.449043359664816, 0.058102182339341, 0.346156349142262, -1.222, 0.971, -1.041], a = 0.2, v = 0.2, t = 0.1)
movej(p[0.449062084159446, 0.0581033447291374, 0.346164770624543, -1.222, 0.971, -1.041], a = 0.2, v = 0.2, t = 0.1)
movej(p[0.449078457102485, 0.0581008574459379, 0.346171832076628, -1.222, 0.971, -1.041], a = 0.2, v = 0.2, t = 0.1)
movej(p[0.449091720956934, 0.0580956933220331, 0.346176021256793, -1.222, 0.971, -1.041], a = 0.2, v = 0.2, t = 0.1)
movej(p[0.449101480175249, 0.0580894293775563, 0.346176431849619, -1.222, 0.971, -1.041], a = 0.2, v = 0.2, t = 0.1)
movej(p[0.449106169402355, 0.058083936882228, 0.346173363788632, -1.222, 0.971, -1.041], a = 0.2, v = 0.2, t = 0.1)
movej(p[0.449103580736005, 0.0580809247001765, 0.346168633927448, -1.222, 0.971, -1.041], a = 0.2, v = 0.2, t = 0.1)
movej(p[0.44909386615442, 0.0580814459119983, 0.346162970227521, -1.222, 0.971, -1.041], a = 0.2, v = 0.2, t = 0.1)
movej(p[0.449079676361426, 0.0580838747173244, 0.346154252394677, -1.222, 0.971, -1.041], a = 0.2, v = 0.2, t = 0.1)
movej(p[0.449063292665323, 0.0580863736569569, 0.346141676435044, -1.222, 0.971, -1.041], a = 0.2, v = 0.2, t = 0.1)
movej(p[0.449045232037162, 0.0580892244445302, 0.346126865295127, -1.222, 0.971, -1.041], a = 0.2, v = 0.2, t = 0.1)
movej(p[0.449025976810081, 0.0580932028704013, 0.346111832449799, -1.222, 0.971, -1.041], a = 0.2, v = 0.2, t = 0.1)
movej(p[0.449007261650521, 0.0580976968039727, 0.346098701290798, -1.222, 0.971, -1.041], a = 0.2, v = 0.2, t = 0.1)
movej(p[0.448990868861586, 0.05810144768589, 0.346089827867571, -1.222, 0.971, -1.041], a = 0.2, v = 0.2, t = 0.1)
movej(p[0.448978145113991, 0.0581041058014142, 0.346087234362994, -1.222, 0.971, -1.041], a = 0.2, v = 0.2, t = 0.1)
movej(p[0.44897099452772, 0.0581061958787924, 0.346090009874576, -1.222, 0.971, -1.041], a = 0.2, v = 0.2, t = 0.1)
movej(p[0.448970126959653, 0.0581079668043822, 0.346096604550777, -1.222, 0.971, -1.041], a = 0.2, v = 0.2, t = 0.1)
movej(p[0.448977019736673, 0.0581102370949198, 0.346104389730983, -1.222, 0.971, -1.041], a = 0.2, v = 0.2, t = 0.1)
movej(p[0.448991917096882, 0.0581116660978174, 0.346111780150423, -1.222, 0.971, -1.041], a = 0.2, v = 0.2, t = 0.1)
movej(p[0.449013378377686, 0.0581098471533397, 0.346118730795736, -1.222, 0.971, -1.041], a = 0.2, v = 0.2, t = 0.1)
movej(p[0.449038805808047, 0.0581040646126378, 0.34612519845383, -1.222, 0.971, -1.041], a = 0.2, v = 0.2, t = 0.1)
movej(p[0.449065107045549, 0.0580952893953532, 0.346132360060737, -1.222, 0.971, -1.041], a = 0.2, v = 0.2, t = 0.1)
movej(p[0.449090589488727, 0.0580848138060037, 0.346140145378871, -1.222, 0.971, -1.041], a = 0.2, v = 0.2, t = 0.1)
movej(p[0.449114663480479, 0.0580736720489352, 0.346146481378839, -1.222, 0.971, -1.041], a = 0.2, v = 0.2, t = 0.1)
movej(p[0.449137800669634, 0.0580641428618961, 0.34615032627628, -1.222, 0.971, -1.041], a = 0.2, v = 0.2, t = 0.1)
movej(p[0.449160095390973, 0.058057900593498, 0.346150471275233, -1.222, 0.971, -1.041], a = 0.2, v = 0.2, t = 0.1)
movej(p[0.449179715008746, 0.0580548771145779, 0.346147196258951, -1.222, 0.971, -1.041], a = 0.2, v = 0.2, t = 0.1)
movej(p[0.449194678002688, 0.0580539844057687, 0.346140081163993, -1.222, 0.971, -1.041], a = 0.2, v = 0.2, t = 0.1)
movej(p[0.449204289815382, 0.0580548792218499, 0.346129960950066, -1.222, 0.971, -1.041], a = 0.2, v = 0.2, t = 0.1)
movej(p[0.449208736074448, 0.0580566977229933, 0.346118639698417, -1.222, 0.971, -1.041], a = 0.2, v = 0.2, t = 0.1)
movej(p[0.449207493355011, 0.0580577655944449, 0.346106740169436, -1.222, 0.971, -1.041], a = 0.2, v = 0.2, t = 0.1)
movej(p[0.449200153188069, 0.0580567803699607, 0.34609234191298, -1.222, 0.971, -1.041], a = 0.2, v = 0.2, t = 0.1)
movej(p[0.449187721403812, 0.058054180205711, 0.346074454939757, -1.222, 0.971, -1.041], a = 0.2, v = 0.2, t = 0.1)
movej(p[0.44917248351296, 0.058050370547221, 0.346054171831426, -1.222, 0.971, -1.041], a = 0.2, v = 0.2, t = 0.1)
movej(p[0.449157231462419, 0.0580452935874965, 0.346031290165594, -1.222, 0.971, -1.041], a = 0.2, v = 0.2, t = 0.1)
movej(p[0.449143267011151, 0.0580402571178989, 0.346006636957592, -1.222, 0.971, -1.041], a = 0.2, v = 0.2, t = 0.1)
movej(p[0.449130304011143, 0.0580369443759972, 0.345982814404876, -1.222, 0.971, -1.041], a = 0.2, v = 0.2, t = 0.1)
movej(p[0.449119087806513, 0.0580364736908775, 0.345963685982981, -1.222, 0.971, -1.041], a = 0.2, v = 0.2, t = 0.1)
movej(p[0.449111195349236, 0.0580385567791296, 0.345951502920046, -1.222, 0.971, -1.041], a = 0.2, v = 0.2, t = 0.1)
movej(p[0.449108591815744, 0.0580425399108746, 0.345944704106263, -1.222, 0.971, -1.041], a = 0.2, v = 0.2, t = 0.1)
movej(p[0.449111840809305, 0.0580469851034933, 0.345942018268512, -1.222, 0.971, -1.041], a = 0.2, v = 0.2, t = 0.1)
movej(p[0.449120753520448, 0.0580515021958342, 0.345943110858951, -1.222, 0.971, -1.041], a = 0.2, v = 0.2, t = 0.1)
movej(p[0.449134244072609, 0.0580566070353105, 0.34594641571043, -1.222, 0.971, -1.041], a = 0.2, v = 0.2, t = 0.1)
movej(p[0.449150804456342, 0.0580620198203462, 0.34594989482796, -1.222, 0.971, -1.041], a = 0.2, v = 0.2, t = 0.1)
movej(p[0.449167930654216, 0.0580678300603796, 0.345953226517941, -1.222, 0.971, -1.041], a = 0.2, v = 0.2, t = 0.1)
movej(p[0.449183559216874, 0.0580734293925757, 0.345957614770577, -1.222, 0.971, -1.041], a = 0.2, v = 0.2, t = 0.1)
movej(p[0.449196989174446, 0.0580785269850119, 0.345963626052136, -1.222, 0.971, -1.041], a = 0.2, v = 0.2, t = 0.1)
movej(p[0.449208016037383, 0.0580830326844612, 0.345969260947099, -1.222, 0.971, -1.041], a = 0.2, v = 0.2, t = 0.1)
movej(p[0.44921723276192, 0.0580867749613511, 0.345972606988862, -1.222, 0.971, -1.041], a = 0.2, v = 0.2, t = 0.1)
movej(p[0.449225716485453, 0.0580908495963471, 0.345974861627117, -1.222, 0.971, -1.041], a = 0.2, v = 0.2, t = 0.1)
movej(p[0.449234565234058, 0.0580945672403913, 0.345975339965804, -1.222, 0.971, -1.041], a = 0.2, v = 0.2, t = 0.1)
movej(p[0.449243282236808, 0.0580967226082822, 0.345972282030992, -1.222, 0.971, -1.041], a = 0.2, v = 0.2, t = 0.1)
movej(p[0.44924982120235, 0.0580958967365504, 0.345965181609912, -1.222, 0.971, -1.041], a = 0.2, v = 0.2, t = 0.1)
movej(p[0.449252140668114, 0.0580915511976474, 0.345957060620058, -1.222, 0.971, -1.041], a = 0.2, v = 0.2, t = 0.1)
movej(p[0.449248022713862, 0.0580855407879198, 0.345949450474285, -1.222, 0.971, -1.041], a = 0.2, v = 0.2, t = 0.1)
movej(p[0.449237529818014, 0.0580803605880324, 0.345939904177105, -1.222, 0.971, -1.041], a = 0.2, v = 0.2, t = 0.1)
movej(p[0.449222564955472, 0.0580766281991885, 0.34592601929282, -1.222, 0.971, -1.041], a = 0.2, v = 0.2, t = 0.1)
movej(p[0.449204726003128, 0.0580736003889107, 0.345908710154476, -1.222, 0.971, -1.041], a = 0.2, v = 0.2, t = 0.1)
movej(p[0.449185220273568, 0.058071191982806, 0.345891569221907, -1.222, 0.971, -1.041], a = 0.2, v = 0.2, t = 0.1)
movej(p[0.449164247397918, 0.0580691407894285, 0.345877687388356, -1.222, 0.971, -1.041], a = 0.2, v = 0.2, t = 0.1)
movej(p[0.44914291147292, 0.0580675734931164, 0.345867902339008, -1.222, 0.971, -1.041], a = 0.2, v = 0.2, t = 0.1)
movej(p[0.449122499250078, 0.0580661513556466, 0.345860940960363, -1.222, 0.971, -1.041], a = 0.2, v = 0.2, t = 0.1)
movej(p[0.449103742984476, 0.0580645762249256, 0.345855082388447, -1.222, 0.971, -1.041], a = 0.2, v = 0.2, t = 0.1)
movej(p[0.449087083139054, 0.0580623774102354, 0.345849736996556, -1.222, 0.971, -1.041], a = 0.2, v = 0.2, t = 0.1)
movej(p[0.449072719352922, 0.0580592422480437, 0.345845316132161, -1.222, 0.971, -1.041], a = 0.2, v = 0.2, t = 0.1)
movej(p[0.449062852096702, 0.0580558636870806, 0.34584327028625, -1.222, 0.971, -1.041], a = 0.2, v = 0.2, t = 0.1)
movej(p[0.449060680714256, 0.0580520353121066, 0.345845142116459, -1.222, 0.971, -1.041], a = 0.2, v = 0.2, t = 0.1)
movej(p[0.449066918273425, 0.0580475549198639, 0.345851261419848, -1.222, 0.971, -1.041], a = 0.2, v = 0.2, t = 0.1)
movej(p[0.44907977070733, 0.0580432110034932, 0.345860201516844, -1.222, 0.971, -1.041], a = 0.2, v = 0.2, t = 0.1)
movej(p[0.44909763725285, 0.0580400223308252, 0.345870312098221, -1.222, 0.971, -1.041], a = 0.2, v = 0.2, t = 0.1)
movej(p[0.44911944807436, 0.0580378273077278, 0.345879329397633, -1.222, 0.971, -1.041], a = 0.2, v = 0.2, t = 0.1)
movej(p[0.449143494036207, 0.0580353803738045, 0.345885766919999, -1.222, 0.971, -1.041], a = 0.2, v = 0.2, t = 0.1)
movej(p[0.449167943256547, 0.0580320078370783, 0.345890378175123, -1.222, 0.971, -1.041], a = 0.2, v = 0.2, t = 0.1)
movej(p[0.449191104002703, 0.0580278358643904, 0.345892822849202, -1.222, 0.971, -1.041], a = 0.2, v = 0.2, t = 0.1)
movej(p[0.449211155400442, 0.0580233322488016, 0.345892378216375, -1.222, 0.971, -1.041], a = 0.2, v = 0.2, t = 0.1)
movej(p[0.449226116125363, 0.0580193127937632, 0.34588861617344, -1.222, 0.971, -1.041], a = 0.2, v = 0.2, t = 0.1)
movej(p[0.44923448260699, 0.0580169598361466, 0.345882819521765, -1.222, 0.971, -1.041], a = 0.2, v = 0.2, t = 0.1)
movej(p[0.449236053197123, 0.058016354061644, 0.34587521199517, -1.222, 0.971, -1.041], a = 0.2, v = 0.2, t = 0.1)
movej(p[0.449231317734588, 0.0580170955841948, 0.345864902240717, -1.222, 0.971, -1.041], a = 0.2, v = 0.2, t = 0.1)
movej(p[0.44922144718688, 0.0580195126146739, 0.345852634149358, -1.222, 0.971, -1.041], a = 0.2, v = 0.2, t = 0.1)
movej(p[0.449207817554925, 0.0580233661315406, 0.345840483136991, -1.222, 0.971, -1.041], a = 0.2, v = 0.2, t = 0.1)
movej(p[0.449191184494347, 0.0580284117515176, 0.345828843188887, -1.222, 0.971, -1.041], a = 0.2, v = 0.2, t = 0.1)
movej(p[0.449171243722591, 0.0580341519789866, 0.345817458562526, -1.222, 0.971, -1.041], a = 0.2, v = 0.2, t = 0.1)
movej(p[0.449148132045745, 0.0580400137038665, 0.34580585980937, -1.222, 0.971, -1.041], a = 0.2, v = 0.2, t = 0.1)
movej(p[0.449123155358432, 0.0580453086284928, 0.345794558260579, -1.222, 0.971, -1.041], a = 0.2, v = 0.2, t = 0.1)
movej(p[0.449099253749141, 0.0580484202646078, 0.345783795792972, -1.222, 0.971, -1.041], a = 0.2, v = 0.2, t = 0.1)
movej(p[0.449079268586436, 0.058049351247668, 0.345774936622345, -1.222, 0.971, -1.041], a = 0.2, v = 0.2, t = 0.1)
movej(p[0.449064284621847, 0.0580486994718277, 0.345769759159701, -1.222, 0.971, -1.041], a = 0.2, v = 0.2, t = 0.1)
movej(p[0.449053543306146, 0.0580467301322835, 0.345769147895617, -1.222, 0.971, -1.041], a = 0.2, v = 0.2, t = 0.1)
movej(p[0.449046823235767, 0.0580451220134371, 0.345774159538848, -1.222, 0.971, -1.041], a = 0.2, v = 0.2, t = 0.1)
movej(p[0.449045378907613, 0.0580439821364792, 0.345784138609431, -1.222, 0.971, -1.041], a = 0.2, v = 0.2, t = 0.1)
movej(p[0.449050689387396, 0.0580418974322697, 0.345796958604549, -1.222, 0.971, -1.041], a = 0.2, v = 0.2, t = 0.1)
movej(p[0.449062776938139, 0.058038840848756, 0.345809767206278, -1.222, 0.971, -1.041], a = 0.2, v = 0.2, t = 0.1)
movej(p[0.449080335711816, 0.058036050892651, 0.345821017922118, -1.222, 0.971, -1.041], a = 0.2, v = 0.2, t = 0.1)
movej(p[0.449101398818921, 0.0580340070464489, 0.345829946110836, -1.222, 0.971, -1.041], a = 0.2, v = 0.2, t = 0.1)
movej(p[0.449123000804275, 0.0580320475992593, 0.345836357970275, -1.222, 0.971, -1.041], a = 0.2, v = 0.2, t = 0.1)
movej(p[0.449142708380912, 0.0580302820882295, 0.345841433102975, -1.222, 0.971, -1.041], a = 0.2, v = 0.2, t = 0.1)
movej(p[0.449159378830482, 0.0580290581951807, 0.34584570321198, -1.222, 0.971, -1.041], a = 0.2, v = 0.2, t = 0.1)
movej(p[0.449172000275813, 0.0580279698052991, 0.345847632948033, -1.222, 0.971, -1.041], a = 0.2, v = 0.2, t = 0.1)
movej(p[0.449178992304803, 0.0580260364032378, 0.345845348121109, -1.222, 0.971, -1.041], a = 0.2, v = 0.2, t = 0.1)
movej(p[0.449179767354972, 0.0580236368346936, 0.345839944285986, -1.222, 0.971, -1.041], a = 0.2, v = 0.2, t = 0.1)
movej(p[0.449174375355098, 0.0580223226654356, 0.345834101260527, -1.222, 0.971, -1.041], a = 0.2, v = 0.2, t = 0.1)
movej(p[0.449162715023316, 0.0580232008832442, 0.345829235225878, -1.222, 0.971, -1.041], a = 0.2, v = 0.2, t = 0.1)
movej(p[0.449144797121264, 0.0580262039964067, 0.345826661873513, -1.222, 0.971, -1.041], a = 0.2, v = 0.2, t = 0.1)
movej(p[0.449122371556384, 0.0580302663011906, 0.345826838513501, -1.222, 0.971, -1.041], a = 0.2, v = 0.2, t = 0.1)
movej(p[0.44909736607259, 0.0580352286591323, 0.345828840633345, -1.222, 0.971, -1.041], a = 0.2, v = 0.2, t = 0.1)
movej(p[0.449070960823575, 0.0580407936819945, 0.345830428320661, -1.222, 0.971, -1.041], a = 0.2, v = 0.2, t = 0.1)
movej(p[0.449044828603331, 0.0580454970831044, 0.345828593558525, -1.222, 0.971, -1.041], a = 0.2, v = 0.2, t = 0.1)
movej(p[0.449020331199883, 0.0580482203381703, 0.345823183687903, -1.222, 0.971, -1.041], a = 0.2, v = 0.2, t = 0.1)
movej(p[0.448998614448227, 0.0580498679649525, 0.345817531517038, -1.222, 0.971, -1.041], a = 0.2, v = 0.2, t = 0.1)
movej(p[0.448981480715977, 0.0580519559274183, 0.345814046795964, -1.222, 0.971, -1.041], a = 0.2, v = 0.2, t = 0.1)
movej(p[0.448971506816657, 0.0580540736962464, 0.345813175137464, -1.222, 0.971, -1.041], a = 0.2, v = 0.2, t = 0.1)
movej(p[0.448969904176816, 0.0580544897501787, 0.345814611133866, -1.222, 0.971, -1.041], a = 0.2, v = 0.2, t = 0.1)
movej(p[0.448975561894078, 0.0580524600695777, 0.345816950993272, -1.222, 0.971, -1.041], a = 0.2, v = 0.2, t = 0.1)
movej(p[0.448987732537446, 0.0580492445078785, 0.345818674063776, -1.222, 0.971, -1.041], a = 0.2, v = 0.2, t = 0.1)
movej(p[0.449005187784242, 0.0580472645312618, 0.345819879102316, -1.222, 0.971, -1.041], a = 0.2, v = 0.2, t = 0.1)
movej(p[0.449026076289938, 0.0580474674627302, 0.345822233140256, -1.222, 0.971, -1.041], a = 0.2, v = 0.2, t = 0.1)
movej(p[0.449049077799237, 0.0580487401435562, 0.34582698875478, -1.222, 0.971, -1.041], a = 0.2, v = 0.2, t = 0.1)
movej(p[0.449073622588655, 0.0580493304107187, 0.345832804422163, -1.222, 0.971, -1.041], a = 0.2, v = 0.2, t = 0.1)
movej(p[0.449099636568865, 0.0580496949144004, 0.345837919956513, -1.222, 0.971, -1.041], a = 0.2, v = 0.2, t = 0.1)
movej(p[0.449126912816454, 0.058051405839657, 0.345842364868012, -1.222, 0.971, -1.041], a = 0.2, v = 0.2, t = 0.1)
movej(p[0.44915441035654, 0.0580542883159659, 0.345846594719607, -1.222, 0.971, -1.041], a = 0.2, v = 0.2, t = 0.1)
movej(p[0.449179719366467, 0.0580568940336466, 0.345851591752015, -1.222, 0.971, -1.041], a = 0.2, v = 0.2, t = 0.1)
movej(p[0.449200774729108, 0.0580577228053466, 0.345856632013469, -1.222, 0.971, -1.041], a = 0.2, v = 0.2, t = 0.1)
movej(p[0.449216248714229, 0.0580568990286172, 0.345859047867435, -1.222, 0.971, -1.041], a = 0.2, v = 0.2, t = 0.1)
movej(p[0.449226382935933, 0.0580543404516814, 0.34585783300468, -1.222, 0.971, -1.041], a = 0.2, v = 0.2, t = 0.1)
movej(p[0.449230910060773, 0.0580493606329824, 0.345854306312546, -1.222, 0.971, -1.041], a = 0.2, v = 0.2, t = 0.1)
movej(p[0.44923005784291, 0.0580423294981745, 0.345849708687504, -1.222, 0.971, -1.041], a = 0.2, v = 0.2, t = 0.1)
movej(p[0.449225034876125, 0.0580339113533978, 0.345841823883309, -1.222, 0.971, -1.041], a = 0.2, v = 0.2, t = 0.1)
movej(p[0.449216682310997, 0.0580249557371162, 0.345831382700962, -1.222, 0.971, -1.041], a = 0.2, v = 0.2, t = 0.1)
movej(p[0.44920528428539, 0.0580171891874767, 0.345821044470023, -1.222, 0.971, -1.041], a = 0.2, v = 0.2, t = 0.1)
movej(p[0.449191329853764, 0.0580120622400815, 0.345812515903765, -1.222, 0.971, -1.041], a = 0.2, v = 0.2, t = 0.1)
movej(p[0.449176523430005, 0.05800892348982, 0.345805264762872, -1.222, 0.971, -1.041], a = 0.2, v = 0.2, t = 0.1)
movej(p[0.449162181648401, 0.0580059325578073, 0.345797999786057, -1.222, 0.971, -1.041], a = 0.2, v = 0.2, t = 0.1)
movej(p[0.449148659624567, 0.058001755664373, 0.345792495825058, -1.222, 0.971, -1.041], a = 0.2, v = 0.2, t = 0.1)
movej(p[0.449136962051495, 0.0579970820051404, 0.345790596733011, -1.222, 0.971, -1.041], a = 0.2, v = 0.2, t = 0.1)
movej(p[0.449127788821595, 0.0579925172921638, 0.345793519401251, -1.222, 0.971, -1.041], a = 0.2, v = 0.2, t = 0.1)
movej(p[0.449121948498057, 0.0579890137791477, 0.345800782186289, -1.222, 0.971, -1.041], a = 0.2, v = 0.2, t = 0.1)
movej(p[0.449121220691224, 0.0579879534159058, 0.345812502274899, -1.222, 0.971, -1.041], a = 0.2, v = 0.2, t = 0.1)
movej(p[0.449126821021073, 0.057990614706307, 0.345827245537054, -1.222, 0.971, -1.041], a = 0.2, v = 0.2, t = 0.1)
movej(p[0.449138577229021, 0.0579966866730164, 0.345842748536633, -1.222, 0.971, -1.041], a = 0.2, v = 0.2, t = 0.1)
movej(p[0.449155168498323, 0.0580041031815815, 0.345857124697757, -1.222, 0.971, -1.041], a = 0.2, v = 0.2, t = 0.1)
movej(p[0.449174951075735, 0.0580112468806895, 0.345870210671087, -1.222, 0.971, -1.041], a = 0.2, v = 0.2, t = 0.1)
movej(p[0.449196267897937, 0.0580182515156733, 0.345883506358732, -1.222, 0.971, -1.041], a = 0.2, v = 0.2, t = 0.1)
movej(p[0.44921713550119, 0.0580249660259931, 0.345897731310072, -1.222, 0.971, -1.041], a = 0.2, v = 0.2, t = 0.1)
movej(p[0.449237054089907, 0.0580308350646475, 0.345911775767441, -1.222, 0.971, -1.041], a = 0.2, v = 0.2, t = 0.1)
movej(p[0.449256167840162, 0.0580347934011025, 0.345923475492596, -1.222, 0.971, -1.041], a = 0.2, v = 0.2, t = 0.1)
movej(p[0.449274394073521, 0.0580373671173987, 0.345931692118301, -1.222, 0.971, -1.041], a = 0.2, v = 0.2, t = 0.1)
movej(p[0.449290718171992, 0.0580391957898669, 0.345937200205367, -1.222, 0.971, -1.041], a = 0.2, v = 0.2, t = 0.1)
movej(p[0.449301932617204, 0.0580406081586628, 0.345940305952774, -1.222, 0.971, -1.041], a = 0.2, v = 0.2, t = 0.1)
movej(p[0.449304533423883, 0.0580420363146855, 0.345938792280091, -1.222, 0.971, -1.041], a = 0.2, v = 0.2, t = 0.1)
movej(p[0.449298003624339, 0.0580433921920732, 0.345931316976524, -1.222, 0.971, -1.041], a = 0.2, v = 0.2, t = 0.1)
movej(p[0.449284394538599, 0.0580448192742678, 0.34591967957747, -1.222, 0.971, -1.041], a = 0.2, v = 0.2, t = 0.1)
movej(p[0.449265353337422, 0.0580462058794928, 0.345906417634638, -1.222, 0.971, -1.041], a = 0.2, v = 0.2, t = 0.1)
movej(p[0.449241519099882, 0.0580472061559298, 0.345892260472, -1.222, 0.971, -1.041], a = 0.2, v = 0.2, t = 0.1)
movej(p[0.449214371453171, 0.0580477543131768, 0.34587777322317, -1.222, 0.971, -1.041], a = 0.2, v = 0.2, t = 0.1)
movej(p[0.449184514308776, 0.0580482394070199, 0.345863813820261, -1.222, 0.971, -1.041], a = 0.2, v = 0.2, t = 0.1)
movej(p[0.449152659806896, 0.058048811741326, 0.345850697747166, -1.222, 0.971, -1.041], a = 0.2, v = 0.2, t = 0.1)
movej(p[0.449120992161675, 0.0580496030124122, 0.345838009353011, -1.222, 0.971, -1.041], a = 0.2, v = 0.2, t = 0.1)
movej(p[0.449091584018453, 0.0580506749717283, 0.345824469965416, -1.222, 0.971, -1.041], a = 0.2, v = 0.2, t = 0.1)
movej(p[0.449066166541321, 0.0580524651146285, 0.345811585563698, -1.222, 0.971, -1.041], a = 0.2, v = 0.2, t = 0.1)
movej(p[0.449045866686099, 0.0580540382509003, 0.345801265814804, -1.222, 0.971, -1.041], a = 0.2, v = 0.2, t = 0.1)
movej(p[0.449031953662271, 0.0580546643570331, 0.345795471371166, -1.222, 0.971, -1.041], a = 0.2, v = 0.2, t = 0.1)
movej(p[0.449024934927798, 0.0580541795292315, 0.345794077802223, -1.222, 0.971, -1.041], a = 0.2, v = 0.2, t = 0.1)
movej(p[0.449023707090479, 0.0580536753616901, 0.345794860392542, -1.222, 0.971, -1.041], a = 0.2, v = 0.2, t = 0.1)
movej(p[0.449027105355126, 0.0580533605951423, 0.345796564779942, -1.222, 0.971, -1.041], a = 0.2, v = 0.2, t = 0.1)
movej(p[0.449034336630331, 0.0580526268848679, 0.345798319309262, -1.222, 0.971, -1.041], a = 0.2, v = 0.2, t = 0.1)
movej(p[0.449044445119203, 0.0580516998936231, 0.345799214214257, -1.222, 0.971, -1.041], a = 0.2, v = 0.2, t = 0.1)
movej(p[0.449057274739422, 0.0580521020730164, 0.345800674604539, -1.222, 0.971, -1.041], a = 0.2, v = 0.2, t = 0.1)
movej(p[0.449072958492588, 0.0580549177587057, 0.345803894672201, -1.222, 0.971, -1.041], a = 0.2, v = 0.2, t = 0.1)
movej(p[0.449091474042875, 0.0580593791231074, 0.345809993598602, -1.222, 0.971, -1.041], a = 0.2, v = 0.2, t = 0.1)
movej(p[0.449112072401044, 0.0580651496707032, 0.345819373442053, -1.222, 0.971, -1.041], a = 0.2, v = 0.2, t = 0.1)
movej(p[0.449133368165159, 0.0580719287642146, 0.345831649058817, -1.222, 0.971, -1.041], a = 0.2, v = 0.2, t = 0.1)
movej(p[0.4491537654559, 0.0580796963397336, 0.345845316709675, -1.222, 0.971, -1.041], a = 0.2, v = 0.2, t = 0.1)
movej(p[0.44917261740665, 0.0580874135732778, 0.345857989445463, -1.222, 0.971, -1.041], a = 0.2, v = 0.2, t = 0.1)
movej(p[0.449188696438715, 0.0580941978933767, 0.345868210985935, -1.222, 0.971, -1.041], a = 0.2, v = 0.2, t = 0.1)
movej(p[0.449200134806554, 0.0580989170634266, 0.345875534339076, -1.222, 0.971, -1.041], a = 0.2, v = 0.2, t = 0.1)
movej(p[0.449204967394218, 0.0581007823691024, 0.345879730240791, -1.222, 0.971, -1.041], a = 0.2, v = 0.2, t = 0.1)
movej(p[0.449203101831179, 0.0581008647916294, 0.345880054564814, -1.222, 0.971, -1.041], a = 0.2, v = 0.2, t = 0.1)
movej(p[0.449196070489765, 0.0581000445420172, 0.345877150855722, -1.222, 0.971, -1.041], a = 0.2, v = 0.2, t = 0.1)
movej(p[0.44918531019158, 0.0580992108548949, 0.345873243756957, -1.222, 0.971, -1.041], a = 0.2, v = 0.2, t = 0.1)
movej(p[0.449171650859663, 0.0580989538892071, 0.345870216734785, -1.222, 0.971, -1.041], a = 0.2, v = 0.2, t = 0.1)
movej(p[0.449156580825231, 0.058098909426414, 0.345868039308948, -1.222, 0.971, -1.041], a = 0.2, v = 0.2, t = 0.1)
movej(p[0.449141463161236, 0.0580986953521559, 0.345865189909618, -1.222, 0.971, -1.041], a = 0.2, v = 0.2, t = 0.1)
movej(p[0.449126846497357, 0.0580976509080479, 0.345860446307343, -1.222, 0.971, -1.041], a = 0.2, v = 0.2, t = 0.1)
movej(p[0.449112547997691, 0.0580957954507014, 0.345853992804469, -1.222, 0.971, -1.041], a = 0.2, v = 0.2, t = 0.1)
movej(p[0.449099083756125, 0.0580930816775666, 0.345846143640665, -1.222, 0.971, -1.041], a = 0.2, v = 0.2, t = 0.1)
movej(p[0.449087513997223, 0.0580896793657807, 0.345838002984214, -1.222, 0.971, -1.041], a = 0.2, v = 0.2, t = 0.1)
movej(p[0.449079174417822, 0.0580861259982892, 0.345831200350394, -1.222, 0.971, -1.041], a = 0.2, v = 0.2, t = 0.1)
movej(p[0.449075884393409, 0.0580827755291317, 0.345826647598502, -1.222, 0.971, -1.041], a = 0.2, v = 0.2, t = 0.1)
movej(p[0.449078590726995, 0.0580797963999763, 0.345824804137357, -1.222, 0.971, -1.041], a = 0.2, v = 0.2, t = 0.1)
movej(p[0.44908739326716, 0.0580776788741849, 0.345825062253952, -1.222, 0.971, -1.041], a = 0.2, v = 0.2, t = 0.1)
movej(p[0.449100890590346, 0.058076752715315, 0.345828732421871, -1.222, 0.971, -1.041], a = 0.2, v = 0.2, t = 0.1)
movej(p[0.449117719418415, 0.0580768829403469, 0.345837519446469, -1.222, 0.971, -1.041], a = 0.2, v = 0.2, t = 0.1)
movej(p[0.449136685221606, 0.0580780318819766, 0.345851397973676, -1.222, 0.971, -1.041], a = 0.2, v = 0.2, t = 0.1)
movej(p[0.449157049082728, 0.0580809794564342, 0.345868573744576, -1.222, 0.971, -1.041], a = 0.2, v = 0.2, t = 0.1)
movej(p[0.449178021465703, 0.0580867282852789, 0.345886437248719, -1.222, 0.971, -1.041], a = 0.2, v = 0.2, t = 0.1)
movej(p[0.449199183290872, 0.0580943887105612, 0.345903869026426, -1.222, 0.971, -1.041], a = 0.2, v = 0.2, t = 0.1)
movej(p[0.449219387522016, 0.0581017144996499, 0.345919064098229, -1.222, 0.971, -1.041], a = 0.2, v = 0.2, t = 0.1)
movej(p[0.449235724550719, 0.0581075845122808, 0.34593121755086, -1.222, 0.971, -1.041], a = 0.2, v = 0.2, t = 0.1)
movej(p[0.449246325099617, 0.0581114064357684, 0.345941161805378, -1.222, 0.971, -1.041], a = 0.2, v = 0.2, t = 0.1)
movej(p[0.449250731968132, 0.0581131557416321, 0.345949274182582, -1.222, 0.971, -1.041], a = 0.2, v = 0.2, t = 0.1)
movej(p[0.449250243263623, 0.0581134891049523, 0.345955708699098, -1.222, 0.971, -1.041], a = 0.2, v = 0.2, t = 0.1)
movej(p[0.449245974849793, 0.0581124564845513, 0.345961099367005, -1.222, 0.971, -1.041], a = 0.2, v = 0.2, t = 0.1)
movej(p[0.449238236879785, 0.0581102431426439, 0.345964667081085, -1.222, 0.971, -1.041], a = 0.2, v = 0.2, t = 0.1)
movej(p[0.449227489778617, 0.0581073059969069, 0.345965160868901, -1.222, 0.971, -1.041], a = 0.2, v = 0.2, t = 0.1)
movej(p[0.449214420341529, 0.0581048438322763, 0.345960989966179, -1.222, 0.971, -1.041], a = 0.2, v = 0.2, t = 0.1)
movej(p[0.44919890446591, 0.058103922379181, 0.345951669483038, -1.222, 0.971, -1.041], a = 0.2, v = 0.2, t = 0.1)
movej(p[0.449181397899928, 0.0581045361640535, 0.345939014095662, -1.222, 0.971, -1.041], a = 0.2, v = 0.2, t = 0.1)
movej(p[0.449163013299115, 0.0581074803441987, 0.345924934874831, -1.222, 0.971, -1.041], a = 0.2, v = 0.2, t = 0.1)
movej(p[0.449145147232303, 0.0581133062446414, 0.345910759932442, -1.222, 0.971, -1.041], a = 0.2, v = 0.2, t = 0.1)
movej(p[0.449129492573429, 0.0581218730078866, 0.345897105438932, -1.222, 0.971, -1.041], a = 0.2, v = 0.2, t = 0.1)
movej(p[0.44911773961318, 0.0581315809715121, 0.345885307410213, -1.222, 0.971, -1.041], a = 0.2, v = 0.2, t = 0.1)
movej(p[0.449111709311652, 0.0581399658784325, 0.345876423936714, -1.222, 0.971, -1.041], a = 0.2, v = 0.2, t = 0.1)
movej(p[0.449112104630194, 0.0581464633274436, 0.3458701884427, -1.222, 0.971, -1.041], a = 0.2, v = 0.2, t = 0.1)
movej(p[0.449117761581545, 0.0581515758996332, 0.345863177239093, -1.222, 0.971, -1.041], a = 0.2, v = 0.2, t = 0.1)
movej(p[0.449127279991881, 0.0581560731397369, 0.345854866253223, -1.222, 0.971, -1.041], a = 0.2, v = 0.2, t = 0.1)
movej(p[0.449139419632805, 0.0581594044856278, 0.345847895531467, -1.222, 0.971, -1.041], a = 0.2, v = 0.2, t = 0.1)
movej(p[0.449153079676131, 0.0581610896274387, 0.345843124738723, -1.222, 0.971, -1.041], a = 0.2, v = 0.2, t = 0.1)
movej(p[0.44916697673661, 0.0581609923071174, 0.345839216825239, -1.222, 0.971, -1.041], a = 0.2, v = 0.2, t = 0.1)
movej(p[0.449180494161215, 0.058159504357438, 0.345834260465002, -1.222, 0.971, -1.041], a = 0.2, v = 0.2, t = 0.1)
movej(p[0.449193139596437, 0.0581563480619486, 0.345828979516145, -1.222, 0.971, -1.041], a = 0.2, v = 0.2, t = 0.1)
movej(p[0.449203877029705, 0.0581513889576877, 0.345824302417498, -1.222, 0.971, -1.041], a = 0.2, v = 0.2, t = 0.1)
movej(p[0.449211625270403, 0.058145105762633, 0.345818709900177, -1.222, 0.971, -1.041], a = 0.2, v = 0.2, t = 0.1)
movej(p[0.449214795571977, 0.0581385003067188, 0.345811629622351, -1.222, 0.971, -1.041], a = 0.2, v = 0.2, t = 0.1)
movej(p[0.44921273328046, 0.058132527965183, 0.34580357452879, -1.222, 0.971, -1.041], a = 0.2, v = 0.2, t = 0.1)
movej(p[0.449204845091826, 0.058128103028064, 0.345794767639807, -1.222, 0.971, -1.041], a = 0.2, v = 0.2, t = 0.1)
movej(p[0.449191330891855, 0.0581257536454579, 0.345784663460992, -1.222, 0.971, -1.041], a = 0.2, v = 0.2, t = 0.1)
movej(p[0.449173520610854, 0.0581250040533133, 0.345772813599715, -1.222, 0.971, -1.041], a = 0.2, v = 0.2, t = 0.1)
movej(p[0.449152797690471, 0.0581236610737085, 0.345760691581955, -1.222, 0.971, -1.041], a = 0.2, v = 0.2, t = 0.1)
movej(p[0.449130470755491, 0.0581209315069773, 0.345749453373742, -1.222, 0.971, -1.041], a = 0.2, v = 0.2, t = 0.1)
movej(p[0.449107989314484, 0.058117510883693, 0.345739568253378, -1.222, 0.971, -1.041], a = 0.2, v = 0.2, t = 0.1)
movej(p[0.449086842952566, 0.0581135837847893, 0.34573186561767, -1.222, 0.971, -1.041], a = 0.2, v = 0.2, t = 0.1)
movej(p[0.449069450721966, 0.0581085628616238, 0.345728762710273, -1.222, 0.971, -1.041], a = 0.2, v = 0.2, t = 0.1)
movej(p[0.449057874471043, 0.058102172711269, 0.345730743061506, -1.222, 0.971, -1.041], a = 0.2, v = 0.2, t = 0.1)
movej(p[0.449052862671382, 0.0580959180898996, 0.345735512416776, -1.222, 0.971, -1.041], a = 0.2, v = 0.2, t = 0.1)
movej(p[0.449053960789373, 0.058091448058851, 0.345740742046619, -1.222, 0.971, -1.041], a = 0.2, v = 0.2, t = 0.1)
movej(p[0.449060355299246, 0.0580883564396199, 0.345746758422855, -1.222, 0.971, -1.041], a = 0.2, v = 0.2, t = 0.1)
movej(p[0.449071146408712, 0.058086319984657, 0.345754655197556, -1.222, 0.971, -1.041], a = 0.2, v = 0.2, t = 0.1)
movej(p[0.44908469092993, 0.0580845303971554, 0.345764449690935, -1.222, 0.971, -1.041], a = 0.2, v = 0.2, t = 0.1)
movej(p[0.449100309459275, 0.0580832513583589, 0.345775895539608, -1.222, 0.971, -1.041], a = 0.2, v = 0.2, t = 0.1)
movej(p[0.449116938147496, 0.0580805110083351, 0.345788859243855, -1.222, 0.971, -1.041], a = 0.2, v = 0.2, t = 0.1)
movej(p[0.449133642755253, 0.0580755814304288, 0.345800782727211, -1.222, 0.971, -1.041], a = 0.2, v = 0.2, t = 0.1)
movej(p[0.449150437471177, 0.0580703443299107, 0.345809914968843, -1.222, 0.971, -1.041], a = 0.2, v = 0.2, t = 0.1)
movej(p[0.449168444676962, 0.0580677862273081, 0.345815450318413, -1.222, 0.971, -1.041], a = 0.2, v = 0.2, t = 0.1)
movej(p[0.449187576701332, 0.0580682649351502, 0.345819711169072, -1.222, 0.971, -1.041], a = 0.2, v = 0.2, t = 0.1)
movej(p[0.449206161530217, 0.0580700577254216, 0.345825031744917, -1.222, 0.971, -1.041], a = 0.2, v = 0.2, t = 0.1)
movej(p[0.449221279952243, 0.0580711966481123, 0.345831328597191, -1.222, 0.971, -1.041], a = 0.2, v = 0.2, t = 0.1)
movej(p[0.449231506716269, 0.0580712799402055, 0.345835706894005, -1.222, 0.971, -1.041], a = 0.2, v = 0.2, t = 0.1)
movej(p[0.449237129221315, 0.0580698440474622, 0.345836161992928, -1.222, 0.971, -1.041], a = 0.2, v = 0.2, t = 0.1)
movej(p[0.449238962252138, 0.0580673125696329, 0.345832302024016, -1.222, 0.971, -1.041], a = 0.2, v = 0.2, t = 0.1)
movej(p[0.449237445461906, 0.0580651622300401, 0.345825674629126, -1.222, 0.971, -1.041], a = 0.2, v = 0.2, t = 0.1)
movej(p[0.449231499397059, 0.0580645450779751, 0.345818361872726, -1.222, 0.971, -1.041], a = 0.2, v = 0.2, t = 0.1)
movej(p[0.449220782388595, 0.0580657765519936, 0.345811506848341, -1.222, 0.971, -1.041], a = 0.2, v = 0.2, t = 0.1)
movej(p[0.449206406960229, 0.0580679815667559, 0.345805246434121, -1.222, 0.971, -1.041], a = 0.2, v = 0.2, t = 0.1)
movej(p[0.449189118762054, 0.0580700754527779, 0.345799151205972, -1.222, 0.971, -1.041], a = 0.2, v = 0.2, t = 0.1)
movej(p[0.449169060714282, 0.0580720086090449, 0.345793216742104, -1.222, 0.971, -1.041], a = 0.2, v = 0.2, t = 0.1)
movej(p[0.449147292648721, 0.0580745565814604, 0.345788620511874, -1.222, 0.971, -1.041], a = 0.2, v = 0.2, t = 0.1)
movej(p[0.449125987436112, 0.0580778759535937, 0.345786477096072, -1.222, 0.971, -1.041], a = 0.2, v = 0.2, t = 0.1)
movej(p[0.449107328494606, 0.0580808379000399, 0.345786521324237, -1.222, 0.971, -1.041], a = 0.2, v = 0.2, t = 0.1)
movej(p[0.449093157584618, 0.058083199250879, 0.345787434785975, -1.222, 0.971, -1.041], a = 0.2, v = 0.2, t = 0.1)
movej(p[0.449084670141732, 0.0580861497129349, 0.345789049956833, -1.222, 0.971, -1.041], a = 0.2, v = 0.2, t = 0.1)
movej(p[0.449082473457548, 0.0580903279079222, 0.345792494425042, -1.222, 0.971, -1.041], a = 0.2, v = 0.2, t = 0.1)
movej(p[0.449086405706204, 0.0580958344053804, 0.345798109107246, -1.222, 0.971, -1.041], a = 0.2, v = 0.2, t = 0.1)
movej(p[0.449096148081642, 0.0581026635439959, 0.345804638172386, -1.222, 0.971, -1.041], a = 0.2, v = 0.2, t = 0.1)
movej(p[0.449110232012503, 0.0581103188776001, 0.345812654624275, -1.222, 0.971, -1.041], a = 0.2, v = 0.2, t = 0.1)
movej(p[0.449126874125084, 0.0581177279163469, 0.345820157788588, -1.222, 0.971, -1.041], a = 0.2, v = 0.2, t = 0.1)
movej(p[0.449142820117917, 0.0581237498613188, 0.345825131135684, -1.222, 0.971, -1.041], a = 0.2, v = 0.2, t = 0.1)
movej(p[0.449154458350629, 0.0581283927640862, 0.345827278682478, -1.222, 0.971, -1.041], a = 0.2, v = 0.2, t = 0.1)
movej(p[0.449159563355957, 0.0581321029499779, 0.345827793058069, -1.222, 0.971, -1.041], a = 0.2, v = 0.2, t = 0.1)
movej(p[0.449156957170362, 0.0581352394843631, 0.345826956997247, -1.222, 0.971, -1.041], a = 0.2, v = 0.2, t = 0.1)
movej(p[0.44914688049804, 0.0581386540123749, 0.345823979877436, -1.222, 0.971, -1.041], a = 0.2, v = 0.2, t = 0.1)
movej(p[0.449131388311746, 0.0581435095252418, 0.345817665486125, -1.222, 0.971, -1.041], a = 0.2, v = 0.2, t = 0.1)
movej(p[0.449112842857655, 0.058149862274963, 0.345808901601282, -1.222, 0.971, -1.041], a = 0.2, v = 0.2, t = 0.1)
movej(p[0.449093903520776, 0.0581576180803376, 0.345798414931431, -1.222, 0.971, -1.041], a = 0.2, v = 0.2, t = 0.1)
movej(p[0.449077197023502, 0.0581662328384762, 0.345787702783325, -1.222, 0.971, -1.041], a = 0.2, v = 0.2, t = 0.1)
movej(p[0.449065258472134, 0.0581749284879541, 0.345777133009467, -1.222, 0.971, -1.041], a = 0.2, v = 0.2, t = 0.1)
movej(p[0.449059317484345, 0.0581827120692487, 0.345767286826485, -1.222, 0.971, -1.041], a = 0.2, v = 0.2, t = 0.1)
movej(p[0.449058723613969, 0.0581891376088923, 0.345759359187286, -1.222, 0.971, -1.041], a = 0.2, v = 0.2, t = 0.1)
movej(p[0.449062386406103, 0.0581936895004465, 0.345753435929563, -1.222, 0.971, -1.041], a = 0.2, v = 0.2, t = 0.1)
movej(p[0.449069121333467, 0.0581959319504074, 0.345749481526753, -1.222, 0.971, -1.041], a = 0.2, v = 0.2, t = 0.1)
movej(p[0.449076483225684, 0.0581961818962295, 0.345748095353941, -1.222, 0.971, -1.041], a = 0.2, v = 0.2, t = 0.1)
movej(p[0.449083564284657, 0.0581957790817496, 0.34574921672289, -1.222, 0.971, -1.041], a = 0.2, v = 0.2, t = 0.1)
movej(p[0.449092002922771, 0.0581963164141004, 0.345752640385653, -1.222, 0.971, -1.041], a = 0.2, v = 0.2, t = 0.1)
movej(p[0.449103977082006, 0.0581981575922481, 0.345758286983537, -1.222, 0.971, -1.041], a = 0.2, v = 0.2, t = 0.1)
movej(p[0.449119756778116, 0.0582006650763704, 0.345765933378768, -1.222, 0.971, -1.041], a = 0.2, v = 0.2, t = 0.1)
movej(p[0.449136784479758, 0.0582028885378108, 0.345774738586888, -1.222, 0.971, -1.041], a = 0.2, v = 0.2, t = 0.1)
movej(p[0.449151463839199, 0.0582037550738387, 0.345782914482417, -1.222, 0.971, -1.041], a = 0.2, v = 0.2, t = 0.1)
movej(p[0.449161121957319, 0.0582024662262023, 0.345787331797117, -1.222, 0.971, -1.041], a = 0.2, v = 0.2, t = 0.1)
movej(p[0.449164497304905, 0.0581991395768483, 0.345786223327114, -1.222, 0.971, -1.041], a = 0.2, v = 0.2, t = 0.1)
movej(p[0.449161131043754, 0.05819365479033, 0.345779088032607, -1.222, 0.971, -1.041], a = 0.2, v = 0.2, t = 0.1)
movej(p[0.449150693624339, 0.0581868739121004, 0.345767328599143, -1.222, 0.971, -1.041], a = 0.2, v = 0.2, t = 0.1)
movej(p[0.449134582992367, 0.0581793808744374, 0.345752349223253, -1.222, 0.971, -1.041], a = 0.2, v = 0.2, t = 0.1)
movej(p[0.449113467184619, 0.0581716024258305, 0.345736689328412, -1.222, 0.971, -1.041], a = 0.2, v = 0.2, t = 0.1)
movej(p[0.449087761970732, 0.0581640009844805, 0.345722850948796, -1.222, 0.971, -1.041], a = 0.2, v = 0.2, t = 0.1)
movej(p[0.449058597763721, 0.0581572335302835, 0.345710843130296, -1.222, 0.971, -1.041], a = 0.2, v = 0.2, t = 0.1)
movej(p[0.449029432833723, 0.058151561468958, 0.345699720263736, -1.222, 0.971, -1.041], a = 0.2, v = 0.2, t = 0.1)
movej(p[0.449004063258331, 0.0581472550593641, 0.345689821601309, -1.222, 0.971, -1.041], a = 0.2, v = 0.2, t = 0.1)
movej(p[0.448984927366403, 0.0581447160234067, 0.345681645281445, -1.222, 0.971, -1.041], a = 0.2, v = 0.2, t = 0.1)
movej(p[0.448972967464065, 0.0581437255578129, 0.345676354510613, -1.222, 0.971, -1.041], a = 0.2, v = 0.2, t = 0.1)
movej(p[0.448970025295842, 0.0581428453711572, 0.345675917095942, -1.222, 0.971, -1.041], a = 0.2, v = 0.2, t = 0.1)
movej(p[0.448975658991954, 0.0581413848372102, 0.345680642558851, -1.222, 0.971, -1.041], a = 0.2, v = 0.2, t = 0.1)
movej(p[0.448987965675295, 0.0581397724647672, 0.345688383337251, -1.222, 0.971, -1.041], a = 0.2, v = 0.2, t = 0.1)
movej(p[0.449004785354538, 0.0581390690577239, 0.345697143550244, -1.222, 0.971, -1.041], a = 0.2, v = 0.2, t = 0.1)
movej(p[0.449023701736905, 0.058139786884922, 0.345707490359041, -1.222, 0.971, -1.041], a = 0.2, v = 0.2, t = 0.1)
movej(p[0.449044698043905, 0.0581415123902828, 0.345720101049292, -1.222, 0.971, -1.041], a = 0.2, v = 0.2, t = 0.1)
movej(p[0.449067194425442, 0.0581428959324062, 0.3457336746287, -1.222, 0.971, -1.041], a = 0.2, v = 0.2, t = 0.1)
movej(p[0.449088754440431, 0.0581424221877041, 0.345745339390062, -1.222, 0.971, -1.041], a = 0.2, v = 0.2, t = 0.1)
movej(p[0.449106295329062, 0.0581392480611885, 0.345752697590106, -1.222, 0.971, -1.041], a = 0.2, v = 0.2, t = 0.1)
movej(p[0.449118036114117, 0.0581343718121674, 0.345755438649533, -1.222, 0.971, -1.041], a = 0.2, v = 0.2, t = 0.1)
movej(p[0.449124662415686, 0.0581288586571325, 0.345754388059662, -1.222, 0.971, -1.041], a = 0.2, v = 0.2, t = 0.1)
movej(p[0.449127010156764, 0.0581235553827067, 0.345751055122039, -1.222, 0.971, -1.041], a = 0.2, v = 0.2, t = 0.1)
movej(p[0.449124803040412, 0.0581187103810869, 0.345745577355093, -1.222, 0.971, -1.041], a = 0.2, v = 0.2, t = 0.1)
movej(p[0.449117886132312, 0.0581146076256471, 0.345738815809624, -1.222, 0.971, -1.041], a = 0.2, v = 0.2, t = 0.1)
movej(p[0.449107066374302, 0.0581108345495591, 0.345731657689937, -1.222, 0.971, -1.041], a = 0.2, v = 0.2, t = 0.1)
movej(p[0.449094449715784, 0.0581072860392325, 0.345725150643042, -1.222, 0.971, -1.041], a = 0.2, v = 0.2, t = 0.1)
movej(p[0.44908255895584, 0.0581049620090688, 0.345720317831671, -1.222, 0.971, -1.041], a = 0.2, v = 0.2, t = 0.1)
movej(p[0.449073835283903, 0.0581054454200788, 0.345717813931764, -1.222, 0.971, -1.041], a = 0.2, v = 0.2, t = 0.1)
movej(p[0.449069379920284, 0.0581100216355862, 0.345718013297375, -1.222, 0.971, -1.041], a = 0.2, v = 0.2, t = 0.1)
movej(p[0.44906902275566, 0.0581187926214626, 0.34571988090204, -1.222, 0.971, -1.041], a = 0.2, v = 0.2, t = 0.1)
movej(p[0.449071766442863, 0.0581304287478676, 0.345723972610952, -1.222, 0.971, -1.041], a = 0.2, v = 0.2, t = 0.1)
movej(p[0.449076650614123, 0.0581432269139703, 0.345732315558124, -1.222, 0.971, -1.041], a = 0.2, v = 0.2, t = 0.1)
movej(p[0.449084089980987, 0.0581564943459709, 0.345745780871443, -1.222, 0.971, -1.041], a = 0.2, v = 0.2, t = 0.1)
movej(p[0.449093645071343, 0.0581703524196666, 0.34576144805794, -1.222, 0.971, -1.041], a = 0.2, v = 0.2, t = 0.1)
movej(p[0.449104516295739, 0.0581843598680201, 0.345775759690159, -1.222, 0.971, -1.041], a = 0.2, v = 0.2, t = 0.1)
movej(p[0.449115578686548, 0.0581964919633072, 0.345786919423064, -1.222, 0.971, -1.041], a = 0.2, v = 0.2, t = 0.1)
movej(p[0.449125036136337, 0.0582038526407902, 0.345795531014989, -1.222, 0.971, -1.041], a = 0.2, v = 0.2, t = 0.1)
movej(p[0.449132950224217, 0.0582068801779413, 0.345802246439758, -1.222, 0.971, -1.041], a = 0.2, v = 0.2, t = 0.1)
movej(p[0.449140997926251, 0.0582082878826989, 0.345805991912798, -1.222, 0.971, -1.041], a = 0.2, v = 0.2, t = 0.1)
movej(p[0.449150491184139, 0.0582096741811553, 0.345805953607958, -1.222, 0.971, -1.041], a = 0.2, v = 0.2, t = 0.1)
movej(p[0.449161202529281, 0.0582111610972718, 0.345801740649058, -1.222, 0.971, -1.041], a = 0.2, v = 0.2, t = 0.1)
movej(p[0.449171952724679, 0.0582133507483754, 0.345793826275807, -1.222, 0.971, -1.041], a = 0.2, v = 0.2, t = 0.1)
movej(p[0.449181863628052, 0.0582174321333326, 0.345783860310266, -1.222, 0.971, -1.041], a = 0.2, v = 0.2, t = 0.1)
movej(p[0.449190923621652, 0.0582231471043824, 0.345774298313829, -1.222, 0.971, -1.041], a = 0.2, v = 0.2, t = 0.1)
movej(p[0.449200249093765, 0.0582289886038852, 0.345766146900857, -1.222, 0.971, -1.041], a = 0.2, v = 0.2, t = 0.1)
movej(p[0.449210788694579, 0.0582343119409312, 0.345757968782775, -1.222, 0.971, -1.041], a = 0.2, v = 0.2, t = 0.1)
movej(p[0.449223243649414, 0.0582381242072924, 0.345747512276366, -1.222, 0.971, -1.041], a = 0.2, v = 0.2, t = 0.1)
movej(p[0.449236552224587, 0.0582393629415305, 0.345735812700078, -1.222, 0.971, -1.041], a = 0.2, v = 0.2, t = 0.1)
movej(p[0.449249218287357, 0.0582381337024751, 0.345724569267006, -1.222, 0.971, -1.041], a = 0.2, v = 0.2, t = 0.1)
movej(p[0.449261096928937, 0.0582361863040487, 0.345714434893439, -1.222, 0.971, -1.041], a = 0.2, v = 0.2, t = 0.1)
movej(p[0.44927295797849, 0.0582341924450392, 0.345705256746799, -1.222, 0.971, -1.041], a = 0.2, v = 0.2, t = 0.1)
movej(p[0.449284772026954, 0.0582316753789999, 0.345696438226773, -1.222, 0.971, -1.041], a = 0.2, v = 0.2, t = 0.1)
movej(p[0.449294488493363, 0.0582284499876249, 0.345688109051964, -1.222, 0.971, -1.041], a = 0.2, v = 0.2, t = 0.1)
movej(p[0.449299079334998, 0.0582258191230905, 0.345680723043374, -1.222, 0.971, -1.041], a = 0.2, v = 0.2, t = 0.1)
movej(p[0.449297527476552, 0.0582244126505561, 0.345675172696775, -1.222, 0.971, -1.041], a = 0.2, v = 0.2, t = 0.1)
movej(p[0.44929064660017, 0.0582244631199692, 0.345669988225824, -1.222, 0.971, -1.041], a = 0.2, v = 0.2, t = 0.1)
movej(p[0.449279710618715, 0.0582257388287653, 0.345664626316677, -1.222, 0.971, -1.041], a = 0.2, v = 0.2, t = 0.1)
movej(p[0.449265885245801, 0.0582280061751582, 0.345659462591459, -1.222, 0.971, -1.041], a = 0.2, v = 0.2, t = 0.1)
movej(p[0.449250016854038, 0.0582309630733807, 0.345654959874754, -1.222, 0.971, -1.041], a = 0.2, v = 0.2, t = 0.1)
movej(p[0.449233226174641, 0.058234164166529, 0.345651561945522, -1.222, 0.971, -1.041], a = 0.2, v = 0.2, t = 0.1)
movej(p[0.449217539736721, 0.0582374932740113, 0.345650178988272, -1.222, 0.971, -1.041], a = 0.2, v = 0.2, t = 0.1)
movej(p[0.449205719105175, 0.0582417554080123, 0.345652537231178, -1.222, 0.971, -1.041], a = 0.2, v = 0.2, t = 0.1)
movej(p[0.449199741852592, 0.0582473134231991, 0.345658620421767, -1.222, 0.971, -1.041], a = 0.2, v = 0.2, t = 0.1)
movej(p[0.449200453707271, 0.0582535896230294, 0.345665604818133, -1.222, 0.971, -1.041], a = 0.2, v = 0.2, t = 0.1)
movej(p[0.449207838389985, 0.0582585034272292, 0.345671207468086, -1.222, 0.971, -1.041], a = 0.2, v = 0.2, t = 0.1)
movej(p[0.449220044282962, 0.0582611937881925, 0.345676196211869, -1.222, 0.971, -1.041], a = 0.2, v = 0.2, t = 0.1)
movej(p[0.449234340296192, 0.0582630246541149, 0.345681893323919, -1.222, 0.971, -1.041], a = 0.2, v = 0.2, t = 0.1)
movej(p[0.449248279191226, 0.0582655102128522, 0.34568864185687, -1.222, 0.971, -1.041], a = 0.2, v = 0.2, t = 0.1)
movej(p[0.449260688702911, 0.0582683208825649, 0.345695443393864, -1.222, 0.971, -1.041], a = 0.2, v = 0.2, t = 0.1)
movej(p[0.449271771396863, 0.0582703796618207, 0.34569894818027, -1.222, 0.971, -1.041], a = 0.2, v = 0.2, t = 0.1)
movej(p[0.449280874219955, 0.0582712060368361, 0.345698007921213, -1.222, 0.971, -1.041], a = 0.2, v = 0.2, t = 0.1)
movej(p[0.449287087152656, 0.0582710859046273, 0.345692994645387, -1.222, 0.971, -1.041], a = 0.2, v = 0.2, t = 0.1)
movej(p[0.44928888739031, 0.0582707961163085, 0.345684620017269, -1.222, 0.971, -1.041], a = 0.2, v = 0.2, t = 0.1)
movej(p[0.449284704482861, 0.0582706155487718, 0.345672997422479, -1.222, 0.971, -1.041], a = 0.2, v = 0.2, t = 0.1)
movej(p[0.449275787357234, 0.0582700059119889, 0.345658745757926, -1.222, 0.971, -1.041], a = 0.2, v = 0.2, t = 0.1)
movej(p[0.449263217170467, 0.0582683685958946, 0.345644233036794, -1.222, 0.971, -1.041], a = 0.2, v = 0.2, t = 0.1)
movej(p[0.449247936379905, 0.0582659065257458, 0.345631087084779, -1.222, 0.971, -1.041], a = 0.2, v = 0.2, t = 0.1)
movej(p[0.449229869597763, 0.0582637772313249, 0.345620028177858, -1.222, 0.971, -1.041], a = 0.2, v = 0.2, t = 0.1)
movej(p[0.449211017357791, 0.0582620250865061, 0.345609595306221, -1.222, 0.971, -1.041], a = 0.2, v = 0.2, t = 0.1)
movej(p[0.449194351026337, 0.0582600203926242, 0.345598672180647, -1.222, 0.971, -1.041], a = 0.2, v = 0.2, t = 0.1)
movej(p[0.449181513976215, 0.0582573750375172, 0.345587273489428, -1.222, 0.971, -1.041], a = 0.2, v = 0.2, t = 0.1)
movej(p[0.449172950544105, 0.0582535592203312, 0.345577192703214, -1.222, 0.971, -1.041], a = 0.2, v = 0.2, t = 0.1)
movej(p[0.449168975819735, 0.0582486780516638, 0.345569975597933, -1.222, 0.971, -1.041], a = 0.2, v = 0.2, t = 0.1)
movej(p[0.449169657218697, 0.0582431835129957, 0.345564500978743, -1.222, 0.971, -1.041], a = 0.2, v = 0.2, t = 0.1)
movej(p[0.449174966373732, 0.0582384075864591, 0.345560131565564, -1.222, 0.971, -1.041], a = 0.2, v = 0.2, t = 0.1)
movej(p[0.449184623880278, 0.0582342689641549, 0.345557482356864, -1.222, 0.971, -1.041], a = 0.2, v = 0.2, t = 0.1)
movej(p[0.449198595691872, 0.0582299149906652, 0.345554920902467, -1.222, 0.971, -1.041], a = 0.2, v = 0.2, t = 0.1)
movej(p[0.449215294406111, 0.0582255583445679, 0.345552297497894, -1.222, 0.971, -1.041], a = 0.2, v = 0.2, t = 0.1)
movej(p[0.449232503332351, 0.0582222529368169, 0.345548992043724, -1.222, 0.971, -1.041], a = 0.2, v = 0.2, t = 0.1)
movej(p[0.44924855910999, 0.0582197952338149, 0.345544246843061, -1.222, 0.971, -1.041], a = 0.2, v = 0.2, t = 0.1)
movej(p[0.449261879861243, 0.0582174727723781, 0.345538531747878, -1.222, 0.971, -1.041], a = 0.2, v = 0.2, t = 0.1)
movej(p[0.449271489855237, 0.0582138332837439, 0.345532788761206, -1.222, 0.971, -1.041], a = 0.2, v = 0.2, t = 0.1)
movej(p[0.449276697233327, 0.0582079114155957, 0.345528008176194, -1.222, 0.971, -1.041], a = 0.2, v = 0.2, t = 0.1)
movej(p[0.449278170794007, 0.0581998578698027, 0.345523560577619, -1.222, 0.971, -1.041], a = 0.2, v = 0.2, t = 0.1)
movej(p[0.449275914950891, 0.0581906299684375, 0.345518290019562, -1.222, 0.971, -1.041], a = 0.2, v = 0.2, t = 0.1)
movej(p[0.449269908299636, 0.0581813960045402, 0.345510886482472, -1.222, 0.971, -1.041], a = 0.2, v = 0.2, t = 0.1)
movej(p[0.44925976760636, 0.0581736867933369, 0.345500689859134, -1.222, 0.971, -1.041], a = 0.2, v = 0.2, t = 0.1)
movej(p[0.449245329516367, 0.05816825992324, 0.345487737726672, -1.222, 0.971, -1.041], a = 0.2, v = 0.2, t = 0.1)
movej(p[0.449227916059707, 0.0581643829658039, 0.345473506864393, -1.222, 0.971, -1.041], a = 0.2, v = 0.2, t = 0.1)
movej(p[0.449209951339618, 0.0581611937626252, 0.345459234617191, -1.222, 0.971, -1.041], a = 0.2, v = 0.2, t = 0.1)
movej(p[0.449193201201473, 0.0581590392249886, 0.345446527312453, -1.222, 0.971, -1.041], a = 0.2, v = 0.2, t = 0.1)
movej(p[0.449179232082299, 0.0581586504066477, 0.345437211699602, -1.222, 0.971, -1.041], a = 0.2, v = 0.2, t = 0.1)
movej(p[0.449168813688338, 0.058159446677197, 0.34543261087071, -1.222, 0.971, -1.041], a = 0.2, v = 0.2, t = 0.1)
movej(p[0.449163164787911, 0.0581603510242928, 0.345431295434929, -1.222, 0.971, -1.041], a = 0.2, v = 0.2, t = 0.1)
movej(p[0.449163256093768, 0.0581607997746253, 0.345430943310832, -1.222, 0.971, -1.041], a = 0.2, v = 0.2, t = 0.1)
movej(p[0.449168752560962, 0.0581608407696985, 0.345430262559925, -1.222, 0.971, -1.041], a = 0.2, v = 0.2, t = 0.1)
movej(p[0.449178661484954, 0.0581607558126421, 0.345429251539348, -1.222, 0.971, -1.041], a = 0.2, v = 0.2, t = 0.1)
movej(p[0.449191597203508, 0.0581616149117876, 0.345428824439635, -1.222, 0.971, -1.041], a = 0.2, v = 0.2, t = 0.1)
movej(p[0.4492057359819, 0.0581637775095623, 0.345428094230455, -1.222, 0.971, -1.041], a = 0.2, v = 0.2, t = 0.1)
movej(p[0.449219350353363, 0.0581660570771232, 0.345425925425626, -1.222, 0.971, -1.041], a = 0.2, v = 0.2, t = 0.1)
movej(p[0.449230244485305, 0.058168005135444, 0.345421868920724, -1.222, 0.971, -1.041], a = 0.2, v = 0.2, t = 0.1)
movej(p[0.44923566224702, 0.0581698789510566, 0.345417229737385, -1.222, 0.971, -1.041], a = 0.2, v = 0.2, t = 0.1)
movej(p[0.449233698014427, 0.0581722721811337, 0.345413954553555, -1.222, 0.971, -1.041], a = 0.2, v = 0.2, t = 0.1)
movej(p[0.449224131730503, 0.0581752178718681, 0.345412923618548, -1.222, 0.971, -1.041], a = 0.2, v = 0.2, t = 0.1)
movej(p[0.449210094022968, 0.0581774158886326, 0.345414028373482, -1.222, 0.971, -1.041], a = 0.2, v = 0.2, t = 0.1)
movej(p[0.449193460205811, 0.05817816808754, 0.345416064310759, -1.222, 0.971, -1.041], a = 0.2, v = 0.2, t = 0.1)
movej(p[0.449175655494803, 0.0581781636983431, 0.345417336788128, -1.222, 0.971, -1.041], a = 0.2, v = 0.2, t = 0.1)
movej(p[0.449157763278415, 0.058178201025133, 0.345415794468954, -1.222, 0.971, -1.041], a = 0.2, v = 0.2, t = 0.1)
movej(p[0.449140576610009, 0.0581788043858602, 0.345411345908972, -1.222, 0.971, -1.041], a = 0.2, v = 0.2, t = 0.1)
movej(p[0.449124558910945, 0.0581800134560698, 0.345405349230229, -1.222, 0.971, -1.041], a = 0.2, v = 0.2, t = 0.1)
movej(p[0.449110172135538, 0.0581830624855171, 0.345400549828828, -1.222, 0.971, -1.041], a = 0.2, v = 0.2, t = 0.1)
movej(p[0.449099303874061, 0.0581886663565952, 0.345399000020318, -1.222, 0.971, -1.041], a = 0.2, v = 0.2, t = 0.1)
movej(p[0.449094278970043, 0.0581955368739969, 0.345401738733198, -1.222, 0.971, -1.041], a = 0.2, v = 0.2, t = 0.1)
movej(p[0.449097467517676, 0.058201730365238, 0.345408941121082, -1.222, 0.971, -1.041], a = 0.2, v = 0.2, t = 0.1)
movej(p[0.449109575645985, 0.0582059844147466, 0.345419968574761, -1.222, 0.971, -1.041], a = 0.2, v = 0.2, t = 0.1)
movej(p[0.449128351871456, 0.058208176541708, 0.345433038484226, -1.222, 0.971, -1.041], a = 0.2, v = 0.2, t = 0.1)
movej(p[0.449150376343881, 0.0582081613363495, 0.345446143914863, -1.222, 0.971, -1.041], a = 0.2, v = 0.2, t = 0.1)
movej(p[0.44917291681372, 0.0582066291246761, 0.345457872417574, -1.222, 0.971, -1.041], a = 0.2, v = 0.2, t = 0.1)
movej(p[0.449195288442807, 0.058205137446235, 0.34546711341132, -1.222, 0.971, -1.041], a = 0.2, v = 0.2, t = 0.1)
movej(p[0.44921738670151, 0.0582051818771501, 0.345472617291516, -1.222, 0.971, -1.041], a = 0.2, v = 0.2, t = 0.1)
movej(p[0.449238964938225, 0.0582074027874898, 0.345473933900232, -1.222, 0.971, -1.041], a = 0.2, v = 0.2, t = 0.1)
movej(p[0.449258472139235, 0.0582100899229496, 0.345472138398692, -1.222, 0.971, -1.041], a = 0.2, v = 0.2, t = 0.1)
movej(p[0.44927399370875, 0.0582112080236827, 0.345469246376468, -1.222, 0.971, -1.041], a = 0.2, v = 0.2, t = 0.1)
movej(p[0.449284096029341, 0.0582100570654664, 0.345466669705776, -1.222, 0.971, -1.041], a = 0.2, v = 0.2, t = 0.1)
movej(p[0.449288535405228, 0.0582077902961956, 0.345463468424032, -1.222, 0.971, -1.041], a = 0.2, v = 0.2, t = 0.1)
movej(p[0.449287760881149, 0.05820457472651, 0.345458589716309, -1.222, 0.971, -1.041], a = 0.2, v = 0.2, t = 0.1)
movej(p[0.449283474184224, 0.0582005516284012, 0.345452234851158, -1.222, 0.971, -1.041], a = 0.2, v = 0.2, t = 0.1)
movej(p[0.449277230545907, 0.0581974495049783, 0.345446357901283, -1.222, 0.971, -1.041], a = 0.2, v = 0.2, t = 0.1)
movej(p[0.449270592856012, 0.0581955207590817, 0.345441142753143, -1.222, 0.971, -1.041], a = 0.2, v = 0.2, t = 0.1)
movej(p[0.449264587955256, 0.0581934337144536, 0.345436272292423, -1.222, 0.971, -1.041], a = 0.2, v = 0.2, t = 0.1)
movej(p[0.449259549565668, 0.0581905718802767, 0.345432398787226, -1.222, 0.971, -1.041], a = 0.2, v = 0.2, t = 0.1)
movej(p[0.449256310065913, 0.0581887644762447, 0.3454307114802, -1.222, 0.971, -1.041], a = 0.2, v = 0.2, t = 0.1)
movej(p[0.449256831542081, 0.0581892871353141, 0.345431442646462, -1.222, 0.971, -1.041], a = 0.2, v = 0.2, t = 0.1)
movej(p[0.44926270062591, 0.0581915962491173, 0.345434488769483, -1.222, 0.971, -1.041], a = 0.2, v = 0.2, t = 0.1)
movej(p[0.449273831502356, 0.0581950985224254, 0.345438133653599, -1.222, 0.971, -1.041], a = 0.2, v = 0.2, t = 0.1)
movej(p[0.449289614632954, 0.0581992881718623, 0.345441372502794, -1.222, 0.971, -1.041], a = 0.2, v = 0.2, t = 0.1)
movej(p[0.449310177742702, 0.0582035626955765, 0.345444166913374, -1.222, 0.971, -1.041], a = 0.2, v = 0.2, t = 0.1)
movej(p[0.44933391695139, 0.0582080423055991, 0.345448248188414, -1.222, 0.971, -1.041], a = 0.2, v = 0.2, t = 0.1)
movej(p[0.44935860780006, 0.0582135033736426, 0.345454761571694, -1.222, 0.971, -1.041], a = 0.2, v = 0.2, t = 0.1)
movej(p[0.449382276963563, 0.0582194040539651, 0.345461952807807, -1.222, 0.971, -1.041], a = 0.2, v = 0.2, t = 0.1)
movej(p[0.449403052154396, 0.0582242125540981, 0.345464941008989, -1.222, 0.971, -1.041], a = 0.2, v = 0.2, t = 0.1)
movej(p[0.449418730609063, 0.0582271294632847, 0.345463142963088, -1.222, 0.971, -1.041], a = 0.2, v = 0.2, t = 0.1)
movej(p[0.449427686419493, 0.058228399493987, 0.345458544265169, -1.222, 0.971, -1.041], a = 0.2, v = 0.2, t = 0.1)
movej(p[0.449430206068051, 0.0582289758506095, 0.345453206345613, -1.222, 0.971, -1.041], a = 0.2, v = 0.2, t = 0.1)
movej(p[0.449427301647334, 0.0582293975743521, 0.345447070517439, -1.222, 0.971, -1.041], a = 0.2, v = 0.2, t = 0.1)
movej(p[0.449420463845975, 0.0582295902168181, 0.345440496420508, -1.222, 0.971, -1.041], a = 0.2, v = 0.2, t = 0.1)
movej(p[0.449409988938767, 0.058229646796449, 0.345434349958865, -1.222, 0.971, -1.041], a = 0.2, v = 0.2, t = 0.1)
movej(p[0.449396435704882, 0.0582300543585565, 0.345429100602106, -1.222, 0.971, -1.041], a = 0.2, v = 0.2, t = 0.1)
movej(p[0.449381431029814, 0.0582314516933195, 0.345425449238021, -1.222, 0.971, -1.041], a = 0.2, v = 0.2, t = 0.1)
movej(p[0.449368172042779, 0.0582332176216114, 0.345424887230844, -1.222, 0.971, -1.041], a = 0.2, v = 0.2, t = 0.1)
movej(p[0.449358846231459, 0.0582338417137695, 0.345427415948345, -1.222, 0.971, -1.041], a = 0.2, v = 0.2, t = 0.1)
movej(p[0.449353679790142, 0.0582333410699357, 0.345432622560379, -1.222, 0.971, -1.041], a = 0.2, v = 0.2, t = 0.1)
movej(p[0.449352592360334, 0.0582324592190952, 0.345440309263606, -1.222, 0.971, -1.041], a = 0.2, v = 0.2, t = 0.1)
movej(p[0.449354897295564, 0.0582317802584455, 0.345450065483931, -1.222, 0.971, -1.041], a = 0.2, v = 0.2, t = 0.1)
movej(p[0.449360926891702, 0.0582309628244532, 0.345461203439851, -1.222, 0.971, -1.041], a = 0.2, v = 0.2, t = 0.1)
movej(p[0.449370859164372, 0.0582301436534023, 0.345472637094707, -1.222, 0.971, -1.041], a = 0.2, v = 0.2, t = 0.1)
movej(p[0.449384178693289, 0.0582297514894416, 0.345481636757972, -1.222, 0.971, -1.041], a = 0.2, v = 0.2, t = 0.1)
movej(p[0.449399273318556, 0.0582299866912921, 0.345486088528308, -1.222, 0.971, -1.041], a = 0.2, v = 0.2, t = 0.1)
movej(p[0.449414374955061, 0.0582314614695392, 0.345485503606953, -1.222, 0.971, -1.041], a = 0.2, v = 0.2, t = 0.1)
movej(p[0.449428055629863, 0.0582339231219204, 0.345481742120741, -1.222, 0.971, -1.041], a = 0.2, v = 0.2, t = 0.1)
movej(p[0.449438904826698, 0.0582363304879217, 0.34547723008506, -1.222, 0.971, -1.041], a = 0.2, v = 0.2, t = 0.1)
movej(p[0.449445768882902, 0.0582371352263735, 0.345473302836602, -1.222, 0.971, -1.041], a = 0.2, v = 0.2, t = 0.1)
movej(p[0.449447777318754, 0.0582357945533133, 0.345468881737511, -1.222, 0.971, -1.041], a = 0.2, v = 0.2, t = 0.1)
movej(p[0.449445415019502, 0.0582330120724697, 0.345461376761322, -1.222, 0.971, -1.041], a = 0.2, v = 0.2, t = 0.1)
movej(p[0.449439127116189, 0.0582301784190074, 0.345450412790464, -1.222, 0.971, -1.041], a = 0.2, v = 0.2, t = 0.1)
movej(p[0.449428761479271, 0.0582282045422598, 0.345437020991224, -1.222, 0.971, -1.041], a = 0.2, v = 0.2, t = 0.1)
movej(p[0.449414045484958, 0.0582265350681866, 0.345422386328136, -1.222, 0.971, -1.041], a = 0.2, v = 0.2, t = 0.1)
movej(p[0.449394492441956, 0.0582244997207166, 0.345406990133281, -1.222, 0.971, -1.041], a = 0.2, v = 0.2, t = 0.1)
movej(p[0.449371167651399, 0.0582219109111679, 0.345391091499265, -1.222, 0.971, -1.041], a = 0.2, v = 0.2, t = 0.1)
movej(p[0.449346425973425, 0.058218973828874, 0.345375239866774, -1.222, 0.971, -1.041], a = 0.2, v = 0.2, t = 0.1)
movej(p[0.449323132236548, 0.0582162688630197, 0.345360792153632, -1.222, 0.971, -1.041], a = 0.2, v = 0.2, t = 0.1)
movej(p[0.449303278498186, 0.0582149624672058, 0.345349685128601, -1.222, 0.971, -1.041], a = 0.2, v = 0.2, t = 0.1)
movej(p[0.449288123432155, 0.0582157186019905, 0.345343517196387, -1.222, 0.971, -1.041], a = 0.2, v = 0.2, t = 0.1)
movej(p[0.449278038005673, 0.0582183426976734, 0.345344429020662, -1.222, 0.971, -1.041], a = 0.2, v = 0.2, t = 0.1)
movej(p[0.449273770360286, 0.0582223490462575, 0.345351823141832, -1.222, 0.971, -1.041], a = 0.2, v = 0.2, t = 0.1)
movej(p[0.449275337753006, 0.0582269699799394, 0.345363330944618, -1.222, 0.971, -1.041], a = 0.2, v = 0.2, t = 0.1)
movej(p[0.449282193609457, 0.0582306666240159, 0.345376016790743, -1.222, 0.971, -1.041], a = 0.2, v = 0.2, t = 0.1)
movej(p[0.449292163928774, 0.0582322268603913, 0.345387709981247, -1.222, 0.971, -1.041], a = 0.2, v = 0.2, t = 0.1)
movej(p[0.449302848698829, 0.0582311041242572, 0.345396800065979, -1.222, 0.971, -1.041], a = 0.2, v = 0.2, t = 0.1)
movej(p[0.449312498238258, 0.0582278257379576, 0.345401218526806, -1.222, 0.971, -1.041], a = 0.2, v = 0.2, t = 0.1)
movej(p[0.449320207335324, 0.0582229071697154, 0.345400661233456, -1.222, 0.971, -1.041], a = 0.2, v = 0.2, t = 0.1)
movej(p[0.449324599611246, 0.0582176246448518, 0.345394930207693, -1.222, 0.971, -1.041], a = 0.2, v = 0.2, t = 0.1)
movej(p[0.449324318440192, 0.0582125140096741, 0.345386135053293, -1.222, 0.971, -1.041], a = 0.2, v = 0.2, t = 0.1)
movej(p[0.449318292118563, 0.0582083980911228, 0.345377440515462, -1.222, 0.971, -1.041], a = 0.2, v = 0.2, t = 0.1)
movej(p[0.449306187657773, 0.0582062767059474, 0.34537041140699, -1.222, 0.971, -1.041], a = 0.2, v = 0.2, t = 0.1)
movej(p[0.449288468167921, 0.0582070125877137, 0.345364687089789, -1.222, 0.971, -1.041], a = 0.2, v = 0.2, t = 0.1)
movej(p[0.449266232791865, 0.0582097537284215, 0.345357871971795, -1.222, 0.971, -1.041], a = 0.2, v = 0.2, t = 0.1)
movej(p[0.449241244221851, 0.0582130408320542, 0.345348602106458, -1.222, 0.971, -1.041], a = 0.2, v = 0.2, t = 0.1)
movej(p[0.44921463785464, 0.0582156755532025, 0.345338607402296, -1.222, 0.971, -1.041], a = 0.2, v = 0.2, t = 0.1)
movej(p[0.44918777918816, 0.0582165721507291, 0.345329441102235, -1.222, 0.971, -1.041], a = 0.2, v = 0.2, t = 0.1)
movej(p[0.449162580115337, 0.0582159278539793, 0.345321671158763, -1.222, 0.971, -1.041], a = 0.2, v = 0.2, t = 0.1)
movej(p[0.449140971557427, 0.0582145753185181, 0.345315437360331, -1.222, 0.971, -1.041], a = 0.2, v = 0.2, t = 0.1)
movej(p[0.449124009084186, 0.0582146138663871, 0.345311067571937, -1.222, 0.971, -1.041], a = 0.2, v = 0.2, t = 0.1)
movej(p[0.449111906313483, 0.0582166450424228, 0.345309434534214, -1.222, 0.971, -1.041], a = 0.2, v = 0.2, t = 0.1)
movej(p[0.44910482148797, 0.0582208588159948, 0.345311935056707, -1.222, 0.971, -1.041], a = 0.2, v = 0.2, t = 0.1)
movej(p[0.449103377162923, 0.0582266705221741, 0.345317556361132, -1.222, 0.971, -1.041], a = 0.2, v = 0.2, t = 0.1)
movej(p[0.449107715270136, 0.0582340266003373, 0.345324239911451, -1.222, 0.971, -1.041], a = 0.2, v = 0.2, t = 0.1)
movej(p[0.449116465999625, 0.0582426511820744, 0.345330707451732, -1.222, 0.971, -1.041], a = 0.2, v = 0.2, t = 0.1)
movej(p[0.449127768540097, 0.0582517514918177, 0.34533690491504, -1.222, 0.971, -1.041], a = 0.2, v = 0.2, t = 0.1)
movej(p[0.449139527422179, 0.0582599569925474, 0.345342911024843, -1.222, 0.971, -1.041], a = 0.2, v = 0.2, t = 0.1)
movej(p[0.449149509909006, 0.0582648897294063, 0.345348522412535, -1.222, 0.971, -1.041], a = 0.2, v = 0.2, t = 0.1)
movej(p[0.449155486667934, 0.058265992658652, 0.345354123139612, -1.222, 0.971, -1.041], a = 0.2, v = 0.2, t = 0.1)
movej(p[0.44915620633981, 0.0582645688807741, 0.345361186676258, -1.222, 0.971, -1.041], a = 0.2, v = 0.2, t = 0.1)
movej(p[0.449151257439084, 0.0582617625946906, 0.345368501968188, -1.222, 0.971, -1.041], a = 0.2, v = 0.2, t = 0.1)
movej(p[0.449141169970296, 0.0582586489786652, 0.345373724135046, -1.222, 0.971, -1.041], a = 0.2, v = 0.2, t = 0.1)
movej(p[0.449127321464224, 0.0582553013028716, 0.34537575491528, -1.222, 0.971, -1.041], a = 0.2, v = 0.2, t = 0.1)
movej(p[0.449111618438053, 0.0582500460082927, 0.345374607440684, -1.222, 0.971, -1.041], a = 0.2, v = 0.2, t = 0.1)
movej(p[0.449095912620978, 0.0582420759866004, 0.345371177936747, -1.222, 0.971, -1.041], a = 0.2, v = 0.2, t = 0.1)
movej(p[0.449080952292677, 0.0582327298256817, 0.345367743302676, -1.222, 0.971, -1.041], a = 0.2, v = 0.2, t = 0.1)
movej(p[0.449067671775938, 0.0582249261133642, 0.345365131188165, -1.222, 0.971, -1.041], a = 0.2, v = 0.2, t = 0.1)
movej(p[0.449056718336782, 0.0582191064472749, 0.34536492278651, -1.222, 0.971, -1.041], a = 0.2, v = 0.2, t = 0.1)
movej(p[0.449047912905795, 0.0582143862521498, 0.345367796146932, -1.222, 0.971, -1.041], a = 0.2, v = 0.2, t = 0.1)
movej(p[0.449041553042414, 0.0582109977812854, 0.345374599852832, -1.222, 0.971, -1.041], a = 0.2, v = 0.2, t = 0.1)
movej(p[0.449038389666161, 0.0582095541973539, 0.345385388652817, -1.222, 0.971, -1.041], a = 0.2, v = 0.2, t = 0.1)
movej(p[0.449038868719213, 0.0582100561952267, 0.345398310285001, -1.222, 0.971, -1.041], a = 0.2, v = 0.2, t = 0.1)
movej(p[0.4490430046963, 0.0582110616890636, 0.345410652841693, -1.222, 0.971, -1.041], a = 0.2, v = 0.2, t = 0.1)
movej(p[0.449049611862841, 0.0582112050516993, 0.345421424203466, -1.222, 0.971, -1.041], a = 0.2, v = 0.2, t = 0.1)
movej(p[0.449057354145028, 0.0582100475351782, 0.345431598272271, -1.222, 0.971, -1.041], a = 0.2, v = 0.2, t = 0.1)
movej(p[0.449064401623989, 0.0582076822947034, 0.345441268904556, -1.222, 0.971, -1.041], a = 0.2, v = 0.2, t = 0.1)
movej(p[0.449070220444255, 0.0582045167433063, 0.345449149328407, -1.222, 0.971, -1.041], a = 0.2, v = 0.2, t = 0.1)
movej(p[0.449075628902618, 0.0582011080739169, 0.345453600799976, -1.222, 0.971, -1.041], a = 0.2, v = 0.2, t = 0.1)
movej(p[0.449079308016509, 0.0581997058335153, 0.345455553014572, -1.222, 0.971, -1.041], a = 0.2, v = 0.2, t = 0.1)
movej(p[0.449079175372679, 0.0582014131143905, 0.345457064540499, -1.222, 0.971, -1.041], a = 0.2, v = 0.2, t = 0.1)
movej(p[0.449073947873849, 0.0582047982836459, 0.345459579115828, -1.222, 0.971, -1.041], a = 0.2, v = 0.2, t = 0.1)
movej(p[0.449064631264371, 0.0582082069148915, 0.345462822513255, -1.222, 0.971, -1.041], a = 0.2, v = 0.2, t = 0.1)
movej(p[0.449052012620266, 0.0582110106463609, 0.345465213801779, -1.222, 0.971, -1.041], a = 0.2, v = 0.2, t = 0.1)
movej(p[0.449036538683826, 0.0582136480856656, 0.345466150311764, -1.222, 0.971, -1.041], a = 0.2, v = 0.2, t = 0.1)
movej(p[0.449018840680539, 0.0582160029467824, 0.345466568719219, -1.222, 0.971, -1.041], a = 0.2, v = 0.2, t = 0.1)
movej(p[0.449000662483222, 0.0582183783829404, 0.345467304198211, -1.222, 0.971, -1.041], a = 0.2, v = 0.2, t = 0.1)
movej(p[0.448983585852115, 0.0582212793699815, 0.345467621570574, -1.222, 0.971, -1.041], a = 0.2, v = 0.2, t = 0.1)
movej(p[0.448969286988649, 0.0582244837511887, 0.345465484616979, -1.222, 0.971, -1.041], a = 0.2, v = 0.2, t = 0.1)
movej(p[0.448958594018914, 0.0582273724225371, 0.345461066829175, -1.222, 0.971, -1.041], a = 0.2, v = 0.2, t = 0.1)
movej(p[0.44895085240419, 0.0582302589148884, 0.345455861660362, -1.222, 0.971, -1.041], a = 0.2, v = 0.2, t = 0.1)
movej(p[0.44894497881929, 0.0582338010123898, 0.345451582256348, -1.222, 0.971, -1.041], a = 0.2, v = 0.2, t = 0.1)
movej(p[0.448941146750978, 0.0582376472286332, 0.345449870225079, -1.222, 0.971, -1.041], a = 0.2, v = 0.2, t = 0.1)
movej(p[0.448940609824394, 0.0582402221166245, 0.345451929409062, -1.222, 0.971, -1.041], a = 0.2, v = 0.2, t = 0.1)
movej(p[0.448943790303299, 0.0582415040065008, 0.345458355239847, -1.222, 0.971, -1.041], a = 0.2, v = 0.2, t = 0.1)
movej(p[0.448950085538986, 0.0582422582230613, 0.34546715608833, -1.222, 0.971, -1.041], a = 0.2, v = 0.2, t = 0.1)
movej(p[0.448958719197214, 0.0582430957745767, 0.345476666908855, -1.222, 0.971, -1.041], a = 0.2, v = 0.2, t = 0.1)
movej(p[0.448969769094261, 0.0582435303012399, 0.345484688922494, -1.222, 0.971, -1.041], a = 0.2, v = 0.2, t = 0.1)
movej(p[0.448982595146075, 0.0582434083154598, 0.345490659730843, -1.222, 0.971, -1.041], a = 0.2, v = 0.2, t = 0.1)
movej(p[0.448995192126669, 0.058242868230299, 0.345494680480145, -1.222, 0.971, -1.041], a = 0.2, v = 0.2, t = 0.1)
movej(p[0.449006077738351, 0.0582424461712242, 0.345497128242069, -1.222, 0.971, -1.041], a = 0.2, v = 0.2, t = 0.1)
movej(p[0.44901482125873, 0.0582414032255592, 0.345497613555092, -1.222, 0.971, -1.041], a = 0.2, v = 0.2, t = 0.1)
movej(p[0.449021279470038, 0.0582387006878829, 0.34549609958554, -1.222, 0.971, -1.041], a = 0.2, v = 0.2, t = 0.1)
movej(p[0.449025266991271, 0.0582342133418239, 0.345492993672025, -1.222, 0.971, -1.041], a = 0.2, v = 0.2, t = 0.1)
movej(p[0.449026035724694, 0.0582285421184079, 0.345488236319306, -1.222, 0.971, -1.041], a = 0.2, v = 0.2, t = 0.1)
movej(p[0.449023063731588, 0.0582219305104984, 0.345481924301338, -1.222, 0.971, -1.041], a = 0.2, v = 0.2, t = 0.1)
movej(p[0.44901625659588, 0.0582145996564885, 0.34547351877453, -1.222, 0.971, -1.041], a = 0.2, v = 0.2, t = 0.1)
movej(p[0.449005191641622, 0.0582071940495182, 0.345463367007704, -1.222, 0.971, -1.041], a = 0.2, v = 0.2, t = 0.1)
movej(p[0.448990808111848, 0.0582006954470314, 0.345452186956186, -1.222, 0.971, -1.041], a = 0.2, v = 0.2, t = 0.1)
movej(p[0.448974370870946, 0.0581952236629544, 0.345440393337591, -1.222, 0.971, -1.041], a = 0.2, v = 0.2, t = 0.1)
movej(p[0.4489574374536, 0.0581907132630339, 0.34542890021432, -1.222, 0.971, -1.041], a = 0.2, v = 0.2, t = 0.1)
movej(p[0.448941649749215, 0.0581880886816892, 0.345419187596907, -1.222, 0.971, -1.041], a = 0.2, v = 0.2, t = 0.1)
movej(p[0.448928745767076, 0.0581876075472026, 0.345412921333302, -1.222, 0.971, -1.041], a = 0.2, v = 0.2, t = 0.1)
movej(p[0.448919917808746, 0.0581888455511006, 0.345409892260165, -1.222, 0.971, -1.041], a = 0.2, v = 0.2, t = 0.1)
movej(p[0.448915684572842, 0.058191632974713, 0.345408679852481, -1.222, 0.971, -1.041], a = 0.2, v = 0.2, t = 0.1)
movej(p[0.448916086021193, 0.0581951812946977, 0.345410474331656, -1.222, 0.971, -1.041], a = 0.2, v = 0.2, t = 0.1)
movej(p[0.448920985888703, 0.0581980881727613, 0.3454159438355, -1.222, 0.971, -1.041], a = 0.2, v = 0.2, t = 0.1)
movej(p[0.448929562072836, 0.0581996151233659, 0.345423607643403, -1.222, 0.971, -1.041], a = 0.2, v = 0.2, t = 0.1)
movej(p[0.448940514990056, 0.0582005152838744, 0.345430699199609, -1.222, 0.971, -1.041], a = 0.2, v = 0.2, t = 0.1)
movej(p[0.448952431816233, 0.0582016410128562, 0.345436681171034, -1.222, 0.971, -1.041], a = 0.2, v = 0.2, t = 0.1)
movej(p[0.448963798445146, 0.0582027273429514, 0.345442532633082, -1.222, 0.971, -1.041], a = 0.2, v = 0.2, t = 0.1)
movej(p[0.448973660241941, 0.0582037842340235, 0.345448829453012, -1.222, 0.971, -1.041], a = 0.2, v = 0.2, t = 0.1)
movej(p[0.448980910548375, 0.0582050066624284, 0.345456604954951, -1.222, 0.971, -1.041], a = 0.2, v = 0.2, t = 0.1)
movej(p[0.448984675988753, 0.0582066180895662, 0.345465451396458, -1.222, 0.971, -1.041], a = 0.2, v = 0.2, t = 0.1)
movej(p[0.448984088637238, 0.0582084641992001, 0.345473812416636, -1.222, 0.971, -1.041], a = 0.2, v = 0.2, t = 0.1)
movej(p[0.448979286532106, 0.0582097181272588, 0.345478921434519, -1.222, 0.971, -1.041], a = 0.2, v = 0.2, t = 0.1)
movej(p[0.448970639977719, 0.0582096191842678, 0.345479552238378, -1.222, 0.971, -1.041], a = 0.2, v = 0.2, t = 0.1)
movej(p[0.448958221931294, 0.0582086135334823, 0.345476748276628, -1.222, 0.971, -1.041], a = 0.2, v = 0.2, t = 0.1)
movej(p[0.44894240254579, 0.0582074157416584, 0.345471083321993, -1.222, 0.971, -1.041], a = 0.2, v = 0.2, t = 0.1)
movej(p[0.448924678406868, 0.0582055179831681, 0.345462613235796, -1.222, 0.971, -1.041], a = 0.2, v = 0.2, t = 0.1)
movej(p[0.448906224195879, 0.0582025537216768, 0.345452387656469, -1.222, 0.971, -1.041], a = 0.2, v = 0.2, t = 0.1)
movej(p[0.448887571308824, 0.0581999237901386, 0.345443120075736, -1.222, 0.971, -1.041], a = 0.2, v = 0.2, t = 0.1)
movej(p[0.448870101811992, 0.0581986585282157, 0.345436852949706, -1.222, 0.971, -1.041], a = 0.2, v = 0.2, t = 0.1)
movej(p[0.448854037465022, 0.0581977685580159, 0.345434141049545, -1.222, 0.971, -1.041], a = 0.2, v = 0.2, t = 0.1)
movej(p[0.448841296401264, 0.0581968150384973, 0.345433985229622, -1.222, 0.971, -1.041], a = 0.2, v = 0.2, t = 0.1)
movej(p[0.44883432487979, 0.058195548822929, 0.345436408737714, -1.222, 0.971, -1.041], a = 0.2, v = 0.2, t = 0.1)
movej(p[0.448834338416492, 0.0581935889588137, 0.345440009295922, -1.222, 0.971, -1.041], a = 0.2, v = 0.2, t = 0.1)
movej(p[0.448840809384158, 0.0581903490374744, 0.345443722374589, -1.222, 0.971, -1.041], a = 0.2, v = 0.2, t = 0.1)
movej(p[0.448851387044812, 0.0581865011425267, 0.345446665073615, -1.222, 0.971, -1.041], a = 0.2, v = 0.2, t = 0.1)
movej(p[0.448864200203025, 0.0581834760799461, 0.345448644919819, -1.222, 0.971, -1.041], a = 0.2, v = 0.2, t = 0.1)
movej(p[0.448878126002693, 0.0581807130434153, 0.345450112574318, -1.222, 0.971, -1.041], a = 0.2, v = 0.2, t = 0.1)
movej(p[0.448891964964093, 0.0581770390950935, 0.345452625326815, -1.222, 0.971, -1.041], a = 0.2, v = 0.2, t = 0.1)
movej(p[0.448904335646541, 0.0581723731001479, 0.345456417149059, -1.222, 0.971, -1.041], a = 0.2, v = 0.2, t = 0.1)
movej(p[0.448913462210163, 0.0581678378676602, 0.345459937338788, -1.222, 0.971, -1.041], a = 0.2, v = 0.2, t = 0.1)
movej(p[0.448918168762922, 0.0581641297133258, 0.34546216103876, -1.222, 0.971, -1.041], a = 0.2, v = 0.2, t = 0.1)
movej(p[0.448918068529085, 0.0581611047877456, 0.345461859789009, -1.222, 0.971, -1.041], a = 0.2, v = 0.2, t = 0.1)
movej(p[0.448912760721207, 0.0581583535828178, 0.345457828283959, -1.222, 0.971, -1.041], a = 0.2, v = 0.2, t = 0.1)
movej(p[0.448903265177813, 0.0581558803035929, 0.345446422064842, -1.222, 0.971, -1.041], a = 0.2, v = 0.2, t = 0.1)
movej(p[0.448890792414159, 0.0581529618900998, 0.345427757058774, -1.222, 0.971, -1.041], a = 0.2, v = 0.2, t = 0.1)
movej(p[0.448876594598462, 0.058148819246284, 0.345405372352374, -1.222, 0.971, -1.041], a = 0.2, v = 0.2, t = 0.1)
movej(p[0.448861404209469, 0.0581432380889337, 0.345382846061847, -1.222, 0.971, -1.041], a = 0.2, v = 0.2, t = 0.1)
movej(p[0.448846277786536, 0.0581380021964757, 0.345363373184083, -1.222, 0.971, -1.041], a = 0.2, v = 0.2, t = 0.1)
movej(p[0.448832303206454, 0.0581349370679947, 0.34534843049062, -1.222, 0.971, -1.041], a = 0.2, v = 0.2, t = 0.1)
movej(p[0.448820567996302, 0.0581336111183994, 0.345337966793934, -1.222, 0.971, -1.041], a = 0.2, v = 0.2, t = 0.1)
movej(p[0.448812118552847, 0.0581330246787168, 0.345332625689198, -1.222, 0.971, -1.041], a = 0.2, v = 0.2, t = 0.1)
movej(p[0.448808632109152, 0.0581325901099326, 0.345331428160769, -1.222, 0.971, -1.041], a = 0.2, v = 0.2, t = 0.1)
movej(p[0.448810773044836, 0.0581325689694234, 0.345331819534602, -1.222, 0.971, -1.041], a = 0.2, v = 0.2, t = 0.1)
movej(p[0.448817908498693, 0.0581315923179347, 0.345331495793767, -1.222, 0.971, -1.041], a = 0.2, v = 0.2, t = 0.1)
movej(p[0.448828351611796, 0.0581284826975421, 0.345331290960326, -1.222, 0.971, -1.041], a = 0.2, v = 0.2, t = 0.1)
movej(p[0.448840612085846, 0.0581228234376244, 0.345331198823275, -1.222, 0.971, -1.041], a = 0.2, v = 0.2, t = 0.1)
movej(p[0.448854808089145, 0.0581151381853161, 0.345328248462062, -1.222, 0.971, -1.041], a = 0.2, v = 0.2, t = 0.1)
movej(p[0.448870378533085, 0.058106531107277, 0.345320768904645, -1.222, 0.971, -1.041], a = 0.2, v = 0.2, t = 0.1)
movej(p[0.448885451569715, 0.0580986842114034, 0.345310254521691, -1.222, 0.971, -1.041], a = 0.2, v = 0.2, t = 0.1)
movej(p[0.448898697235336, 0.0580930892450169, 0.345299651432595, -1.222, 0.971, -1.041], a = 0.2, v = 0.2, t = 0.1)
movej(p[0.448909608293868, 0.0580902918246805, 0.345291871031372, -1.222, 0.971, -1.041], a = 0.2, v = 0.2, t = 0.1)
movej(p[0.448917090197281, 0.0580906990338093, 0.345288956203412, -1.222, 0.971, -1.041], a = 0.2, v = 0.2, t = 0.1)
movej(p[0.448920550745645, 0.0580937771120783, 0.345290174827713, -1.222, 0.971, -1.041], a = 0.2, v = 0.2, t = 0.1)
movej(p[0.448920017583627, 0.0580977527958198, 0.345291786940008, -1.222, 0.971, -1.041], a = 0.2, v = 0.2, t = 0.1)
movej(p[0.448915785578727, 0.0581011184144987, 0.34529171227788, -1.222, 0.971, -1.041], a = 0.2, v = 0.2, t = 0.1)
movej(p[0.448907519047462, 0.0581028115260246, 0.345290789019953, -1.222, 0.971, -1.041], a = 0.2, v = 0.2, t = 0.1)
movej(p[0.448894695661427, 0.0581031987007427, 0.345289954219171, -1.222, 0.971, -1.041], a = 0.2, v = 0.2, t = 0.1)
movej(p[0.448877898773613, 0.058102527416358, 0.345289082991286, -1.222, 0.971, -1.041], a = 0.2, v = 0.2, t = 0.1)
movej(p[0.44885830398682, 0.0581009495412935, 0.345287298672145, -1.222, 0.971, -1.041], a = 0.2, v = 0.2, t = 0.1)
movej(p[0.448837406519821, 0.0580992638217694, 0.345284162833541, -1.222, 0.971, -1.041], a = 0.2, v = 0.2, t = 0.1)
movej(p[0.448816571587646, 0.0580986809380398, 0.345279650113096, -1.222, 0.971, -1.041], a = 0.2, v = 0.2, t = 0.1)
movej(p[0.448797511309007, 0.0581001045717206, 0.345273361994749, -1.222, 0.971, -1.041], a = 0.2, v = 0.2, t = 0.1)
movej(p[0.448782344348802, 0.0581028766466777, 0.345265381766271, -1.222, 0.971, -1.041], a = 0.2, v = 0.2, t = 0.1)
movej(p[0.448773112174863, 0.0581058678698131, 0.345256835690592, -1.222, 0.971, -1.041], a = 0.2, v = 0.2, t = 0.1)
movej(p[0.448770464649666, 0.0581084079876503, 0.34524962474747, -1.222, 0.971, -1.041], a = 0.2, v = 0.2, t = 0.1)
movej(p[0.448773699972165, 0.0581111120585852, 0.345244239218925, -1.222, 0.971, -1.041], a = 0.2, v = 0.2, t = 0.1)
movej(p[0.448781517560685, 0.0581148106231171, 0.345241045684813, -1.222, 0.971, -1.041], a = 0.2, v = 0.2, t = 0.1)
movej(p[0.448792655440876, 0.0581189823478991, 0.34524010702023, -1.222, 0.971, -1.041], a = 0.2, v = 0.2, t = 0.1)
movej(p[0.448806530009926, 0.0581220119744678, 0.345242119734946, -1.222, 0.971, -1.041], a = 0.2, v = 0.2, t = 0.1)
movej(p[0.44882270796371, 0.058122746778237, 0.345246133397708, -1.222, 0.971, -1.041], a = 0.2, v = 0.2, t = 0.1)
movej(p[0.448841348012298, 0.0581222750042469, 0.345250019192215, -1.222, 0.971, -1.041], a = 0.2, v = 0.2, t = 0.1)
movej(p[0.448861081578313, 0.0581215487987716, 0.345253136022967, -1.222, 0.971, -1.041], a = 0.2, v = 0.2, t = 0.1)
movej(p[0.448880254124718, 0.0581201474749679, 0.345255971183275, -1.222, 0.971, -1.041], a = 0.2, v = 0.2, t = 0.1)
movej(p[0.448898618440956, 0.0581173289008533, 0.345258695670394, -1.222, 0.971, -1.041], a = 0.2, v = 0.2, t = 0.1)
movej(p[0.448916608824914, 0.0581130840978694, 0.345261596990381, -1.222, 0.971, -1.041], a = 0.2, v = 0.2, t = 0.1)
movej(p[0.44893454361492, 0.0581082897025913, 0.345264916203443, -1.222, 0.971, -1.041], a = 0.2, v = 0.2, t = 0.1)
movej(p[0.44895062690087, 0.0581047829214523, 0.34526776743407, -1.222, 0.971, -1.041], a = 0.2, v = 0.2, t = 0.1)
movej(p[0.448962307543314, 0.05810338679538, 0.345269335162713, -1.222, 0.971, -1.041], a = 0.2, v = 0.2, t = 0.1)
movej(p[0.448968017918513, 0.0581031414305585, 0.345269283459798, -1.222, 0.971, -1.041], a = 0.2, v = 0.2, t = 0.1)
movej(p[0.448967454220186, 0.0581033507896972, 0.345268936471401, -1.222, 0.971, -1.041], a = 0.2, v = 0.2, t = 0.1)
movej(p[0.448961482840498, 0.0581042965035338, 0.345267195498408, -1.222, 0.971, -1.041], a = 0.2, v = 0.2, t = 0.1)
movej(p[0.448951454047041, 0.0581063791332174, 0.345264296484025, -1.222, 0.971, -1.041], a = 0.2, v = 0.2, t = 0.1)
movej(p[0.448939498921261, 0.0581081951206815, 0.345259919086841, -1.222, 0.971, -1.041], a = 0.2, v = 0.2, t = 0.1)
movej(p[0.448927620913621, 0.0581087589793554, 0.345253717225273, -1.222, 0.971, -1.041], a = 0.2, v = 0.2, t = 0.1)
movej(p[0.448916513959274, 0.0581081017566093, 0.345245786873617, -1.222, 0.971, -1.041], a = 0.2, v = 0.2, t = 0.1)
movej(p[0.448906022380327, 0.0581066817839577, 0.345238096187765, -1.222, 0.971, -1.041], a = 0.2, v = 0.2, t = 0.1)
movej(p[0.448895935711098, 0.058104921837766, 0.345232258781469, -1.222, 0.971, -1.041], a = 0.2, v = 0.2, t = 0.1)
movej(p[0.448886408282189, 0.0581039061649587, 0.345229954339423, -1.222, 0.971, -1.041], a = 0.2, v = 0.2, t = 0.1)
movej(p[0.448878055402393, 0.0581045218497911, 0.345231656602711, -1.222, 0.971, -1.041], a = 0.2, v = 0.2, t = 0.1)
movej(p[0.448871869408363, 0.0581059576992278, 0.345236610891384, -1.222, 0.971, -1.041], a = 0.2, v = 0.2, t = 0.1)
movej(p[0.448868683020154, 0.0581069352306101, 0.345243387143414, -1.222, 0.971, -1.041], a = 0.2, v = 0.2, t = 0.1)
movej(p[0.448869774817539, 0.0581067880582942, 0.34524982114464, -1.222, 0.971, -1.041], a = 0.2, v = 0.2, t = 0.1)
movej(p[0.448876225684461, 0.0581050020583196, 0.34525587020482, -1.222, 0.971, -1.041], a = 0.2, v = 0.2, t = 0.1)
movej(p[0.448887320724903, 0.0581022631057262, 0.345261905171786, -1.222, 0.971, -1.041], a = 0.2, v = 0.2, t = 0.1)
movej(p[0.44890129353325, 0.0581000100544586, 0.345266992559316, -1.222, 0.971, -1.041], a = 0.2, v = 0.2, t = 0.1)
movej(p[0.448916677475016, 0.0580993106668268, 0.34527046978388, -1.222, 0.971, -1.041], a = 0.2, v = 0.2, t = 0.1)
movej(p[0.448932801053247, 0.0580996388795595, 0.345272140722367, -1.222, 0.971, -1.041], a = 0.2, v = 0.2, t = 0.1)
movej(p[0.448948176641335, 0.0581004142437165, 0.345272429851045, -1.222, 0.971, -1.041], a = 0.2, v = 0.2, t = 0.1)
movej(p[0.448960998854293, 0.0581021169098037, 0.345271205558572, -1.222, 0.971, -1.041], a = 0.2, v = 0.2, t = 0.1)
movej(p[0.448969835517596, 0.0581046599115259, 0.345267933882411, -1.222, 0.971, -1.041], a = 0.2, v = 0.2, t = 0.1)
movej(p[0.448973727196302, 0.0581076182167406, 0.34526292405915, -1.222, 0.971, -1.041], a = 0.2, v = 0.2, t = 0.1)
movej(p[0.44897252599543, 0.0581100455868747, 0.345257257146436, -1.222, 0.971, -1.041], a = 0.2, v = 0.2, t = 0.1)
movej(p[0.448967497692709, 0.0581102944967785, 0.34525068599124, -1.222, 0.971, -1.041], a = 0.2, v = 0.2, t = 0.1)
movej(p[0.448958879219703, 0.0581075502392176, 0.345243035238044, -1.222, 0.971, -1.041], a = 0.2, v = 0.2, t = 0.1)
movej(p[0.44894662208296, 0.0581028796300606, 0.345233478107985, -1.222, 0.971, -1.041], a = 0.2, v = 0.2, t = 0.1)
movej(p[0.44893009030063, 0.0580987173594165, 0.345222282646132, -1.222, 0.971, -1.041], a = 0.2, v = 0.2, t = 0.1)
movej(p[0.448910227196591, 0.0580961082269553, 0.345211313238366, -1.222, 0.971, -1.041], a = 0.2, v = 0.2, t = 0.1)
movej(p[0.448888749952106, 0.0580944667638225, 0.345201794221132, -1.222, 0.971, -1.041], a = 0.2, v = 0.2, t = 0.1)
movej(p[0.448867573228696, 0.0580935547159773, 0.345193364083331, -1.222, 0.971, -1.041], a = 0.2, v = 0.2, t = 0.1)
movej(p[0.448848491300824, 0.0580928750060872, 0.345184991484441, -1.222, 0.971, -1.041], a = 0.2, v = 0.2, t = 0.1)
movej(p[0.448832361817929, 0.0580921244895041, 0.345177133190009, -1.222, 0.971, -1.041], a = 0.2, v = 0.2, t = 0.1)
movej(p[0.448820355377427, 0.0580900153044097, 0.345171411457604, -1.222, 0.971, -1.041], a = 0.2, v = 0.2, t = 0.1)
movej(p[0.44881335042948, 0.0580864577800632, 0.345168183618268, -1.222, 0.971, -1.041], a = 0.2, v = 0.2, t = 0.1)
movej(p[0.448810919517007, 0.0580821851689029, 0.345167071924325, -1.222, 0.971, -1.041], a = 0.2, v = 0.2, t = 0.1)
movej(p[0.448811448736855, 0.0580783560525583, 0.345167758584628, -1.222, 0.971, -1.041], a = 0.2, v = 0.2, t = 0.1)
movej(p[0.448814531617469, 0.0580755588969709, 0.345169712025372, -1.222, 0.971, -1.041], a = 0.2, v = 0.2, t = 0.1)
movej(p[0.448820458145489, 0.0580735228823366, 0.34517347951101, -1.222, 0.971, -1.041], a = 0.2, v = 0.2, t = 0.1)
movej(p[0.448829334676455, 0.058071676724144, 0.345179592194539, -1.222, 0.971, -1.041], a = 0.2, v = 0.2, t = 0.1)
movej(p[0.448839917452002, 0.0580704445994947, 0.345188225384018, -1.222, 0.971, -1.041], a = 0.2, v = 0.2, t = 0.1)
movej(p[0.448850969687654, 0.0580703917384198, 0.345198165434863, -1.222, 0.971, -1.041], a = 0.2, v = 0.2, t = 0.1)
movej(p[0.448861182952039, 0.0580711875596831, 0.345207046309376, -1.222, 0.971, -1.041], a = 0.2, v = 0.2, t = 0.1)
movej(p[0.448869193984409, 0.0580723481995055, 0.345212610238974, -1.222, 0.971, -1.041], a = 0.2, v = 0.2, t = 0.1)
movej(p[0.448873397032317, 0.0580731314669989, 0.345214299065288, -1.222, 0.971, -1.041], a = 0.2, v = 0.2, t = 0.1)
movej(p[0.448872875468447, 0.0580720942010113, 0.345213353164976, -1.222, 0.971, -1.041], a = 0.2, v = 0.2, t = 0.1)
movej(p[0.448867347848887, 0.0580685074705744, 0.345211242913149, -1.222, 0.971, -1.041], a = 0.2, v = 0.2, t = 0.1)
movej(p[0.448857499946263, 0.0580631045652449, 0.345207021603765, -1.222, 0.971, -1.041], a = 0.2, v = 0.2, t = 0.1)
movej(p[0.448844275419021, 0.0580574937199671, 0.345199239096105, -1.222, 0.971, -1.041], a = 0.2, v = 0.2, t = 0.1)
movej(p[0.448828229080391, 0.0580525179135931, 0.345188601759713, -1.222, 0.971, -1.041], a = 0.2, v = 0.2, t = 0.1)
movej(p[0.448808844352074, 0.0580478913508881, 0.345178070669047, -1.222, 0.971, -1.041], a = 0.2, v = 0.2, t = 0.1)
movej(p[0.448786619832644, 0.0580426984415389, 0.345170073126074, -1.222, 0.971, -1.041], a = 0.2, v = 0.2, t = 0.1)
movej(p[0.448763940731757, 0.0580353161679069, 0.345164593976783, -1.222, 0.971, -1.041], a = 0.2, v = 0.2, t = 0.1)
movej(p[0.448742628636241, 0.058026097798957, 0.345161493702498, -1.222, 0.971, -1.041], a = 0.2, v = 0.2, t = 0.1)
movej(p[0.448723348072901, 0.0580168971261246, 0.345160776232836, -1.222, 0.971, -1.041], a = 0.2, v = 0.2, t = 0.1)
movej(p[0.44870660493735, 0.0580098550234259, 0.345162503123251, -1.222, 0.971, -1.041], a = 0.2, v = 0.2, t = 0.1)
movej(p[0.448693256346242, 0.0580048397430353, 0.345166410480673, -1.222, 0.971, -1.041], a = 0.2, v = 0.2, t = 0.1)
movej(p[0.448684306275489, 0.0580012179596024, 0.345171650691764, -1.222, 0.971, -1.041], a = 0.2, v = 0.2, t = 0.1)
movej(p[0.448680502157252, 0.0579989352462022, 0.345177604729972, -1.222, 0.971, -1.041], a = 0.2, v = 0.2, t = 0.1)
movej(p[0.448682615623978, 0.0579972775345317, 0.345182312164774, -1.222, 0.971, -1.041], a = 0.2, v = 0.2, t = 0.1)
movej(p[0.448690739615652, 0.057995554329446, 0.345184776174414, -1.222, 0.971, -1.041], a = 0.2, v = 0.2, t = 0.1)
movej(p[0.448703093569419, 0.0579934291205645, 0.345185309716847, -1.222, 0.971, -1.041], a = 0.2, v = 0.2, t = 0.1)
movej(p[0.448716970855145, 0.057991078959267, 0.345184668575852, -1.222, 0.971, -1.041], a = 0.2, v = 0.2, t = 0.1)
movej(p[0.448730050170638, 0.0579890401469266, 0.345184336517912, -1.222, 0.971, -1.041], a = 0.2, v = 0.2, t = 0.1)
movej(p[0.448740290955028, 0.0579873435670537, 0.345185313082195, -1.222, 0.971, -1.041], a = 0.2, v = 0.2, t = 0.1)
movej(p[0.448746430172484, 0.0579865354184024, 0.345187055872712, -1.222, 0.971, -1.041], a = 0.2, v = 0.2, t = 0.1)
movej(p[0.448747887576146, 0.0579864889540948, 0.345188839339458, -1.222, 0.971, -1.041], a = 0.2, v = 0.2, t = 0.1)
movej(p[0.448744540679042, 0.0579873927810559, 0.345190736765241, -1.222, 0.971, -1.041], a = 0.2, v = 0.2, t = 0.1)
movej(p[0.448737536979727, 0.0579891968016132, 0.345192523723477, -1.222, 0.971, -1.041], a = 0.2, v = 0.2, t = 0.1)
movej(p[0.448727271179367, 0.0579919064456308, 0.345194153049492, -1.222, 0.971, -1.041], a = 0.2, v = 0.2, t = 0.1)
movej(p[0.448713589918615, 0.0579945026448598, 0.345195607028445, -1.222, 0.971, -1.041], a = 0.2, v = 0.2, t = 0.1)
movej(p[0.448697118562762, 0.057996795678086, 0.345196829055452, -1.222, 0.971, -1.041], a = 0.2, v = 0.2, t = 0.1)
movej(p[0.4486789360924, 0.0579989905565993, 0.345197973675836, -1.222, 0.971, -1.041], a = 0.2, v = 0.2, t = 0.1)
movej(p[0.448660765317077, 0.0580016178552042, 0.345199224583992, -1.222, 0.971, -1.041], a = 0.2, v = 0.2, t = 0.1)
movej(p[0.448643827662043, 0.0580054052998305, 0.345201159466973, -1.222, 0.971, -1.041], a = 0.2, v = 0.2, t = 0.1)
movej(p[0.448630148529712, 0.058010148000865, 0.345204118159012, -1.222, 0.971, -1.041], a = 0.2, v = 0.2, t = 0.1)
movej(p[0.44862125383677, 0.0580143362167926, 0.34520607230737, -1.222, 0.971, -1.041], a = 0.2, v = 0.2, t = 0.1)
movej(p[0.448617494655233, 0.0580172313044637, 0.345206467552295, -1.222, 0.971, -1.041], a = 0.2, v = 0.2, t = 0.1)
movej(p[0.448618284968945, 0.0580196118098413, 0.345206043814894, -1.222, 0.971, -1.041], a = 0.2, v = 0.2, t = 0.1)
movej(p[0.448622842957805, 0.0580226988900188, 0.345207514808618, -1.222, 0.971, -1.041], a = 0.2, v = 0.2, t = 0.1)
movej(p[0.448631486322943, 0.0580256162743346, 0.34521286294884, -1.222, 0.971, -1.041], a = 0.2, v = 0.2, t = 0.1)
movej(p[0.448644043913768, 0.0580278053869421, 0.34522104952747, -1.222, 0.971, -1.041], a = 0.2, v = 0.2, t = 0.1)
movej(p[0.448659530176664, 0.0580298202642876, 0.345229585439712, -1.222, 0.971, -1.041], a = 0.2, v = 0.2, t = 0.1)
movej(p[0.448676035065425, 0.0580322176913998, 0.345236835304899, -1.222, 0.971, -1.041], a = 0.2, v = 0.2, t = 0.1)
movej(p[0.448692489461793, 0.0580345451440054, 0.345241540821823, -1.222, 0.971, -1.041], a = 0.2, v = 0.2, t = 0.1)
movej(p[0.448708302975837, 0.0580352879626257, 0.345246347975252, -1.222, 0.971, -1.041], a = 0.2, v = 0.2, t = 0.1)
movej(p[0.448723106623, 0.0580337957637526, 0.34525306673996, -1.222, 0.971, -1.041], a = 0.2, v = 0.2, t = 0.1)
movej(p[0.448734810020394, 0.0580306596174499, 0.345261356837294, -1.222, 0.971, -1.041], a = 0.2, v = 0.2, t = 0.1)
movej(p[0.448742232042329, 0.0580275845118479, 0.345267420513236, -1.222, 0.971, -1.041], a = 0.2, v = 0.2, t = 0.1)
movej(p[0.448745312815089, 0.0580259787666879, 0.34527054487744, -1.222, 0.971, -1.041], a = 0.2, v = 0.2, t = 0.1)
movej(p[0.448744351855634, 0.0580259074099627, 0.345271633991825, -1.222, 0.971, -1.041], a = 0.2, v = 0.2, t = 0.1)
movej(p[0.448739591861922, 0.0580265275767638, 0.345271348086233, -1.222, 0.971, -1.041], a = 0.2, v = 0.2, t = 0.1)
movej(p[0.448731108530297, 0.0580269223685552, 0.345269358478236, -1.222, 0.971, -1.041], a = 0.2, v = 0.2, t = 0.1)
movej(p[0.448720539614362, 0.0580265865216672, 0.345265253498356, -1.222, 0.971, -1.041], a = 0.2, v = 0.2, t = 0.1)
movej(p[0.448710209556809, 0.0580254087039046, 0.345259609843488, -1.222, 0.971, -1.041], a = 0.2, v = 0.2, t = 0.1)
movej(p[0.448701137140019, 0.0580235979773478, 0.345253513703075, -1.222, 0.971, -1.041], a = 0.2, v = 0.2, t = 0.1)
movej(p[0.448693196846153, 0.0580220437091771, 0.3452478930832, -1.222, 0.971, -1.041], a = 0.2, v = 0.2, t = 0.1)
movej(p[0.448685719035055, 0.0580213815431879, 0.345243287428048, -1.222, 0.971, -1.041], a = 0.2, v = 0.2, t = 0.1)
movej(p[0.448679384242928, 0.0580223039896205, 0.345240113801214, -1.222, 0.971, -1.041], a = 0.2, v = 0.2, t = 0.1)
movej(p[0.448676064618912, 0.058025073038393, 0.345240355106599, -1.222, 0.971, -1.041], a = 0.2, v = 0.2, t = 0.1)
movej(p[0.448676532094455, 0.058029167524633, 0.345243722979822, -1.222, 0.971, -1.041], a = 0.2, v = 0.2, t = 0.1)
movej(p[0.448679868754516, 0.0580330763738403, 0.3452481228434, -1.222, 0.971, -1.041], a = 0.2, v = 0.2, t = 0.1)
movej(p[0.448684932602559, 0.0580363767291282, 0.345251744286894, -1.222, 0.971, -1.041], a = 0.2, v = 0.2, t = 0.1)
movej(p[0.44869172031465, 0.0580389762519537, 0.345256391110609, -1.222, 0.971, -1.041], a = 0.2, v = 0.2, t = 0.1)
movej(p[0.448701159216793, 0.0580404603337723, 0.345262705052999, -1.222, 0.971, -1.041], a = 0.2, v = 0.2, t = 0.1)
movej(p[0.44871375036979, 0.0580398030677105, 0.345270498574317, -1.222, 0.971, -1.041], a = 0.2, v = 0.2, t = 0.1)
movej(p[0.448728570182171, 0.0580373756252933, 0.345277558912149, -1.222, 0.971, -1.041], a = 0.2, v = 0.2, t = 0.1)
movej(p[0.44874399644834, 0.0580335931807894, 0.345282137446373, -1.222, 0.971, -1.041], a = 0.2, v = 0.2, t = 0.1)
movej(p[0.448758071188895, 0.0580281999888509, 0.345284516731359, -1.222, 0.971, -1.041], a = 0.2, v = 0.2, t = 0.1)
movej(p[0.448768470504149, 0.0580219366045401, 0.345284937502343, -1.222, 0.971, -1.041], a = 0.2, v = 0.2, t = 0.1)
movej(p[0.448773517775137, 0.0580165123213934, 0.34528517563867, -1.222, 0.971, -1.041], a = 0.2, v = 0.2, t = 0.1)
movej(p[0.448773099985083, 0.0580122633988716, 0.345283374157092, -1.222, 0.971, -1.041], a = 0.2, v = 0.2, t = 0.1)
movej(p[0.448766468670516, 0.0580082178530997, 0.345279513569635, -1.222, 0.971, -1.041], a = 0.2, v = 0.2, t = 0.1)
movej(p[0.44875339337165, 0.0580039741030939, 0.345274090386117, -1.222, 0.971, -1.041], a = 0.2, v = 0.2, t = 0.1)
movej(p[0.448734510676799, 0.0580006344114567, 0.345268601962033, -1.222, 0.971, -1.041], a = 0.2, v = 0.2, t = 0.1)
movej(p[0.448711549426125, 0.0579983252558783, 0.345263976152481, -1.222, 0.971, -1.041], a = 0.2, v = 0.2, t = 0.1)
movej(p[0.448686085886381, 0.0579962493878465, 0.34526073869783, -1.222, 0.971, -1.041], a = 0.2, v = 0.2, t = 0.1)
movej(p[0.448661031971896, 0.0579932864251986, 0.345260356086658, -1.222, 0.971, -1.041], a = 0.2, v = 0.2, t = 0.1)
movej(p[0.448639030787036, 0.0579893416785605, 0.345261790216258, -1.222, 0.971, -1.041], a = 0.2, v = 0.2, t = 0.1)
movej(p[0.448621075263669, 0.0579857318956159, 0.345263227571027, -1.222, 0.971, -1.041], a = 0.2, v = 0.2, t = 0.1)
movej(p[0.448608443247434, 0.0579842880089419, 0.34526429768042, -1.222, 0.971, -1.041], a = 0.2, v = 0.2, t = 0.1)
movej(p[0.448603128359521, 0.057985217774101, 0.345266516418173, -1.222, 0.971, -1.041], a = 0.2, v = 0.2, t = 0.1)
movej(p[0.448605661150823, 0.0579876888619331, 0.345271185025582, -1.222, 0.971, -1.041], a = 0.2, v = 0.2, t = 0.1)
movej(p[0.44861389870867, 0.0579915278180422, 0.345278073500791, -1.222, 0.971, -1.041], a = 0.2, v = 0.2, t = 0.1)
movej(p[0.448625897742977, 0.0579964302132748, 0.345285249722548, -1.222, 0.971, -1.041], a = 0.2, v = 0.2, t = 0.1)
movej(p[0.448639990229118, 0.0580010713549004, 0.345291477465539, -1.222, 0.971, -1.041], a = 0.2, v = 0.2, t = 0.1)
movej(p[0.448654861241644, 0.0580043252452049, 0.345295665815375, -1.222, 0.971, -1.041], a = 0.2, v = 0.2, t = 0.1)
movej(p[0.4486691776721, 0.0580059199444895, 0.345299057332174, -1.222, 0.971, -1.041], a = 0.2, v = 0.2, t = 0.1)
movej(p[0.448682135178303, 0.058005730310159, 0.34530199383312, -1.222, 0.971, -1.041], a = 0.2, v = 0.2, t = 0.1)
movej(p[0.44869397698996, 0.0580041869976687, 0.345304915296835, -1.222, 0.971, -1.041], a = 0.2, v = 0.2, t = 0.1)
movej(p[0.448705075605551, 0.0580024232414793, 0.345308966730541, -1.222, 0.971, -1.041], a = 0.2, v = 0.2, t = 0.1)
movej(p[0.448715574706835, 0.0580012683200254, 0.345313708487985, -1.222, 0.971, -1.041], a = 0.2, v = 0.2, t = 0.1)
movej(p[0.448725798040033, 0.0580004586311818, 0.345317290597461, -1.222, 0.971, -1.041], a = 0.2, v = 0.2, t = 0.1)
movej(p[0.448736417216199, 0.0579987026910767, 0.345318287777945, -1.222, 0.971, -1.041], a = 0.2, v = 0.2, t = 0.1)
movej(p[0.448747006854043, 0.057994968018563, 0.345316115996526, -1.222, 0.971, -1.041], a = 0.2, v = 0.2, t = 0.1)
movej(p[0.448756084025968, 0.057988245502341, 0.345309713831931, -1.222, 0.971, -1.041], a = 0.2, v = 0.2, t = 0.1)
movej(p[0.448760363748808, 0.0579787024093598, 0.345300015045576, -1.222, 0.971, -1.041], a = 0.2, v = 0.2, t = 0.1)
movej(p[0.448757625217471, 0.0579686002526241, 0.345288581385733, -1.222, 0.971, -1.041], a = 0.2, v = 0.2, t = 0.1)
movej(p[0.448746927082959, 0.0579592702309521, 0.345276448493639, -1.222, 0.971, -1.041], a = 0.2, v = 0.2, t = 0.1)
movej(p[0.448727626404329, 0.0579523794507293, 0.345264393786328, -1.222, 0.971, -1.041], a = 0.2, v = 0.2, t = 0.1)
movej(p[0.448700927577828, 0.0579486637355354, 0.345253329557251, -1.222, 0.971, -1.041], a = 0.2, v = 0.2, t = 0.1)
movej(p[0.448671319570475, 0.0579458272081628, 0.345245087181562, -1.222, 0.971, -1.041], a = 0.2, v = 0.2, t = 0.1)
movej(p[0.448642220711188, 0.0579422099461037, 0.345239236321416, -1.222, 0.971, -1.041], a = 0.2, v = 0.2, t = 0.1)
movej(p[0.448614901032393, 0.0579384207965599, 0.345233946692484, -1.222, 0.971, -1.041], a = 0.2, v = 0.2, t = 0.1)
movej(p[0.448590344649168, 0.0579382756943624, 0.345228059872183, -1.222, 0.971, -1.041], a = 0.2, v = 0.2, t = 0.1)
movej(p[0.448569242664006, 0.0579430169860527, 0.345221127595622, -1.222, 0.971, -1.041], a = 0.2, v = 0.2, t = 0.1)
movej(p[0.448552756743867, 0.0579501269870901, 0.345213702895734, -1.222, 0.971, -1.041], a = 0.2, v = 0.2, t = 0.1)
movej(p[0.448541333926928, 0.0579567107659969, 0.345208313329564, -1.222, 0.971, -1.041], a = 0.2, v = 0.2, t = 0.1)
movej(p[0.448535397943524, 0.05796177825111, 0.345207482351432, -1.222, 0.971, -1.041], a = 0.2, v = 0.2, t = 0.1)
movej(p[0.448535341355706, 0.0579651869845688, 0.345211780794758, -1.222, 0.971, -1.041], a = 0.2, v = 0.2, t = 0.1)
movej(p[0.448541527909273, 0.0579669333354878, 0.345218658046712, -1.222, 0.971, -1.041], a = 0.2, v = 0.2, t = 0.1)
movej(p[0.448554994812029, 0.0579669475353627, 0.345224976362668, -1.222, 0.971, -1.041], a = 0.2, v = 0.2, t = 0.1)
movej(p[0.448575377757962, 0.0579652175797949, 0.345230485784584, -1.222, 0.971, -1.041], a = 0.2, v = 0.2, t = 0.1)
movej(p[0.448599870999344, 0.0579625592593506, 0.34523687655488, -1.222, 0.971, -1.041], a = 0.2, v = 0.2, t = 0.1)
movej(p[0.448625056053368, 0.0579597744059727, 0.345243233893356, -1.222, 0.971, -1.041], a = 0.2, v = 0.2, t = 0.1)
movej(p[0.448648792593501, 0.0579575561446877, 0.345248144203875, -1.222, 0.971, -1.041], a = 0.2, v = 0.2, t = 0.1)
movej(p[0.448670734056183, 0.0579553885975911, 0.345251825526998, -1.222, 0.971, -1.041], a = 0.2, v = 0.2, t = 0.1)
movej(p[0.448690041918333, 0.0579537569191584, 0.345255037950336, -1.222, 0.971, -1.041], a = 0.2, v = 0.2, t = 0.1)
movej(p[0.448706204387103, 0.0579537340388359, 0.345257875795072, -1.222, 0.971, -1.041], a = 0.2, v = 0.2, t = 0.1)
movej(p[0.448718534406154, 0.057956207352055, 0.345259139784367, -1.222, 0.971, -1.041], a = 0.2, v = 0.2, t = 0.1)
movej(p[0.448727311890811, 0.0579601931249883, 0.345258839360992, -1.222, 0.971, -1.041], a = 0.2, v = 0.2, t = 0.1)
movej(p[0.448731358044761, 0.0579635904110931, 0.345256588088831, -1.222, 0.971, -1.041], a = 0.2, v = 0.2, t = 0.1)
movej(p[0.448728764319224, 0.0579649616816041, 0.345252709748075, -1.222, 0.971, -1.041], a = 0.2, v = 0.2, t = 0.1)
movej(p[0.448719316523304, 0.0579645690710501, 0.345245997057168, -1.222, 0.971, -1.041], a = 0.2, v = 0.2, t = 0.1)
movej(p[0.448703913651426, 0.0579634636394213, 0.34523397880772, -1.222, 0.971, -1.041], a = 0.2, v = 0.2, t = 0.1)
movej(p[0.44868169553305, 0.0579630917699242, 0.345216160442084, -1.222, 0.971, -1.041], a = 0.2, v = 0.2, t = 0.1)
movej(p[0.44865333915163, 0.0579643296530345, 0.345194841409034, -1.222, 0.971, -1.041], a = 0.2, v = 0.2, t = 0.1)
movej(p[0.448622082589981, 0.057967843614058, 0.34517365260643, -1.222, 0.971, -1.041], a = 0.2, v = 0.2, t = 0.1)
movej(p[0.448591663576663, 0.0579739163004032, 0.345154687837665, -1.222, 0.971, -1.041], a = 0.2, v = 0.2, t = 0.1)
movej(p[0.448565497077467, 0.0579811005197279, 0.345140457136398, -1.222, 0.971, -1.041], a = 0.2, v = 0.2, t = 0.1)
movej(p[0.448546031375329, 0.0579878378902473, 0.345131848928701, -1.222, 0.971, -1.041], a = 0.2, v = 0.2, t = 0.1)
movej(p[0.448535302140132, 0.0579921161331897, 0.345127187975106, -1.222, 0.971, -1.041], a = 0.2, v = 0.2, t = 0.1)
movej(p[0.448533450176363, 0.0579935299935782, 0.345124968746637, -1.222, 0.971, -1.041], a = 0.2, v = 0.2, t = 0.1)
movej(p[0.448538738238019, 0.0579929393132884, 0.345123519839907, -1.222, 0.971, -1.041], a = 0.2, v = 0.2, t = 0.1)
movej(p[0.448550266853627, 0.0579913285477989, 0.345121418156369, -1.222, 0.971, -1.041], a = 0.2, v = 0.2, t = 0.1)
movej(p[0.448566637831335, 0.0579901895378912, 0.345118121225169, -1.222, 0.971, -1.041], a = 0.2, v = 0.2, t = 0.1)
movej(p[0.448585676908059, 0.0579894289168945, 0.345114995447316, -1.222, 0.971, -1.041], a = 0.2, v = 0.2, t = 0.1)
movej(p[0.448605974458929, 0.0579872381458284, 0.345112505901813, -1.222, 0.971, -1.041], a = 0.2, v = 0.2, t = 0.1)
movej(p[0.448625839516042, 0.0579836171973815, 0.345110367605239, -1.222, 0.971, -1.041], a = 0.2, v = 0.2, t = 0.1)
movej(p[0.448644280039242, 0.0579802686700864, 0.34510859294976, -1.222, 0.971, -1.041], a = 0.2, v = 0.2, t = 0.1)
movej(p[0.448660316711302, 0.0579785345829779, 0.345107665736657, -1.222, 0.971, -1.041], a = 0.2, v = 0.2, t = 0.1)
movej(p[0.448671861203996, 0.0579787556523629, 0.345108678467014, -1.222, 0.971, -1.041], a = 0.2, v = 0.2, t = 0.1)
movej(p[0.448677114363401, 0.0579807106774346, 0.345110745600108, -1.222, 0.971, -1.041], a = 0.2, v = 0.2, t = 0.1)
movej(p[0.448675802066815, 0.0579843661796443, 0.345111938482024, -1.222, 0.971, -1.041], a = 0.2, v = 0.2, t = 0.1)
movej(p[0.448669624472583, 0.0579884144906021, 0.345109347583936, -1.222, 0.971, -1.041], a = 0.2, v = 0.2, t = 0.1)
movej(p[0.448659257877074, 0.0579920374325742, 0.345101640157776, -1.222, 0.971, -1.041], a = 0.2, v = 0.2, t = 0.1)
movej(p[0.448643599480035, 0.0579952777352762, 0.34508981944318, -1.222, 0.971, -1.041], a = 0.2, v = 0.2, t = 0.1)
movej(p[0.44862229499615, 0.0579981777274866, 0.345077621011618, -1.222, 0.971, -1.041], a = 0.2, v = 0.2, t = 0.1)
