def moving():
set_payload_mass(0)
set_tcp(p[0,0,0,0,0,0])
movej(p[-0.4025, -0.1161, 0.3402, -1.113, -1.287, 1.334], a = 0.2, v = 0.2, t = 0.2)
movej(p[-0.402554929322023, -0.116057477575295, 0.340251716660558, -1.11260983990136, -1.28658824067133, 1.33570893381171], a = 0.2, v = 0.2, t = 0.2)
movej(p[-0.4025, -0.1161, 0.3402, -1.113, -1.287, 1.334], a = 0.2, v = 0.2, t = 0.2)
movej(p[-0.402554929322023, -0.116057477575295, 0.340251716660558, -1.11260983990136, -1.28658824067133, 1.33570893381171], a = 0.2, v = 0.2, t = 0.2)
movej(p[-0.4025, -0.1161, 0.3402, -1.113, -1.287, 1.334], a = 0.2, v = 0.2, t = 0.2)
movej(p[-0.4025, -0.1161, 0.3402, -1.113, -1.287, 1.334], a = 0.2, v = 0.2, t = 0.2)
movej(p[-0.40212290671266, -0.116759724690018, 0.340606243787674, -1.09392587366339, -1.29234063604923, 1.3400861790085], a = 0.2, v = 0.2, t = 0.2)
movej(p[-0.401599681347156, -0.117442063401828, 0.341167467400647, -1.0872060409373, -1.29070633461075, 1.34333984803032], a = 0.2, v = 0.2, t = 0.2)
movej(p[-0.401234897010662, -0.117946294555328, 0.341548214868385, -1.07711109265625, -1.29241837296385, 1.34470579813459], a = 0.2, v = 0.2, t = 0.2)
movej(p[-0.401010382319858, -0.118291735426622, 0.341761326524689, -1.06911995906216, -1.29330570862654, 1.34885885241881], a = 0.2, v = 0.2, t = 0.2)
movej(p[-0.400920480887947, -0.118705530097406, 0.34186726486983, -1.05942030413117, -1.29946955106929, 1.35340609855199], a = 0.2, v = 0.2, t = 0.2)
movej(p[-0.400866874244896, -0.118915066901407, 0.341889976884048, -1.0567856335538, -1.30511386598968, 1.35455095322735], a = 0.2, v = 0.2, t = 0.2)
movej(p[-0.400947378729527, -0.119013672470314, 0.341857026015549, -1.05926742370419, -1.30809193011053, 1.35332986715606], a = 0.2, v = 0.2, t = 0.2)
movej(p[-0.401308209598335, -0.118950382089507, 0.341538599511137, -1.05790596125597, -1.31045375470514, 1.35549150743672], a = 0.2, v = 0.2, t = 0.2)
movej(p[-0.402193903913079, -0.119137548836787, 0.340894990586056, -1.06452176024323, -1.32206878740125, 1.358878512889], a = 0.2, v = 0.2, t = 0.2)
movej(p[-0.403598380406907, -0.11904008466775, 0.339871464437569, -1.09287818190573, -1.33568474897994, 1.35964609327153], a = 0.2, v = 0.2, t = 0.2)
movej(p[-0.404799459882038, -0.118232531723227, 0.338793637873687, -1.12823960999401, -1.34023195688736, 1.35015160175686], a = 0.2, v = 0.2, t = 0.2)
movej(p[-0.405695417201759, -0.117295825829274, 0.337741185271489, -1.16014817743878, -1.33590833215509, 1.34666377122123], a = 0.2, v = 0.2, t = 0.2)
movej(p[-0.40628367779188, -0.116325261719732, 0.336684872004755, -1.17991117665178, -1.3296476793463, 1.34549341470842], a = 0.2, v = 0.2, t = 0.2)
movej(p[-0.406644381810009, -0.115518858108728, 0.335907289624832, -1.19636831319804, -1.32052890133587, 1.34847784772711], a = 0.2, v = 0.2, t = 0.2)
movej(p[-0.406695064410458, -0.114882105389352, 0.335663843309643, -1.20855887997314, -1.3105141080447, 1.35015398981403], a = 0.2, v = 0.2, t = 0.2)
movej(p[-0.4063572660599, -0.114776979780384, 0.336141732607179, -1.19523411942244, -1.30368251342222, 1.35036174526471], a = 0.2, v = 0.2, t = 0.2)
movej(p[-0.405541352675229, -0.115263878021186, 0.337270414587109, -1.17056632599104, -1.29874024966222, 1.34807532973121], a = 0.2, v = 0.2, t = 0.2)
movej(p[-0.404337051258387, -0.11593123818427, 0.338620854307541, -1.13386955054696, -1.29782281860926, 1.34535382712292], a = 0.2, v = 0.2, t = 0.2)
movej(p[-0.402891235157757, -0.116578021568676, 0.340003126387204, -1.10140193412649, -1.29221033111748, 1.34357977931316], a = 0.2, v = 0.2, t = 0.2)
movej(p[-0.401820003720253, -0.117190943096634, 0.340882812461761, -1.07633208335457, -1.2919384939062, 1.3480977705398], a = 0.2, v = 0.2, t = 0.2)
movej(p[-0.401383616614369, -0.118015932313969, 0.341380804587803, -1.05954794446291, -1.29903082956375, 1.35653244705536], a = 0.2, v = 0.2, t = 0.2)
movej(p[-0.401235268304279, -0.118527137146394, 0.341604617203844, -1.0665081070948, -1.30326595012991, 1.35534984264759], a = 0.2, v = 0.2, t = 0.2)
movej(p[-0.401136644038198, -0.118468726695445, 0.341649266453109, -1.06564894140715, -1.30564982907342, 1.3538079011049], a = 0.2, v = 0.2, t = 0.2)
movej(p[-0.400918401177406, -0.118473534818194, 0.341765928769514, -1.06099725095042, -1.30168895712068, 1.35041854558149], a = 0.2, v = 0.2, t = 0.2)
movej(p[-0.400776753996439, -0.118604884957874, 0.341832849371199, -1.04689250523142, -1.30064805555225, 1.35275002842868], a = 0.2, v = 0.2, t = 0.2)
movej(p[-0.400854223499112, -0.119228307023839, 0.341946624517098, -1.0369620235866, -1.30609043696994, 1.36039251071461], a = 0.2, v = 0.2, t = 0.2)
movej(p[-0.401152412202695, -0.119571617651859, 0.341866333118783, -1.04369541889679, -1.31410815026452, 1.36070285475113], a = 0.2, v = 0.2, t = 0.2)
movej(p[-0.40162183569181, -0.119327624410753, 0.341583517135215, -1.05697770355322, -1.31826743089213, 1.35833708636379], a = 0.2, v = 0.2, t = 0.2)
movej(p[-0.402355727698081, -0.119023745085889, 0.340950551361691, -1.08206742379661, -1.32009309767715, 1.35508561398861], a = 0.2, v = 0.2, t = 0.2)
movej(p[-0.403439580743999, -0.118717325868145, 0.340032529962239, -1.09778063431719, -1.32684630717052, 1.35789694134294], a = 0.2, v = 0.2, t = 0.2)
movej(p[-0.404578529808898, -0.118412608820568, 0.339093403051444, -1.12194655154425, -1.33407993831253, 1.35414717229307], a = 0.2, v = 0.2, t = 0.2)
movej(p[-0.405565364976402, -0.11771811939797, 0.338055196788663, -1.15100062329832, -1.33785518956866, 1.35031696796609], a = 0.2, v = 0.2, t = 0.2)
movej(p[-0.406232948069582, -0.116769961663533, 0.336957158903739, -1.18195737401699, -1.33437436359801, 1.34834970341528], a = 0.2, v = 0.2, t = 0.2)
movej(p[-0.406639484090789, -0.115903447108855, 0.33601514046316, -1.19809883172763, -1.32889196971158, 1.35086650919952], a = 0.2, v = 0.2, t = 0.2)
movej(p[-0.406831872639742, -0.11504742321214, 0.335294425245834, -1.21272705918173, -1.31835951654239, 1.35248599942057], a = 0.2, v = 0.2, t = 0.2)
movej(p[-0.406768149170796, -0.114368679538133, 0.335031327441774, -1.22428903482509, -1.30366295907112, 1.35207026663705], a = 0.2, v = 0.2, t = 0.2)
movej(p[-0.406590158947933, -0.114074110221627, 0.335045657073251, -1.22709546085887, -1.2946523076109, 1.35532263671025], a = 0.2, v = 0.2, t = 0.2)
movej(p[-0.406530141703933, -0.114223520897588, 0.335204793619436, -1.22308661115894, -1.29423649065739, 1.36065811169218], a = 0.2, v = 0.2, t = 0.2)
movej(p[-0.406462838966901, -0.11463540116662, 0.335655828956821, -1.21418360971881, -1.30328253604139, 1.35593413644906], a = 0.2, v = 0.2, t = 0.2)
movej(p[-0.405966981900796, -0.114910526373075, 0.336503449102149, -1.20157108441029, -1.29986187251627, 1.34917190477705], a = 0.2, v = 0.2, t = 0.2)
movej(p[-0.404904820449587, -0.115421056770588, 0.33779254623378, -1.16857707685342, -1.29609516776235, 1.34654350815525], a = 0.2, v = 0.2, t = 0.2)
movej(p[-0.40352876551528, -0.116246174084626, 0.339250866582669, -1.12955318697079, -1.29256355936783, 1.34802315806391], a = 0.2, v = 0.2, t = 0.2)
movej(p[-0.402346283402179, -0.117011147597318, 0.340363907597921, -1.10347143714468, -1.29287112915204, 1.35039644153526], a = 0.2, v = 0.2, t = 0.2)
movej(p[-0.401661470131288, -0.117493922951566, 0.341019607462677, -1.08694579791815, -1.29544848349713, 1.34917215816409], a = 0.2, v = 0.2, t = 0.2)
movej(p[-0.40122489747274, -0.11776904136173, 0.341421892563938, -1.07789790268437, -1.29463812867701, 1.35017458592049], a = 0.2, v = 0.2, t = 0.2)
movej(p[-0.401046867483916, -0.118352884430176, 0.341709913664741, -1.05964915870719, -1.30361245155005, 1.35524499148464], a = 0.2, v = 0.2, t = 0.2)
movej(p[-0.400881271462857, -0.118627247253331, 0.341833232718743, -1.0618601655158, -1.30587533239632, 1.3529588546467], a = 0.2, v = 0.2, t = 0.2)
movej(p[-0.4008184081646, -0.118696742722248, 0.341912571836032, -1.06402897920429, -1.30508041700005, 1.34967027883286], a = 0.2, v = 0.2, t = 0.2)
movej(p[-0.4007799574188, -0.118717200310724, 0.341897431254103, -1.06266813528939, -1.30205252592949, 1.34943720795384], a = 0.2, v = 0.2, t = 0.2)
movej(p[-0.401124487121386, -0.118991132804815, 0.341722313428861, -1.05374622276445, -1.30654789162169, 1.3564750584448], a = 0.2, v = 0.2, t = 0.2)
movej(p[-0.401993538494419, -0.119288608672917, 0.341169857272314, -1.05599277969157, -1.3240992652122, 1.36329142770444], a = 0.2, v = 0.2, t = 0.2)
movej(p[-0.403151830322287, -0.118967967218426, 0.340348382017376, -1.08652547158832, -1.33320566317008, 1.35345643192376], a = 0.2, v = 0.2, t = 0.2)
movej(p[-0.404196024160926, -0.118298371652156, 0.339456354454696, -1.11622081409823, -1.33943600849898, 1.3453416586284], a = 0.2, v = 0.2, t = 0.2)
movej(p[-0.40502662326026, -0.117482412998009, 0.338371920826756, -1.1466471133631, -1.33466995604955, 1.34315634037227], a = 0.2, v = 0.2, t = 0.2)
movej(p[-0.405856757217412, -0.116677208603022, 0.337154997923486, -1.16813153532958, -1.33117281822372, 1.34951056484783], a = 0.2, v = 0.2, t = 0.2)
movej(p[-0.406613469551993, -0.116015660856177, 0.33602066211899, -1.18817426921972, -1.32816434329861, 1.35536632735141], a = 0.2, v = 0.2, t = 0.2)
movej(p[-0.406986705879883, -0.115224439828038, 0.335412709967769, -1.20838893098466, -1.31746305560097, 1.35168851348286], a = 0.2, v = 0.2, t = 0.2)
movej(p[-0.406875731793587, -0.114606886082758, 0.335391553317263, -1.21475084365584, -1.30823553932822, 1.35236892536689], a = 0.2, v = 0.2, t = 0.2)
movej(p[-0.406510758493983, -0.114484777877353, 0.335808157922072, -1.20673399582216, -1.30614965118624, 1.35239481701493], a = 0.2, v = 0.2, t = 0.2)
movej(p[-0.406103337732511, -0.114839904639215, 0.336531042903332, -1.18641631594818, -1.30851330960618, 1.35233400691817], a = 0.2, v = 0.2, t = 0.2)
movej(p[-0.405465697436401, -0.11571070202753, 0.337586168368706, -1.15884633370009, -1.31121910943577, 1.35204663005643], a = 0.2, v = 0.2, t = 0.2)
movej(p[-0.404381688359795, -0.116329053277376, 0.338796555455447, -1.14603678309001, -1.30257306264593, 1.34343880469094], a = 0.2, v = 0.2, t = 0.2)
movej(p[-0.403145904370596, -0.11666759251035, 0.33992145959873, -1.12454098727445, -1.29421623190597, 1.34258251569345], a = 0.2, v = 0.2, t = 0.2)
movej(p[-0.40211056732675, -0.117063645973505, 0.340695900852644, -1.10122887829865, -1.29374923714548, 1.34711438741441], a = 0.2, v = 0.2, t = 0.2)
movej(p[-0.401670115892356, -0.117653675985267, 0.341187680583785, -1.08224632861881, -1.29775104246577, 1.35466440410305], a = 0.2, v = 0.2, t = 0.2)
movej(p[-0.401391238365319, -0.118099455856872, 0.341504216770319, -1.08102427045389, -1.29680678164404, 1.35778234694305], a = 0.2, v = 0.2, t = 0.2)
movej(p[-0.401229740418547, -0.118336894584664, 0.341687009762889, -1.08595533134163, -1.29473687060283, 1.35381436563816], a = 0.2, v = 0.2, t = 0.2)
movej(p[-0.401118426993168, -0.118605166657837, 0.341774872164893, -1.07709382313131, -1.29856649448795, 1.35713359570179], a = 0.2, v = 0.2, t = 0.2)
movej(p[-0.401101326858664, -0.118927335392062, 0.341876342261412, -1.07127510663793, -1.30477600298081, 1.35497432555814], a = 0.2, v = 0.2, t = 0.2)
movej(p[-0.401173160339362, -0.119019294207518, 0.341888979338242, -1.06297186418307, -1.30944897805312, 1.35519249174663], a = 0.2, v = 0.2, t = 0.2)
movej(p[-0.401260795598862, -0.118957059620536, 0.341811448985634, -1.06415640313008, -1.30726385928819, 1.35113337607646], a = 0.2, v = 0.2, t = 0.2)
movej(p[-0.40163777527369, -0.119018025594335, 0.341470469565573, -1.05930896969853, -1.31172459528217, 1.35717941456009], a = 0.2, v = 0.2, t = 0.2)
movej(p[-0.402491076613284, -0.11918732418733, 0.340809535989745, -1.07216653808437, -1.31800777828283, 1.36587030399841], a = 0.2, v = 0.2, t = 0.2)
movej(p[-0.403757474147907, -0.118898423525951, 0.339862082807706, -1.10021430038013, -1.32974386441238, 1.36029072903288], a = 0.2, v = 0.2, t = 0.2)
movej(p[-0.404836807660136, -0.118066754618103, 0.338871064903126, -1.13502950481994, -1.33023068673739, 1.35228348081826], a = 0.2, v = 0.2, t = 0.2)
movej(p[-0.40568063966022, -0.117156187772546, 0.337780910798283, -1.16562258310899, -1.32948159624373, 1.34538626525495], a = 0.2, v = 0.2, t = 0.2)
movej(p[-0.406365569242472, -0.116267989832461, 0.336645492405361, -1.18470502288837, -1.32859144256376, 1.34797532163342], a = 0.2, v = 0.2, t = 0.2)
movej(p[-0.406857747138038, -0.11544093331301, 0.335666969311484, -1.20406935140281, -1.32508221461349, 1.35002250000645], a = 0.2, v = 0.2, t = 0.2)
movej(p[-0.407067107073428, -0.114589827017235, 0.335135494494822, -1.20994346557524, -1.31878333846846, 1.35084144710775], a = 0.2, v = 0.2, t = 0.2)
movej(p[-0.406947998698486, -0.114184910723453, 0.335164876122564, -1.21159463433973, -1.31104957470666, 1.35477751479995], a = 0.2, v = 0.2, t = 0.2)
movej(p[-0.406623407482048, -0.114304428864153, 0.33571192955346, -1.20008270924364, -1.30632365371939, 1.35226283686622], a = 0.2, v = 0.2, t = 0.2)
movej(p[-0.405940253125409, -0.114731554511952, 0.33675216732724, -1.17924184100357, -1.30185378067609, 1.34634932411591], a = 0.2, v = 0.2, t = 0.2)
movej(p[-0.40481355322937, -0.115373076497574, 0.3381393012019, -1.14864345772223, -1.29442710474382, 1.34417316250868], a = 0.2, v = 0.2, t = 0.2)
movej(p[-0.403653465445957, -0.116180392417794, 0.339397704493215, -1.11555853422559, -1.29212669957109, 1.34904855466374], a = 0.2, v = 0.2, t = 0.2)
movej(p[-0.402786640292911, -0.117167258069206, 0.340336676341021, -1.09055361257237, -1.29905721394476, 1.35649130337503], a = 0.2, v = 0.2, t = 0.2)
movej(p[-0.402233708530124, -0.117773046717399, 0.340886574357031, -1.0908462286841, -1.30150575763379, 1.35238453186389], a = 0.2, v = 0.2, t = 0.2)
movej(p[-0.401846282351595, -0.117768208891938, 0.341124848080023, -1.08681175966036, -1.29853016387412, 1.35199032327243], a = 0.2, v = 0.2, t = 0.2)
movej(p[-0.401462328965231, -0.11780199190244, 0.341338934500193, -1.07899043145476, -1.29607878802236, 1.3494604007236], a = 0.2, v = 0.2, t = 0.2)
movej(p[-0.401200330899716, -0.117982697613424, 0.341500979400404, -1.06296734548688, -1.29443754176701, 1.35302708143768], a = 0.2, v = 0.2, t = 0.2)
movej(p[-0.401185748967987, -0.118588907778559, 0.341631246932253, -1.05442500049458, -1.30061555132575, 1.35745423672537], a = 0.2, v = 0.2, t = 0.2)
movej(p[-0.401300141712126, -0.119179438353449, 0.341722315767253, -1.06044427185526, -1.30603909101601, 1.36161011558197], a = 0.2, v = 0.2, t = 0.2)
movej(p[-0.40138925539471, -0.119054857986762, 0.341651692231429, -1.06689787386089, -1.30692940289659, 1.35997713652677], a = 0.2, v = 0.2, t = 0.2)
movej(p[-0.401512825569722, -0.118932409017789, 0.341535057612447, -1.07143983845104, -1.30604078819727, 1.35690491383759], a = 0.2, v = 0.2, t = 0.2)
movej(p[-0.401861759272611, -0.118874061056781, 0.341190946288986, -1.06629257080497, -1.31031240553035, 1.35918270148102], a = 0.2, v = 0.2, t = 0.2)
movej(p[-0.4026261328357, -0.118963162449453, 0.340701709086521, -1.08276638702935, -1.31628246868812, 1.35727196340227], a = 0.2, v = 0.2, t = 0.2)
movej(p[-0.403502186904618, -0.118821490131088, 0.340019186159258, -1.10437735630686, -1.32187970251077, 1.35585841912297], a = 0.2, v = 0.2, t = 0.2)
movej(p[-0.404487623367008, -0.118256650804407, 0.339007293783544, -1.13170203305622, -1.32360569789852, 1.3522422553671], a = 0.2, v = 0.2, t = 0.2)
movej(p[-0.40532718895818, -0.117411544468004, 0.337898845584126, -1.1502643614202, -1.3248311286236, 1.34876312662052], a = 0.2, v = 0.2, t = 0.2)
movej(p[-0.406102791521202, -0.116590529919851, 0.336642701015783, -1.17131630114276, -1.32780129155878, 1.3498530229067], a = 0.2, v = 0.2, t = 0.2)
movej(p[-0.406745484688796, -0.115694904244558, 0.335573304331802, -1.19381926562866, -1.32685190343436, 1.34947540757456], a = 0.2, v = 0.2, t = 0.2)
movej(p[-0.407265136269719, -0.114963351013552, 0.334654615350346, -1.21463302294005, -1.32247790715256, 1.35502966777423], a = 0.2, v = 0.2, t = 0.2)
movej(p[-0.407390765345986, -0.114110343124814, 0.334254982360032, -1.22873489230939, -1.3106714758681, 1.35302721478392], a = 0.2, v = 0.2, t = 0.2)
movej(p[-0.407183931864115, -0.113598560425317, 0.334377553724031, -1.23799799764978, -1.29844364586383, 1.35300032817246], a = 0.2, v = 0.2, t = 0.2)
movej(p[-0.406808844434247, -0.113540230540964, 0.33485560025372, -1.23357228016888, -1.29314764370476, 1.35176208256788], a = 0.2, v = 0.2, t = 0.2)
movej(p[-0.406467622262825, -0.114128444974468, 0.33567807034433, -1.2106267349744, -1.29776723391597, 1.35682107178317], a = 0.2, v = 0.2, t = 0.2)
movej(p[-0.405821333686479, -0.114987715325492, 0.336804273225668, -1.18460731605462, -1.30418469190571, 1.35247712090392], a = 0.2, v = 0.2, t = 0.2)
movej(p[-0.404524601717859, -0.115558067117153, 0.338195060028671, -1.16395326376611, -1.29583824992166, 1.34209581708262], a = 0.2, v = 0.2, t = 0.2)
movej(p[-0.403112479638798, -0.115992273809022, 0.339462358208251, -1.14074022449708, -1.28703964318511, 1.33994942956184], a = 0.2, v = 0.2, t = 0.2)
movej(p[-0.401996705836081, -0.116434639526159, 0.340328001135139, -1.11167539509075, -1.28164050080283, 1.34293296502717], a = 0.2, v = 0.2, t = 0.2)
movej(p[-0.401485870342568, -0.117116393773325, 0.340892407085797, -1.08083393633435, -1.28565927780383, 1.35191657780014], a = 0.2, v = 0.2, t = 0.2)
movej(p[-0.401251017605092, -0.118001237182052, 0.341274314746801, -1.06484440195476, -1.29733828580291, 1.35552410357173], a = 0.2, v = 0.2, t = 0.2)
movej(p[-0.401128801311489, -0.11826666867476, 0.341430522605619, -1.07506498247756, -1.2963234399696, 1.3531127771514], a = 0.2, v = 0.2, t = 0.2)
movej(p[-0.401029681035209, -0.118250211126344, 0.341510811910201, -1.07419353986643, -1.29613087940075, 1.3532000120298], a = 0.2, v = 0.2, t = 0.2)
movej(p[-0.401011038607077, -0.11831278416013, 0.341484993790282, -1.06805845673265, -1.2985299498764, 1.35444563301753], a = 0.2, v = 0.2, t = 0.2)
movej(p[-0.401527551081625, -0.118541970570433, 0.341239500016495, -1.06289155332114, -1.31074580657426, 1.35456502402173], a = 0.2, v = 0.2, t = 0.2)
movej(p[-0.402287365430884, -0.118624730958976, 0.340780326620108, -1.07819350059887, -1.32045002060297, 1.3534619584674], a = 0.2, v = 0.2, t = 0.2)
movej(p[-0.403304309823711, -0.118369748409805, 0.339906429469858, -1.11044034349017, -1.32094864789575, 1.35158911691409], a = 0.2, v = 0.2, t = 0.2)
movej(p[-0.404384473224825, -0.117831280209577, 0.338720020368099, -1.13547935087673, -1.32581126174399, 1.35310142391027], a = 0.2, v = 0.2, t = 0.2)
movej(p[-0.405432693648401, -0.117180451700323, 0.337458466687417, -1.1629133025052, -1.32750705879732, 1.3523719138554], a = 0.2, v = 0.2, t = 0.2)
movej(p[-0.406172878055802, -0.116162775153031, 0.33643272563114, -1.18255947590556, -1.32525335321896, 1.3493213148198], a = 0.2, v = 0.2, t = 0.2)
movej(p[-0.406415948630603, -0.115368342159023, 0.336052743264975, -1.18635093783722, -1.31572412810146, 1.34733807973688], a = 0.2, v = 0.2, t = 0.2)
movej(p[-0.406178817139651, -0.115377619030668, 0.33647165946859, -1.16352817979319, -1.3147295462035, 1.34910449391376], a = 0.2, v = 0.2, t = 0.2)
movej(p[-0.405406663095248, -0.116002277035067, 0.337608950053116, -1.1372376467901, -1.31595803079213, 1.3462925701882], a = 0.2, v = 0.2, t = 0.2)
movej(p[-0.404252378482268, -0.11646277705437, 0.33889894341099, -1.12260993960133, -1.30629117077898, 1.34322042002677], a = 0.2, v = 0.2, t = 0.2)
movej(p[-0.402987941061961, -0.116852285241145, 0.339941528570228, -1.1086482697717, -1.29694862122617, 1.33923016964301], a = 0.2, v = 0.2, t = 0.2)
movej(p[-0.402071486853453, -0.117358818277895, 0.340652889684001, -1.0888515079693, -1.29288805973467, 1.34668166773073], a = 0.2, v = 0.2, t = 0.2)
movej(p[-0.401628092122613, -0.117885080107758, 0.341083520756257, -1.07880556987697, -1.29399675962684, 1.34846646423885], a = 0.2, v = 0.2, t = 0.2)
movej(p[-0.401414786569862, -0.118196364560331, 0.341336578454721, -1.0728001898905, -1.29839566637171, 1.35302280434505], a = 0.2, v = 0.2, t = 0.2)
movej(p[-0.401206149540653, -0.118323265035447, 0.341418639175886, -1.06971126752558, -1.29807446410981, 1.34904782817611], a = 0.2, v = 0.2, t = 0.2)
movej(p[-0.401110090043942, -0.118705136953513, 0.341514877077901, -1.0529763770405, -1.30262212795958, 1.3550152729747], a = 0.2, v = 0.2, t = 0.2)
movej(p[-0.401171310417942, -0.119201711536065, 0.341545220523175, -1.04467267904557, -1.30717423815462, 1.36030176071727], a = 0.2, v = 0.2, t = 0.2)
movej(p[-0.401333979278233, -0.119307574513536, 0.341534900063273, -1.05577786258994, -1.30984357266624, 1.35793341225356], a = 0.2, v = 0.2, t = 0.2)
movej(p[-0.401528764959156, -0.119033759587619, 0.341375082707041, -1.06896036209026, -1.30798422456931, 1.35711412866481], a = 0.2, v = 0.2, t = 0.2)
movej(p[-0.401792589056926, -0.11882711758346, 0.34106138113173, -1.07924251228784, -1.3071889793249, 1.35393018315919], a = 0.2, v = 0.2, t = 0.2)
movej(p[-0.402590215382512, -0.118638725541056, 0.34033033122783, -1.0861234233439, -1.31431193791342, 1.35883351441596], a = 0.2, v = 0.2, t = 0.2)
movej(p[-0.403911554139564, -0.11853683726844, 0.339191418199538, -1.10371015069861, -1.32919760729932, 1.36145177611768], a = 0.2, v = 0.2, t = 0.2)
movej(p[-0.405360029400289, -0.117925733732568, 0.337957011966763, -1.13713728195832, -1.3389282864445, 1.35819325887831], a = 0.2, v = 0.2, t = 0.2)
movej(p[-0.406386392780837, -0.116742115095128, 0.336745339976386, -1.17625312833604, -1.33336560344135, 1.35089718258463], a = 0.2, v = 0.2, t = 0.2)
movej(p[-0.406902852054009, -0.115566961826543, 0.335722588825432, -1.20175957043032, -1.3234733246398, 1.34723590787842], a = 0.2, v = 0.2, t = 0.2)
movej(p[-0.407062812097999, -0.114804909975201, 0.33505199662432, -1.20374283079595, -1.31997425730701, 1.34963852972558], a = 0.2, v = 0.2, t = 0.2)
movej(p[-0.407062889906239, -0.114463473352081, 0.334953324610366, -1.20278180742754, -1.3130268899076, 1.34995039334403], a = 0.2, v = 0.2, t = 0.2)
movej(p[-0.406766828106378, -0.114420396418698, 0.335525881654226, -1.19358605370166, -1.30529017924221, 1.34976812391718], a = 0.2, v = 0.2, t = 0.2)
movej(p[-0.406146779700186, -0.114818360405845, 0.336541148914071, -1.17849835222538, -1.30015506091968, 1.35008468701407], a = 0.2, v = 0.2, t = 0.2)
movej(p[-0.405232687772684, -0.115524597783585, 0.33777599035347, -1.16305668942919, -1.29767717493793, 1.34753251508357], a = 0.2, v = 0.2, t = 0.2)
movej(p[-0.404150911369506, -0.116165545401201, 0.338933448908841, -1.13970774419203, -1.29792052421371, 1.34605477480591], a = 0.2, v = 0.2, t = 0.2)
movej(p[-0.4030621111989, -0.116743659998907, 0.339954694075736, -1.11946169217781, -1.2883858540906, 1.34927616242757], a = 0.2, v = 0.2, t = 0.2)
movej(p[-0.4022719555533, -0.117241525469989, 0.340594411732609, -1.09506860275001, -1.28724087234342, 1.35698607060317], a = 0.2, v = 0.2, t = 0.2)
movej(p[-0.401891331547182, -0.117970511997918, 0.341014098408296, -1.07771661853212, -1.29271675395953, 1.3657523619392], a = 0.2, v = 0.2, t = 0.2)
movej(p[-0.401790527037374, -0.118500898393755, 0.341241074373793, -1.0794584889863, -1.29885495361518, 1.36632944270767], a = 0.2, v = 0.2, t = 0.2)
movej(p[-0.401636962688669, -0.118412120529616, 0.341277525596623, -1.08141859500456, -1.3005307658994, 1.36261218352205], a = 0.2, v = 0.2, t = 0.2)
movej(p[-0.401428590453691, -0.118376449056709, 0.341356482900343, -1.08017053407034, -1.29603448810393, 1.35869428385887], a = 0.2, v = 0.2, t = 0.2)
movej(p[-0.401226194239242, -0.118445353368994, 0.341415022358192, -1.06564403775441, -1.294381023898, 1.3583287091086], a = 0.2, v = 0.2, t = 0.2)
movej(p[-0.401323283150489, -0.119016068500299, 0.341511077731349, -1.04785219190075, -1.30491591560903, 1.36442927523767], a = 0.2, v = 0.2, t = 0.2)
movej(p[-0.401460623979948, -0.119407257952859, 0.341525885056213, -1.05061946323853, -1.31293722653929, 1.36302645469382], a = 0.2, v = 0.2, t = 0.2)
movej(p[-0.401674625349911, -0.119231523216274, 0.341436433857724, -1.05977811452362, -1.31656050475144, 1.35748711446073], a = 0.2, v = 0.2, t = 0.2)
movej(p[-0.401874085541358, -0.119066466835968, 0.341199540940463, -1.06690278828881, -1.31323876922219, 1.35575016590265], a = 0.2, v = 0.2, t = 0.2)
movej(p[-0.402475883501309, -0.118951021920044, 0.34063229913939, -1.06309821546404, -1.31809955736677, 1.35921345429785], a = 0.2, v = 0.2, t = 0.2)
movej(p[-0.403552251005954, -0.118963597667415, 0.339673297040787, -1.07770085725469, -1.33198353936999, 1.36099588417018], a = 0.2, v = 0.2, t = 0.2)
movej(p[-0.404827802592376, -0.118503912329779, 0.338540390964213, -1.11236070285528, -1.34180325766985, 1.3575203952756], a = 0.2, v = 0.2, t = 0.2)
movej(p[-0.405803605171768, -0.117433581345616, 0.337371410946038, -1.15861249330635, -1.33766152885039, 1.35222487352848], a = 0.2, v = 0.2, t = 0.2)
movej(p[-0.406433892006712, -0.116263895492455, 0.336163857974318, -1.18949574668056, -1.32796291812397, 1.35238347420911], a = 0.2, v = 0.2, t = 0.2)
movej(p[-0.406810092635324, -0.115287254852794, 0.335171729461274, -1.20528396941291, -1.31818327788053, 1.35230898769977], a = 0.2, v = 0.2, t = 0.2)
movej(p[-0.406963627241228, -0.114685965859533, 0.334710044242349, -1.20336611344513, -1.31292752290271, 1.35296894104185], a = 0.2, v = 0.2, t = 0.2)
movej(p[-0.406855615862583, -0.114486034649314, 0.334905366830043, -1.20224879904736, -1.30447607889257, 1.35686599443944], a = 0.2, v = 0.2, t = 0.2)
movej(p[-0.406490793650616, -0.114789472395861, 0.335649466411838, -1.19053746045918, -1.30185880348869, 1.35661236501937], a = 0.2, v = 0.2, t = 0.2)
movej(p[-0.405812468798562, -0.115337150300479, 0.336723269633046, -1.18073405139394, -1.29771393033214, 1.35412550317384], a = 0.2, v = 0.2, t = 0.2)
movej(p[-0.404880284832344, -0.115875891010391, 0.337904906147847, -1.15567924311127, -1.2950774107283, 1.34804953549487], a = 0.2, v = 0.2, t = 0.2)
movej(p[-0.40368341030338, -0.116420758779042, 0.339124737521522, -1.12687706953556, -1.28606301813434, 1.35075779171627], a = 0.2, v = 0.2, t = 0.2)
movej(p[-0.402758960208313, -0.117123166986632, 0.340003381204162, -1.09394554207475, -1.28827867133829, 1.35939187070975], a = 0.2, v = 0.2, t = 0.2)
movej(p[-0.402253030720432, -0.117957213526447, 0.340612299966733, -1.08346841888187, -1.29615477450092, 1.36055154758577], a = 0.2, v = 0.2, t = 0.2)
movej(p[-0.401979426737314, -0.118096777801277, 0.34083395566801, -1.08682744329308, -1.29779084731573, 1.35565411818417], a = 0.2, v = 0.2, t = 0.2)
movej(p[-0.40175159076351, -0.118124506022474, 0.341019223755089, -1.08491099735436, -1.29793351211263, 1.35256749453263], a = 0.2, v = 0.2, t = 0.2)
movej(p[-0.401584055634548, -0.118379181102915, 0.34114211438478, -1.06534911482291, -1.30292442919, 1.35392410940381], a = 0.2, v = 0.2, t = 0.2)
movej(p[-0.401586231460881, -0.118724261700191, 0.341283802710565, -1.05671728939721, -1.31028606686749, 1.3529020566589], a = 0.2, v = 0.2, t = 0.2)
movej(p[-0.401612551988334, -0.118987904255438, 0.341373357061646, -1.05520575390144, -1.3127403778001, 1.35385564022773], a = 0.2, v = 0.2, t = 0.2)
movej(p[-0.401680270375522, -0.119026138379102, 0.341309501093058, -1.05746234498428, -1.30932621405081, 1.35715583117227], a = 0.2, v = 0.2, t = 0.2)
movej(p[-0.402082388511075, -0.119249607996706, 0.34106417190061, -1.05076142763752, -1.31530990291477, 1.36482909045333], a = 0.2, v = 0.2, t = 0.2)
movej(p[-0.402760735695112, -0.119151608060073, 0.340534210268386, -1.06692405364792, -1.32364432910673, 1.36016688709689], a = 0.2, v = 0.2, t = 0.2)
movej(p[-0.403607491212452, -0.118773345084537, 0.339766152838637, -1.09325808966161, -1.33013560510157, 1.35098812066725], a = 0.2, v = 0.2, t = 0.2)
movej(p[-0.404420465750699, -0.118194277691316, 0.338790858044039, -1.11544044676251, -1.33151061715707, 1.3467560196299], a = 0.2, v = 0.2, t = 0.2)
movej(p[-0.405360844609833, -0.1177479346753, 0.337632740721248, -1.13360774528407, -1.33653278770229, 1.35186253683013], a = 0.2, v = 0.2, t = 0.2)
movej(p[-0.406296438951181, -0.117077695381322, 0.336508823164599, -1.15915371556263, -1.3362417327192, 1.35391188609088], a = 0.2, v = 0.2, t = 0.2)
movej(p[-0.40676931176186, -0.11599176718661, 0.335680668710556, -1.19046161503191, -1.32734566366407, 1.34757188909564], a = 0.2, v = 0.2, t = 0.2)
movej(p[-0.406814385600565, -0.115141730414894, 0.335199982220842, -1.20214008891383, -1.31644077662545, 1.34725737150584], a = 0.2, v = 0.2, t = 0.2)
movej(p[-0.4066816091026, -0.114829577390187, 0.335093920065694, -1.19910185583247, -1.31322228681246, 1.35163918677294], a = 0.2, v = 0.2, t = 0.2)
movej(p[-0.406341692845745, -0.115074277363322, 0.335679062365885, -1.1896046704487, -1.3096841578839, 1.35121635647533], a = 0.2, v = 0.2, t = 0.2)
movej(p[-0.405601399889079, -0.115533200535637, 0.336860467266934, -1.1745417489141, -1.30087788355637, 1.34581212014492], a = 0.2, v = 0.2, t = 0.2)
movej(p[-0.404294692718849, -0.116179612722277, 0.33834899246653, -1.14067333189674, -1.29166295876658, 1.34468312790145], a = 0.2, v = 0.2, t = 0.2)
movej(p[-0.403135798993822, -0.116969548838218, 0.339545961585525, -1.11277282467434, -1.28873125911594, 1.3499319267773], a = 0.2, v = 0.2, t = 0.2)
movej(p[-0.402319698720954, -0.117411585741615, 0.340260385433374, -1.09346109243697, -1.2895755677384, 1.35260972549478], a = 0.2, v = 0.2, t = 0.2)
movej(p[-0.401870711518549, -0.117710523561296, 0.340735054974863, -1.08518351104964, -1.28961059850511, 1.35028744183325], a = 0.2, v = 0.2, t = 0.2)
movej(p[-0.401530004603488, -0.117934737148233, 0.341019535934439, -1.06930998909397, -1.28871853255104, 1.35210888813106], a = 0.2, v = 0.2, t = 0.2)
movej(p[-0.401421015589332, -0.11846151413039, 0.341219007963465, -1.05436890652987, -1.29448688897885, 1.3561603059353], a = 0.2, v = 0.2, t = 0.2)
movej(p[-0.401479832434267, -0.119011364812249, 0.341326714353295, -1.04929282559904, -1.3047358885765, 1.36211305658708], a = 0.2, v = 0.2, t = 0.2)
movej(p[-0.401544829136029, -0.119034298943042, 0.341356936530664, -1.06269867030198, -1.3056651136607, 1.35663981931143], a = 0.2, v = 0.2, t = 0.2)
movej(p[-0.401560733169067, -0.118880982734521, 0.341364739148051, -1.06631226227121, -1.30679245033576, 1.3544819701127], a = 0.2, v = 0.2, t = 0.2)
movej(p[-0.401511770030801, -0.118802708902962, 0.341287638633887, -1.06500518817389, -1.30385951192793, 1.35327173446316], a = 0.2, v = 0.2, t = 0.2)
movej(p[-0.401827567097857, -0.118970011761693, 0.341004550062059, -1.05496410217432, -1.31302966937631, 1.35840981219906], a = 0.2, v = 0.2, t = 0.2)
movej(p[-0.402531422018228, -0.119267443212828, 0.340524747870167, -1.0608691553433, -1.32793046461312, 1.36059346281442], a = 0.2, v = 0.2, t = 0.2)
movej(p[-0.403491169937833, -0.119046627751248, 0.339890340872066, -1.08637706097314, -1.33480162604547, 1.35605968388576], a = 0.2, v = 0.2, t = 0.2)
movej(p[-0.404365314862324, -0.11846167667486, 0.339072002532, -1.12045294444423, -1.33626351289241, 1.35003075839237], a = 0.2, v = 0.2, t = 0.2)
movej(p[-0.405093385238411, -0.117714878937905, 0.338046355049898, -1.14643904442823, -1.32939557153587, 1.34686412140874], a = 0.2, v = 0.2, t = 0.2)
movej(p[-0.405815586918352, -0.116865800403647, 0.336758164243165, -1.17182426611006, -1.32532307767679, 1.34967956285952], a = 0.2, v = 0.2, t = 0.2)
movej(p[-0.406577267430027, -0.116038417651937, 0.335504498322591, -1.18850146412884, -1.32631413096981, 1.35458529903473], a = 0.2, v = 0.2, t = 0.2)
movej(p[-0.407032497789575, -0.115004195492094, 0.334686722610103, -1.21230935796213, -1.31878972949443, 1.35232113458781], a = 0.2, v = 0.2, t = 0.2)
movej(p[-0.407040001005643, -0.114255590324655, 0.334496171763784, -1.21685538477784, -1.31068286279582, 1.35108456644519], a = 0.2, v = 0.2, t = 0.2)
movej(p[-0.406804318783087, -0.114115356827416, 0.334801930028141, -1.21251680638595, -1.30491877578911, 1.35125225497994], a = 0.2, v = 0.2, t = 0.2)
movej(p[-0.406369928508272, -0.11462210463624, 0.33567551521998, -1.19333392522162, -1.30300368350005, 1.3520105033858], a = 0.2, v = 0.2, t = 0.2)
movej(p[-0.405600779954047, -0.115276915321133, 0.336854205916678, -1.17378863661544, -1.3023742740892, 1.34871420440586], a = 0.2, v = 0.2, t = 0.2)
movej(p[-0.404485026984278, -0.116003925696792, 0.338233196697697, -1.14936169403383, -1.29608858067663, 1.34620814670187], a = 0.2, v = 0.2, t = 0.2)
movej(p[-0.403360154596971, -0.116726100130798, 0.33937198031127, -1.12922406393962, -1.29452145008057, 1.3486864766032], a = 0.2, v = 0.2, t = 0.2)
movej(p[-0.402598339226649, -0.117245340225985, 0.340099914969938, -1.112170121722, -1.29361370478388, 1.35128213971056], a = 0.2, v = 0.2, t = 0.2)
movej(p[-0.402122498968167, -0.117594912730724, 0.34059960410344, -1.09374219084648, -1.29660628133446, 1.35197000696857], a = 0.2, v = 0.2, t = 0.2)
movej(p[-0.401771088933398, -0.117870911504271, 0.340907065023336, -1.07748099691319, -1.2966262776793, 1.35121684909481], a = 0.2, v = 0.2, t = 0.2)
movej(p[-0.401596577179883, -0.118365642508918, 0.341159497683517, -1.05883524559846, -1.29805094309135, 1.35705637466273], a = 0.2, v = 0.2, t = 0.2)
movej(p[-0.401645159056744, -0.118929755720787, 0.341280414075856, -1.05045907295087, -1.30504005442443, 1.36179489483148], a = 0.2, v = 0.2, t = 0.2)
movej(p[-0.4016729982906, -0.118925836287232, 0.341295876132605, -1.06543294795532, -1.3054139748896, 1.3565730713066], a = 0.2, v = 0.2, t = 0.2)
movej(p[-0.401698743655494, -0.118743762313273, 0.34126043489824, -1.07534943676109, -1.30288349405312, 1.35336200650472], a = 0.2, v = 0.2, t = 0.2)
movej(p[-0.401731527662031, -0.118627357150082, 0.341102320802101, -1.08056406598712, -1.30164404177322, 1.35485421049736], a = 0.2, v = 0.2, t = 0.2)
movej(p[-0.402205542001023, -0.118743453917487, 0.340748187916833, -1.07432588724592, -1.30448730436205, 1.36448833550562], a = 0.2, v = 0.2, t = 0.2)
movej(p[-0.40310623883592, -0.119023052333682, 0.340131578809725, -1.0773415552423, -1.32032876941447, 1.37153617692602], a = 0.2, v = 0.2, t = 0.2)
movej(p[-0.404150174380787, -0.118781244231119, 0.339405663057522, -1.10564790316285, -1.32688132789869, 1.36368493278959], a = 0.2, v = 0.2, t = 0.2)
movej(p[-0.404951803210296, -0.118151607413447, 0.338628812583084, -1.13109949905024, -1.33245670492196, 1.35283978174439], a = 0.2, v = 0.2, t = 0.2)
movej(p[-0.405510181690528, -0.117424716773211, 0.337671480780599, -1.15268292506302, -1.32948146382062, 1.34743119219803], a = 0.2, v = 0.2, t = 0.2)
movej(p[-0.406129218234814, -0.116649906361484, 0.336486960658487, -1.1667139363535, -1.33050130549133, 1.34889398729181], a = 0.2, v = 0.2, t = 0.2)
movej(p[-0.406791007508681, -0.115969526829352, 0.335338188233479, -1.1880176813822, -1.32863611598526, 1.35689232173646], a = 0.2, v = 0.2, t = 0.2)
movej(p[-0.407120343141834, -0.115063838762013, 0.334684129457592, -1.2069756672793, -1.32294747262375, 1.34979204911954], a = 0.2, v = 0.2, t = 0.2)
movej(p[-0.407004729328657, -0.114349146880914, 0.334545492444879, -1.2193199847345, -1.30755524222904, 1.34948129482628], a = 0.2, v = 0.2, t = 0.2)
movej(p[-0.406688462948368, -0.11417005453856, 0.334823195162923, -1.2155509406849, -1.29893026306798, 1.35081741238851], a = 0.2, v = 0.2, t = 0.2)
movej(p[-0.406387064027595, -0.114538630872726, 0.335413882911611, -1.20460281044846, -1.29455261332221, 1.35809908384377], a = 0.2, v = 0.2, t = 0.2)
movej(p[-0.405824135021564, -0.11506422242145, 0.336394142177356, -1.18287538790502, -1.29675416873336, 1.35583589937372], a = 0.2, v = 0.2, t = 0.2)
movej(p[-0.404839841478891, -0.115674904642775, 0.337647002765175, -1.15614492954, -1.29441601761042, 1.35304154412862], a = 0.2, v = 0.2, t = 0.2)
movej(p[-0.4036848842661, -0.1164480728997, 0.33892981965511, -1.12571636903539, -1.29580223197251, 1.35203133688301], a = 0.2, v = 0.2, t = 0.2)
movej(p[-0.402787787980494, -0.117003954246774, 0.339793860623772, -1.10994438614783, -1.29434349452657, 1.35383008970386], a = 0.2, v = 0.2, t = 0.2)
movej(p[-0.402205267245926, -0.117448140158561, 0.340403815533146, -1.09357115171231, -1.29477919092544, 1.35196649472262], a = 0.2, v = 0.2, t = 0.2)
movej(p[-0.401776745572578, -0.117700608459633, 0.340757695097581, -1.08413936312273, -1.28929519383147, 1.3545993350361], a = 0.2, v = 0.2, t = 0.2)
movej(p[-0.401597376900293, -0.118205850796731, 0.341002581922475, -1.06366977917111, -1.29510519553443, 1.35830361119455], a = 0.2, v = 0.2, t = 0.2)
movej(p[-0.401622837696186, -0.118793246523453, 0.34115753095087, -1.05559687034834, -1.30458225610528, 1.36263321993129], a = 0.2, v = 0.2, t = 0.2)
movej(p[-0.401637085178229, -0.118732774468961, 0.341152087387615, -1.06776040305144, -1.30591678488645, 1.35367265500512], a = 0.2, v = 0.2, t = 0.2)
movej(p[-0.401648904880944, -0.118628695569724, 0.341138949737087, -1.07703867569207, -1.30377526565204, 1.35079550450186], a = 0.2, v = 0.2, t = 0.2)
movej(p[-0.40166487775812, -0.118555497053272, 0.341012579286096, -1.07659027894317, -1.30180453669124, 1.35256181886032], a = 0.2, v = 0.2, t = 0.2)
movej(p[-0.402181042867544, -0.118812791741383, 0.340636168564665, -1.06981197950672, -1.31189206797845, 1.36121300957573], a = 0.2, v = 0.2, t = 0.2)
movej(p[-0.403085013103033, -0.119065368080922, 0.340043237515876, -1.0719161732229, -1.33097486552958, 1.36556148311824], a = 0.2, v = 0.2, t = 0.2)
movej(p[-0.404110316406598, -0.118598311834202, 0.3392750212585, -1.11318055050405, -1.3339309256459, 1.35692441497829], a = 0.2, v = 0.2, t = 0.2)
movej(p[-0.404948154643352, -0.117883648868457, 0.338438664309029, -1.14917836536142, -1.33104222289713, 1.35277149201391], a = 0.2, v = 0.2, t = 0.2)
movej(p[-0.405596271707729, -0.117062435462619, 0.337413702225567, -1.17670625767469, -1.3212857044222, 1.35254165407852], a = 0.2, v = 0.2, t = 0.2)
movej(p[-0.406337659462015, -0.116281092256392, 0.336177194808696, -1.1927637778304, -1.31872229252788, 1.35850070730447], a = 0.2, v = 0.2, t = 0.2)
movej(p[-0.407060481318601, -0.115538532113874, 0.334978778831965, -1.21127582549453, -1.31918356291512, 1.36306597461365], a = 0.2, v = 0.2, t = 0.2)
movej(p[-0.407323705284471, -0.114607344332316, 0.334309553945048, -1.23598347551254, -1.3100056612257, 1.3598075709751], a = 0.2, v = 0.2, t = 0.2)
movej(p[-0.407255681416408, -0.113844857704618, 0.333918456085228, -1.25345616045021, -1.29613050944295, 1.36069128979193], a = 0.2, v = 0.2, t = 0.2)
movej(p[-0.407009040796411, -0.113419790984549, 0.333697404195262, -1.25886236087586, -1.28751299871333, 1.36201967260248], a = 0.2, v = 0.2, t = 0.2)
movej(p[-0.406833506900575, -0.113391459316779, 0.333755939039705, -1.25760473546593, -1.28804149343282, 1.36277084734527], a = 0.2, v = 0.2, t = 0.2)
movej(p[-0.406508663304898, -0.113559558883135, 0.334289547345617, -1.23851716035406, -1.29415310495901, 1.35692616283888], a = 0.2, v = 0.2, t = 0.2)
movej(p[-0.405723971385679, -0.114202640234983, 0.335585802222876, -1.20919781596122, -1.29083848739209, 1.35564019289518], a = 0.2, v = 0.2, t = 0.2)
movej(p[-0.404619219217618, -0.115012679040358, 0.337044193017879, -1.17774865537175, -1.28468543328396, 1.35206075347124], a = 0.2, v = 0.2, t = 0.2)
movej(p[-0.403429842959032, -0.115694832476306, 0.338337401993697, -1.15709140151411, -1.27786428151223, 1.35205791126176], a = 0.2, v = 0.2, t = 0.2)
movej(p[-0.402415633348862, -0.116171319021578, 0.339330680735342, -1.13484869359814, -1.27478886388715, 1.34980980235965], a = 0.2, v = 0.2, t = 0.2)
movej(p[-0.40172769780947, -0.116541724355593, 0.340053223824897, -1.10899325006563, -1.28047098165924, 1.3485573987755], a = 0.2, v = 0.2, t = 0.2)
movej(p[-0.401369513474457, -0.117234529376896, 0.340615722867214, -1.08662260578822, -1.28919985093712, 1.35380096967716], a = 0.2, v = 0.2, t = 0.2)
movej(p[-0.401190645450053, -0.11787771095739, 0.341039662452721, -1.07770512048785, -1.29710708251209, 1.3536232539802], a = 0.2, v = 0.2, t = 0.2)
movej(p[-0.400979830962144, -0.117896718335103, 0.341209397632576, -1.0841212175478, -1.2945949215364, 1.35141783832884], a = 0.2, v = 0.2, t = 0.2)
movej(p[-0.400739853980703, -0.117938128747072, 0.34140445361469, -1.08008691695442, -1.28964427689086, 1.34943128672107], a = 0.2, v = 0.2, t = 0.2)
movej(p[-0.400503792724022, -0.118039561525366, 0.341550051810358, -1.06563686533176, -1.28564003181341, 1.35213753174086], a = 0.2, v = 0.2, t = 0.2)
movej(p[-0.400527184216984, -0.118616139938232, 0.341713202973007, -1.04982331576406, -1.28889610939896, 1.36258567404754], a = 0.2, v = 0.2, t = 0.2)
movej(p[-0.40065238780466, -0.119147611985424, 0.341807121100579, -1.04711261591995, -1.29598555499372, 1.36481904926708], a = 0.2, v = 0.2, t = 0.2)
movej(p[-0.400733651043309, -0.119098973705297, 0.341781076259431, -1.06128885012044, -1.29693921032355, 1.35980510196667], a = 0.2, v = 0.2, t = 0.2)
movej(p[-0.40072164969408, -0.119019499090339, 0.341782812114859, -1.06898565956832, -1.29386012266517, 1.35703684772453], a = 0.2, v = 0.2, t = 0.2)
movej(p[-0.400752649710875, -0.118924950709992, 0.341656387937059, -1.06617022627388, -1.29046274534182, 1.35914940444749], a = 0.2, v = 0.2, t = 0.2)
movej(p[-0.40126986059986, -0.119207230958366, 0.341340371730839, -1.0605295728003, -1.29903084653277, 1.36618585405951], a = 0.2, v = 0.2, t = 0.2)
movej(p[-0.402147087856015, -0.119341548114495, 0.340838299342504, -1.06884134316829, -1.31103873749082, 1.36548275934555], a = 0.2, v = 0.2, t = 0.2)
movej(p[-0.402972840651988, -0.118968593186198, 0.340296285631709, -1.09131171706501, -1.31770483547468, 1.35740677792422], a = 0.2, v = 0.2, t = 0.2)
movej(p[-0.403675565642817, -0.118578512820442, 0.339626816259098, -1.11442346086423, -1.32217638676326, 1.35018680639125], a = 0.2, v = 0.2, t = 0.2)
movej(p[-0.404422373604244, -0.118111940549227, 0.338678593022205, -1.12876660771869, -1.33040289115826, 1.34787986733118], a = 0.2, v = 0.2, t = 0.2)
movej(p[-0.405304343433398, -0.117615835539954, 0.337696963657202, -1.14389121802203, -1.33903913703912, 1.34457936419072], a = 0.2, v = 0.2, t = 0.2)
movej(p[-0.406121992257148, -0.116752989049255, 0.336612163906599, -1.16616287439299, -1.34102513723276, 1.34458521571893], a = 0.2, v = 0.2, t = 0.2)
movej(p[-0.406688745451934, -0.115804089062518, 0.335683799691557, -1.18819204904735, -1.33432659319614, 1.34522615566874], a = 0.2, v = 0.2, t = 0.2)
movej(p[-0.406918401600149, -0.115100920653347, 0.33506300782472, -1.2058461376865, -1.32288091896435, 1.35006722253513], a = 0.2, v = 0.2, t = 0.2)
movej(p[-0.406927864715896, -0.114637608432918, 0.334861216730167, -1.2111320728783, -1.31468020869654, 1.35189356976765], a = 0.2, v = 0.2, t = 0.2)
movej(p[-0.406692510237461, -0.114614007136505, 0.335257496717409, -1.20673969153248, -1.30866280162431, 1.35250133078272], a = 0.2, v = 0.2, t = 0.2)
movej(p[-0.406372063530268, -0.115119704254997, 0.335986572949498, -1.18436540371256, -1.31219757245579, 1.35534732537041], a = 0.2, v = 0.2, t = 0.2)
movej(p[-0.405785037153964, -0.116119577029636, 0.337165370555095, -1.16215237151105, -1.31216432366992, 1.35184611040889], a = 0.2, v = 0.2, t = 0.2)
movej(p[-0.404703710548598, -0.116544388262758, 0.338481233572145, -1.14248759462449, -1.30392156209393, 1.34560890896169], a = 0.2, v = 0.2, t = 0.2)
movej(p[-0.403337735084213, -0.116799995933175, 0.339743102830041, -1.11873665004533, -1.29398378366178, 1.34504920183035], a = 0.2, v = 0.2, t = 0.2)
movej(p[-0.402177622211815, -0.11709360881782, 0.340607279767403, -1.09558321821087, -1.29226506604501, 1.34926429904272], a = 0.2, v = 0.2, t = 0.2)
movej(p[-0.401515297580058, -0.117489875266987, 0.341122553819177, -1.08738764344119, -1.29307704330815, 1.35321375856869], a = 0.2, v = 0.2, t = 0.2)
movej(p[-0.401182054008643, -0.117857786683389, 0.34139737490769, -1.08552309586508, -1.29161329160413, 1.3522882809814], a = 0.2, v = 0.2, t = 0.2)
movej(p[-0.400951386734391, -0.118076436865413, 0.341537715231511, -1.07978484630237, -1.28762831968732, 1.35539892777634], a = 0.2, v = 0.2, t = 0.2)
movej(p[-0.400899886968556, -0.118586392279916, 0.341663948980319, -1.06488486824321, -1.29477120753545, 1.35758958371914], a = 0.2, v = 0.2, t = 0.2)
movej(p[-0.400840039810748, -0.118758328507772, 0.34168973388391, -1.06501118086598, -1.29921443652934, 1.35230695842404], a = 0.2, v = 0.2, t = 0.2)
movej(p[-0.400783583179196, -0.118778255842704, 0.34171358467166, -1.06516242975506, -1.30000104383487, 1.34704078857694], a = 0.2, v = 0.2, t = 0.2)
movej(p[-0.400642076799556, -0.118769177846004, 0.341717583983724, -1.05296740188005, -1.3004096691369, 1.34697253252219], a = 0.2, v = 0.2, t = 0.2)
movej(p[-0.400769087848255, -0.119149660143034, 0.341731068981114, -1.04237925180767, -1.30139800309984, 1.35756324422874], a = 0.2, v = 0.2, t = 0.2)
movej(p[-0.401182359200997, -0.11953389611875, 0.341570684111289, -1.03718085419479, -1.31190374262162, 1.36427636935512], a = 0.2, v = 0.2, t = 0.2)
movej(p[-0.401840926645385, -0.11937452688066, 0.341166985778318, -1.06952087298795, -1.31161383580562, 1.36239742238012], a = 0.2, v = 0.2, t = 0.2)
movej(p[-0.402603216597746, -0.118946357960404, 0.340515225773365, -1.09250549204063, -1.3178654310609, 1.35814870095313], a = 0.2, v = 0.2, t = 0.2)
movej(p[-0.403478151130677, -0.118475174695138, 0.339580509279545, -1.11916213322539, -1.32068712137785, 1.35654829559466], a = 0.2, v = 0.2, t = 0.2)
movej(p[-0.404677006672132, -0.117962943265461, 0.338431814761071, -1.13500300169676, -1.33049421789681, 1.35462656175392], a = 0.2, v = 0.2, t = 0.2)
movej(p[-0.405749377399131, -0.11725674408952, 0.337281065705813, -1.16199206897273, -1.33549404258786, 1.35083927455477], a = 0.2, v = 0.2, t = 0.2)
movej(p[-0.406460888387564, -0.116283974218843, 0.33626828086581, -1.18692317228974, -1.33105021274203, 1.3451433926697], a = 0.2, v = 0.2, t = 0.2)
movej(p[-0.406762841838669, -0.115525486151688, 0.335670323655426, -1.18697194319125, -1.32959608520402, 1.34367637087823], a = 0.2, v = 0.2, t = 0.2)
movej(p[-0.406636843363037, -0.115265307837256, 0.335885391641973, -1.17429757538597, -1.31798234992606, 1.34430578666902], a = 0.2, v = 0.2, t = 0.2)
movej(p[-0.405914972992594, -0.115564655438073, 0.336986697009327, -1.14861888351784, -1.31245961619232, 1.34459538785541], a = 0.2, v = 0.2, t = 0.2)
movej(p[-0.404603045570602, -0.116263582297181, 0.33856458985266, -1.12225840790316, -1.30138624636875, 1.34622529561844], a = 0.2, v = 0.2, t = 0.2)
movej(p[-0.403301107718757, -0.117090675207767, 0.339827182193874, -1.09447030880758, -1.2999837401773, 1.35078268456302], a = 0.2, v = 0.2, t = 0.2)
movej(p[-0.402491584531184, -0.117815579420253, 0.34054783476981, -1.07727313072733, -1.30106545138025, 1.35680976752468], a = 0.2, v = 0.2, t = 0.2)
movej(p[-0.402000091845266, -0.118147659433476, 0.340928103084959, -1.08144650911163, -1.29776807131943, 1.35243371097938], a = 0.2, v = 0.2, t = 0.2)
movej(p[-0.401672007534685, -0.118069593301234, 0.341053302342734, -1.07977345311233, -1.29727744449814, 1.34801336767025], a = 0.2, v = 0.2, t = 0.2)
movej(p[-0.401326682402494, -0.118091669349888, 0.341213931478799, -1.06954116781228, -1.2930564683599, 1.34719757233802], a = 0.2, v = 0.2, t = 0.2)
movej(p[-0.401187559286412, -0.118362934811705, 0.341329354701318, -1.05310648882566, -1.29314535378693, 1.35596326498433], a = 0.2, v = 0.2, t = 0.2)
movej(p[-0.401267664112326, -0.118951882046322, 0.341429020081983, -1.04165737619453, -1.29773319264343, 1.36297914501393], a = 0.2, v = 0.2, t = 0.2)
movej(p[-0.401414250321513, -0.119271650211623, 0.341459260562066, -1.0522834131851, -1.30024726932121, 1.35978392056717], a = 0.2, v = 0.2, t = 0.2)
movej(p[-0.401514798787662, -0.119094970900299, 0.341399852399286, -1.059190680386, -1.30100264097219, 1.356573437804], a = 0.2, v = 0.2, t = 0.2)
movej(p[-0.401532915038492, -0.118998327086206, 0.341291576988165, -1.06237918252231, -1.3020117468819, 1.35555013155754], a = 0.2, v = 0.2, t = 0.2)
movej(p[-0.401882585983499, -0.118967680815162, 0.340940542302288, -1.05753177604036, -1.30889284075165, 1.35927383489637], a = 0.2, v = 0.2, t = 0.2)
movej(p[-0.40277317186314, -0.119171936794256, 0.34029415255631, -1.06247160065099, -1.3227054123614, 1.36650323276355], a = 0.2, v = 0.2, t = 0.2)
movej(p[-0.404027898338792, -0.118991863933834, 0.339407134547286, -1.09350100588567, -1.33451355159903, 1.36202020509878], a = 0.2, v = 0.2, t = 0.2)
movej(p[-0.405148032803308, -0.118227501906879, 0.338430780836405, -1.13247139575869, -1.3384372141189, 1.35550626581111], a = 0.2, v = 0.2, t = 0.2)
movej(p[-0.405988817350062, -0.117372333228532, 0.337349135767811, -1.16353027999715, -1.33658810337367, 1.35222464442528], a = 0.2, v = 0.2, t = 0.2)
movej(p[-0.406744773505053, -0.116537081450803, 0.33627884063845, -1.17887692391245, -1.33501420771108, 1.35176559979667], a = 0.2, v = 0.2, t = 0.2)
movej(p[-0.407263801810785, -0.115692673596714, 0.335414831983227, -1.19475525102228, -1.330623320009, 1.35181381162511], a = 0.2, v = 0.2, t = 0.2)
movej(p[-0.407532157153649, -0.114924371115457, 0.334897094349622, -1.20963102436017, -1.32717695082253, 1.34980641491845], a = 0.2, v = 0.2, t = 0.2)
movej(p[-0.407504249301734, -0.114406495229334, 0.334654263918304, -1.21874516670093, -1.31914507368612, 1.35173504905873], a = 0.2, v = 0.2, t = 0.2)
movej(p[-0.40729710332069, -0.114278875136851, 0.334854425189613, -1.21972830927324, -1.30951853269186, 1.35371754718552], a = 0.2, v = 0.2, t = 0.2)
movej(p[-0.406833646975798, -0.114489557362808, 0.335605557638683, -1.20682096409609, -1.30005780801576, 1.350219019894], a = 0.2, v = 0.2, t = 0.2)
movej(p[-0.405671697395434, -0.115098094847911, 0.337066819662385, -1.17549445150565, -1.29203559075903, 1.34675682181764], a = 0.2, v = 0.2, t = 0.2)
movej(p[-0.404286993031266, -0.11602835819531, 0.338532090703777, -1.13730620087867, -1.29401302945311, 1.34966506197993], a = 0.2, v = 0.2, t = 0.2)
movej(p[-0.402983615389574, -0.116982854648688, 0.339668216917948, -1.10664845805547, -1.2983169275453, 1.35012303295799], a = 0.2, v = 0.2, t = 0.2)
movej(p[-0.402066172087153, -0.117254918974975, 0.340310106264022, -1.0949667689051, -1.29507300419722, 1.35097798092415], a = 0.2, v = 0.2, t = 0.2)
movej(p[-0.401452839478592, -0.117449281349991, 0.340760322955688, -1.07690754915014, -1.29375278348602, 1.35554476973985], a = 0.2, v = 0.2, t = 0.2)
movej(p[-0.401145307106774, -0.117835589013897, 0.341074221476218, -1.06475189376309, -1.2957451972318, 1.35901066453964], a = 0.2, v = 0.2, t = 0.2)
movej(p[-0.4010283235329, -0.118269600589439, 0.341339765554179, -1.05853078998217, -1.30020677891608, 1.36056564801373], a = 0.2, v = 0.2, t = 0.2)
movej(p[-0.400941314206011, -0.118594847144359, 0.341517554208335, -1.05603549186803, -1.30196189782291, 1.35660327369657], a = 0.2, v = 0.2, t = 0.2)
movej(p[-0.400846779928572, -0.118724894202795, 0.341601426986883, -1.05172844529021, -1.30232863501754, 1.35518948477243], a = 0.2, v = 0.2, t = 0.2)
movej(p[-0.400859904351168, -0.119210969581261, 0.341689564697202, -1.03863721258829, -1.30969918476778, 1.35902901334187], a = 0.2, v = 0.2, t = 0.2)
movej(p[-0.400843230597692, -0.119314760291488, 0.341666348013211, -1.04244414520458, -1.31121691318751, 1.35525872277195], a = 0.2, v = 0.2, t = 0.2)
movej(p[-0.400923607547242, -0.119249825748866, 0.341632776132781, -1.05144215649358, -1.30727044584071, 1.3540469638615], a = 0.2, v = 0.2, t = 0.2)
movej(p[-0.401030782754133, -0.11911529914544, 0.341469270625539, -1.05256146863066, -1.30304569360597, 1.35486105038653], a = 0.2, v = 0.2, t = 0.2)
movej(p[-0.401564511130434, -0.119343013023049, 0.341116523726509, -1.04929395815688, -1.31267246641875, 1.3612897442246], a = 0.2, v = 0.2, t = 0.2)
movej(p[-0.402414436725332, -0.119492451593141, 0.340585962664418, -1.06182307045381, -1.32582762063179, 1.36264280715627], a = 0.2, v = 0.2, t = 0.2)
movej(p[-0.403360182390783, -0.119022417053461, 0.339885507991945, -1.09342275871643, -1.33003153933685, 1.35734775557796], a = 0.2, v = 0.2, t = 0.2)
movej(p[-0.404222265259781, -0.118449780272217, 0.339003586548366, -1.12083965120151, -1.3312128465948, 1.35414402590848], a = 0.2, v = 0.2, t = 0.2)
movej(p[-0.40508169771271, -0.117797798706951, 0.337966360277292, -1.13908346729339, -1.33189430657056, 1.3527211301908], a = 0.2, v = 0.2, t = 0.2)
movej(p[-0.405819646015037, -0.117115227641635, 0.336939117294212, -1.1626190025768, -1.33170453242916, 1.35085331534123], a = 0.2, v = 0.2, t = 0.2)
movej(p[-0.406373248026913, -0.11629267142705, 0.336017304722214, -1.18674183187728, -1.32883013591552, 1.34955085947818], a = 0.2, v = 0.2, t = 0.2)
movej(p[-0.406629723154271, -0.115384738811123, 0.335249612053509, -1.2062260770905, -1.3167053566568, 1.35014979005779], a = 0.2, v = 0.2, t = 0.2)
movej(p[-0.406818152558513, -0.114875648429854, 0.334625962798466, -1.21653309064264, -1.31235418695234, 1.35683585440699], a = 0.2, v = 0.2, t = 0.2)
movej(p[-0.40688964186929, -0.114576652940593, 0.334404450573416, -1.21973737682173, -1.30905256789719, 1.35422860321737], a = 0.2, v = 0.2, t = 0.2)
movej(p[-0.406612990991418, -0.114238656062348, 0.334609003578943, -1.22816907620524, -1.29878598704857, 1.3527317439585], a = 0.2, v = 0.2, t = 0.2)
movej(p[-0.406206007987921, -0.114232941873183, 0.335133057510238, -1.21608791655695, -1.29673038660519, 1.35038938564931], a = 0.2, v = 0.2, t = 0.2)
movej(p[-0.405752927525362, -0.114679763778488, 0.335985439566236, -1.19442240142395, -1.29803057726414, 1.35358304379555], a = 0.2, v = 0.2, t = 0.2)
movej(p[-0.405052467702391, -0.115436398151494, 0.337142991324037, -1.17376937691856, -1.29894029228411, 1.34900991931026], a = 0.2, v = 0.2, t = 0.2)
movej(p[-0.404083302308912, -0.115880698455992, 0.338311296152413, -1.15079617473768, -1.29394955418958, 1.34498855711076], a = 0.2, v = 0.2, t = 0.2)
movej(p[-0.402867638947749, -0.116268951258453, 0.339398499274008, -1.12796010584111, -1.28596052163454, 1.34455701878641], a = 0.2, v = 0.2, t = 0.2)
movej(p[-0.401964476399173, -0.11677769191102, 0.340192176246205, -1.09617133030445, -1.2862386244701, 1.35187146683652], a = 0.2, v = 0.2, t = 0.2)
movej(p[-0.401555652386294, -0.117546604646192, 0.340722172372119, -1.07623843797162, -1.28949421638815, 1.35991898058647], a = 0.2, v = 0.2, t = 0.2)
movej(p[-0.401381119868962, -0.118144584178673, 0.341049049481179, -1.07460327107725, -1.29289798458709, 1.35914240717386], a = 0.2, v = 0.2, t = 0.2)
movej(p[-0.401216571293393, -0.118148355713811, 0.341159341144512, -1.07797584561971, -1.29052350127327, 1.35556787718598], a = 0.2, v = 0.2, t = 0.2)
movej(p[-0.401015463230669, -0.118191351360719, 0.341264529852339, -1.07775967837854, -1.28812974567313, 1.35246619668954], a = 0.2, v = 0.2, t = 0.2)
movej(p[-0.400824067803277, -0.118404944365002, 0.34137940025277, -1.06300293718828, -1.29283457534117, 1.35533955104135], a = 0.2, v = 0.2, t = 0.2)
movej(p[-0.400857979209699, -0.118824710747856, 0.341508019420625, -1.05898459983326, -1.29838181898878, 1.35846816989284], a = 0.2, v = 0.2, t = 0.2)
movej(p[-0.400944853077847, -0.119035774543781, 0.341574884172796, -1.05279173733913, -1.3039100266815, 1.36002618963164], a = 0.2, v = 0.2, t = 0.2)
movej(p[-0.401142334877119, -0.119044607872576, 0.341452768268187, -1.0605965739492, -1.30347943266934, 1.35816272475611], a = 0.2, v = 0.2, t = 0.2)
movej(p[-0.401654956823964, -0.119134494248774, 0.341145008850642, -1.06116286113174, -1.31126837976579, 1.35806294118377], a = 0.2, v = 0.2, t = 0.2)
movej(p[-0.402350304512502, -0.118989263191239, 0.340603190150271, -1.08063261730421, -1.31749447528319, 1.35319069484939], a = 0.2, v = 0.2, t = 0.2)
movej(p[-0.403249425098125, -0.118603036268836, 0.339749366857418, -1.10902725354382, -1.32361709984137, 1.34944188583663], a = 0.2, v = 0.2, t = 0.2)
movej(p[-0.404215235297966, -0.117947306612009, 0.338513217544009, -1.13506715141281, -1.3264856925194, 1.34868236267534], a = 0.2, v = 0.2, t = 0.2)
movej(p[-0.405311103151214, -0.117344548172468, 0.337088898421838, -1.16060897357121, -1.32905226725644, 1.35122307521754], a = 0.2, v = 0.2, t = 0.2)
movej(p[-0.406361129392912, -0.116453549333452, 0.335749713720792, -1.18859105410169, -1.32638998649561, 1.35103953323461], a = 0.2, v = 0.2, t = 0.2)
movej(p[-0.406912135933632, -0.115217547999788, 0.334840902346432, -1.21628185926466, -1.31405518523063, 1.34581527875151], a = 0.2, v = 0.2, t = 0.2)
movej(p[-0.4068874574889, -0.114348617853376, 0.334651051602368, -1.21675054810192, -1.30862845007474, 1.3451492191071], a = 0.2, v = 0.2, t = 0.2)
movej(p[-0.406467836805359, -0.114287969985058, 0.335229889928685, -1.19521659821005, -1.30602185654108, 1.34648232758919], a = 0.2, v = 0.2, t = 0.2)
movej(p[-0.40581730368509, -0.115043486311707, 0.336454925123934, -1.15845702593204, -1.30805742727348, 1.35037305308751], a = 0.2, v = 0.2, t = 0.2)
movej(p[-0.404952814934662, -0.116162388402419, 0.337793279343184, -1.1364889483322, -1.30948179342675, 1.35254696298568], a = 0.2, v = 0.2, t = 0.2)
movej(p[-0.403945762373114, -0.116675688352372, 0.338884996641095, -1.12543685634343, -1.30232638119998, 1.34746877941078], a = 0.2, v = 0.2, t = 0.2)
movej(p[-0.403027154000662, -0.116930493499983, 0.339608099552313, -1.11580364308019, -1.29835600178477, 1.34279120915096], a = 0.2, v = 0.2, t = 0.2)
movej(p[-0.402263693866067, -0.11725313422758, 0.340213219126815, -1.09179333680046, -1.29513090082095, 1.34302287980654], a = 0.2, v = 0.2, t = 0.2)
movej(p[-0.401801547993547, -0.117751081895949, 0.340648337161241, -1.07081703240505, -1.29822166768549, 1.34853456924625], a = 0.2, v = 0.2, t = 0.2)
movej(p[-0.40162393224225, -0.118500402329484, 0.340988512538478, -1.05370823037099, -1.30903952815075, 1.35586456241648], a = 0.2, v = 0.2, t = 0.2)
movej(p[-0.401514879439792, -0.118677921070284, 0.341128568445319, -1.0574543773195, -1.31327979922656, 1.34822509652942], a = 0.2, v = 0.2, t = 0.2)
movej(p[-0.401441533973227, -0.118638147045058, 0.341211811035089, -1.05691414666596, -1.31167997544992, 1.34498727478959], a = 0.2, v = 0.2, t = 0.2)
movej(p[-0.401358727675147, -0.118479895380525, 0.341213227393422, -1.06551161284825, -1.30684757274673, 1.34122948684106], a = 0.2, v = 0.2, t = 0.2)
movej(p[-0.401362605429871, -0.118543410408893, 0.341244538590936, -1.05933425857051, -1.30508694343902, 1.34651067818666], a = 0.2, v = 0.2, t = 0.2)
movej(p[-0.401601370521291, -0.118885241588792, 0.341087641105718, -1.05654166220189, -1.31077036874971, 1.35107316692557], a = 0.2, v = 0.2, t = 0.2)
movej(p[-0.402202976293055, -0.119115655703543, 0.340634972080487, -1.05821921163873, -1.31819835724883, 1.35501255816937], a = 0.2, v = 0.2, t = 0.2)
movej(p[-0.403204397363984, -0.119237121242684, 0.33990517106788, -1.06776573888092, -1.330644521193, 1.3583263627251], a = 0.2, v = 0.2, t = 0.2)
movej(p[-0.404141472560371, -0.118729578723532, 0.339117197843419, -1.10457500755292, -1.33413815270532, 1.34996395398353], a = 0.2, v = 0.2, t = 0.2)
movej(p[-0.40492973443668, -0.117918156515043, 0.338207968018827, -1.13748929874019, -1.33305421685984, 1.34324026495863], a = 0.2, v = 0.2, t = 0.2)
movej(p[-0.405635497154163, -0.116976380602893, 0.337028751065588, -1.17044582161478, -1.32349028564875, 1.34323012338829], a = 0.2, v = 0.2, t = 0.2)
movej(p[-0.406373731876731, -0.116112568539929, 0.335717324235615, -1.19039381418909, -1.32043576045784, 1.34986758336619], a = 0.2, v = 0.2, t = 0.2)
movej(p[-0.40701978827521, -0.115295179423735, 0.334562129633692, -1.21131623625875, -1.31579222165557, 1.35333704299572], a = 0.2, v = 0.2, t = 0.2)
movej(p[-0.407193778938183, -0.11430710263897, 0.334049961803185, -1.22568903776609, -1.30662333850758, 1.35119305189192], a = 0.2, v = 0.2, t = 0.2)
movej(p[-0.407019636899821, -0.113789937238906, 0.334083691307366, -1.2234855596175, -1.29743481454335, 1.35408602557537], a = 0.2, v = 0.2, t = 0.2)
movej(p[-0.406722979743053, -0.114041365659439, 0.33467588968687, -1.20441362911434, -1.29968584669732, 1.35595921878675], a = 0.2, v = 0.2, t = 0.2)
movej(p[-0.406138530415388, -0.114690614915161, 0.335718127475158, -1.18410398302446, -1.30132973731836, 1.35329458329326], a = 0.2, v = 0.2, t = 0.2)
movej(p[-0.405220141832082, -0.115441167372344, 0.337035918915057, -1.16089664414306, -1.29891620141056, 1.34902444168408], a = 0.2, v = 0.2, t = 0.2)
movej(p[-0.404022717625835, -0.116127436747127, 0.338334572712814, -1.13583228120388, -1.29097264247538, 1.34714353725997], a = 0.2, v = 0.2, t = 0.2)
movej(p[-0.403047154186678, -0.116885125621533, 0.339346360903535, -1.10787475876802, -1.2906243695911, 1.35325197321557], a = 0.2, v = 0.2, t = 0.2)
movej(p[-0.402519476831837, -0.117675924652803, 0.33996476223239, -1.08681787135417, -1.30124301967818, 1.35541864233593], a = 0.2, v = 0.2, t = 0.2)
movej(p[-0.402124553425464, -0.117922986246586, 0.340344833814169, -1.0922519124789, -1.30189260634878, 1.35018626341177], a = 0.2, v = 0.2, t = 0.2)
movej(p[-0.401807534572599, -0.117885086154996, 0.340592182090868, -1.09347092110547, -1.29920093608445, 1.34723415691355], a = 0.2, v = 0.2, t = 0.2)
movej(p[-0.401458662348698, -0.118034339816935, 0.340853392737259, -1.08442077441857, -1.2952663944492, 1.35329489261931], a = 0.2, v = 0.2, t = 0.2)
movej(p[-0.401373871478176, -0.118440328067602, 0.34109295015876, -1.07063744276916, -1.29909128898834, 1.36078226943134], a = 0.2, v = 0.2, t = 0.2)
movej(p[-0.401332031818154, -0.118802408902579, 0.341252024219472, -1.06382948382366, -1.30706450929967, 1.36099163427947], a = 0.2, v = 0.2, t = 0.2)
movej(p[-0.401302806534399, -0.119011633602189, 0.341353337152321, -1.06066512920227, -1.30903732131981, 1.35569878315534], a = 0.2, v = 0.2, t = 0.2)
movej(p[-0.401416654259598, -0.119172642387118, 0.341277876084592, -1.05086877775455, -1.31489555965846, 1.35683119101256], a = 0.2, v = 0.2, t = 0.2)
movej(p[-0.401798415809713, -0.119369158374961, 0.341081864456682, -1.0630663370789, -1.31628345001545, 1.35826555147233], a = 0.2, v = 0.2, t = 0.2)
movej(p[-0.402429174174702, -0.119237795604238, 0.340601941882235, -1.08207568807092, -1.32001122654212, 1.35783105869235], a = 0.2, v = 0.2, t = 0.2)
movej(p[-0.403162782231439, -0.118915758646245, 0.33981284635584, -1.09961588279207, -1.3255811134887, 1.35299806991136], a = 0.2, v = 0.2, t = 0.2)
movej(p[-0.40416486376059, -0.118590772042359, 0.338762916278821, -1.11022314886647, -1.33746164201012, 1.35227839190886], a = 0.2, v = 0.2, t = 0.2)
movej(p[-0.405195855188118, -0.118034654349032, 0.337674599046791, -1.13458403173403, -1.34219085887564, 1.34589790138371], a = 0.2, v = 0.2, t = 0.2)
movej(p[-0.405909361087177, -0.117064856760432, 0.336740750269337, -1.16468847218921, -1.33744603166986, 1.34434752760295], a = 0.2, v = 0.2, t = 0.2)
movej(p[-0.406204598439431, -0.116138714486171, 0.336094488458179, -1.17492727911496, -1.32303890177145, 1.34568289537929], a = 0.2, v = 0.2, t = 0.2)
movej(p[-0.406152711171682, -0.116048823049037, 0.336168115226242, -1.15841112024225, -1.32102805848814, 1.3532176867859], a = 0.2, v = 0.2, t = 0.2)
movej(p[-0.405612430849547, -0.116387857297541, 0.337004031343717, -1.14558927063607, -1.30861308278614, 1.35269787643336], a = 0.2, v = 0.2, t = 0.2)
movej(p[-0.4046798709734, -0.116805920810062, 0.338273834058512, -1.13175861919574, -1.3012696617653, 1.34962444349401], a = 0.2, v = 0.2, t = 0.2)
movej(p[-0.403480376327097, -0.117327805741343, 0.339392501423412, -1.11082167210691, -1.29464747678292, 1.35202376753981], a = 0.2, v = 0.2, t = 0.2)
movej(p[-0.402753533866514, -0.11783684013923, 0.340078476504783, -1.09216338128712, -1.29749392553135, 1.35865227178195], a = 0.2, v = 0.2, t = 0.2)
movej(p[-0.402338385438227, -0.118208991371605, 0.340459071350823, -1.08029366733537, -1.30229898459048, 1.36123078890658], a = 0.2, v = 0.2, t = 0.2)
movej(p[-0.402115714212969, -0.118388743267739, 0.340695624055012, -1.07573882263775, -1.30319082494461, 1.35855960481011], a = 0.2, v = 0.2, t = 0.2)
movej(p[-0.40195586042918, -0.118642026702793, 0.340794940903919, -1.06646682754931, -1.30756132044065, 1.35986815558373], a = 0.2, v = 0.2, t = 0.2)
movej(p[-0.401933528490179, -0.118927655677653, 0.340891840332303, -1.06607974486825, -1.30989192062579, 1.3579189922532], a = 0.2, v = 0.2, t = 0.2)
movej(p[-0.401966558643546, -0.119024445198071, 0.340913001813955, -1.06677887348292, -1.31174348748048, 1.35844596385541], a = 0.2, v = 0.2, t = 0.2)
movej(p[-0.401885819925348, -0.119008081008163, 0.340926412927722, -1.06186649026379, -1.30927682150691, 1.35857797482007], a = 0.2, v = 0.2, t = 0.2)
movej(p[-0.401915581163937, -0.119242465350519, 0.340907475624003, -1.0456103891296, -1.31438841979945, 1.36473987338999], a = 0.2, v = 0.2, t = 0.2)
movej(p[-0.402149640216977, -0.11959720586838, 0.340845685514168, -1.04611806762738, -1.3206222386314, 1.36545339303959], a = 0.2, v = 0.2, t = 0.2)
movej(p[-0.402636534983122, -0.119311200278498, 0.340560033842097, -1.0665563582766, -1.32415882406455, 1.35813767929796], a = 0.2, v = 0.2, t = 0.2)
movej(p[-0.403130261947644, -0.119048422335543, 0.340077277561041, -1.08292576794723, -1.3243339908418, 1.35698251764492], a = 0.2, v = 0.2, t = 0.2)
movej(p[-0.403874207565515, -0.118808346781715, 0.339283500031121, -1.09313141294277, -1.32851505197431, 1.36156290574469], a = 0.2, v = 0.2, t = 0.2)
movej(p[-0.404849543370733, -0.118568028053042, 0.33834368742437, -1.11361917853332, -1.3346023202842, 1.36041923072918], a = 0.2, v = 0.2, t = 0.2)
movej(p[-0.405762473180086, -0.117864014097438, 0.337363577816463, -1.14451087888021, -1.33597171420981, 1.35345751565155], a = 0.2, v = 0.2, t = 0.2)
movej(p[-0.406375523628396, -0.116858639153917, 0.336290926851952, -1.17341141432971, -1.32883336312611, 1.3492374094371], a = 0.2, v = 0.2, t = 0.2)
movej(p[-0.406769562152502, -0.116078377218723, 0.335404889395629, -1.18283936781079, -1.32523138342833, 1.35178264810735], a = 0.2, v = 0.2, t = 0.2)
movej(p[-0.406908309220952, -0.115582928795962, 0.335076263175921, -1.19052691732163, -1.31631289202435, 1.35606993583083], a = 0.2, v = 0.2, t = 0.2)
movej(p[-0.406683069322202, -0.115327348193358, 0.335473898440433, -1.18467450836442, -1.3097330928059, 1.35423153180333], a = 0.2, v = 0.2, t = 0.2)
movej(p[-0.405974887090418, -0.115671152301752, 0.336497182883066, -1.16664409121121, -1.29995138105562, 1.35765847085804], a = 0.2, v = 0.2, t = 0.2)
movej(p[-0.405134537197123, -0.116521032992671, 0.337593923024014, -1.13120628191794, -1.30743364329472, 1.35926757924937], a = 0.2, v = 0.2, t = 0.2)
movej(p[-0.404196746714828, -0.117231428909812, 0.338626531311446, -1.11301734678612, -1.30829432333306, 1.35519299350832], a = 0.2, v = 0.2, t = 0.2)
movej(p[-0.40341439713756, -0.117504604855856, 0.339419990034789, -1.10218564005064, -1.3039741004489, 1.34983903087407], a = 0.2, v = 0.2, t = 0.2)
movej(p[-0.402808432169413, -0.117735011440735, 0.339873638651588, -1.08733240938738, -1.30069762303329, 1.34960856740631], a = 0.2, v = 0.2, t = 0.2)
movej(p[-0.402589670357696, -0.118277706099852, 0.340203386949307, -1.0718368795448, -1.3032690766692, 1.35394392442747], a = 0.2, v = 0.2, t = 0.2)
movej(p[-0.402447800826476, -0.118551085668773, 0.340341102904364, -1.07160782187287, -1.30635157793479, 1.35441087902854], a = 0.2, v = 0.2, t = 0.2)
movej(p[-0.402335255003595, -0.118613588802532, 0.34047913096862, -1.07625134318172, -1.30413331536533, 1.35219527617104], a = 0.2, v = 0.2, t = 0.2)
movej(p[-0.40214966207047, -0.11869737596897, 0.340549849522865, -1.06938482616234, -1.30175313791888, 1.35704298348484], a = 0.2, v = 0.2, t = 0.2)
movej(p[-0.40228069294338, -0.119157760880645, 0.340606199753095, -1.0576785871676, -1.3097410219124, 1.36447418613175], a = 0.2, v = 0.2, t = 0.2)
movej(p[-0.402636478396415, -0.119234344222741, 0.340431680667258, -1.06827892742395, -1.31644426140428, 1.36192154594395], a = 0.2, v = 0.2, t = 0.2)
movej(p[-0.403221493024332, -0.119040073651923, 0.340003727424208, -1.08547526451379, -1.32246104647684, 1.35957341176567], a = 0.2, v = 0.2, t = 0.2)
movej(p[-0.403912636848829, -0.118726354080298, 0.339265364232316, -1.10195420432893, -1.32532824888614, 1.35866782343141], a = 0.2, v = 0.2, t = 0.2)
movej(p[-0.404888619314917, -0.118587556353449, 0.33841240755293, -1.10790876754722, -1.33554645639551, 1.36397107624694], a = 0.2, v = 0.2, t = 0.2)
movej(p[-0.405753408594202, -0.117916889876208, 0.33750794749923, -1.13279206149116, -1.337986924237, 1.35646382914557], a = 0.2, v = 0.2, t = 0.2)
movej(p[-0.40641461509886, -0.117039915997557, 0.336520254554807, -1.15914550161298, -1.33678946635406, 1.35179720187831], a = 0.2, v = 0.2, t = 0.2)
movej(p[-0.406813447045116, -0.116130890051576, 0.335554713562524, -1.18125118892544, -1.32821982838161, 1.35264542108222], a = 0.2, v = 0.2, t = 0.2)
movej(p[-0.407041879159825, -0.115737361269797, 0.335129436312509, -1.18263655864168, -1.32679220516854, 1.35512330079554], a = 0.2, v = 0.2, t = 0.2)
movej(p[-0.406904381458397, -0.115502134659534, 0.335442203020977, -1.17558954918216, -1.32125986509855, 1.35255726241008], a = 0.2, v = 0.2, t = 0.2)
movej(p[-0.406127919281702, -0.115848209808275, 0.336592190177073, -1.14996702124133, -1.31772964988178, 1.34674359146767], a = 0.2, v = 0.2, t = 0.2)
movej(p[-0.405097965814296, -0.116560491762809, 0.337812801693369, -1.1173721575572, -1.31598452342351, 1.3488135607769], a = 0.2, v = 0.2, t = 0.2)
movej(p[-0.404066368542419, -0.117301745083394, 0.338907438830554, -1.09944878402318, -1.31116728847182, 1.34972436038405], a = 0.2, v = 0.2, t = 0.2)
movej(p[-0.403261641305016, -0.117589295722942, 0.33961283959677, -1.09094929716262, -1.304447043333, 1.35266041392965], a = 0.2, v = 0.2, t = 0.2)
movej(p[-0.402629977063581, -0.117706899844408, 0.34005652062105, -1.08837188632056, -1.29683128363728, 1.34995773557783], a = 0.2, v = 0.2, t = 0.2)
movej(p[-0.402359059513982, -0.11815458949374, 0.340294403666788, -1.07080475785328, -1.30298181211995, 1.35661659721368], a = 0.2, v = 0.2, t = 0.2)
movej(p[-0.402246075729437, -0.118559419178455, 0.34046274617726, -1.07097907838008, -1.30669516309789, 1.35380783825983], a = 0.2, v = 0.2, t = 0.2)
movej(p[-0.402242591270634, -0.118650440168734, 0.340531927600168, -1.07107386851737, -1.30923161308732, 1.35396651785936], a = 0.2, v = 0.2, t = 0.2)
movej(p[-0.402133020797302, -0.118678861268511, 0.340573338160442, -1.07082127829626, -1.30357780064199, 1.35470547754017], a = 0.2, v = 0.2, t = 0.2)
movej(p[-0.402204399332173, -0.119000271306016, 0.34058362323272, -1.05564530578917, -1.30723559492682, 1.36648593983671], a = 0.2, v = 0.2, t = 0.2)
movej(p[-0.402497660870029, -0.119215753379157, 0.340439543217904, -1.0714042240906, -1.31064610810856, 1.36535658946133], a = 0.2, v = 0.2, t = 0.2)
movej(p[-0.403117277586449, -0.119042803452674, 0.340036425999018, -1.09233631051765, -1.3180885044289, 1.36395576886899], a = 0.2, v = 0.2, t = 0.2)
movej(p[-0.403891328887826, -0.118665877661635, 0.339172721512237, -1.11438321734186, -1.32551986007981, 1.35918055159161], a = 0.2, v = 0.2, t = 0.2)
movej(p[-0.404983777847242, -0.118279629123268, 0.338114325543008, -1.12935980045345, -1.33516133219877, 1.35860854489232], a = 0.2, v = 0.2, t = 0.2)
movej(p[-0.406005427268168, -0.117627751236288, 0.337025644684727, -1.16071090215359, -1.33334086438302, 1.35635678104769], a = 0.2, v = 0.2, t = 0.2)
movej(p[-0.406753421069142, -0.116715132744967, 0.335959940367146, -1.19446136845796, -1.32469624969498, 1.35411433120947], a = 0.2, v = 0.2, t = 0.2)
movej(p[-0.407150677413342, -0.115818279298629, 0.334963292879772, -1.21450763326431, -1.31747459308481, 1.35417367321673], a = 0.2, v = 0.2, t = 0.2)
movej(p[-0.407304300809416, -0.115035611987235, 0.334169886260532, -1.22125287480057, -1.31379076471855, 1.35249676262576], a = 0.2, v = 0.2, t = 0.2)
movej(p[-0.407217210156212, -0.114441413397239, 0.334038827251791, -1.22130176358772, -1.30994622330912, 1.35490588275573], a = 0.2, v = 0.2, t = 0.2)
movej(p[-0.406764576282544, -0.114348652175091, 0.334611726572853, -1.2132953858302, -1.30138843347795, 1.35731592619801], a = 0.2, v = 0.2, t = 0.2)
movej(p[-0.406107051892211, -0.114983454810135, 0.33569204992753, -1.18786504283176, -1.29987181638329, 1.35982744961336], a = 0.2, v = 0.2, t = 0.2)
movej(p[-0.405349872366185, -0.116013680228882, 0.336892476253272, -1.16221880430785, -1.30095870950336, 1.35992838867049], a = 0.2, v = 0.2, t = 0.2)
movej(p[-0.404596964068891, -0.11647175025818, 0.337777548687441, -1.15921765447303, -1.29532277705369, 1.3524262610804], a = 0.2, v = 0.2, t = 0.2)
movej(p[-0.40417893570366, -0.116474797120932, 0.338035097696542, -1.162775837262, -1.29208411026445, 1.35548980458915], a = 0.2, v = 0.2, t = 0.2)
movej(p[-0.404203397244329, -0.116394450662086, 0.337813064178379, -1.16345598802168, -1.29591586147921, 1.35887480290521], a = 0.2, v = 0.2, t = 0.2)
movej(p[-0.40467463252055, -0.116287807841447, 0.337436121906061, -1.16359823946132, -1.29975627535327, 1.3616887187722], a = 0.2, v = 0.2, t = 0.2)
movej(p[-0.405028746176434, -0.116032807045707, 0.337179725320693, -1.16586391840161, -1.29801897006477, 1.35856635580025], a = 0.2, v = 0.2, t = 0.2)
movej(p[-0.405080768132099, -0.115660543998804, 0.337185263997386, -1.17101544943577, -1.28342911828831, 1.3535074925381], a = 0.2, v = 0.2, t = 0.2)
movej(p[-0.404829559337811, -0.115663673012343, 0.337406929160519, -1.158071418917, -1.28092998017366, 1.35988807278708], a = 0.2, v = 0.2, t = 0.2)
movej(p[-0.404511467988608, -0.115982736890836, 0.337694765067596, -1.15135052609249, -1.2829037800289, 1.36026523303818], a = 0.2, v = 0.2, t = 0.2)
movej(p[-0.404286646973021, -0.116146673197814, 0.337864221779192, -1.14928714316558, -1.28843881702059, 1.36089615034514], a = 0.2, v = 0.2, t = 0.2)
movej(p[-0.403952353243655, -0.11643743659151, 0.338146828820494, -1.13363138786373, -1.29222551303232, 1.35734991434274], a = 0.2, v = 0.2, t = 0.2)
movej(p[-0.403579489566915, -0.116997026764888, 0.338662538452483, -1.11125028849699, -1.29774821745177, 1.35839502860627], a = 0.2, v = 0.2, t = 0.2)
movej(p[-0.403076254748605, -0.117492360415801, 0.339368735157172, -1.10138605830049, -1.29601705262147, 1.35412236833599], a = 0.2, v = 0.2, t = 0.2)
movej(p[-0.402611610691468, -0.117718620548392, 0.339940450580671, -1.10004886128633, -1.2934978628178, 1.34928123207918], a = 0.2, v = 0.2, t = 0.2)
movej(p[-0.40219868086515, -0.11787374385554, 0.340245526824594, -1.09065937744517, -1.29112688954474, 1.35111099593333], a = 0.2, v = 0.2, t = 0.2)
movej(p[-0.402060572811928, -0.118293291199723, 0.340416003842789, -1.07588661724062, -1.29689574751526, 1.35551942270664], a = 0.2, v = 0.2, t = 0.2)
movej(p[-0.402008594650463, -0.118483836939204, 0.340494761674122, -1.07663708129853, -1.29802240456309, 1.35554812352122], a = 0.2, v = 0.2, t = 0.2)
movej(p[-0.40204715454016, -0.118529162589161, 0.340562617717055, -1.08476625403283, -1.29563390624241, 1.35277189193043], a = 0.2, v = 0.2, t = 0.2)
movej(p[-0.402165296509136, -0.118495472804135, 0.340424536883365, -1.08034293607861, -1.29909815899703, 1.35684146493824], a = 0.2, v = 0.2, t = 0.2)
movej(p[-0.402897027408571, -0.118658110485398, 0.339963647038646, -1.08983011118166, -1.30822229661061, 1.35996567299828], a = 0.2, v = 0.2, t = 0.2)
movej(p[-0.403910427143895, -0.11827617392374, 0.339098660231628, -1.11439910434949, -1.31909776726409, 1.35633796527014], a = 0.2, v = 0.2, t = 0.2)
movej(p[-0.405037516166733, -0.117621069735941, 0.337911289397504, -1.15236061997797, -1.32131123577742, 1.35137716500283], a = 0.2, v = 0.2, t = 0.2)
movej(p[-0.405920020713658, -0.116860547356169, 0.336659127494984, -1.17217752890085, -1.32515282447607, 1.35401364856956], a = 0.2, v = 0.2, t = 0.2)
movej(p[-0.406664447288535, -0.116191664823822, 0.335575852713344, -1.19507331052784, -1.32271867505925, 1.35814431836584], a = 0.2, v = 0.2, t = 0.2)
movej(p[-0.407102577739157, -0.115161458307862, 0.334761703323913, -1.21921217080982, -1.31353940294673, 1.35864809767023], a = 0.2, v = 0.2, t = 0.2)
movej(p[-0.407188302404395, -0.114263239436203, 0.33427736729349, -1.23697007270655, -1.30154603430172, 1.35962927917085], a = 0.2, v = 0.2, t = 0.2)
movej(p[-0.407083715113815, -0.113798080166819, 0.33411920180182, -1.23947440679164, -1.29577484459362, 1.36180334338671], a = 0.2, v = 0.2, t = 0.2)
movej(p[-0.406844701345373, -0.113805045325702, 0.33436022741261, -1.24142397617671, -1.28912846291524, 1.3623336585724], a = 0.2, v = 0.2, t = 0.2)
movej(p[-0.406490796052392, -0.113804467652124, 0.334883467185461, -1.23405711069024, -1.28577618675673, 1.3587100765905], a = 0.2, v = 0.2, t = 0.2)
movej(p[-0.405900897108121, -0.113993566281062, 0.33575182722259, -1.20993310266908, -1.28371112675427, 1.35724222177577], a = 0.2, v = 0.2, t = 0.2)
movej(p[-0.405074814297693, -0.114730996549125, 0.336951701520198, -1.17069383487056, -1.2922847347943, 1.35841565846456], a = 0.2, v = 0.2, t = 0.2)
movej(p[-0.403932779850382, -0.115556526934605, 0.338275389686423, -1.1449697071237, -1.28980412309839, 1.35648295493829], a = 0.2, v = 0.2, t = 0.2)
movej(p[-0.402777353039478, -0.11622045944962, 0.339446538037781, -1.12093734201827, -1.28718057773744, 1.35497291352551], a = 0.2, v = 0.2, t = 0.2)
movej(p[-0.401889215472579, -0.116814277079146, 0.340270359788725, -1.10300306553593, -1.28540712227372, 1.35472025883446], a = 0.2, v = 0.2, t = 0.2)
movej(p[-0.401455315727811, -0.117406566528033, 0.340809391156948, -1.08890663723194, -1.28885804070275, 1.35602680098053], a = 0.2, v = 0.2, t = 0.2)
movej(p[-0.401235591267871, -0.117862202738829, 0.341144294298341, -1.08570972604301, -1.29043565290363, 1.35692789896053], a = 0.2, v = 0.2, t = 0.2)
movej(p[-0.401064580331407, -0.118111591145273, 0.341325640395186, -1.08323694558413, -1.28772780151042, 1.35752736183264], a = 0.2, v = 0.2, t = 0.2)
movej(p[-0.40097379418405, -0.118449348088552, 0.341450533720529, -1.06432362942149, -1.29249721541205, 1.36307112571293], a = 0.2, v = 0.2, t = 0.2)
movej(p[-0.401070513412213, -0.118958747195705, 0.341581954881061, -1.05958720709501, -1.29883305966283, 1.36191705720539], a = 0.2, v = 0.2, t = 0.2)
movej(p[-0.401470502840436, -0.118839770636985, 0.341404375358917, -1.07449807986702, -1.3029295817907, 1.35810714360255], a = 0.2, v = 0.2, t = 0.2)
movej(p[-0.402105244738816, -0.118604504750836, 0.340894421259349, -1.09267160732254, -1.30794684220881, 1.35453004160546], a = 0.2, v = 0.2, t = 0.2)
movej(p[-0.40310527457163, -0.118293815575556, 0.339961963280386, -1.11139636029457, -1.31630935834924, 1.35594963543998], a = 0.2, v = 0.2, t = 0.2)
movej(p[-0.404307204258693, -0.11795106255991, 0.338919912777714, -1.13653424797802, -1.32247323198942, 1.35462265973402], a = 0.2, v = 0.2, t = 0.2)
movej(p[-0.405449928965367, -0.117205724829348, 0.337599600132066, -1.17585569682358, -1.32201029305965, 1.35328794021634], a = 0.2, v = 0.2, t = 0.2)
movej(p[-0.406454815053345, -0.116053508485838, 0.336080259103713, -1.20962086917768, -1.31758065062188, 1.35054560592302], a = 0.2, v = 0.2, t = 0.2)
movej(p[-0.407109150460582, -0.115121120999014, 0.334895291313074, -1.22423915402615, -1.31423779376386, 1.35588230984761], a = 0.2, v = 0.2, t = 0.2)
movej(p[-0.40739841743309, -0.11445217024653, 0.334421369632449, -1.22886514698154, -1.30970700811148, 1.35395202157053], a = 0.2, v = 0.2, t = 0.2)
movej(p[-0.407065844370931, -0.114017968018917, 0.334832256203004, -1.2319433365379, -1.29281031054342, 1.35259134122332], a = 0.2, v = 0.2, t = 0.2)
movej(p[-0.40642419378111, -0.114015025331813, 0.335552436146612, -1.22022138186355, -1.2829592343384, 1.35011606865129], a = 0.2, v = 0.2, t = 0.2)
movej(p[-0.405858508776244, -0.114454812564703, 0.336327689476212, -1.19388127891899, -1.28416023942936, 1.35421591035826], a = 0.2, v = 0.2, t = 0.2)
movej(p[-0.404997269080622, -0.115065109636667, 0.337331497984165, -1.17384097371006, -1.28356598359528, 1.35081726065697], a = 0.2, v = 0.2, t = 0.2)
movej(p[-0.403949835972969, -0.115674082437841, 0.338465364516179, -1.148646156554, -1.28106742652002, 1.34751687761989], a = 0.2, v = 0.2, t = 0.2)
movej(p[-0.402676171589141, -0.116414747149904, 0.339602993665187, -1.11975561885054, -1.27845525474582, 1.34632344016463], a = 0.2, v = 0.2, t = 0.2)
movej(p[-0.401889315599829, -0.117332780973706, 0.340437763151597, -1.08840355477045, -1.28853936816003, 1.35160546706964], a = 0.2, v = 0.2, t = 0.2)
movej(p[-0.401404686552468, -0.117967482783283, 0.340939263144691, -1.08347830917875, -1.2935950051191, 1.35290072644216], a = 0.2, v = 0.2, t = 0.2)
movej(p[-0.401249605181069, -0.118179956225238, 0.341187111717834, -1.07880692804292, -1.29607188558137, 1.35455562721496], a = 0.2, v = 0.2, t = 0.2)
movej(p[-0.400994577591746, -0.11834187453066, 0.341345893267937, -1.07154051145493, -1.2926172917947, 1.35608997208838], a = 0.2, v = 0.2, t = 0.2)
movej(p[-0.400955066060469, -0.118901883874119, 0.341489237727667, -1.04679252118986, -1.30187319804719, 1.36126179897328], a = 0.2, v = 0.2, t = 0.2)
movej(p[-0.400924353106011, -0.11917803515538, 0.341512724623714, -1.0519908407496, -1.30607018940603, 1.35646435371695], a = 0.2, v = 0.2, t = 0.2)
movej(p[-0.400996224896305, -0.119188551150123, 0.341506194752776, -1.05664767209878, -1.30662360746308, 1.35361094493449], a = 0.2, v = 0.2, t = 0.2)
movej(p[-0.401070770102682, -0.119195873080908, 0.34138957137975, -1.05971129537306, -1.30608712088384, 1.35425987306197], a = 0.2, v = 0.2, t = 0.2)
movej(p[-0.401524164405466, -0.11935233858767, 0.341185887522028, -1.05582401739333, -1.3107052695551, 1.36056375959146], a = 0.2, v = 0.2, t = 0.2)
movej(p[-0.402248454398228, -0.119250140379679, 0.340663164794697, -1.0740166541403, -1.31921927309596, 1.35893425273512], a = 0.2, v = 0.2, t = 0.2)
movej(p[-0.403185244554986, -0.118904690577766, 0.339818173820627, -1.09930550170981, -1.32324443049285, 1.35463627584782], a = 0.2, v = 0.2, t = 0.2)
movej(p[-0.404170131568256, -0.118355694506775, 0.338689237432017, -1.12096932962529, -1.32878382492194, 1.35096297349738], a = 0.2, v = 0.2, t = 0.2)
movej(p[-0.405392133791773, -0.117796615845722, 0.337339824435017, -1.14377720283761, -1.33602044304659, 1.35468777353158], a = 0.2, v = 0.2, t = 0.2)
movej(p[-0.406423989694622, -0.116716524118939, 0.3361534405186, -1.17517265047374, -1.33576149757845, 1.34785875782036], a = 0.2, v = 0.2, t = 0.2)
movej(p[-0.406929129455458, -0.115548075983868, 0.335283726930163, -1.20498458415095, -1.32814821123133, 1.34648151013046], a = 0.2, v = 0.2, t = 0.2)
movej(p[-0.407037536663005, -0.114787047691138, 0.334876401660856, -1.21381156207027, -1.3169290800987, 1.34605010148735], a = 0.2, v = 0.2, t = 0.2)
movej(p[-0.40685686882557, -0.114637257108746, 0.33501232503612, -1.21024586522459, -1.31147809727313, 1.34935176777145], a = 0.2, v = 0.2, t = 0.2)
movej(p[-0.40624303898207, -0.11476689628365, 0.335817574809519, -1.19259916650869, -1.30311528857691, 1.34488918709532], a = 0.2, v = 0.2, t = 0.2)
movej(p[-0.405081852621172, -0.115272508663057, 0.337178123675623, -1.16387140696336, -1.29615675556609, 1.34066585851093], a = 0.2, v = 0.2, t = 0.2)
movej(p[-0.403672428327448, -0.116147080334564, 0.338680040622913, -1.12899010538333, -1.29424203102231, 1.34211133734459], a = 0.2, v = 0.2, t = 0.2)
movej(p[-0.402493709171713, -0.116941597376894, 0.339789026287721, -1.10877155207971, -1.29147236783639, 1.34499657485102], a = 0.2, v = 0.2, t = 0.2)
movej(p[-0.401647887918774, -0.117532275310918, 0.340571355338271, -1.09174426033276, -1.2904856892636, 1.34561971495518], a = 0.2, v = 0.2, t = 0.2)
movej(p[-0.401099795344403, -0.117907106823042, 0.340965901274681, -1.07439862947326, -1.28863393739266, 1.34716673150922], a = 0.2, v = 0.2, t = 0.2)
movej(p[-0.400901133314113, -0.118554847892677, 0.341230243390942, -1.05190684551548, -1.29832367160777, 1.3516590189801], a = 0.2, v = 0.2, t = 0.2)
movej(p[-0.400839951727763, -0.11905437767094, 0.341386999073839, -1.05214122874847, -1.30457349648901, 1.34829451634522], a = 0.2, v = 0.2, t = 0.2)
movej(p[-0.40086875161281, -0.119047244482978, 0.341442101653186, -1.05827698519054, -1.30244632474754, 1.34808054533903], a = 0.2, v = 0.2, t = 0.2)
movej(p[-0.400833909357332, -0.119079814362857, 0.341505404497971, -1.05945706370928, -1.29845168974361, 1.34894481420238], a = 0.2, v = 0.2, t = 0.2)
movej(p[-0.401070206673148, -0.11928240558968, 0.341383432562869, -1.05154222710804, -1.30291171071135, 1.35640874520545], a = 0.2, v = 0.2, t = 0.2)
movej(p[-0.401669745577426, -0.119413940394515, 0.341012428586645, -1.063248499305, -1.31061915527743, 1.35559691421876], a = 0.2, v = 0.2, t = 0.2)
movej(p[-0.402613922225458, -0.11916371023738, 0.340276207884226, -1.08504390440614, -1.31875751733778, 1.35158432243432], a = 0.2, v = 0.2, t = 0.2)
movej(p[-0.403653638157198, -0.118525498897307, 0.339171115554876, -1.11002075717174, -1.32229353306956, 1.34810369362968], a = 0.2, v = 0.2, t = 0.2)
movej(p[-0.40484973559993, -0.117932780615521, 0.337897355041307, -1.13030668013264, -1.330374069344, 1.34997417926721], a = 0.2, v = 0.2, t = 0.2)
movej(p[-0.405866123354381, -0.116995132533602, 0.336682609936903, -1.16331695009667, -1.32448587601979, 1.34612754558673], a = 0.2, v = 0.2, t = 0.2)
movej(p[-0.40649135988474, -0.115877905459889, 0.335689708959076, -1.19359095102435, -1.31947636091868, 1.34304621196482], a = 0.2, v = 0.2, t = 0.2)
movej(p[-0.406715962959067, -0.114889137113157, 0.33496737650819, -1.21460024500924, -1.30603260209276, 1.34585756301909], a = 0.2, v = 0.2, t = 0.2)
movej(p[-0.406685534717981, -0.114608672499998, 0.33477411900404, -1.2085176104299, -1.30724590408089, 1.35172445837285], a = 0.2, v = 0.2, t = 0.2)
movej(p[-0.406425668935356, -0.114670200739678, 0.335210643345564, -1.20217977063712, -1.30008600764871, 1.35329135461294], a = 0.2, v = 0.2, t = 0.2)
movej(p[-0.405760251193853, -0.115163986957409, 0.336268386287149, -1.17949114892443, -1.29989434803924, 1.34612532318713], a = 0.2, v = 0.2, t = 0.2)
movej(p[-0.404812158553138, -0.11584180615768, 0.337540802200468, -1.1529657327667, -1.29698721012685, 1.34677733298658], a = 0.2, v = 0.2, t = 0.2)
movej(p[-0.40387813649802, -0.11676835283273, 0.338641496035967, -1.12631083039323, -1.30341270438191, 1.34779912775432], a = 0.2, v = 0.2, t = 0.2)
movej(p[-0.402876648213581, -0.117279145197055, 0.339537681169172, -1.11003832509944, -1.3012846387525, 1.34742040792431], a = 0.2, v = 0.2, t = 0.2)
movej(p[-0.402073540383674, -0.11757117447809, 0.340186391881761, -1.10333922302238, -1.29577824697567, 1.34415775725649], a = 0.2, v = 0.2, t = 0.2)
movej(p[-0.40151280937278, -0.11783489110046, 0.340613879933886, -1.08816583934951, -1.28832721215668, 1.34826485491331], a = 0.2, v = 0.2, t = 0.2)
movej(p[-0.401274391890264, -0.118477980399064, 0.340980508922445, -1.07347904483979, -1.29276837213748, 1.35214800393236], a = 0.2, v = 0.2, t = 0.2)
movej(p[-0.401120873990212, -0.118762359706056, 0.341181365507646, -1.06817936269554, -1.29591835338919, 1.35138126938238], a = 0.2, v = 0.2, t = 0.2)
movej(p[-0.400996612437286, -0.118875807556265, 0.341311133757412, -1.06546772202428, -1.29908281456836, 1.34826861488918], a = 0.2, v = 0.2, t = 0.2)
movej(p[-0.400840996832997, -0.118978932149726, 0.341392016153056, -1.05553091924865, -1.29828432022989, 1.35048475805681], a = 0.2, v = 0.2, t = 0.2)
movej(p[-0.400886759781519, -0.119513031901816, 0.341490871893202, -1.04479125502595, -1.30691935589268, 1.35606251813292], a = 0.2, v = 0.2, t = 0.2)
movej(p[-0.400949833099277, -0.119616762984391, 0.341469647061165, -1.05056772951633, -1.310399746754, 1.35457042050228], a = 0.2, v = 0.2, t = 0.2)
movej(p[-0.401133339971522, -0.119520649296628, 0.341388079630387, -1.06111190978124, -1.3121857943401, 1.35099293389238], a = 0.2, v = 0.2, t = 0.2)
movej(p[-0.401428789519432, -0.119345715791872, 0.341079775885108, -1.06188439516408, -1.3127578242035, 1.35140247907654], a = 0.2, v = 0.2, t = 0.2)
movej(p[-0.402144377057867, -0.1194114385495, 0.340531092984549, -1.06221486702399, -1.31984188738373, 1.35622118793264], a = 0.2, v = 0.2, t = 0.2)
movej(p[-0.403334909687698, -0.119358532140275, 0.339605610587001, -1.07938919175944, -1.33530423268717, 1.35810929746421], a = 0.2, v = 0.2, t = 0.2)
movej(p[-0.404547850823195, -0.118763574736781, 0.338652618551384, -1.11641400309473, -1.34053585754953, 1.35133002488642], a = 0.2, v = 0.2, t = 0.2)
movej(p[-0.405491965836107, -0.117848113597378, 0.337744260887996, -1.14970186504716, -1.33953582564978, 1.34457382523154], a = 0.2, v = 0.2, t = 0.2)
movej(p[-0.406051634275189, -0.11689121940094, 0.336783783765146, -1.1805722383442, -1.32969703354718, 1.34544215625978], a = 0.2, v = 0.2, t = 0.2)
movej(p[-0.406559208209997, -0.115942594912961, 0.335713760973982, -1.19951073771826, -1.32218580418145, 1.34960481699898], a = 0.2, v = 0.2, t = 0.2)
movej(p[-0.407150376060632, -0.115249872651951, 0.334624785413385, -1.21457571293639, -1.31968807651589, 1.35836288732967], a = 0.2, v = 0.2, t = 0.2)
movej(p[-0.407432906431524, -0.114606017447149, 0.334137660260295, -1.2229536752343, -1.31559747832261, 1.3561025302493], a = 0.2, v = 0.2, t = 0.2)
movej(p[-0.407271252719257, -0.114134678299144, 0.334304667280711, -1.22557098772671, -1.30635029259642, 1.35391831515327], a = 0.2, v = 0.2, t = 0.2)
movej(p[-0.406518605090196, -0.114476302829828, 0.335434750444245, -1.20045205675627, -1.30144248901545, 1.35071872583707], a = 0.2, v = 0.2, t = 0.2)
movej(p[-0.405546267378193, -0.115288948741092, 0.336861670223603, -1.16938257930509, -1.29919861652747, 1.34992808210574], a = 0.2, v = 0.2, t = 0.2)
movej(p[-0.40442512236219, -0.116392904403508, 0.338306025028162, -1.13405608104798, -1.30222525702953, 1.35256551423815], a = 0.2, v = 0.2, t = 0.2)
movej(p[-0.403224587380177, -0.117064327964023, 0.339419100192028, -1.11949373947149, -1.30055186520119, 1.35120958536949], a = 0.2, v = 0.2, t = 0.2)
movej(p[-0.402279851096996, -0.117208749625279, 0.340120638774594, -1.10591921204817, -1.29598092821142, 1.34992837872507], a = 0.2, v = 0.2, t = 0.2)
movej(p[-0.401529894576782, -0.11751417376718, 0.340641498551485, -1.08828877926931, -1.29552040979838, 1.34877129285086], a = 0.2, v = 0.2, t = 0.2)
movej(p[-0.401187069695898, -0.118013445882444, 0.340990997127256, -1.07032859618739, -1.29686330921189, 1.34936966981816], a = 0.2, v = 0.2, t = 0.2)
movej(p[-0.401013618736674, -0.118469024741377, 0.34122969895347, -1.06691866955753, -1.30012870603419, 1.3486722182595], a = 0.2, v = 0.2, t = 0.2)
movej(p[-0.400908617664761, -0.118755647453738, 0.341435058895172, -1.06443531611982, -1.29913846564379, 1.35117287490754], a = 0.2, v = 0.2, t = 0.2)
movej(p[-0.40080131710847, -0.11897034239216, 0.341509953447948, -1.05418076868759, -1.3039827788582, 1.35529664526382], a = 0.2, v = 0.2, t = 0.2)
movej(p[-0.400846085746604, -0.119336343200292, 0.341577613092394, -1.0492226590347, -1.30959746038713, 1.35557739998405], a = 0.2, v = 0.2, t = 0.2)
movej(p[-0.401016591425786, -0.11939905417107, 0.341424835655871, -1.05574203659719, -1.31450123191648, 1.35384379987209], a = 0.2, v = 0.2, t = 0.2)
movej(p[-0.401394448390525, -0.119280049732092, 0.341088951938638, -1.07317108029184, -1.3140127735832, 1.3488995072045], a = 0.2, v = 0.2, t = 0.2)
movej(p[-0.402050931584772, -0.119183951155063, 0.340463285645864, -1.0766203792742, -1.32238141304832, 1.35192418207557], a = 0.2, v = 0.2, t = 0.2)
movej(p[-0.403055679051346, -0.119278107792974, 0.339739331736352, -1.09057725410439, -1.33336132833002, 1.35374573613158], a = 0.2, v = 0.2, t = 0.2)
movej(p[-0.404036067018627, -0.118740042390887, 0.338889124251271, -1.12075725852335, -1.33935872755025, 1.34831386790499], a = 0.2, v = 0.2, t = 0.2)
movej(p[-0.404818403839876, -0.117926164926839, 0.337921036330866, -1.15373090727971, -1.33303844095219, 1.34279521595799], a = 0.2, v = 0.2, t = 0.2)
movej(p[-0.405494665529245, -0.116951707558514, 0.336674061265475, -1.17523234748271, -1.32589347918402, 1.34283726367551], a = 0.2, v = 0.2, t = 0.2)
movej(p[-0.40616689647502, -0.116078346438, 0.335541783543926, -1.18855432754011, -1.31821186993928, 1.34497994241165], a = 0.2, v = 0.2, t = 0.2)
movej(p[-0.406601545075729, -0.115186008134964, 0.3347474971222, -1.20333505438578, -1.31358257298985, 1.34661612478918], a = 0.2, v = 0.2, t = 0.2)
movej(p[-0.406713962435069, -0.114502421204519, 0.334454017555886, -1.21022180968584, -1.30655013233749, 1.34738899015319], a = 0.2, v = 0.2, t = 0.2)
movej(p[-0.406610625620736, -0.11455126575148, 0.334691623959495, -1.20254863410367, -1.30917600456082, 1.35166249893134], a = 0.2, v = 0.2, t = 0.2)
movej(p[-0.406059505084007, -0.115029796082528, 0.335619099687621, -1.18137337492219, -1.30430816689796, 1.34891572159457], a = 0.2, v = 0.2, t = 0.2)
movej(p[-0.404926737715601, -0.115660090343005, 0.33707179951356, -1.15384547850046, -1.2997928929395, 1.3427000911174], a = 0.2, v = 0.2, t = 0.2)
movej(p[-0.403406924296986, -0.116350770715151, 0.338653673206188, -1.12044021288826, -1.2881453897424, 1.34033671740224], a = 0.2, v = 0.2, t = 0.2)
movej(p[-0.402289688234452, -0.117201682788827, 0.339736169899426, -1.08588445084484, -1.29679787081506, 1.34881389903966], a = 0.2, v = 0.2, t = 0.2)
movej(p[-0.401643265989437, -0.117706943037121, 0.340367323886793, -1.07163710026287, -1.29932518260587, 1.3507257552151], a = 0.2, v = 0.2, t = 0.2)
movej(p[-0.40130247372854, -0.117984254032926, 0.340754944115262, -1.06564681211436, -1.30320637725908, 1.34825131270502], a = 0.2, v = 0.2, t = 0.2)
movej(p[-0.400977627169733, -0.118219491031267, 0.341014656336467, -1.0596434024837, -1.29778206404024, 1.34967124539333], a = 0.2, v = 0.2, t = 0.2)
movej(p[-0.400877536616108, -0.118790800783461, 0.341264360823057, -1.05123426455963, -1.30267558844243, 1.35362365249649], a = 0.2, v = 0.2, t = 0.2)
movej(p[-0.400836215230509, -0.119033727799972, 0.341369541656581, -1.05216172856918, -1.30610691827764, 1.35521326325917], a = 0.2, v = 0.2, t = 0.2)
movej(p[-0.400819688992751, -0.119119903093737, 0.341453598852645, -1.057069147182, -1.30543074185811, 1.35119250713527], a = 0.2, v = 0.2, t = 0.2)
movej(p[-0.400818848452358, -0.119171952365698, 0.341405730942932, -1.05268937881341, -1.30327308394807, 1.35398616639742], a = 0.2, v = 0.2, t = 0.2)
movej(p[-0.401220349232147, -0.119530026937689, 0.341208464404659, -1.05182242807221, -1.31012443382037, 1.36045934082319], a = 0.2, v = 0.2, t = 0.2)
movej(p[-0.401883386313995, -0.119431478534011, 0.340734619144867, -1.06918541129965, -1.31593925535993, 1.35842316109654], a = 0.2, v = 0.2, t = 0.2)
movej(p[-0.402649628898148, -0.119186997076474, 0.340121961063673, -1.09151568264315, -1.31899820978269, 1.35429510119831], a = 0.2, v = 0.2, t = 0.2)
movej(p[-0.403532858124626, -0.118825853751271, 0.339227406543783, -1.10731489535985, -1.32455595817112, 1.35264009829716], a = 0.2, v = 0.2, t = 0.2)
movej(p[-0.404655544109385, -0.11854810216207, 0.338214405115195, -1.12065495581646, -1.33439560548594, 1.35487876665749], a = 0.2, v = 0.2, t = 0.2)
movej(p[-0.405628401715035, -0.117627634599818, 0.337125511889955, -1.15014316342098, -1.33630325900522, 1.3522234645552], a = 0.2, v = 0.2, t = 0.2)
movej(p[-0.406312757101041, -0.116459434825028, 0.33605394493758, -1.17972413454869, -1.33034399842293, 1.35001666326736], a = 0.2, v = 0.2, t = 0.2)
movej(p[-0.406675676215469, -0.115476209052369, 0.335131958786945, -1.19953101746375, -1.31981350278119, 1.3545511738076], a = 0.2, v = 0.2, t = 0.2)
movej(p[-0.406796123895102, -0.115043941186546, 0.334816254196151, -1.19931691133632, -1.31325397108988, 1.35835741763245], a = 0.2, v = 0.2, t = 0.2)
movej(p[-0.406568383703149, -0.114923406589991, 0.33524327695433, -1.18376018126411, -1.30810015672553, 1.35088671839537], a = 0.2, v = 0.2, t = 0.2)
movej(p[-0.405465488938443, -0.115432677568051, 0.336638508156995, -1.15655605313844, -1.30256076740264, 1.34523432927321], a = 0.2, v = 0.2, t = 0.2)
movej(p[-0.404102940785809, -0.116330390097086, 0.338208137823648, -1.12474260139136, -1.301175761178, 1.34120083417485], a = 0.2, v = 0.2, t = 0.2)
movej(p[-0.402766491503586, -0.117061722749558, 0.339474848491625, -1.11081341540807, -1.29518561982701, 1.34393814714764], a = 0.2, v = 0.2, t = 0.2)
movej(p[-0.401928706044445, -0.11746496568727, 0.340245649512006, -1.09727191503628, -1.29241061152663, 1.34799417503955], a = 0.2, v = 0.2, t = 0.2)
movej(p[-0.401370113654465, -0.117704126584436, 0.340687149451583, -1.08493163478133, -1.28845398304065, 1.35225082135385], a = 0.2, v = 0.2, t = 0.2)
movej(p[-0.401187578467355, -0.118335203968775, 0.340998131917557, -1.06543729285525, -1.29590641511392, 1.35902635834631], a = 0.2, v = 0.2, t = 0.2)
movej(p[-0.401043868152419, -0.118762819188547, 0.341181673276385, -1.0678936991481, -1.30097740282081, 1.35279053734739], a = 0.2, v = 0.2, t = 0.2)
movej(p[-0.401058009960024, -0.118786989147998, 0.341247144738396, -1.07236950293228, -1.30283999443745, 1.34841562966678], a = 0.2, v = 0.2, t = 0.2)
movej(p[-0.400924380425053, -0.118884441782988, 0.341316157355481, -1.06367697409594, -1.3035855735416, 1.34995938715077], a = 0.2, v = 0.2, t = 0.2)
movej(p[-0.400940140862426, -0.119185644961215, 0.341419261060747, -1.05185732204676, -1.3064192646185, 1.35661473735457], a = 0.2, v = 0.2, t = 0.2)
movej(p[-0.40098606224608, -0.119412357416186, 0.341463065761231, -1.0568485460042, -1.30740017217588, 1.35513487709735], a = 0.2, v = 0.2, t = 0.2)
movej(p[-0.40115726297148, -0.11947342550715, 0.341365037844858, -1.06175567256893, -1.30794045137263, 1.35384624975307], a = 0.2, v = 0.2, t = 0.2)
movej(p[-0.401482017194145, -0.119332130454429, 0.3409669217002, -1.06068977457909, -1.30901892772651, 1.35532886614229], a = 0.2, v = 0.2, t = 0.2)
movej(p[-0.402294387336721, -0.119442582477364, 0.340312069801996, -1.05788247252898, -1.32081468482572, 1.3611152773453], a = 0.2, v = 0.2, t = 0.2)
movej(p[-0.403338913084185, -0.119250690400982, 0.339575637729564, -1.07856701818627, -1.32990889256472, 1.35658960989228], a = 0.2, v = 0.2, t = 0.2)
movej(p[-0.404310869654329, -0.118583515607226, 0.338787500890728, -1.1142081637389, -1.32746034509829, 1.35000155151137], a = 0.2, v = 0.2, t = 0.2)
movej(p[-0.405140277998381, -0.117909920337923, 0.337835356231556, -1.14237773102666, -1.32452720426929, 1.35159019551893], a = 0.2, v = 0.2, t = 0.2)
movej(p[-0.405923854345637, -0.117226834245875, 0.336815311745776, -1.1632495969251, -1.32384048599018, 1.35483292543923], a = 0.2, v = 0.2, t = 0.2)
movej(p[-0.406569472401044, -0.116383567480312, 0.335789237961377, -1.18878539474391, -1.32279026163329, 1.35369118960989], a = 0.2, v = 0.2, t = 0.2)
movej(p[-0.406956546828201, -0.115354971242598, 0.334948393996243, -1.21168424645242, -1.31867437696817, 1.35263589201173], a = 0.2, v = 0.2, t = 0.2)
movej(p[-0.40700307410942, -0.11461927763181, 0.334491013571271, -1.22557941930012, -1.31350272295124, 1.35285994693208], a = 0.2, v = 0.2, t = 0.2)
movej(p[-0.406887980901083, -0.114331680951793, 0.334513688734735, -1.21966985762075, -1.30693984229077, 1.35256840757022], a = 0.2, v = 0.2, t = 0.2)
movej(p[-0.406410560797632, -0.114485814567036, 0.335332158009341, -1.20299064208758, -1.30017202419193, 1.35048868611916], a = 0.2, v = 0.2, t = 0.2)
movej(p[-0.405265703183792, -0.115085645496099, 0.33676965449997, -1.16937779298261, -1.29277365788796, 1.34791872347238], a = 0.2, v = 0.2, t = 0.2)
movej(p[-0.403917833084356, -0.116058627377926, 0.338302596470556, -1.13642238465464, -1.29347499407323, 1.3497257126162], a = 0.2, v = 0.2, t = 0.2)
movej(p[-0.402628329699293, -0.116766221810177, 0.339439525595944, -1.11571703010219, -1.29096918715448, 1.34720266528173], a = 0.2, v = 0.2, t = 0.2)
movej(p[-0.401849210563392, -0.117140690200981, 0.34015274140426, -1.1041760047861, -1.28677624383316, 1.34847533066466], a = 0.2, v = 0.2, t = 0.2)
movej(p[-0.401220671382608, -0.117454486389332, 0.340650758012059, -1.0864319230502, -1.28362428853079, 1.35270587025497], a = 0.2, v = 0.2, t = 0.2)
movej(p[-0.400979427168522, -0.118055138728326, 0.340977675388366, -1.06154500874597, -1.29001927884792, 1.36069557371643], a = 0.2, v = 0.2, t = 0.2)
movej(p[-0.400902386660649, -0.118755554262554, 0.341205796259963, -1.05342340843058, -1.29976150255242, 1.36127568166171], a = 0.2, v = 0.2, t = 0.2)
