def moving():
set_payload_mass(0)
set_tcp(p[0,0,0,0,0,0])
movej(p[0.3823, 0.2128, 0.3124, -1.33, 0.73, -0.764], a = 0.2, v = 0.2, t = 0.2)
movej(p[0.382273318748272, 0.21276771813933, 0.31279780144831, -1.33, 0.73, -0.764], a = 0.2, v = 0.2, t = 0.2)
movej(p[0.3823, 0.2128, 0.3124, -1.33, 0.73, -0.764], a = 0.2, v = 0.2, t = 0.2)
movej(p[0.382273318748272, 0.21276771813933, 0.31279780144831, -1.33, 0.73, -0.764], a = 0.2, v = 0.2, t = 0.2)
movej(p[0.3823, 0.2128, 0.3124, -1.33, 0.73, -0.764], a = 0.2, v = 0.2, t = 0.2)
movej(p[0.382273318748272, 0.21276771813933, 0.31279780144831, -1.33, 0.73, -0.764], a = 0.2, v = 0.2, t = 0.2)
movej(p[0.3823, 0.2128, 0.3124, -1.33, 0.73, -0.764], a = 0.2, v = 0.2, t = 0.2)
movej(p[0.382273318748272, 0.21276771813933, 0.31279780144831, -1.33, 0.73, -0.764], a = 0.2, v = 0.2, t = 0.2)
movej(p[0.3823, 0.2128, 0.3124, -1.33, 0.73, -0.764], a = 0.2, v = 0.2, t = 0.2)
movej(p[0.382273318748272, 0.21276771813933, 0.31279780144831, -1.33, 0.73, -0.764], a = 0.2, v = 0.2, t = 0.2)
movej(p[0.3823, 0.2128, 0.3124, -1.33, 0.73, -0.764], a = 0.2, v = 0.2, t = 0.2)
movej(p[0.382317548259262, 0.212821231779763, 0.312138365987446, -1.33, 0.73, -0.764], a = 0.2, v = 0.2, t = 0.2)
movej(p[0.382344150801297, 0.212853418408944, 0.311741738053408, -1.33, 0.73, -0.764], a = 0.2, v = 0.2, t = 0.2)
movej(p[0.38236244746967, 0.212875555694899, 0.311468945710229, -1.33, 0.73, -0.764], a = 0.2, v = 0.2, t = 0.2)
movej(p[0.382373420134443, 0.212888831610099, 0.311305349864612, -1.33, 0.73, -0.764], a = 0.2, v = 0.2, t = 0.2)
movej(p[0.382375107723615, 0.212890873437787, 0.311280188923006, -1.33, 0.73, -0.764], a = 0.2, v = 0.2, t = 0.2)
movej(p[0.382376568522147, 0.212892640869658, 0.311258409293711, -1.33, 0.73, -0.764], a = 0.2, v = 0.2, t = 0.2)
movej(p[0.382370385142059, 0.212885159548448, 0.311350599779357, -1.33, 0.73, -0.764], a = 0.2, v = 0.2, t = 0.2)
movej(p[0.382347948210449, 0.212858012924764, 0.311685120962277, -1.33, 0.73, -0.764], a = 0.2, v = 0.2, t = 0.2)
movej(p[0.382289244120397, 0.212786986374917, 0.31256036370885, -1.33, 0.73, -0.764], a = 0.2, v = 0.2, t = 0.2)
movej(p[0.382199965316958, 0.212678967233882, 0.313891457080078, -1.33, 0.73, -0.764], a = 0.2, v = 0.2, t = 0.2)
movej(p[0.382131080995309, 0.212595623540097, 0.314918480969253, -1.33, 0.73, -0.764], a = 0.2, v = 0.2, t = 0.2)
movej(p[0.382083508323478, 0.212538064982522, 0.315627760951591, -1.33, 0.73, -0.764], a = 0.2, v = 0.2, t = 0.2)
movej(p[0.382056566929545, 0.21250546837371, 0.316029440964022, -1.33, 0.73, -0.764], a = 0.2, v = 0.2, t = 0.2)
movej(p[0.382042392514565, 0.212488318635229, 0.316240772983437, -1.33, 0.73, -0.764], a = 0.2, v = 0.2, t = 0.2)
movej(p[0.382045767692908, 0.212492402290604, 0.316190451100226, -1.33, 0.73, -0.764], a = 0.2, v = 0.2, t = 0.2)
movej(p[0.382067933142782, 0.212519220446356, 0.315859977547042, -1.33, 0.73, -0.764], a = 0.2, v = 0.2, t = 0.2)
movej(p[0.38211438520204, 0.212575423165783, 0.315167405225534, -1.33, 0.73, -0.764], a = 0.2, v = 0.2, t = 0.2)
movej(p[0.382184190026874, 0.212659880583761, 0.314126657186391, -1.33, 0.73, -0.764], a = 0.2, v = 0.2, t = 0.2)
movej(p[0.382270048293841, 0.212763761190258, 0.312846561960837, -1.33, 0.73, -0.764], a = 0.2, v = 0.2, t = 0.2)
movej(p[0.382332713882744, 0.212839580789368, 0.311912255644227, -1.33, 0.73, -0.764], a = 0.2, v = 0.2, t = 0.2)
movej(p[0.382352361956517, 0.212863353151565, 0.311619314657691, -1.33, 0.73, -0.764], a = 0.2, v = 0.2, t = 0.2)
movej(p[0.38235668632039, 0.212868585234133, 0.311554840987956, -1.33, 0.73, -0.764], a = 0.2, v = 0.2, t = 0.2)
movej(p[0.38236364946006, 0.212877009992722, 0.311451024754983, -1.33, 0.73, -0.764], a = 0.2, v = 0.2, t = 0.2)
movej(p[0.382377722486284, 0.212894037060132, 0.311241204381072, -1.33, 0.73, -0.764], a = 0.2, v = 0.2, t = 0.2)
movej(p[0.382385640147734, 0.212903616702286, 0.311123156801285, -1.33, 0.73, -0.764], a = 0.2, v = 0.2, t = 0.2)
movej(p[0.382374247253246, 0.21288983234778, 0.311293018019714, -1.33, 0.73, -0.764], a = 0.2, v = 0.2, t = 0.2)
movej(p[0.382351456795052, 0.212862257989442, 0.311632810071825, -1.33, 0.73, -0.764], a = 0.2, v = 0.2, t = 0.2)
movej(p[0.382323516188242, 0.212828452424948, 0.312049387748495, -1.33, 0.73, -0.764], a = 0.2, v = 0.2, t = 0.2)
movej(p[0.382279536813987, 0.212775241426959, 0.312705093820782, -1.33, 0.73, -0.764], a = 0.2, v = 0.2, t = 0.2)
movej(p[0.382213172536564, 0.212694946754914, 0.313694545363164, -1.33, 0.73, -0.764], a = 0.2, v = 0.2, t = 0.2)
movej(p[0.38214320762422, 0.212610295645772, 0.314737680210996, -1.33, 0.73, -0.764], a = 0.2, v = 0.2, t = 0.2)
movej(p[0.382087270379972, 0.212542616724877, 0.315571670947379, -1.33, 0.73, -0.764], a = 0.2, v = 0.2, t = 0.2)
movej(p[0.382054979395068, 0.212503547603001, 0.316053110150197, -1.33, 0.73, -0.764], a = 0.2, v = 0.2, t = 0.2)
movej(p[0.382038750523704, 0.212483912161248, 0.316295072881132, -1.33, 0.73, -0.764], a = 0.2, v = 0.2, t = 0.2)
movej(p[0.382036022365715, 0.212480611340994, 0.316335748079221, -1.33, 0.73, -0.764], a = 0.2, v = 0.2, t = 0.2)
movej(p[0.382047395249264, 0.212494371484105, 0.316166185211879, -1.33, 0.73, -0.764], a = 0.2, v = 0.2, t = 0.2)
movej(p[0.382061943201769, 0.212511973168635, 0.315949283972188, -1.33, 0.73, -0.764], a = 0.2, v = 0.2, t = 0.2)
movej(p[0.38206408437222, 0.212514563787954, 0.315917360405961, -1.33, 0.73, -0.764], a = 0.2, v = 0.2, t = 0.2)
movej(p[0.382063484044056, 0.212513837446089, 0.315926310938548, -1.33, 0.73, -0.764], a = 0.2, v = 0.2, t = 0.2)
movej(p[0.382091532709935, 0.212547773752119, 0.315508122166012, -1.33, 0.73, -0.764], a = 0.2, v = 0.2, t = 0.2)
movej(p[0.382153619982707, 0.212622893641898, 0.314582438195793, -1.33, 0.73, -0.764], a = 0.2, v = 0.2, t = 0.2)
movej(p[0.382232976695659, 0.212718907965997, 0.313399277238156, -1.33, 0.73, -0.764], a = 0.2, v = 0.2, t = 0.2)
movej(p[0.382300961859125, 0.212801163761077, 0.312385659257788, -1.33, 0.73, -0.764], a = 0.2, v = 0.2, t = 0.2)
movej(p[0.382339924491023, 0.212848304962214, 0.311804749802821, -1.33, 0.73, -0.764], a = 0.2, v = 0.2, t = 0.2)
movej(p[0.382365115594843, 0.212878783880966, 0.311429165565398, -1.33, 0.73, -0.764], a = 0.2, v = 0.2, t = 0.2)
movej(p[0.382370545229569, 0.212885353239612, 0.311348212970667, -1.33, 0.73, -0.764], a = 0.2, v = 0.2, t = 0.2)
movej(p[0.382378529594149, 0.212895013586418, 0.31122917088726, -1.33, 0.73, -0.764], a = 0.2, v = 0.2, t = 0.2)
movej(p[0.382381818058424, 0.212898992325745, 0.311180141858756, -1.33, 0.73, -0.764], a = 0.2, v = 0.2, t = 0.2)
movej(p[0.382384192689828, 0.212901865411345, 0.311144737529856, -1.33, 0.73, -0.764], a = 0.2, v = 0.2, t = 0.2)
movej(p[0.382359239049149, 0.212871673801153, 0.311516781334389, -1.33, 0.73, -0.764], a = 0.2, v = 0.2, t = 0.2)
movej(p[0.382300353099685, 0.212800427218144, 0.312394735495633, -1.33, 0.73, -0.764], a = 0.2, v = 0.2, t = 0.2)
movej(p[0.382228987848526, 0.212714081827826, 0.313458748554678, -1.33, 0.73, -0.764], a = 0.2, v = 0.2, t = 0.2)
movej(p[0.382168681549307, 0.212641116752247, 0.314357879278222, -1.33, 0.73, -0.764], a = 0.2, v = 0.2, t = 0.2)
movej(p[0.382124330638622, 0.212587456229348, 0.315019124735676, -1.33, 0.73, -0.764], a = 0.2, v = 0.2, t = 0.2)
movej(p[0.382080219859202, 0.212534086243195, 0.315676789980095, -1.33, 0.73, -0.764], a = 0.2, v = 0.2, t = 0.2)
movej(p[0.382039370862807, 0.212484662714508, 0.316285823997458, -1.33, 0.73, -0.764], a = 0.2, v = 0.2, t = 0.2)
movej(p[0.382023822363362, 0.212465850460203, 0.316517642791461, -1.33, 0.73, -0.764], a = 0.2, v = 0.2, t = 0.2)
movej(p[0.3820371496486, 0.212481975249608, 0.31631894096803, -1.33, 0.73, -0.764], a = 0.2, v = 0.2, t = 0.2)
movej(p[0.382061416247047, 0.212511335601887, 0.315957140550792, -1.33, 0.73, -0.764], a = 0.2, v = 0.2, t = 0.2)
movej(p[0.382083154796893, 0.212537637247868, 0.315633031820781, -1.33, 0.73, -0.764], a = 0.2, v = 0.2, t = 0.2)
movej(p[0.382114318498911, 0.212575342461131, 0.315168399729154, -1.33, 0.73, -0.764], a = 0.2, v = 0.2, t = 0.2)
movej(p[0.38217699275922, 0.212651172551845, 0.314233964127073, -1.33, 0.73, -0.764], a = 0.2, v = 0.2, t = 0.2)
movej(p[0.382252579411304, 0.212742625449031, 0.313107012514082, -1.33, 0.73, -0.764], a = 0.2, v = 0.2, t = 0.2)
movej(p[0.382315218318954, 0.21281841276628, 0.31217310399892, -1.33, 0.73, -0.764], a = 0.2, v = 0.2, t = 0.2)
movej(p[0.38233741578633, 0.212845269660264, 0.311842153083998, -1.33, 0.73, -0.764], a = 0.2, v = 0.2, t = 0.2)
movej(p[0.382350761748444, 0.212861417046972, 0.311643172799553, -1.33, 0.73, -0.764], a = 0.2, v = 0.2, t = 0.2)
movej(p[0.382358691416458, 0.212871011215963, 0.311524946209115, -1.33, 0.73, -0.764], a = 0.2, v = 0.2, t = 0.2)
movej(p[0.382363237901752, 0.212876512045021, 0.311457160842323, -1.33, 0.73, -0.764], a = 0.2, v = 0.2, t = 0.2)
movej(p[0.382361018021608, 0.212873826194213, 0.311490257922823, -1.33, 0.73, -0.764], a = 0.2, v = 0.2, t = 0.2)
movej(p[0.382355362930305, 0.212866984053844, 0.311574571939792, -1.33, 0.73, -0.764], a = 0.2, v = 0.2, t = 0.2)
movej(p[0.382350366198887, 0.212860938468387, 0.311649070206024, -1.33, 0.73, -0.764], a = 0.2, v = 0.2, t = 0.2)
movej(p[0.382325718725572, 0.212831117292547, 0.312016549238937, -1.33, 0.73, -0.764], a = 0.2, v = 0.2, t = 0.2)
movej(p[0.382269364586766, 0.212762933967579, 0.31285675562295, -1.33, 0.73, -0.764], a = 0.2, v = 0.2, t = 0.2)
movej(p[0.382190860339806, 0.212667951048929, 0.314027206824314, -1.33, 0.73, -0.764], a = 0.2, v = 0.2, t = 0.2)
movej(p[0.382130033756179, 0.212594356477066, 0.3149340946761, -1.33, 0.73, -0.764], a = 0.2, v = 0.2, t = 0.2)
movej(p[0.382085736207997, 0.212540760517888, 0.315594544530657, -1.33, 0.73, -0.764], a = 0.2, v = 0.2, t = 0.2)
movej(p[0.382051810996425, 0.212499714132046, 0.316100349072184, -1.33, 0.73, -0.764], a = 0.2, v = 0.2, t = 0.2)
movej(p[0.382029638876239, 0.212472887905829, 0.31643092207573, -1.33, 0.73, -0.764], a = 0.2, v = 0.2, t = 0.2)
movej(p[0.38202529650252, 0.212467634033005, 0.316495664261442, -1.33, 0.73, -0.764], a = 0.2, v = 0.2, t = 0.2)
movej(p[0.38203698956109, 0.212481781558444, 0.31632132777672, -1.33, 0.73, -0.764], a = 0.2, v = 0.2, t = 0.2)
movej(p[0.382055953260756, 0.212504725890915, 0.316038590397334, -1.33, 0.73, -0.764], a = 0.2, v = 0.2, t = 0.2)
movej(p[0.382094434296061, 0.212551284404467, 0.315464861258508, -1.33, 0.73, -0.764], a = 0.2, v = 0.2, t = 0.2)
movej(p[0.382159283078386, 0.212629745466825, 0.314498004838389, -1.33, 0.73, -0.764], a = 0.2, v = 0.2, t = 0.2)
movej(p[0.38222503902327, 0.212709304112447, 0.313517623169028, -1.33, 0.73, -0.764], a = 0.2, v = 0.2, t = 0.2)
movej(p[0.382270474526838, 0.212764276892982, 0.3128402070827, -1.33, 0.73, -0.764], a = 0.2, v = 0.2, t = 0.2)
movej(p[0.382299801731618, 0.212799760113493, 0.312402956062562, -1.33, 0.73, -0.764], a = 0.2, v = 0.2, t = 0.2)
movej(p[0.382324839578328, 0.212830053605237, 0.312029656796659, -1.33, 0.73, -0.764], a = 0.2, v = 0.2, t = 0.2)
movej(p[0.382349332967414, 0.212859688353333, 0.31166447506711, -1.33, 0.73, -0.764], a = 0.2, v = 0.2, t = 0.2)
movej(p[0.382364487918396, 0.212878024450193, 0.31143852384447, -1.33, 0.73, -0.764], a = 0.2, v = 0.2, t = 0.2)
movej(p[0.382359293745715, 0.212871739978967, 0.31151596584142, -1.33, 0.73, -0.764], a = 0.2, v = 0.2, t = 0.2)
movej(p[0.382345836389375, 0.212855457815492, 0.311716606946911, -1.33, 0.73, -0.764], a = 0.2, v = 0.2, t = 0.2)
movej(p[0.382341327257833, 0.212850002181039, 0.311783835391676, -1.33, 0.73, -0.764], a = 0.2, v = 0.2, t = 0.2)
movej(p[0.382334633598806, 0.212841903469243, 0.311883633830021, -1.33, 0.73, -0.764], a = 0.2, v = 0.2, t = 0.2)
movej(p[0.382312994436623, 0.212815722073193, 0.312206260749637, -1.33, 0.73, -0.764], a = 0.2, v = 0.2, t = 0.2)
movej(p[0.382262873705252, 0.212755080597924, 0.312953530770288, -1.33, 0.73, -0.764], a = 0.2, v = 0.2, t = 0.2)
movej(p[0.382208069747171, 0.212688772849061, 0.313770624890154, -1.33, 0.73, -0.764], a = 0.2, v = 0.2, t = 0.2)
movej(p[0.382150911835656, 0.21261961703304, 0.314622815042797, -1.33, 0.73, -0.764], a = 0.2, v = 0.2, t = 0.2)
movej(p[0.38210630745308, 0.212565649832465, 0.31528783961401, -1.33, 0.73, -0.764], a = 0.2, v = 0.2, t = 0.2)
movej(p[0.382066038773909, 0.212516928434248, 0.315888221449872, -1.33, 0.73, -0.764], a = 0.2, v = 0.2, t = 0.2)
movej(p[0.382034815039074, 0.212479150586799, 0.316353748594758, -1.33, 0.73, -0.764], a = 0.2, v = 0.2, t = 0.2)
movej(p[0.382009768014014, 0.212448845990095, 0.316727184704359, -1.33, 0.73, -0.764], a = 0.2, v = 0.2, t = 0.2)
movej(p[0.382010655165634, 0.212449919361962, 0.316713957806203, -1.33, 0.73, -0.764], a = 0.2, v = 0.2, t = 0.2)
movej(p[0.382028945163694, 0.212472048577452, 0.316441264913386, -1.33, 0.73, -0.764], a = 0.2, v = 0.2, t = 0.2)
movej(p[0.38205311837776, 0.212501295943219, 0.316080856801217, -1.33, 0.73, -0.764], a = 0.2, v = 0.2, t = 0.2)
movej(p[0.382068006516224, 0.212519309221473, 0.315858883593059, -1.33, 0.73, -0.764], a = 0.2, v = 0.2, t = 0.2)
movej(p[0.382099683832338, 0.212557635860553, 0.315386593823553, -1.33, 0.73, -0.764], a = 0.2, v = 0.2, t = 0.2)
movej(p[0.382176425782621, 0.212650486562306, 0.31424241740785, -1.33, 0.73, -0.764], a = 0.2, v = 0.2, t = 0.2)
movej(p[0.382262384104282, 0.212754488225781, 0.312960830426864, -1.33, 0.73, -0.764], a = 0.2, v = 0.2, t = 0.2)
movej(p[0.382329666216765, 0.212835893393833, 0.31195769451466, -1.33, 0.73, -0.764], a = 0.2, v = 0.2, t = 0.2)
movej(p[0.382355449644373, 0.212867088969891, 0.311573279085085, -1.33, 0.73, -0.764], a = 0.2, v = 0.2, t = 0.2)
movej(p[0.382361501619296, 0.212874411302938, 0.311483047771572, -1.33, 0.73, -0.764], a = 0.2, v = 0.2, t = 0.2)
movej(p[0.382366633091035, 0.212880619911791, 0.311406540608026, -1.33, 0.73, -0.764], a = 0.2, v = 0.2, t = 0.2)
movej(p[0.3823731399813, 0.212888492650562, 0.311309526779819, -1.33, 0.73, -0.764], a = 0.2, v = 0.2, t = 0.2)
movej(p[0.382373827023532, 0.212889323908474, 0.311299283392525, -1.33, 0.73, -0.764], a = 0.2, v = 0.2, t = 0.2)
movej(p[0.38233812750872, 0.212846130778898, 0.311831541730364, -1.33, 0.73, -0.764], a = 0.2, v = 0.2, t = 0.2)
movej(p[0.382288297602992, 0.21278584117591, 0.312574475715229, -1.33, 0.73, -0.764], a = 0.2, v = 0.2, t = 0.2)
movej(p[0.382225746076441, 0.212710159581755, 0.313507081430648, -1.33, 0.73, -0.764], a = 0.2, v = 0.2, t = 0.2)
movej(p[0.382162498169219, 0.212633635431036, 0.314450069763868, -1.33, 0.73, -0.764], a = 0.2, v = 0.2, t = 0.2)
movej(p[0.382102618770028, 0.212561186865227, 0.315342835664239, -1.33, 0.73, -0.764], a = 0.2, v = 0.2, t = 0.2)
movej(p[0.382066038773909, 0.212516928434248, 0.315888221449872, -1.33, 0.73, -0.764], a = 0.2, v = 0.2, t = 0.2)
movej(p[0.382058568023425, 0.212507889513261, 0.315999605855399, -1.33, 0.73, -0.764], a = 0.2, v = 0.2, t = 0.2)
movej(p[0.382073129316556, 0.212525507338721, 0.315782505714984, -1.33, 0.73, -0.764], a = 0.2, v = 0.2, t = 0.2)
movej(p[0.382115345727103, 0.212576585312767, 0.315153084373395, -1.33, 0.73, -0.764], a = 0.2, v = 0.2, t = 0.2)
movej(p[0.382183989917486, 0.212659638469806, 0.314129640697254, -1.33, 0.73, -0.764], a = 0.2, v = 0.2, t = 0.2)
movej(p[0.382261169440297, 0.212753018594074, 0.312978940337799, -1.33, 0.73, -0.764], a = 0.2, v = 0.2, t = 0.2)
movej(p[0.382315050227069, 0.212818209390558, 0.312175610148044, -1.33, 0.73, -0.764], a = 0.2, v = 0.2, t = 0.2)
movej(p[0.382338201549193, 0.212846220361061, 0.311830437831345, -1.33, 0.73, -0.764], a = 0.2, v = 0.2, t = 0.2)
movej(p[0.382348669938309, 0.212858886149095, 0.311674360433101, -1.33, 0.73, -0.764], a = 0.2, v = 0.2, t = 0.2)
movej(p[0.382361013352389, 0.212873820544888, 0.311490327538076, -1.33, 0.73, -0.764], a = 0.2, v = 0.2, t = 0.2)
movej(p[0.38236343801114, 0.212876754158976, 0.311454177331461, -1.33, 0.73, -0.764], a = 0.2, v = 0.2, t = 0.2)
movej(p[0.382354537812595, 0.212865985737303, 0.311586873949581, -1.33, 0.73, -0.764], a = 0.2, v = 0.2, t = 0.2)
movej(p[0.38234281140246, 0.212851797859538, 0.311761707686113, -1.33, 0.73, -0.764], a = 0.2, v = 0.2, t = 0.2)
movej(p[0.382332982696355, 0.212839906029114, 0.311908247794635, -1.33, 0.73, -0.764], a = 0.2, v = 0.2, t = 0.2)
movej(p[0.38231831601228, 0.212822160690304, 0.312126919250771, -1.33, 0.73, -0.764], a = 0.2, v = 0.2, t = 0.2)
movej(p[0.382269250524415, 0.212762795962624, 0.312858456224142, -1.33, 0.73, -0.764], a = 0.2, v = 0.2, t = 0.2)
movej(p[0.382185770891039, 0.212661793284006, 0.314103087450579, -1.33, 0.73, -0.764], a = 0.2, v = 0.2, t = 0.2)
movej(p[0.382099043482297, 0.212556861095897, 0.315396141058312, -1.33, 0.73, -0.764], a = 0.2, v = 0.2, t = 0.2)
movej(p[0.382045627616337, 0.212492232810836, 0.31619253955783, -1.33, 0.73, -0.764], a = 0.2, v = 0.2, t = 0.2)
movej(p[0.382025316513459, 0.2124676582444, 0.316495365910356, -1.33, 0.73, -0.764], a = 0.2, v = 0.2, t = 0.2)
movej(p[0.382023702297729, 0.21246570519183, 0.316519432897979, -1.33, 0.73, -0.764], a = 0.2, v = 0.2, t = 0.2)
movej(p[0.382027224222957, 0.212469966397438, 0.316466923106802, -1.33, 0.73, -0.764], a = 0.2, v = 0.2, t = 0.2)
movej(p[0.382045814385099, 0.21249245878386, 0.316189754947692, -1.33, 0.73, -0.764], a = 0.2, v = 0.2, t = 0.2)
movej(p[0.382080473331094, 0.212534392920871, 0.315673010866336, -1.33, 0.73, -0.764], a = 0.2, v = 0.2, t = 0.2)
movej(p[0.382131034303119, 0.212595567046841, 0.314919177121788, -1.33, 0.73, -0.764], a = 0.2, v = 0.2, t = 0.2)
movej(p[0.382193468432163, 0.212671106600809, 0.313988321732741, -1.33, 0.73, -0.764], a = 0.2, v = 0.2, t = 0.2)
movej(p[0.382257293988484, 0.212748329653811, 0.313036720998166, -1.33, 0.73, -0.764], a = 0.2, v = 0.2, t = 0.2)
movej(p[0.382303097159701, 0.212803747278387, 0.31235382320788, -1.33, 0.73, -0.764], a = 0.2, v = 0.2, t = 0.2)
movej(p[0.382320178363651, 0.212824413964178, 0.312099152709679, -1.33, 0.73, -0.764], a = 0.2, v = 0.2, t = 0.2)
movej(p[0.382321174241371, 0.212825618884628, 0.312084304770621, -1.33, 0.73, -0.764], a = 0.2, v = 0.2, t = 0.2)
movej(p[0.382332073532702, 0.212838806024712, 0.311921802878986, -1.33, 0.73, -0.764], a = 0.2, v = 0.2, t = 0.2)
movej(p[0.382345975131884, 0.212855625681167, 0.31171453837938, -1.33, 0.73, -0.764], a = 0.2, v = 0.2, t = 0.2)
movej(p[0.382358521990509, 0.212870806226147, 0.311527472248312, -1.33, 0.73, -0.764], a = 0.2, v = 0.2, t = 0.2)
movej(p[0.382346385356129, 0.212856122014775, 0.311708422182112, -1.33, 0.73, -0.764], a = 0.2, v = 0.2, t = 0.2)
movej(p[0.382333517655452, 0.21284055328042, 0.311900271875596, -1.33, 0.73, -0.764], a = 0.2, v = 0.2, t = 0.2)
movej(p[0.382321308981693, 0.212825781908024, 0.312082295873307, -1.33, 0.73, -0.764], a = 0.2, v = 0.2, t = 0.2)
movej(p[0.382310304966449, 0.212812468061637, 0.312246359135626, -1.33, 0.73, -0.764], a = 0.2, v = 0.2, t = 0.2)
movej(p[0.382273065276381, 0.212767411461653, 0.312801580562069, -1.33, 0.73, -0.764], a = 0.2, v = 0.2, t = 0.2)
movej(p[0.382204214306296, 0.212684108120194, 0.313828107199434, -1.33, 0.73, -0.764], a = 0.2, v = 0.2, t = 0.2)
movej(p[0.38212719220287, 0.212590918458904, 0.314976460530345, -1.33, 0.73, -0.764], a = 0.2, v = 0.2, t = 0.2)
movej(p[0.382075917507361, 0.212528880793161, 0.315740935463635, -1.33, 0.73, -0.764], a = 0.2, v = 0.2, t = 0.2)
movej(p[0.382048482510272, 0.212495686969927, 0.316149974802861, -1.33, 0.73, -0.764], a = 0.2, v = 0.2, t = 0.2)
movej(p[0.382035435378177, 0.21247990114006, 0.316344499711084, -1.33, 0.73, -0.764], a = 0.2, v = 0.2, t = 0.2)
movej(p[0.382032200276405, 0.212475986964453, 0.316392733136692, -1.33, 0.73, -0.764], a = 0.2, v = 0.2, t = 0.2)
movej(p[0.382040791639461, 0.212486381723589, 0.316264641070336, -1.33, 0.73, -0.764], a = 0.2, v = 0.2, t = 0.2)
movej(p[0.382060168898529, 0.212509826424901, 0.315975737768501, -1.33, 0.73, -0.764], a = 0.2, v = 0.2, t = 0.2)
movej(p[0.382097089080608, 0.212554496449603, 0.315425280014401, -1.33, 0.73, -0.764], a = 0.2, v = 0.2, t = 0.2)
movej(p[0.382150584990322, 0.212619221580247, 0.314627688110538, -1.33, 0.73, -0.764], a = 0.2, v = 0.2, t = 0.2)
movej(p[0.382221390362096, 0.212704889568, 0.313572022517085, -1.33, 0.73, -0.764], a = 0.2, v = 0.2, t = 0.2)
movej(p[0.38227351352141, 0.212767953796913, 0.312794897497738, -1.33, 0.73, -0.764], a = 0.2, v = 0.2, t = 0.2)
movej(p[0.382297398978175, 0.212796853002813, 0.312438779674188, -1.33, 0.73, -0.764], a = 0.2, v = 0.2, t = 0.2)
movej(p[0.382313575420879, 0.212816425010709, 0.3121975986231, -1.33, 0.73, -0.764], a = 0.2, v = 0.2, t = 0.2)
movej(p[0.382327897916807, 0.212833753913517, 0.311984058805647, -1.33, 0.73, -0.764], a = 0.2, v = 0.2, t = 0.2)
movej(p[0.382336201122345, 0.212843800028557, 0.311860262994932, -1.33, 0.73, -0.764], a = 0.2, v = 0.2, t = 0.2)
movej(p[0.382332393707723, 0.21283919340704, 0.311917029261606, -1.33, 0.73, -0.764], a = 0.2, v = 0.2, t = 0.2)
movej(p[0.382327902586026, 0.212833759562842, 0.311983989190393, -1.33, 0.73, -0.764], a = 0.2, v = 0.2, t = 0.2)
movej(p[0.382323218025254, 0.212828091675155, 0.31205383317968, -1.33, 0.73, -0.764], a = 0.2, v = 0.2, t = 0.2)
movej(p[0.382295118664996, 0.21279409403359, 0.312472777774968, -1.33, 0.73, -0.764], a = 0.2, v = 0.2, t = 0.2)
movej(p[0.382252573408022, 0.212742618185612, 0.313107102019408, -1.33, 0.73, -0.764], a = 0.2, v = 0.2, t = 0.2)
movej(p[0.382202186531165, 0.212681654698783, 0.313858340109506, -1.33, 0.73, -0.764], a = 0.2, v = 0.2, t = 0.2)
movej(p[0.382156454865703, 0.212626323589594, 0.31454017179191, -1.33, 0.73, -0.764], a = 0.2, v = 0.2, t = 0.2)
movej(p[0.382101471476204, 0.212559798745218, 0.315359941126516, -1.33, 0.73, -0.764], a = 0.2, v = 0.2, t = 0.2)
movej(p[0.382048882729048, 0.212496171197837, 0.316144007781136, -1.33, 0.73, -0.764], a = 0.2, v = 0.2, t = 0.2)
movej(p[0.382030125809083, 0.212473477049786, 0.316423662199298, -1.33, 0.73, -0.764], a = 0.2, v = 0.2, t = 0.2)
movej(p[0.38203648928762, 0.212481176273556, 0.316328786553876, -1.33, 0.73, -0.764], a = 0.2, v = 0.2, t = 0.2)
movej(p[0.382048509191524, 0.212495719251788, 0.316149577001412, -1.33, 0.73, -0.764], a = 0.2, v = 0.2, t = 0.2)
movej(p[0.382067186067733, 0.212518316554257, 0.315871115987595, -1.33, 0.73, -0.764], a = 0.2, v = 0.2, t = 0.2)
movej(p[0.382108795479803, 0.212568660115972, 0.315250744628955, -1.33, 0.73, -0.764], a = 0.2, v = 0.2, t = 0.2)
movej(p[0.382185230595691, 0.212661139576327, 0.314111142929907, -1.33, 0.73, -0.764], a = 0.2, v = 0.2, t = 0.2)
movej(p[0.382251220668559, 0.212740981495276, 0.313127270552837, -1.33, 0.73, -0.764], a = 0.2, v = 0.2, t = 0.2)
movej(p[0.382299097106442, 0.212798907581835, 0.312413461601011, -1.33, 0.73, -0.764], a = 0.2, v = 0.2, t = 0.2)
movej(p[0.382324706172069, 0.212829892195934, 0.312031645803901, -1.33, 0.73, -0.764], a = 0.2, v = 0.2, t = 0.2)
movej(p[0.382344343573341, 0.212853651645387, 0.311738863937944, -1.33, 0.73, -0.764], a = 0.2, v = 0.2, t = 0.2)
movej(p[0.382345979134072, 0.212855630523446, 0.311714478709163, -1.33, 0.73, -0.764], a = 0.2, v = 0.2, t = 0.2)
movej(p[0.382336540641273, 0.212844210815234, 0.311855200971503, -1.33, 0.73, -0.764], a = 0.2, v = 0.2, t = 0.2)
movej(p[0.382331960804414, 0.21283866963385, 0.311923483590105, -1.33, 0.73, -0.764], a = 0.2, v = 0.2, t = 0.2)
movej(p[0.382332372362722, 0.212839167581551, 0.311917347502765, -1.33, 0.73, -0.764], a = 0.2, v = 0.2, t = 0.2)
movej(p[0.38233653930721, 0.212844209201141, 0.311855220861575, -1.33, 0.73, -0.764], a = 0.2, v = 0.2, t = 0.2)
movej(p[0.382314764737675, 0.212817863974648, 0.312179866623541, -1.33, 0.73, -0.764], a = 0.2, v = 0.2, t = 0.2)
movej(p[0.382266603744243, 0.212759593602046, 0.312897918127814, -1.33, 0.73, -0.764], a = 0.2, v = 0.2, t = 0.2)
movej(p[0.382206929123659, 0.212687392799517, 0.313787630902069, -1.33, 0.73, -0.764], a = 0.2, v = 0.2, t = 0.2)
movej(p[0.382156848414166, 0.212626799747039, 0.314534304220548, -1.33, 0.73, -0.764], a = 0.2, v = 0.2, t = 0.2)
movej(p[0.382118454092929, 0.212580346149535, 0.315106740504666, -1.33, 0.73, -0.764], a = 0.2, v = 0.2, t = 0.2)
movej(p[0.382082054195259, 0.212536305621116, 0.315649441130524, -1.33, 0.73, -0.764], a = 0.2, v = 0.2, t = 0.2)
movej(p[0.382042759381776, 0.212488762510814, 0.316235303213523, -1.33, 0.73, -0.764], a = 0.2, v = 0.2, t = 0.2)
movej(p[0.382024642811853, 0.212466843127419, 0.316505410396926, -1.33, 0.73, -0.764], a = 0.2, v = 0.2, t = 0.2)
movej(p[0.382031820068568, 0.212475526947939, 0.31639840180733, -1.33, 0.73, -0.764], a = 0.2, v = 0.2, t = 0.2)
movej(p[0.382047995577428, 0.21249509782597, 0.316157234679292, -1.33, 0.73, -0.764], a = 0.2, v = 0.2, t = 0.2)
movej(p[0.382069694105396, 0.21252135104916, 0.315833722651454, -1.33, 0.73, -0.764], a = 0.2, v = 0.2, t = 0.2)
movej(p[0.382111323528405, 0.212571718822271, 0.315213052941727, -1.33, 0.73, -0.764], a = 0.2, v = 0.2, t = 0.2)
movej(p[0.382174644809068, 0.212648331748106, 0.314268970654525, -1.33, 0.73, -0.764], a = 0.2, v = 0.2, t = 0.2)
movej(p[0.38223918208778, 0.212726415919742, 0.313306758566315, -1.33, 0.73, -0.764], a = 0.2, v = 0.2, t = 0.2)
movej(p[0.382282701210442, 0.212779070055635, 0.312657914569012, -1.33, 0.73, -0.764], a = 0.2, v = 0.2, t = 0.2)
movej(p[0.382309533878274, 0.212811535115864, 0.312257855597482, -1.33, 0.73, -0.764], a = 0.2, v = 0.2, t = 0.2)
movej(p[0.382329323362681, 0.212835478571923, 0.311962806263271, -1.33, 0.73, -0.764], a = 0.2, v = 0.2, t = 0.2)
movej(p[0.382335464719797, 0.212842909049203, 0.311871242314906, -1.33, 0.73, -0.764], a = 0.2, v = 0.2, t = 0.2)
movej(p[0.38232653250375, 0.212832101889297, 0.312004416294764, -1.33, 0.73, -0.764], a = 0.2, v = 0.2, t = 0.2)
movej(p[0.382324697500662, 0.212829881704329, 0.312031775089371, -1.33, 0.73, -0.764], a = 0.2, v = 0.2, t = 0.2)
movej(p[0.382324839578328, 0.212830053605237, 0.312029656796659, -1.33, 0.73, -0.764], a = 0.2, v = 0.2, t = 0.2)
movej(p[0.382324173881097, 0.212829248172814, 0.312039581942794, -1.33, 0.73, -0.764], a = 0.2, v = 0.2, t = 0.2)
movej(p[0.382292625302022, 0.212791077293711, 0.312509952320313, -1.33, 0.73, -0.764], a = 0.2, v = 0.2, t = 0.2)
movej(p[0.382231976148719, 0.212717697396221, 0.313414194792467, -1.33, 0.73, -0.764], a = 0.2, v = 0.2, t = 0.2)
movej(p[0.382167167388272, 0.212639284756654, 0.314380454510414, -1.33, 0.73, -0.764], a = 0.2, v = 0.2, t = 0.2)
movej(p[0.382122202808797, 0.212584881750959, 0.315050849401179, -1.33, 0.73, -0.764], a = 0.2, v = 0.2, t = 0.2)
movej(p[0.382094647746074, 0.212551542659352, 0.315461678846921, -1.33, 0.73, -0.764], a = 0.2, v = 0.2, t = 0.2)
movej(p[0.382064091042533, 0.212514571858419, 0.315917260955599, -1.33, 0.73, -0.764], a = 0.2, v = 0.2, t = 0.2)
movej(p[0.382029718919994, 0.212472984751411, 0.316429728671385, -1.33, 0.73, -0.764], a = 0.2, v = 0.2, t = 0.2)
movej(p[0.382018279333316, 0.212459143903649, 0.316600286042348, -1.33, 0.73, -0.764], a = 0.2, v = 0.2, t = 0.2)
movej(p[0.382033127449902, 0.212477108759112, 0.316378909536363, -1.33, 0.73, -0.764], a = 0.2, v = 0.2, t = 0.2)
movej(p[0.382055059438823, 0.212503644448583, 0.316051916745852, -1.33, 0.73, -0.764], a = 0.2, v = 0.2, t = 0.2)
movej(p[0.382069987599165, 0.212521706149628, 0.315829346835522, -1.33, 0.73, -0.764], a = 0.2, v = 0.2, t = 0.2)
movej(p[0.382099730524529, 0.21255769235381, 0.315385897671018, -1.33, 0.73, -0.764], a = 0.2, v = 0.2, t = 0.2)
movej(p[0.382155801175035, 0.212625532684008, 0.314549917927394, -1.33, 0.73, -0.764], a = 0.2, v = 0.2, t = 0.2)
movej(p[0.38222149041679, 0.212705010624978, 0.313570530761653, -1.33, 0.73, -0.764], a = 0.2, v = 0.2, t = 0.2)
movej(p[0.382273257381393, 0.21276764389105, 0.312798716391642, -1.33, 0.73, -0.764], a = 0.2, v = 0.2, t = 0.2)
movej(p[0.382305953254292, 0.212807202890162, 0.312311240551846, -1.33, 0.73, -0.764], a = 0.2, v = 0.2, t = 0.2)
movej(p[0.382330946249817, 0.212837442116098, 0.311938609990177, -1.33, 0.73, -0.764], a = 0.2, v = 0.2, t = 0.2)
movej(p[0.382337324403043, 0.212845159094892, 0.311843515553958, -1.33, 0.73, -0.764], a = 0.2, v = 0.2, t = 0.2)
movej(p[0.38232961218723, 0.212835828023065, 0.311958500062593, -1.33, 0.73, -0.764], a = 0.2, v = 0.2, t = 0.2)
movej(p[0.382329268666115, 0.212835412394109, 0.31196362175624, -1.33, 0.73, -0.764], a = 0.2, v = 0.2, t = 0.2)
movej(p[0.3823295241391, 0.212835721492925, 0.311959812807372, -1.33, 0.73, -0.764], a = 0.2, v = 0.2, t = 0.2)
movej(p[0.382329475445815, 0.212835662578529, 0.311960538795015, -1.33, 0.73, -0.764], a = 0.2, v = 0.2, t = 0.2)
movej(p[0.382293837164476, 0.212792543535822, 0.312491884178531, -1.33, 0.73, -0.764], a = 0.2, v = 0.2, t = 0.2)
movej(p[0.382233176805047, 0.212719150079952, 0.313396293727294, -1.33, 0.73, -0.764], a = 0.2, v = 0.2, t = 0.2)
movej(p[0.382171869958889, 0.212644974434597, 0.314310342005149, -1.33, 0.73, -0.764], a = 0.2, v = 0.2, t = 0.2)
movej(p[0.382125477932446, 0.212588844349356, 0.315002019273399, -1.33, 0.73, -0.764], a = 0.2, v = 0.2, t = 0.2)
movej(p[0.382093073552223, 0.212549638029572, 0.315485149132372, -1.33, 0.73, -0.764], a = 0.2, v = 0.2, t = 0.2)
movej(p[0.382054632538795, 0.212503127938812, 0.316058281569025, -1.33, 0.73, -0.764], a = 0.2, v = 0.2, t = 0.2)
movej(p[0.382016951941042, 0.21245753788108, 0.316620076664401, -1.33, 0.73, -0.764], a = 0.2, v = 0.2, t = 0.2)
movej(p[0.382010154892164, 0.212449314077075, 0.316721416583358, -1.33, 0.73, -0.764], a = 0.2, v = 0.2, t = 0.2)
movej(p[0.382022921871116, 0.212464760947405, 0.316531068590342, -1.33, 0.73, -0.764], a = 0.2, v = 0.2, t = 0.2)
movej(p[0.382043813291219, 0.21249003764431, 0.316219590056315, -1.33, 0.73, -0.764], a = 0.2, v = 0.2, t = 0.2)
movej(p[0.382055526360728, 0.212504209381144, 0.316044955220507, -1.33, 0.73, -0.764], a = 0.2, v = 0.2, t = 0.2)
movej(p[0.382074069830679, 0.21252664527431, 0.315768483213931, -1.33, 0.73, -0.764], a = 0.2, v = 0.2, t = 0.2)
movej(p[0.382116559724056, 0.212578054137427, 0.315134984407496, -1.33, 0.73, -0.764], a = 0.2, v = 0.2, t = 0.2)
movej(p[0.382178166734296, 0.212652592953715, 0.314216460863348, -1.33, 0.73, -0.764], a = 0.2, v = 0.2, t = 0.2)
movej(p[0.382246979683597, 0.212735850293523, 0.313190501093046, -1.33, 0.73, -0.764], a = 0.2, v = 0.2, t = 0.2)
movej(p[0.382306931789199, 0.212808386827402, 0.312296651183729, -1.33, 0.73, -0.764], a = 0.2, v = 0.2, t = 0.2)
movej(p[0.382347026373202, 0.212856897586478, 0.311698865002317, -1.33, 0.73, -0.764], a = 0.2, v = 0.2, t = 0.2)
movej(p[0.382362638907651, 0.212875787317249, 0.311466091484838, -1.33, 0.73, -0.764], a = 0.2, v = 0.2, t = 0.2)
movej(p[0.382367230084042, 0.212881342218424, 0.31139763980062, -1.33, 0.73, -0.764], a = 0.2, v = 0.2, t = 0.2)
movej(p[0.382380550698967, 0.212897458937363, 0.311199037427551, -1.33, 0.73, -0.764], a = 0.2, v = 0.2, t = 0.2)
movej(p[0.382395518881187, 0.212915569061199, 0.310975870815049, -1.33, 0.73, -0.764], a = 0.2, v = 0.2, t = 0.2)
movej(p[0.38240976666961, 0.212932807574797, 0.310763444841651, -1.33, 0.73, -0.764], a = 0.2, v = 0.2, t = 0.2)
movej(p[0.382402275908187, 0.212923744442414, 0.310875127598264, -1.33, 0.73, -0.764], a = 0.2, v = 0.2, t = 0.2)
movej(p[0.382388668469806, 0.212907280693472, 0.311078006336902, -1.33, 0.73, -0.764], a = 0.2, v = 0.2, t = 0.2)
movej(p[0.382383839163243, 0.212901437676691, 0.311150008399046, -1.33, 0.73, -0.764], a = 0.2, v = 0.2, t = 0.2)
movej(p[0.382385393346156, 0.212903318095075, 0.311126836464682, -1.33, 0.73, -0.764], a = 0.2, v = 0.2, t = 0.2)
movej(p[0.382384559557039, 0.212902309286929, 0.311139267759942, -1.33, 0.73, -0.764], a = 0.2, v = 0.2, t = 0.2)
movej(p[0.382348468494858, 0.212858642421047, 0.311677363834035, -1.33, 0.73, -0.764], a = 0.2, v = 0.2, t = 0.2)
movej(p[0.382290498139228, 0.212788503622369, 0.31254166704078, -1.33, 0.73, -0.764], a = 0.2, v = 0.2, t = 0.2)
movej(p[0.382240911032892, 0.212728507784313, 0.313280981032464, -1.33, 0.73, -0.764], a = 0.2, v = 0.2, t = 0.2)
movej(p[0.382199905284142, 0.212678894599696, 0.313892352133337, -1.33, 0.73, -0.764], a = 0.2, v = 0.2, t = 0.2)
movej(p[0.382157388709513, 0.212627453454718, 0.314526248741219, -1.33, 0.73, -0.764], a = 0.2, v = 0.2, t = 0.2)
movej(p[0.382106320793705, 0.212565665973395, 0.315287640713286, -1.33, 0.73, -0.764], a = 0.2, v = 0.2, t = 0.2)
movej(p[0.382063277264355, 0.212513587261669, 0.315929393899772, -1.33, 0.73, -0.764], a = 0.2, v = 0.2, t = 0.2)
movej(p[0.382037243032981, 0.21248208823612, 0.316317548662961, -1.33, 0.73, -0.764], a = 0.2, v = 0.2, t = 0.2)
movej(p[0.38203034592941, 0.212473743375137, 0.316420380337349, -1.33, 0.73, -0.764], a = 0.2, v = 0.2, t = 0.2)
movej(p[0.38203466829219, 0.212478973036565, 0.316355936502723, -1.33, 0.73, -0.764], a = 0.2, v = 0.2, t = 0.2)
movej(p[0.382049483057212, 0.212496897539702, 0.316135057248549, -1.33, 0.73, -0.764], a = 0.2, v = 0.2, t = 0.2)
movej(p[0.382064017669091, 0.212514483083303, 0.315918354909582, -1.33, 0.73, -0.764], a = 0.2, v = 0.2, t = 0.2)
movej(p[0.382090305372356, 0.212546288786528, 0.315526421032634, -1.33, 0.73, -0.764], a = 0.2, v = 0.2, t = 0.2)
movej(p[0.382154420420258, 0.212623862097718, 0.314570504152344, -1.33, 0.73, -0.764], a = 0.2, v = 0.2, t = 0.2)
movej(p[0.382239070693554, 0.212726281142974, 0.313308419387362, -1.33, 0.73, -0.764], a = 0.2, v = 0.2, t = 0.2)
movej(p[0.382310715857725, 0.212812965202292, 0.312240232993322, -1.33, 0.73, -0.764], a = 0.2, v = 0.2, t = 0.2)
movej(p[0.38234936164976, 0.212859723056333, 0.311664047430553, -1.33, 0.73, -0.764], a = 0.2, v = 0.2, t = 0.2)
movej(p[0.382367143369974, 0.212881237302377, 0.311398932655327, -1.33, 0.73, -0.764], a = 0.2, v = 0.2, t = 0.2)
movej(p[0.382379917019239, 0.212896692243172, 0.311208485211948, -1.33, 0.73, -0.764], a = 0.2, v = 0.2, t = 0.2)
movej(p[0.382378096023808, 0.212894489006182, 0.311235635160795, -1.33, 0.73, -0.764], a = 0.2, v = 0.2, t = 0.2)
movej(p[0.382380323908328, 0.212897184541548, 0.311202418739861, -1.33, 0.73, -0.764], a = 0.2, v = 0.2, t = 0.2)
movej(p[0.382383799141365, 0.2129013892539, 0.311150605101219, -1.33, 0.73, -0.764], a = 0.2, v = 0.2, t = 0.2)
movej(p[0.382393210952912, 0.212912776680251, 0.311010280640327, -1.33, 0.73, -0.764], a = 0.2, v = 0.2, t = 0.2)
movej(p[0.382381131016192, 0.212898161067833, 0.31119038524605, -1.33, 0.73, -0.764], a = 0.2, v = 0.2, t = 0.2)
movej(p[0.382350544296242, 0.212861153949807, 0.311646414881357, -1.33, 0.73, -0.764], a = 0.2, v = 0.2, t = 0.2)
movej(p[0.382309597246247, 0.212811611785283, 0.312256910819043, -1.33, 0.73, -0.764], a = 0.2, v = 0.2, t = 0.2)
movej(p[0.382264988194451, 0.212757638935382, 0.312922005005509, -1.33, 0.73, -0.764], a = 0.2, v = 0.2, t = 0.2)
movej(p[0.382214033006932, 0.212695987844921, 0.313681716266456, -1.33, 0.73, -0.764], a = 0.2, v = 0.2, t = 0.2)
movej(p[0.382142613966369, 0.212609577374372, 0.314746531293221, -1.33, 0.73, -0.764], a = 0.2, v = 0.2, t = 0.2)
movej(p[0.382081413845217, 0.21253553085646, 0.315658988365283, -1.33, 0.73, -0.764], a = 0.2, v = 0.2, t = 0.2)
movej(p[0.382046261296065, 0.212492999505027, 0.316183091773432, -1.33, 0.73, -0.764], a = 0.2, v = 0.2, t = 0.2)
movej(p[0.382035075181278, 0.212479465334941, 0.316349870030636, -1.33, 0.73, -0.764], a = 0.2, v = 0.2, t = 0.2)
movej(p[0.382045387485071, 0.21249194227409, 0.316196119770864, -1.33, 0.73, -0.764], a = 0.2, v = 0.2, t = 0.2)
movej(p[0.382087510511237, 0.212542907261623, 0.315568090734344, -1.33, 0.73, -0.764], a = 0.2, v = 0.2, t = 0.2)
movej(p[0.382163572089601, 0.212634934775928, 0.314434058255573, -1.33, 0.73, -0.764], a = 0.2, v = 0.2, t = 0.2)
movej(p[0.382238483706016, 0.212725570942039, 0.313317171019225, -1.33, 0.73, -0.764], a = 0.2, v = 0.2, t = 0.2)
movej(p[0.382283182807036, 0.21277965274322, 0.31265073425287, -1.33, 0.73, -0.764], a = 0.2, v = 0.2, t = 0.2)
movej(p[0.382311498952464, 0.212813912674902, 0.312228557520814, -1.33, 0.73, -0.764], a = 0.2, v = 0.2, t = 0.2)
movej(p[0.382333596365145, 0.212840648511909, 0.311899098361324, -1.33, 0.73, -0.764], a = 0.2, v = 0.2, t = 0.2)
movej(p[0.382355781158925, 0.21286749007201, 0.31156833640209, -1.33, 0.73, -0.764], a = 0.2, v = 0.2, t = 0.2)
movej(p[0.382362067928864, 0.212875096485431, 0.311474604435832, -1.33, 0.73, -0.764], a = 0.2, v = 0.2, t = 0.2)
movej(p[0.382350867139388, 0.212861544560321, 0.311641601483832, -1.33, 0.73, -0.764], a = 0.2, v = 0.2, t = 0.2)
movej(p[0.382338042128714, 0.212846027476944, 0.311832814694999, -1.33, 0.73, -0.764], a = 0.2, v = 0.2, t = 0.2)
movej(p[0.382333254845123, 0.212840235304093, 0.311904190219862, -1.33, 0.73, -0.764], a = 0.2, v = 0.2, t = 0.2)
movej(p[0.38233324817481, 0.212840227233628, 0.311904289670224, -1.33, 0.73, -0.764], a = 0.2, v = 0.2, t = 0.2)
movej(p[0.382311309515576, 0.212813683473692, 0.312231381911097, -1.33, 0.73, -0.764], a = 0.2, v = 0.2, t = 0.2)
movej(p[0.382252124495962, 0.212742075043306, 0.313113795028776, -1.33, 0.73, -0.764], a = 0.2, v = 0.2, t = 0.2)
movej(p[0.382173197351162, 0.212646580457165, 0.314290551383095, -1.33, 0.73, -0.764], a = 0.2, v = 0.2, t = 0.2)
movej(p[0.382108995589191, 0.212568902229927, 0.315247761118092, -1.33, 0.73, -0.764], a = 0.2, v = 0.2, t = 0.2)
movej(p[0.382064344514424, 0.212514878536096, 0.31591348184184, -1.33, 0.73, -0.764], a = 0.2, v = 0.2, t = 0.2)
movej(p[0.38202506971188, 0.212467359637189, 0.316499045573753, -1.33, 0.73, -0.764], a = 0.2, v = 0.2, t = 0.2)
movej(p[0.38200102323376, 0.21243826561026, 0.316857564129043, -1.33, 0.73, -0.764], a = 0.2, v = 0.2, t = 0.2)
movej(p[0.381991958278486, 0.212427297848098, 0.316992717171106, -1.33, 0.73, -0.764], a = 0.2, v = 0.2, t = 0.2)
movej(p[0.381999368996153, 0.212436264134899, 0.316882227818838, -1.33, 0.73, -0.764], a = 0.2, v = 0.2, t = 0.2)
movej(p[0.382013790212712, 0.212453712480591, 0.316667216136026, -1.33, 0.73, -0.764], a = 0.2, v = 0.2, t = 0.2)
movej(p[0.382040551508196, 0.212486091186843, 0.316268221283371, -1.33, 0.73, -0.764], a = 0.2, v = 0.2, t = 0.2)
movej(p[0.382107868306306, 0.212567538321314, 0.315264568229284, -1.33, 0.73, -0.764], a = 0.2, v = 0.2, t = 0.2)
movej(p[0.382186764767666, 0.212662995783316, 0.314088269346629, -1.33, 0.73, -0.764], a = 0.2, v = 0.2, t = 0.2)
movej(p[0.382260841260901, 0.212752621527187, 0.312983833295613, -1.33, 0.73, -0.764], a = 0.2, v = 0.2, t = 0.2)
movej(p[0.382317213409552, 0.212820826642411, 0.312143358395622, -1.33, 0.73, -0.764], a = 0.2, v = 0.2, t = 0.2)
movej(p[0.382354729250576, 0.212866217359653, 0.311584019724189, -1.33, 0.73, -0.764], a = 0.2, v = 0.2, t = 0.2)
movej(p[0.382370545229569, 0.212885353239612, 0.311348212970667, -1.33, 0.73, -0.764], a = 0.2, v = 0.2, t = 0.2)
movej(p[0.382373446815695, 0.21288886389196, 0.311304952063163, -1.33, 0.73, -0.764], a = 0.2, v = 0.2, t = 0.2)
movej(p[0.382375628008023, 0.21289150293407, 0.311272431794764, -1.33, 0.73, -0.764], a = 0.2, v = 0.2, t = 0.2)
movej(p[0.382380410622396, 0.212897289457595, 0.311201125885154, -1.33, 0.73, -0.764], a = 0.2, v = 0.2, t = 0.2)
movej(p[0.382374647472022, 0.21289031657569, 0.311287050997989, -1.33, 0.73, -0.764], a = 0.2, v = 0.2, t = 0.2)
movej(p[0.38237480088922, 0.212890502196389, 0.311284763639662, -1.33, 0.73, -0.764], a = 0.2, v = 0.2, t = 0.2)
movej(p[0.38237020504361, 0.212884941645888, 0.311353284939133, -1.33, 0.73, -0.764], a = 0.2, v = 0.2, t = 0.2)
movej(p[0.38236482009998, 0.212878426359359, 0.311433571216438, -1.33, 0.73, -0.764], a = 0.2, v = 0.2, t = 0.2)
movej(p[0.382328252777455, 0.212834183262264, 0.311978768046384, -1.33, 0.73, -0.764], a = 0.2, v = 0.2, t = 0.2)
movej(p[0.382272004696624, 0.212766128257692, 0.31281739316964, -1.33, 0.73, -0.764], a = 0.2, v = 0.2, t = 0.2)
movej(p[0.382215813980485, 0.21269814265912, 0.313655163019782, -1.33, 0.73, -0.764], a = 0.2, v = 0.2, t = 0.2)
movej(p[0.382166560389795, 0.212638550344323, 0.314389504493363, -1.33, 0.73, -0.764], a = 0.2, v = 0.2, t = 0.2)
movej(p[0.382118614180439, 0.212580539840699, 0.315104353695976, -1.33, 0.73, -0.764], a = 0.2, v = 0.2, t = 0.2)
movej(p[0.382078952499745, 0.212532552854813, 0.31569568554889, -1.33, 0.73, -0.764], a = 0.2, v = 0.2, t = 0.2)
movej(p[0.38205255140116, 0.21250060995368, 0.316089310081993, -1.33, 0.73, -0.764], a = 0.2, v = 0.2, t = 0.2)
movej(p[0.382046207933562, 0.212492934941305, 0.316183887376329, -1.33, 0.73, -0.764], a = 0.2, v = 0.2, t = 0.2)
movej(p[0.382040164630046, 0.212485623099863, 0.316273989404371, -1.33, 0.73, -0.764], a = 0.2, v = 0.2, t = 0.2)
movej(p[0.382038857248711, 0.212484041288691, 0.316293481675338, -1.33, 0.73, -0.764], a = 0.2, v = 0.2, t = 0.2)
movej(p[0.382059882075073, 0.212509479394899, 0.31598001413407, -1.33, 0.73, -0.764], a = 0.2, v = 0.2, t = 0.2)
movej(p[0.382085542768922, 0.212540526474398, 0.315597428591157, -1.33, 0.73, -0.764], a = 0.2, v = 0.2, t = 0.2)
movej(p[0.382109102314198, 0.21256903135737, 0.315246169912299, -1.33, 0.73, -0.764], a = 0.2, v = 0.2, t = 0.2)
movej(p[0.382145268750916, 0.212612789419508, 0.314706950049114, -1.33, 0.73, -0.764], a = 0.2, v = 0.2, t = 0.2)
movej(p[0.382202146509287, 0.212681606275992, 0.313858936811679, -1.33, 0.73, -0.764], a = 0.2, v = 0.2, t = 0.2)
movej(p[0.38227601555579, 0.212770981028397, 0.312757593666922, -1.33, 0.73, -0.764], a = 0.2, v = 0.2, t = 0.2)
movej(p[0.382328803745303, 0.212834849882687, 0.311970553446476, -1.33, 0.73, -0.764], a = 0.2, v = 0.2, t = 0.2)
movej(p[0.382347099079613, 0.212856985554548, 0.31169778099337, -1.33, 0.73, -0.764], a = 0.2, v = 0.2, t = 0.2)
movej(p[0.38235206979681, 0.212862999665191, 0.31162367058355, -1.33, 0.73, -0.764], a = 0.2, v = 0.2, t = 0.2)
movej(p[0.382362626234056, 0.212875771983365, 0.311466280440526, -1.33, 0.73, -0.764], a = 0.2, v = 0.2, t = 0.2)
movej(p[0.382375227789247, 0.21289101870616, 0.311278398816489, -1.33, 0.73, -0.764], a = 0.2, v = 0.2, t = 0.2)
movej(p[0.382385520082102, 0.212903471433913, 0.311124946907803, -1.33, 0.73, -0.764], a = 0.2, v = 0.2, t = 0.2)
movej(p[0.382378929812925, 0.212895497814328, 0.311223203865536, -1.33, 0.73, -0.764], a = 0.2, v = 0.2, t = 0.2)
movej(p[0.382371005481162, 0.212885910101709, 0.311341350895684, -1.33, 0.73, -0.764], a = 0.2, v = 0.2, t = 0.2)
movej(p[0.382358183138612, 0.212870396246517, 0.311532524326706, -1.33, 0.73, -0.764], a = 0.2, v = 0.2, t = 0.2)
movej(p[0.382324231245788, 0.212829317578814, 0.312038726669681, -1.33, 0.73, -0.764], a = 0.2, v = 0.2, t = 0.2)
movej(p[0.382281048306898, 0.212777070194366, 0.312682558368735, -1.33, 0.73, -0.764], a = 0.2, v = 0.2, t = 0.2)
movej(p[0.382227487028116, 0.212712265973164, 0.313481124886146, -1.33, 0.73, -0.764], a = 0.2, v = 0.2, t = 0.2)
movej(p[0.382173030593339, 0.212646378695536, 0.314293037642147, -1.33, 0.73, -0.764], a = 0.2, v = 0.2, t = 0.2)
movej(p[0.382109929433002, 0.212570032095051, 0.315233838067402, -1.33, 0.73, -0.764], a = 0.2, v = 0.2, t = 0.2)
movej(p[0.382052431335528, 0.212500464685307, 0.316091100188511, -1.33, 0.73, -0.764], a = 0.2, v = 0.2, t = 0.2)
movej(p[0.382030159160648, 0.212473517402112, 0.316423164947488, -1.33, 0.73, -0.764], a = 0.2, v = 0.2, t = 0.2)
movej(p[0.382040618211325, 0.212486171891495, 0.31626722677975, -1.33, 0.73, -0.764], a = 0.2, v = 0.2, t = 0.2)
movej(p[0.382067512913067, 0.21251871200705, 0.315866242919853, -1.33, 0.73, -0.764], a = 0.2, v = 0.2, t = 0.2)
movej(p[0.382100237468312, 0.212558305709162, 0.3153783394435, -1.33, 0.73, -0.764], a = 0.2, v = 0.2, t = 0.2)
movej(p[0.382143301008601, 0.212610408632284, 0.314736287905927, -1.33, 0.73, -0.764], a = 0.2, v = 0.2, t = 0.2)
movej(p[0.382202193201478, 0.212681662769248, 0.313858240659144, -1.33, 0.73, -0.764], a = 0.2, v = 0.2, t = 0.2)
movej(p[0.382258616711538, 0.212749930027054, 0.313016999991366, -1.33, 0.73, -0.764], a = 0.2, v = 0.2, t = 0.2)
movej(p[0.382304431222287, 0.21280536137142, 0.312333933135465, -1.33, 0.73, -0.764], a = 0.2, v = 0.2, t = 0.2)
movej(p[0.382329081897352, 0.212835186421084, 0.311966406366378, -1.33, 0.73, -0.764], a = 0.2, v = 0.2, t = 0.2)
movej(p[0.382332764577122, 0.212839642124903, 0.311911499821475, -1.33, 0.73, -0.764], a = 0.2, v = 0.2, t = 0.2)
movej(p[0.382337914058706, 0.212845872524012, 0.311834724141951, -1.33, 0.73, -0.764], a = 0.2, v = 0.2, t = 0.2)
movej(p[0.382342938805437, 0.212851952005423, 0.311759808184198, -1.33, 0.73, -0.764], a = 0.2, v = 0.2, t = 0.2)
movej(p[0.38234992395714, 0.212860403396547, 0.31165566376503, -1.33, 0.73, -0.764], a = 0.2, v = 0.2, t = 0.2)
movej(p[0.382348981441923, 0.212859263039818, 0.311669716101192, -1.33, 0.73, -0.764], a = 0.2, v = 0.2, t = 0.2)
movej(p[0.382330305899775, 0.212836667351442, 0.311948157224937, -1.33, 0.73, -0.764], a = 0.2, v = 0.2, t = 0.2)
movej(p[0.382289471578068, 0.21278726157778, 0.312556972451503, -1.33, 0.73, -0.764], a = 0.2, v = 0.2, t = 0.2)
movej(p[0.382223971773201, 0.21270801283802, 0.313533535226961, -1.33, 0.73, -0.764], a = 0.2, v = 0.2, t = 0.2)
movej(p[0.382168921680573, 0.212641407288993, 0.314354299065187, -1.33, 0.73, -0.764], a = 0.2, v = 0.2, t = 0.2)
movej(p[0.382126905379414, 0.212590571428902, 0.314980736895914, -1.33, 0.73, -0.764], a = 0.2, v = 0.2, t = 0.2)
movej(p[0.38209222642248, 0.212548613080496, 0.315497779328355, -1.33, 0.73, -0.764], a = 0.2, v = 0.2, t = 0.2)
movej(p[0.382054966054442, 0.21250353146207, 0.316053309050921, -1.33, 0.73, -0.764], a = 0.2, v = 0.2, t = 0.2)
movej(p[0.382022968563307, 0.212464817440661, 0.316530372437807, -1.33, 0.73, -0.764], a = 0.2, v = 0.2, t = 0.2)
movej(p[0.382022234828884, 0.212463929689493, 0.316541311977636, -1.33, 0.73, -0.764], a = 0.2, v = 0.2, t = 0.2)
movej(p[0.382038630458071, 0.212483766892875, 0.316296862987649, -1.33, 0.73, -0.764], a = 0.2, v = 0.2, t = 0.2)
movej(p[0.382054372396591, 0.21250281319067, 0.316062160133146, -1.33, 0.73, -0.764], a = 0.2, v = 0.2, t = 0.2)
movej(p[0.38208419536571, 0.212538896240434, 0.315617517564297, -1.33, 0.73, -0.764], a = 0.2, v = 0.2, t = 0.2)
movej(p[0.382134416151775, 0.212599658772681, 0.314868755788215, -1.33, 0.73, -0.764], a = 0.2, v = 0.2, t = 0.2)
movej(p[0.382203707362513, 0.212683494764841, 0.313835665426952, -1.33, 0.73, -0.764], a = 0.2, v = 0.2, t = 0.2)
movej(p[0.382258353901209, 0.212749612050726, 0.313020918335632, -1.33, 0.73, -0.764], a = 0.2, v = 0.2, t = 0.2)
movej(p[0.382284068624593, 0.212780724500994, 0.312637527244786, -1.33, 0.73, -0.764], a = 0.2, v = 0.2, t = 0.2)
movej(p[0.382306835736693, 0.212808270612704, 0.312298083268943, -1.33, 0.73, -0.764], a = 0.2, v = 0.2, t = 0.2)
movej(p[0.382327527047408, 0.212833305195653, 0.311989588245778, -1.33, 0.73, -0.764], a = 0.2, v = 0.2, t = 0.2)
movej(p[0.382348481168453, 0.212858657754931, 0.311677174878347, -1.33, 0.73, -0.764], a = 0.2, v = 0.2, t = 0.2)
movej(p[0.382349591108525, 0.212860000680335, 0.311660626338098, -1.33, 0.73, -0.764], a = 0.2, v = 0.2, t = 0.2)
movej(p[0.382348481835484, 0.212858658561977, 0.311677164933311, -1.33, 0.73, -0.764], a = 0.2, v = 0.2, t = 0.2)
movej(p[0.382348151654994, 0.212858259073952, 0.311682087726234, -1.33, 0.73, -0.764], a = 0.2, v = 0.2, t = 0.2)
movej(p[0.3823392674652, 0.212847510021395, 0.311814545663485, -1.33, 0.73, -0.764], a = 0.2, v = 0.2, t = 0.2)
movej(p[0.382312654250663, 0.212815310479469, 0.312211332718103, -1.33, 0.73, -0.764], a = 0.2, v = 0.2, t = 0.2)
movej(p[0.382273451487499, 0.212767878741587, 0.312795822386105, -1.33, 0.73, -0.764], a = 0.2, v = 0.2, t = 0.2)
movej(p[0.382230035087656, 0.212715348890858, 0.313443134847832, -1.33, 0.73, -0.764], a = 0.2, v = 0.2, t = 0.2)
movej(p[0.382169555360301, 0.212642173983183, 0.31434485128079, -1.33, 0.73, -0.764], a = 0.2, v = 0.2, t = 0.2)
movej(p[0.382109489192348, 0.21256949944435, 0.315240401791299, -1.33, 0.73, -0.764], a = 0.2, v = 0.2, t = 0.2)
movej(p[0.382073989786924, 0.212526548428728, 0.315769676618276, -1.33, 0.73, -0.764], a = 0.2, v = 0.2, t = 0.2)
movej(p[0.382064978194153, 0.212515645230287, 0.315904034057443, -1.33, 0.73, -0.764], a = 0.2, v = 0.2, t = 0.2)
movej(p[0.382069093777232, 0.212520624707295, 0.315842673184041, -1.33, 0.73, -0.764], a = 0.2, v = 0.2, t = 0.2)
movej(p[0.38209948372295, 0.212557393746598, 0.315389577334415, -1.33, 0.73, -0.764], a = 0.2, v = 0.2, t = 0.2)
movej(p[0.382153960168666, 0.212623305235622, 0.314577366227327, -1.33, 0.73, -0.764], a = 0.2, v = 0.2, t = 0.2)
movej(p[0.382225399220168, 0.212709739917566, 0.313512252849476, -1.33, 0.73, -0.764], a = 0.2, v = 0.2, t = 0.2)
movej(p[0.382266809189882, 0.212759842172373, 0.312894855056662, -1.33, 0.73, -0.764], a = 0.2, v = 0.2, t = 0.2)
movej(p[0.382289702370896, 0.212787540815874, 0.312553531468975, -1.33, 0.73, -0.764], a = 0.2, v = 0.2, t = 0.2)
movej(p[0.382302096412651, 0.212802536466498, 0.312368743745703, -1.33, 0.73, -0.764], a = 0.2, v = 0.2, t = 0.2)
movej(p[0.382309962112364, 0.212812053239728, 0.312251470884237, -1.33, 0.73, -0.764], a = 0.2, v = 0.2, t = 0.2)
movej(p[0.382308450619454, 0.212810224472321, 0.312274006336284, -1.33, 0.73, -0.764], a = 0.2, v = 0.2, t = 0.2)
movej(p[0.382305288224093, 0.212806398264785, 0.312321155752945, -1.33, 0.73, -0.764], a = 0.2, v = 0.2, t = 0.2)
movej(p[0.382310739870852, 0.212812994255966, 0.312239874972019, -1.33, 0.73, -0.764], a = 0.2, v = 0.2, t = 0.2)
movej(p[0.382306560519581, 0.212807937625311, 0.312302186590882, -1.33, 0.73, -0.764], a = 0.2, v = 0.2, t = 0.2)
movej(p[0.382287846022807, 0.212785294805418, 0.312581208504742, -1.33, 0.73, -0.764], a = 0.2, v = 0.2, t = 0.2)
movej(p[0.382259165011261, 0.212750593419291, 0.313008825171603, -1.33, 0.73, -0.764], a = 0.2, v = 0.2, t = 0.2)
movej(p[0.382230275218922, 0.212715639427604, 0.313439554634797, -1.33, 0.73, -0.764], a = 0.2, v = 0.2, t = 0.2)
movej(p[0.382185397353515, 0.212661341337956, 0.314108656670855, -1.33, 0.73, -0.764], a = 0.2, v = 0.2, t = 0.2)
movej(p[0.382125604668392, 0.212588997688195, 0.315000129716519, -1.33, 0.73, -0.764], a = 0.2, v = 0.2, t = 0.2)
movej(p[0.382074496730707, 0.212527161784081, 0.315762118390758, -1.33, 0.73, -0.764], a = 0.2, v = 0.2, t = 0.2)
movej(p[0.38204629464763, 0.212493039857352, 0.316182594521622, -1.33, 0.73, -0.764], a = 0.2, v = 0.2, t = 0.2)
movej(p[0.382029925699695, 0.212473234935831, 0.31642664571016, -1.33, 0.73, -0.764], a = 0.2, v = 0.2, t = 0.2)
movej(p[0.382026330401025, 0.212468884955106, 0.31648024945532, -1.33, 0.73, -0.764], a = 0.2, v = 0.2, t = 0.2)
movej(p[0.382042712689586, 0.212488706017557, 0.316235999366058, -1.33, 0.73, -0.764], a = 0.2, v = 0.2, t = 0.2)
movej(p[0.382083688421927, 0.212538282885082, 0.315625075791815, -1.33, 0.73, -0.764], a = 0.2, v = 0.2, t = 0.2)
movej(p[0.382128326156068, 0.212592290437983, 0.314959553968791, -1.33, 0.73, -0.764], a = 0.2, v = 0.2, t = 0.2)
movej(p[0.382180888221973, 0.212655885703503, 0.31417588511562, -1.33, 0.73, -0.764], a = 0.2, v = 0.2, t = 0.2)
movej(p[0.382227980631273, 0.212712863187586, 0.313473765559352, -1.33, 0.73, -0.764], a = 0.2, v = 0.2, t = 0.2)
movej(p[0.382264654678804, 0.212757235412124, 0.312926977523613, -1.33, 0.73, -0.764], a = 0.2, v = 0.2, t = 0.2)
movej(p[0.382273069278568, 0.212767416303933, 0.312801520891852, -1.33, 0.73, -0.764], a = 0.2, v = 0.2, t = 0.2)
movej(p[0.382279464107576, 0.212775153458889, 0.312706177829728, -1.33, 0.73, -0.764], a = 0.2, v = 0.2, t = 0.2)
movej(p[0.382285958324247, 0.212783010863776, 0.31260935295721, -1.33, 0.73, -0.764], a = 0.2, v = 0.2, t = 0.2)
movej(p[0.382297224482789, 0.212796641879444, 0.31244138129566, -1.33, 0.73, -0.764], a = 0.2, v = 0.2, t = 0.2)
movej(p[0.382284007257714, 0.212780650252714, 0.312638442188117, -1.33, 0.73, -0.764], a = 0.2, v = 0.2, t = 0.2)
movej(p[0.382260213584454, 0.212751862096415, 0.312993191574684, -1.33, 0.73, -0.764], a = 0.2, v = 0.2, t = 0.2)
movej(p[0.382224512068548, 0.212708666545699, 0.313525479747632, -1.33, 0.73, -0.764], a = 0.2, v = 0.2, t = 0.2)
movej(p[0.382183696423717, 0.212659283369339, 0.314134016513185, -1.33, 0.73, -0.764], a = 0.2, v = 0.2, t = 0.2)
movej(p[0.382122676401015, 0.212585454753986, 0.315043788425471, -1.33, 0.73, -0.764], a = 0.2, v = 0.2, t = 0.2)
movej(p[0.382074243258815, 0.212526855106404, 0.315765897504517, -1.33, 0.73, -0.764], a = 0.2, v = 0.2, t = 0.2)
movej(p[0.38204142531919, 0.21248714841778, 0.316255193285939, -1.33, 0.73, -0.764], a = 0.2, v = 0.2, t = 0.2)
movej(p[0.382026170313514, 0.212468691263942, 0.31648263626401, -1.33, 0.73, -0.764], a = 0.2, v = 0.2, t = 0.2)
movej(p[0.382015904701912, 0.212456270818049, 0.316635690371248, -1.33, 0.73, -0.764], a = 0.2, v = 0.2, t = 0.2)
movej(p[0.382026503829161, 0.2124690947872, 0.316477663745906, -1.33, 0.73, -0.764], a = 0.2, v = 0.2, t = 0.2)
movej(p[0.382071661847711, 0.212523731836385, 0.315804384794641, -1.33, 0.73, -0.764], a = 0.2, v = 0.2, t = 0.2)
movej(p[0.382129840317104, 0.212594122433576, 0.3149369787366, -1.33, 0.73, -0.764], a = 0.2, v = 0.2, t = 0.2)
movej(p[0.382188145522443, 0.212664666369605, 0.314067683121679, -1.33, 0.73, -0.764], a = 0.2, v = 0.2, t = 0.2)
movej(p[0.382236783443249, 0.212723513780468, 0.313342520916518, -1.33, 0.73, -0.764], a = 0.2, v = 0.2, t = 0.2)
movej(p[0.382276264358463, 0.212771282056748, 0.312753884168417, -1.33, 0.73, -0.764], a = 0.2, v = 0.2, t = 0.2)
movej(p[0.382289252791804, 0.212786996866522, 0.312560234423379, -1.33, 0.73, -0.764], a = 0.2, v = 0.2, t = 0.2)
movej(p[0.382292401846539, 0.212790806933128, 0.312513283907443, -1.33, 0.73, -0.764], a = 0.2, v = 0.2, t = 0.2)
movej(p[0.382291590069455, 0.212789824757517, 0.312525387016507, -1.33, 0.73, -0.764], a = 0.2, v = 0.2, t = 0.2)
movej(p[0.382298445216759, 0.212798118855274, 0.312423180884897, -1.33, 0.73, -0.764], a = 0.2, v = 0.2, t = 0.2)
movej(p[0.38229061220158, 0.212788641627323, 0.312539966439588, -1.33, 0.73, -0.764], a = 0.2, v = 0.2, t = 0.2)
movej(p[0.382269530677558, 0.212763134922161, 0.312854279308934, -1.33, 0.73, -0.764], a = 0.2, v = 0.2, t = 0.2)
movej(p[0.382231282436174, 0.212716858067844, 0.313424537630124, -1.33, 0.73, -0.764], a = 0.2, v = 0.2, t = 0.2)
movej(p[0.382185904297298, 0.212661954693309, 0.314101098443338, -1.33, 0.73, -0.764], a = 0.2, v = 0.2, t = 0.2)
movej(p[0.382120074978971, 0.212582307272571, 0.315082574066681, -1.33, 0.73, -0.764], a = 0.2, v = 0.2, t = 0.2)
movej(p[0.382061549653306, 0.212511497011191, 0.31595515154355, -1.33, 0.73, -0.764], a = 0.2, v = 0.2, t = 0.2)
movej(p[0.382023535539906, 0.212465503430201, 0.316521919157031, -1.33, 0.73, -0.764], a = 0.2, v = 0.2, t = 0.2)
movej(p[0.382008340567047, 0.212447118910549, 0.316748467081844, -1.33, 0.73, -0.764], a = 0.2, v = 0.2, t = 0.2)
movej(p[0.382007633513876, 0.212446263441241, 0.316759008820224, -1.33, 0.73, -0.764], a = 0.2, v = 0.2, t = 0.2)
movej(p[0.382019419956827, 0.212460523953192, 0.316583280030433, -1.33, 0.73, -0.764], a = 0.2, v = 0.2, t = 0.2)
movej(p[0.382048816025918, 0.212496090493186, 0.316145002284757, -1.33, 0.73, -0.764], a = 0.2, v = 0.2, t = 0.2)
movej(p[0.382083508323478, 0.212538064982522, 0.315627760951591, -1.33, 0.73, -0.764], a = 0.2, v = 0.2, t = 0.2)
movej(p[0.382120675307135, 0.212583033614436, 0.315073623534094, -1.33, 0.73, -0.764], a = 0.2, v = 0.2, t = 0.2)
movej(p[0.382163825561493, 0.212635241453605, 0.314430279141814, -1.33, 0.73, -0.764], a = 0.2, v = 0.2, t = 0.2)
movej(p[0.382190760285112, 0.212667829991951, 0.314028698579745, -1.33, 0.73, -0.764], a = 0.2, v = 0.2, t = 0.2)
movej(p[0.382190446780404, 0.212667450680088, 0.314033372746763, -1.33, 0.73, -0.764], a = 0.2, v = 0.2, t = 0.2)
movej(p[0.382161284172265, 0.212632166606376, 0.314468169729766, -1.33, 0.73, -0.764], a = 0.2, v = 0.2, t = 0.2)
movej(p[0.382140993080326, 0.212607616251336, 0.314770697731206, -1.33, 0.73, -0.764], a = 0.2, v = 0.2, t = 0.2)
movej(p[0.382141139827211, 0.21260779380157, 0.31476850982324, -1.33, 0.73, -0.764], a = 0.2, v = 0.2, t = 0.2)
movej(p[0.382157155248561, 0.212627170988437, 0.314529729503892, -1.33, 0.73, -0.764], a = 0.2, v = 0.2, t = 0.2)
movej(p[0.382174377996551, 0.2126480089295, 0.314272948669008, -1.33, 0.73, -0.764], a = 0.2, v = 0.2, t = 0.2)
movej(p[0.382187225019258, 0.212663552645412, 0.314081407271646, -1.33, 0.73, -0.764], a = 0.2, v = 0.2, t = 0.2)
movej(p[0.382205801840774, 0.212686028890904, 0.31380443801326, -1.33, 0.73, -0.764], a = 0.2, v = 0.2, t = 0.2)
movej(p[0.382223778334126, 0.21270777879453, 0.313536419287461, -1.33, 0.73, -0.764], a = 0.2, v = 0.2, t = 0.2)
movej(p[0.382250523620858, 0.212740138131666, 0.313137663115674, -1.33, 0.73, -0.764], a = 0.2, v = 0.2, t = 0.2)
movej(p[0.382277637108864, 0.212772942958479, 0.312733417283901, -1.33, 0.73, -0.764], a = 0.2, v = 0.2, t = 0.2)
movej(p[0.38230265611861, 0.21280321365923, 0.312360398865821, -1.33, 0.73, -0.764], a = 0.2, v = 0.2, t = 0.2)
movej(p[0.382307315332193, 0.212808850879149, 0.312290932787909, -1.33, 0.73, -0.764], a = 0.2, v = 0.2, t = 0.2)
movej(p[0.382308719433065, 0.212810549712067, 0.312269998486692, -1.33, 0.73, -0.764], a = 0.2, v = 0.2, t = 0.2)
movej(p[0.382305578382705, 0.21280674933002, 0.312316829662194, -1.33, 0.73, -0.764], a = 0.2, v = 0.2, t = 0.2)
movej(p[0.382298437212383, 0.212798109170716, 0.312423300225331, -1.33, 0.73, -0.764], a = 0.2, v = 0.2, t = 0.2)
movej(p[0.382249693166898, 0.212739133358753, 0.313150044685753, -1.33, 0.73, -0.764], a = 0.2, v = 0.2, t = 0.2)
movej(p[0.382188579092783, 0.212665190949841, 0.314061218848144, -1.33, 0.73, -0.764], a = 0.2, v = 0.2, t = 0.2)
movej(p[0.382123363443247, 0.212586286011898, 0.315033545038177, -1.33, 0.73, -0.764], a = 0.2, v = 0.2, t = 0.2)
movej(p[0.382075450585456, 0.2125283158606, 0.315747896988981, -1.33, 0.73, -0.764], a = 0.2, v = 0.2, t = 0.2)
movej(p[0.382035362004735, 0.212479812364943, 0.316345593665067, -1.33, 0.73, -0.764], a = 0.2, v = 0.2, t = 0.2)
movej(p[0.382018326025506, 0.212459200396905, 0.316599589889813, -1.33, 0.73, -0.764], a = 0.2, v = 0.2, t = 0.2)
movej(p[0.382022481630463, 0.212464228296704, 0.316537632314239, -1.33, 0.73, -0.764], a = 0.2, v = 0.2, t = 0.2)
movej(p[0.382034241392162, 0.212478456526795, 0.316362301325896, -1.33, 0.73, -0.764], a = 0.2, v = 0.2, t = 0.2)
movej(p[0.382049369661892, 0.212496760341795, 0.316136747904704, -1.33, 0.73, -0.764], a = 0.2, v = 0.2, t = 0.2)
movej(p[0.382071481749261, 0.212523513933825, 0.315807069954417, -1.33, 0.73, -0.764], a = 0.2, v = 0.2, t = 0.2)
movej(p[0.382106514232781, 0.212565900016885, 0.315284756652785, -1.33, 0.73, -0.764], a = 0.2, v = 0.2, t = 0.2)
movej(p[0.382151051912228, 0.212619786512809, 0.314620726585193, -1.33, 0.73, -0.764], a = 0.2, v = 0.2, t = 0.2)
movej(p[0.382215287025763, 0.212697505092372, 0.313663019598386, -1.33, 0.73, -0.764], a = 0.2, v = 0.2, t = 0.2)
movej(p[0.382282325004793, 0.212778614881399, 0.312663523569433, -1.33, 0.73, -0.764], a = 0.2, v = 0.2, t = 0.2)
movej(p[0.382333230164965, 0.212840205443372, 0.311904558186202, -1.33, 0.73, -0.764], a = 0.2, v = 0.2, t = 0.2)
movej(p[0.382354861989803, 0.21286637796191, 0.311582040661984, -1.33, 0.73, -0.764], a = 0.2, v = 0.2, t = 0.2)
movej(p[0.382364167743375, 0.212877637067865, 0.31144329746185, -1.33, 0.73, -0.764], a = 0.2, v = 0.2, t = 0.2)
movej(p[0.382372613026578, 0.212887855083814, 0.311317383358423, -1.33, 0.73, -0.764], a = 0.2, v = 0.2, t = 0.2)
movej(p[0.382375047690798, 0.2128908008036, 0.311281083976265, -1.33, 0.73, -0.764], a = 0.2, v = 0.2, t = 0.2)
movej(p[0.38236344334739, 0.212876760615348, 0.311454097771171, -1.33, 0.73, -0.764], a = 0.2, v = 0.2, t = 0.2)
movej(p[0.382338627782189, 0.212846736063785, 0.311824082953209, -1.33, 0.73, -0.764], a = 0.2, v = 0.2, t = 0.2)
movej(p[0.382300235602123, 0.2128002850569, 0.312396487313761, -1.33, 0.73, -0.764], a = 0.2, v = 0.2, t = 0.2)
movej(p[0.382239475581549, 0.212726771020209, 0.313302382750384, -1.33, 0.73, -0.764], a = 0.2, v = 0.2, t = 0.2)
movej(p[0.382165966731944, 0.212637832072923, 0.314398355575587, -1.33, 0.73, -0.764], a = 0.2, v = 0.2, t = 0.2)
movej(p[0.382100904499605, 0.212559112755679, 0.315368394407293, -1.33, 0.73, -0.764], a = 0.2, v = 0.2, t = 0.2)
movej(p[0.382049329640014, 0.212496711919004, 0.316137344606877, -1.33, 0.73, -0.764], a = 0.2, v = 0.2, t = 0.2)
movej(p[0.382017965828608, 0.212458764591786, 0.316604960209366, -1.33, 0.73, -0.764], a = 0.2, v = 0.2, t = 0.2)
movej(p[0.3820064595388, 0.212444843039372, 0.316776512083949, -1.33, 0.73, -0.764], a = 0.2, v = 0.2, t = 0.2)
movej(p[0.382031613288867, 0.212475276763519, 0.316401484768555, -1.33, 0.73, -0.764], a = 0.2, v = 0.2, t = 0.2)
movej(p[0.382072262175875, 0.21252445817825, 0.315795434262054, -1.33, 0.73, -0.764], a = 0.2, v = 0.2, t = 0.2)
movej(p[0.382103499251335, 0.212562252166629, 0.315329708216444, -1.33, 0.73, -0.764], a = 0.2, v = 0.2, t = 0.2)
movej(p[0.382152045788855, 0.212620989012119, 0.314605908481243, -1.33, 0.73, -0.764], a = 0.2, v = 0.2, t = 0.2)
movej(p[0.382212578878713, 0.212694228483514, 0.313703396445389, -1.33, 0.73, -0.764], a = 0.2, v = 0.2, t = 0.2)
movej(p[0.382286754759611, 0.212783974477317, 0.312597478583977, -1.33, 0.73, -0.764], a = 0.2, v = 0.2, t = 0.2)
movej(p[0.382327825877427, 0.212833666752493, 0.311985132869557, -1.33, 0.73, -0.764], a = 0.2, v = 0.2, t = 0.2)
movej(p[0.382352483356212, 0.212863500034031, 0.311617504661101, -1.33, 0.73, -0.764], a = 0.2, v = 0.2, t = 0.2)
movej(p[0.382360076840454, 0.212872687451578, 0.311504290368912, -1.33, 0.73, -0.764], a = 0.2, v = 0.2, t = 0.2)
movej(p[0.38237496097673, 0.212890695887553, 0.311282376830972, -1.33, 0.73, -0.764], a = 0.2, v = 0.2, t = 0.2)
movej(p[0.382371825929652, 0.212886902768924, 0.311329118501148, -1.33, 0.73, -0.764], a = 0.2, v = 0.2, t = 0.2)
movej(p[0.382371132217107, 0.212886063440547, 0.311339461338804, -1.33, 0.73, -0.764], a = 0.2, v = 0.2, t = 0.2)
movej(p[0.38236630557867, 0.212880223651952, 0.311411423620804, -1.33, 0.73, -0.764], a = 0.2, v = 0.2, t = 0.2)
movej(p[0.382361593669614, 0.212874522675357, 0.311481675356575, -1.33, 0.73, -0.764], a = 0.2, v = 0.2, t = 0.2)
movej(p[0.382330660093392, 0.212837095893143, 0.31194287641071, -1.33, 0.73, -0.764], a = 0.2, v = 0.2, t = 0.2)
movej(p[0.382285107859348, 0.212781981879467, 0.312622032878374, -1.33, 0.73, -0.764], a = 0.2, v = 0.2, t = 0.2)
movej(p[0.382228647662566, 0.212713670234103, 0.313463820523144, -1.33, 0.73, -0.764], a = 0.2, v = 0.2, t = 0.2)
movej(p[0.382171649838562, 0.212644708109246, 0.314313623867097, -1.33, 0.73, -0.764], a = 0.2, v = 0.2, t = 0.2)
movej(p[0.382099630469835, 0.212557571296832, 0.315387389426449, -1.33, 0.73, -0.764], a = 0.2, v = 0.2, t = 0.2)
movej(p[0.38204479382722, 0.21249122400269, 0.316204970853089, -1.33, 0.73, -0.764], a = 0.2, v = 0.2, t = 0.2)
movej(p[0.382024802899363, 0.212467036818583, 0.316503023588236, -1.33, 0.73, -0.764], a = 0.2, v = 0.2, t = 0.2)
movej(p[0.3820259568635, 0.212468433009057, 0.316485818675597, -1.33, 0.73, -0.764], a = 0.2, v = 0.2, t = 0.2)
movej(p[0.382038997325283, 0.212484210768459, 0.316291393217735, -1.33, 0.73, -0.764], a = 0.2, v = 0.2, t = 0.2)
movej(p[0.382076331066763, 0.212529381162002, 0.315734769541186, -1.33, 0.73, -0.764], a = 0.2, v = 0.2, t = 0.2)
movej(p[0.382144828510262, 0.212612256768807, 0.314713513773011, -1.33, 0.73, -0.764], a = 0.2, v = 0.2, t = 0.2)
movej(p[0.382225806109257, 0.212710232215941, 0.313506186377389, -1.33, 0.73, -0.764], a = 0.2, v = 0.2, t = 0.2)
movej(p[0.382293267653158, 0.212791854479506, 0.312500375250445, -1.33, 0.73, -0.764], a = 0.2, v = 0.2, t = 0.2)
movej(p[0.382341510024407, 0.212850223311784, 0.311781110451755, -1.33, 0.73, -0.764], a = 0.2, v = 0.2, t = 0.2)
movej(p[0.382373113300048, 0.212888460368701, 0.311309924581267, -1.33, 0.73, -0.764], a = 0.2, v = 0.2, t = 0.2)
movej(p[0.382379343372327, 0.212895998183168, 0.311217037943087, -1.33, 0.73, -0.764], a = 0.2, v = 0.2, t = 0.2)
movej(p[0.382378189408189, 0.212894601992694, 0.311234242855726, -1.33, 0.73, -0.764], a = 0.2, v = 0.2, t = 0.2)
movej(p[0.382376228336187, 0.212892229275935, 0.311263481262177, -1.33, 0.73, -0.764], a = 0.2, v = 0.2, t = 0.2)
movej(p[0.382378062672244, 0.212894448653856, 0.311236132412606, -1.33, 0.73, -0.764], a = 0.2, v = 0.2, t = 0.2)
movej(p[0.382360810574876, 0.212873575202746, 0.311493350829083, -1.33, 0.73, -0.764], a = 0.2, v = 0.2, t = 0.2)
movej(p[0.382320873410258, 0.212825254906649, 0.312088789981951, -1.33, 0.73, -0.764], a = 0.2, v = 0.2, t = 0.2)
movej(p[0.382262750304462, 0.212754931294318, 0.312955370601986, -1.33, 0.73, -0.764], a = 0.2, v = 0.2, t = 0.2)
movej(p[0.382202940276526, 0.212682566661347, 0.313847102218591, -1.33, 0.73, -0.764], a = 0.2, v = 0.2, t = 0.2)
movej(p[0.382132775254794, 0.21259767343825, 0.314893220577286, -1.33, 0.73, -0.764], a = 0.2, v = 0.2, t = 0.2)
movej(p[0.382077651788724, 0.212530979114105, 0.315715078369495, -1.33, 0.73, -0.764], a = 0.2, v = 0.2, t = 0.2)
movej(p[0.382049536419715, 0.212496962103424, 0.316134261645652, -1.33, 0.73, -0.764], a = 0.2, v = 0.2, t = 0.2)
movej(p[0.382045967802296, 0.212492644404559, 0.316187467589364, -1.33, 0.73, -0.764], a = 0.2, v = 0.2, t = 0.2)
movej(p[0.382051137294819, 0.212498899015064, 0.316110393558754, -1.33, 0.73, -0.764], a = 0.2, v = 0.2, t = 0.2)
movej(p[0.382066652442699, 0.212517670917044, 0.315879072016561, -1.33, 0.73, -0.764], a = 0.2, v = 0.2, t = 0.2)
movej(p[0.382103279131009, 0.212561985841279, 0.315332990078393, -1.33, 0.73, -0.764], a = 0.2, v = 0.2, t = 0.2)
movej(p[0.382156268096941, 0.21262609761657, 0.314542956402048, -1.33, 0.73, -0.764], a = 0.2, v = 0.2, t = 0.2)
movej(p[0.382206335465808, 0.212686674528117, 0.313796481984294, -1.33, 0.73, -0.764], a = 0.2, v = 0.2, t = 0.2)
movej(p[0.382265347057287, 0.212758073126408, 0.312916654576029, -1.33, 0.73, -0.764], a = 0.2, v = 0.2, t = 0.2)
movej(p[0.382313968969342, 0.212816901168154, 0.312191731051737, -1.33, 0.73, -0.764], a = 0.2, v = 0.2, t = 0.2)
movej(p[0.382347399910726, 0.212857349532527, 0.31169329578204, -1.33, 0.73, -0.764], a = 0.2, v = 0.2, t = 0.2)
movej(p[0.382356055308787, 0.212867821768129, 0.311564248992208, -1.33, 0.73, -0.764], a = 0.2, v = 0.2, t = 0.2)
movej(p[0.382362963084859, 0.212876179541856, 0.311461258197241, -1.33, 0.73, -0.764], a = 0.2, v = 0.2, t = 0.2)
movej(p[0.382369758132643, 0.212884400924722, 0.311359948113392, -1.33, 0.73, -0.764], a = 0.2, v = 0.2, t = 0.2)
movej(p[0.382378836428544, 0.212895384827815, 0.311224596170605, -1.33, 0.73, -0.764], a = 0.2, v = 0.2, t = 0.2)
movej(p[0.382370431834249, 0.212885216041704, 0.311349903626822, -1.33, 0.73, -0.764], a = 0.2, v = 0.2, t = 0.2)
movej(p[0.382365321040481, 0.212879032451293, 0.311426102494246, -1.33, 0.73, -0.764], a = 0.2, v = 0.2, t = 0.2)
movej(p[0.382354337036176, 0.212865742816301, 0.31158986740548, -1.33, 0.73, -0.764], a = 0.2, v = 0.2, t = 0.2)
movej(p[0.382337265704289, 0.212845088074798, 0.311844390717145, -1.33, 0.73, -0.764], a = 0.2, v = 0.2, t = 0.2)
movej(p[0.382290728932056, 0.212788782860464, 0.312538226058252, -1.33, 0.73, -0.764], a = 0.2, v = 0.2, t = 0.2)
movej(p[0.382214900147613, 0.212697037005392, 0.313668787719386, -1.33, 0.73, -0.764], a = 0.2, v = 0.2, t = 0.2)
movej(p[0.382142887449199, 0.212609908263444, 0.314742453828376, -1.33, 0.73, -0.764], a = 0.2, v = 0.2, t = 0.2)
movej(p[0.382091592742752, 0.212547846386305, 0.315507227112753, -1.33, 0.73, -0.764], a = 0.2, v = 0.2, t = 0.2)
movej(p[0.382066178850481, 0.212517097914017, 0.315886132992269, -1.33, 0.73, -0.764], a = 0.2, v = 0.2, t = 0.2)
movej(p[0.382044380267819, 0.212490723633849, 0.316211136775538, -1.33, 0.73, -0.764], a = 0.2, v = 0.2, t = 0.2)
movej(p[0.382014644012768, 0.212454745500132, 0.31665448648968, -1.33, 0.73, -0.764], a = 0.2, v = 0.2, t = 0.2)
movej(p[0.382003371183912, 0.212441106413999, 0.316822557601591, -1.33, 0.73, -0.764], a = 0.2, v = 0.2, t = 0.2)
movej(p[0.382018185948935, 0.212459030917136, 0.316601678347417, -1.33, 0.73, -0.764], a = 0.2, v = 0.2, t = 0.2)
movej(p[0.382061863158013, 0.212511876323053, 0.315950477376533, -1.33, 0.73, -0.764], a = 0.2, v = 0.2, t = 0.2)
movej(p[0.382114785420816, 0.212575907393693, 0.315161438203809, -1.33, 0.73, -0.764], a = 0.2, v = 0.2, t = 0.2)
movej(p[0.38217467149032, 0.212648364029967, 0.314268572853076, -1.33, 0.73, -0.764], a = 0.2, v = 0.2, t = 0.2)
movej(p[0.382244749797984, 0.212733152337017, 0.313223747349089, -1.33, 0.73, -0.764], a = 0.2, v = 0.2, t = 0.2)
movej(p[0.382304012526744, 0.212804854788322, 0.312340175634692, -1.33, 0.73, -0.764], a = 0.2, v = 0.2, t = 0.2)
movej(p[0.382349301616943, 0.212859650422146, 0.311664942483812, -1.33, 0.73, -0.764], a = 0.2, v = 0.2, t = 0.2)
movej(p[0.382366271560074, 0.212880182492579, 0.31141193081765, -1.33, 0.73, -0.764], a = 0.2, v = 0.2, t = 0.2)
movej(p[0.38237275310315, 0.212888024563582, 0.311315294900819, -1.33, 0.73, -0.764], a = 0.2, v = 0.2, t = 0.2)
movej(p[0.382376428445575, 0.21289247138989, 0.311260497751315, -1.33, 0.73, -0.764], a = 0.2, v = 0.2, t = 0.2)
movej(p[0.382381257752138, 0.212898314406671, 0.311188495689171, -1.33, 0.73, -0.764], a = 0.2, v = 0.2, t = 0.2)
movej(p[0.382374614120458, 0.212890276223364, 0.3112875482498, -1.33, 0.73, -0.764], a = 0.2, v = 0.2, t = 0.2)
movej(p[0.382363123839401, 0.212876374040067, 0.311458861443515, -1.33, 0.73, -0.764], a = 0.2, v = 0.2, t = 0.2)
movej(p[0.382340142610256, 0.212848568866425, 0.311801497775981, -1.33, 0.73, -0.764], a = 0.2, v = 0.2, t = 0.2)
movej(p[0.382299247388592, 0.212799089409415, 0.312411220984353, -1.33, 0.73, -0.764], a = 0.2, v = 0.2, t = 0.2)
movej(p[0.382233777800242, 0.212719877228863, 0.31338733324967, -1.33, 0.73, -0.764], a = 0.2, v = 0.2, t = 0.2)
movej(p[0.382176312387301, 0.212650349364398, 0.314244108064005, -1.33, 0.73, -0.764], a = 0.2, v = 0.2, t = 0.2)
movej(p[0.382134849722116, 0.212600183352917, 0.31486229151468, -1.33, 0.73, -0.764], a = 0.2, v = 0.2, t = 0.2)
movej(p[0.382102592088777, 0.212561154583366, 0.315343233465687, -1.33, 0.73, -0.764], a = 0.2, v = 0.2, t = 0.2)
movej(p[0.382069353919436, 0.212520939455437, 0.31583879461992, -1.33, 0.73, -0.764], a = 0.2, v = 0.2, t = 0.2)
movej(p[0.382051170646383, 0.21249893936739, 0.316109896306943, -1.33, 0.73, -0.764], a = 0.2, v = 0.2, t = 0.2)
movej(p[0.382051043910438, 0.212498786028552, 0.316111785863823, -1.33, 0.73, -0.764], a = 0.2, v = 0.2, t = 0.2)
movej(p[0.38205682707175, 0.212505783121852, 0.316025562399901, -1.33, 0.73, -0.764], a = 0.2, v = 0.2, t = 0.2)
movej(p[0.382086369887726, 0.212541527212079, 0.31558509674626, -1.33, 0.73, -0.764], a = 0.2, v = 0.2, t = 0.2)
movej(p[0.382151572196636, 0.212620416009092, 0.314612969456951, -1.33, 0.73, -0.764], a = 0.2, v = 0.2, t = 0.2)
movej(p[0.382241415975581, 0.212729118718526, 0.313273452640055, -1.33, 0.73, -0.764], a = 0.2, v = 0.2, t = 0.2)
movej(p[0.382304340706141, 0.212805251855208, 0.312335282676878, -1.33, 0.73, -0.764], a = 0.2, v = 0.2, t = 0.2)
movej(p[0.382340612200287, 0.212849137027173, 0.31179449647049, -1.33, 0.73, -0.764], a = 0.2, v = 0.2, t = 0.2)
movej(p[0.382359499191354, 0.212871988549295, 0.311512902770268, -1.33, 0.73, -0.764], a = 0.2, v = 0.2, t = 0.2)
movej(p[0.382378042661305, 0.21289442444246, 0.311236430763692, -1.33, 0.73, -0.764], a = 0.2, v = 0.2, t = 0.2)
movej(p[0.382378542934775, 0.212895029727348, 0.311228971986536, -1.33, 0.73, -0.764], a = 0.2, v = 0.2, t = 0.2)
movej(p[0.382378676341033, 0.212895191136651, 0.311226982979295, -1.33, 0.73, -0.764], a = 0.2, v = 0.2, t = 0.2)
movej(p[0.38237873637385, 0.212895263770838, 0.311226087926036, -1.33, 0.73, -0.764], a = 0.2, v = 0.2, t = 0.2)
movej(p[0.382378402858203, 0.212894860247579, 0.31123106044414, -1.33, 0.73, -0.764], a = 0.2, v = 0.2, t = 0.2)
movej(p[0.382348932081607, 0.212859203318376, 0.311670452033871, -1.33, 0.73, -0.764], a = 0.2, v = 0.2, t = 0.2)
movej(p[0.382307269307033, 0.21280879519294, 0.312291618995408, -1.33, 0.73, -0.764], a = 0.2, v = 0.2, t = 0.2)
movej(p[0.382260535093538, 0.212752251092836, 0.312988398067232, -1.33, 0.73, -0.764], a = 0.2, v = 0.2, t = 0.2)
movej(p[0.382207876308096, 0.212688538805571, 0.313773508950654, -1.33, 0.73, -0.764], a = 0.2, v = 0.2, t = 0.2)
movej(p[0.382138898602066, 0.212605082125273, 0.314801925144898, -1.33, 0.73, -0.764], a = 0.2, v = 0.2, t = 0.2)
movej(p[0.382086183118964, 0.212541301239054, 0.315587881356398, -1.33, 0.73, -0.764], a = 0.2, v = 0.2, t = 0.2)
movej(p[0.382054845988809, 0.212503386193697, 0.316055099157438, -1.33, 0.73, -0.764], a = 0.2, v = 0.2, t = 0.2)
movej(p[0.382042572613014, 0.212488536537789, 0.316238087823661, -1.33, 0.73, -0.764], a = 0.2, v = 0.2, t = 0.2)
movej(p[0.382039544290943, 0.212484872546603, 0.316283238288045, -1.33, 0.73, -0.764], a = 0.2, v = 0.2, t = 0.2)
movej(p[0.382054719252863, 0.212503232854859, 0.316056988714318, -1.33, 0.73, -0.764], a = 0.2, v = 0.2, t = 0.2)
movej(p[0.382119254530481, 0.212581314605355, 0.315094806461217, -1.33, 0.73, -0.764], a = 0.2, v = 0.2, t = 0.2)
movej(p[0.382196756896438, 0.212675085340137, 0.313939292704237, -1.33, 0.73, -0.764], a = 0.2, v = 0.2, t = 0.2)
movej(p[0.382274858923528, 0.212769581609737, 0.312774838359707, -1.33, 0.73, -0.764], a = 0.2, v = 0.2, t = 0.2)
movej(p[0.382324406675018, 0.212829529832048, 0.312036111125158, -1.33, 0.73, -0.764], a = 0.2, v = 0.2, t = 0.2)
movej(p[0.382357900317344, 0.212870054058794, 0.311536741022058, -1.33, 0.73, -0.764], a = 0.2, v = 0.2, t = 0.2)
movej(p[0.382363117169088, 0.212876365969601, 0.311458960893877, -1.33, 0.73, -0.764], a = 0.2, v = 0.2, t = 0.2)
movej(p[0.382368037191907, 0.212882318744709, 0.311385606306808, -1.33, 0.73, -0.764], a = 0.2, v = 0.2, t = 0.2)
movej(p[0.382366716469946, 0.212880720792606, 0.3114052974785, -1.33, 0.73, -0.764], a = 0.2, v = 0.2, t = 0.2)
movej(p[0.382374427351696, 0.212890050250339, 0.311290332859938, -1.33, 0.73, -0.764], a = 0.2, v = 0.2, t = 0.2)
movej(p[0.382370238395174, 0.212884981998214, 0.311352787687323, -1.33, 0.73, -0.764], a = 0.2, v = 0.2, t = 0.2)
movej(p[0.382364918820611, 0.212878545802243, 0.31143209935108, -1.33, 0.73, -0.764], a = 0.2, v = 0.2, t = 0.2)
movej(p[0.382353269119075, 0.212864450734828, 0.311605789408448, -1.33, 0.73, -0.764], a = 0.2, v = 0.2, t = 0.2)
movej(p[0.382334152669243, 0.212841321588704, 0.311890804201126, -1.33, 0.73, -0.764], a = 0.2, v = 0.2, t = 0.2)
movej(p[0.382281051642054, 0.212777074229599, 0.312682508643554, -1.33, 0.73, -0.764], a = 0.2, v = 0.2, t = 0.2)
movej(p[0.382215747277356, 0.212698061954469, 0.313656157523402, -1.33, 0.73, -0.764], a = 0.2, v = 0.2, t = 0.2)
movej(p[0.382159936769053, 0.212630536372412, 0.314488258702906, -1.33, 0.73, -0.764], a = 0.2, v = 0.2, t = 0.2)
movej(p[0.382113978312951, 0.212574930867407, 0.31517347169762, -1.33, 0.73, -0.764], a = 0.2, v = 0.2, t = 0.2)
movej(p[0.382071294980499, 0.2125232879608, 0.315809854564555, -1.33, 0.73, -0.764], a = 0.2, v = 0.2, t = 0.2)
movej(p[0.382039270808113, 0.212484541657531, 0.31628731575289, -1.33, 0.73, -0.764], a = 0.2, v = 0.2, t = 0.2)
movej(p[0.382025650029105, 0.212468061767659, 0.316490393392252, -1.33, 0.73, -0.764], a = 0.2, v = 0.2, t = 0.2)
movej(p[0.382030759488811, 0.212474243743977, 0.316414214414901, -1.33, 0.73, -0.764], a = 0.2, v = 0.2, t = 0.2)
movej(p[0.382041071792604, 0.212486720683126, 0.316260464155129, -1.33, 0.73, -0.764], a = 0.2, v = 0.2, t = 0.2)
movej(p[0.382069140469422, 0.212520681200551, 0.315841977031506, -1.33, 0.73, -0.764], a = 0.2, v = 0.2, t = 0.2)
movej(p[0.382135470061219, 0.212600933906177, 0.314853042631006, -1.33, 0.73, -0.764], a = 0.2, v = 0.2, t = 0.2)
movej(p[0.382211364881759, 0.212692759658854, 0.313721496411287, -1.33, 0.73, -0.764], a = 0.2, v = 0.2, t = 0.2)
movej(p[0.382286906175714, 0.212784157676876, 0.312595221060758, -1.33, 0.73, -0.764], a = 0.2, v = 0.2, t = 0.2)
movej(p[0.382332998038075, 0.212839924591184, 0.311908019058802, -1.33, 0.73, -0.764], a = 0.2, v = 0.2, t = 0.2)
movej(p[0.3823702517358, 0.212884998139145, 0.311352588786599, -1.33, 0.73, -0.764], a = 0.2, v = 0.2, t = 0.2)
movej(p[0.382379596844218, 0.212896304860844, 0.311213258829328, -1.33, 0.73, -0.764], a = 0.2, v = 0.2, t = 0.2)
movej(p[0.382377382300325, 0.212893625466409, 0.311246276349538, -1.33, 0.73, -0.764], a = 0.2, v = 0.2, t = 0.2)
movej(p[0.382377655783155, 0.212893956355481, 0.311242198884692, -1.33, 0.73, -0.764], a = 0.2, v = 0.2, t = 0.2)
movej(p[0.382379590173905, 0.212896296790379, 0.31121335827969, -1.33, 0.73, -0.764], a = 0.2, v = 0.2, t = 0.2)
movej(p[0.382385199907081, 0.212903084051585, 0.311129720525183, -1.33, 0.73, -0.764], a = 0.2, v = 0.2, t = 0.2)
movej(p[0.382375681370527, 0.212891567497791, 0.311271636191867, -1.33, 0.73, -0.764], a = 0.2, v = 0.2, t = 0.2)
movej(p[0.382369137793541, 0.212883650371462, 0.311369196997066, -1.33, 0.73, -0.764], a = 0.2, v = 0.2, t = 0.2)
movej(p[0.382367136699661, 0.212881229231911, 0.311399032105689, -1.33, 0.73, -0.764], a = 0.2, v = 0.2, t = 0.2)
movej(p[0.382359908748568, 0.212872484075856, 0.311506796518036, -1.33, 0.73, -0.764], a = 0.2, v = 0.2, t = 0.2)
movej(p[0.382354742591202, 0.212866233500584, 0.311583820823465, -1.33, 0.73, -0.764], a = 0.2, v = 0.2, t = 0.2)
movej(p[0.382339861790082, 0.212848229099841, 0.311805684636224, -1.33, 0.73, -0.764], a = 0.2, v = 0.2, t = 0.2)
movej(p[0.382315221654111, 0.212818416801512, 0.312173054273739, -1.33, 0.73, -0.764], a = 0.2, v = 0.2, t = 0.2)
movej(p[0.382254297016884, 0.212744703593812, 0.313081404045847, -1.33, 0.73, -0.764], a = 0.2, v = 0.2, t = 0.2)
movej(p[0.382175652026321, 0.212649550388347, 0.314253953649851, -1.33, 0.73, -0.764], a = 0.2, v = 0.2, t = 0.2)
movej(p[0.3821124041191, 0.212573026237628, 0.315196941983071, -1.33, 0.73, -0.764], a = 0.2, v = 0.2, t = 0.2)
movej(p[0.382070007610104, 0.212521730361023, 0.315829048484436, -1.33, 0.73, -0.764], a = 0.2, v = 0.2, t = 0.2)
movej(p[0.382036555990749, 0.212481256978208, 0.316327792050255, -1.33, 0.73, -0.764], a = 0.2, v = 0.2, t = 0.2)
movej(p[0.382011335537553, 0.212450742549409, 0.316703813869271, -1.33, 0.73, -0.764], a = 0.2, v = 0.2, t = 0.2)
movej(p[0.382010088189035, 0.212449233372423, 0.316722411086979, -1.33, 0.73, -0.764], a = 0.2, v = 0.2, t = 0.2)
movej(p[0.382035321982857, 0.212479763942152, 0.31634619036724, -1.33, 0.73, -0.764], a = 0.2, v = 0.2, t = 0.2)
movej(p[0.38207184194616, 0.212523949738944, 0.315801699634865, -1.33, 0.73, -0.764], a = 0.2, v = 0.2, t = 0.2)
movej(p[0.382122049391599, 0.21258469613026, 0.315053136759506, -1.33, 0.73, -0.764], a = 0.2, v = 0.2, t = 0.2)
movej(p[0.382188972641246, 0.212665667107286, 0.314055351276782, -1.33, 0.73, -0.764], a = 0.2, v = 0.2, t = 0.2)
movej(p[0.382259247723142, 0.212750693493059, 0.313007591987113, -1.33, 0.73, -0.764], a = 0.2, v = 0.2, t = 0.2)
movej(p[0.382308792139476, 0.212810637680137, 0.312268914477745, -1.33, 0.73, -0.764], a = 0.2, v = 0.2, t = 0.2)
movej(p[0.382334712308498, 0.212841998700732, 0.311882460315748, -1.33, 0.73, -0.764], a = 0.2, v = 0.2, t = 0.2)
movej(p[0.3823499913273, 0.212860484908245, 0.311654659316373, -1.33, 0.73, -0.764], a = 0.2, v = 0.2, t = 0.2)
movej(p[0.382367423523117, 0.212881576261914, 0.311394755740119, -1.33, 0.73, -0.764], a = 0.2, v = 0.2, t = 0.2)
movej(p[0.382368964365404, 0.212883440539367, 0.31137178270648, -1.33, 0.73, -0.764], a = 0.2, v = 0.2, t = 0.2)
movej(p[0.38236654837806, 0.212880517416884, 0.311407803627624, -1.33, 0.73, -0.764], a = 0.2, v = 0.2, t = 0.2)
movej(p[0.382360290290468, 0.212872945706463, 0.311501107957325, -1.33, 0.73, -0.764], a = 0.2, v = 0.2, t = 0.2)
movej(p[0.382357664188266, 0.212869768364327, 0.311540261564875, -1.33, 0.73, -0.764], a = 0.2, v = 0.2, t = 0.2)
movej(p[0.382334204030653, 0.212841383731286, 0.311890038433338, -1.33, 0.73, -0.764], a = 0.2, v = 0.2, t = 0.2)
movej(p[0.382278029990296, 0.212773418308878, 0.312727559657575, -1.33, 0.73, -0.764], a = 0.2, v = 0.2, t = 0.2)
movej(p[0.382220463188598, 0.212703767773342, 0.313585846117413, -1.33, 0.73, -0.764], a = 0.2, v = 0.2, t = 0.2)
movej(p[0.382171636497936, 0.212644691968316, 0.314313822767822, -1.33, 0.73, -0.764], a = 0.2, v = 0.2, t = 0.2)
movej(p[0.382126811995033, 0.21259045844239, 0.314982129200983, -1.33, 0.73, -0.764], a = 0.2, v = 0.2, t = 0.2)
movej(p[0.382075297168259, 0.212528130239901, 0.315750184347309, -1.33, 0.73, -0.764], a = 0.2, v = 0.2, t = 0.2)
movej(p[0.382043466434947, 0.212489617980121, 0.316224761475143, -1.33, 0.73, -0.764], a = 0.2, v = 0.2, t = 0.2)
movej(p[0.382034041282774, 0.21247821441284, 0.316365284836759, -1.33, 0.73, -0.764], a = 0.2, v = 0.2, t = 0.2)
movej(p[0.382036676056382, 0.212481402246581, 0.316326001943738, -1.33, 0.73, -0.764], a = 0.2, v = 0.2, t = 0.2)
movej(p[0.382042619305205, 0.212488593031045, 0.316237391671127, -1.33, 0.73, -0.764], a = 0.2, v = 0.2, t = 0.2)
movej(p[0.382072095418051, 0.21252425641662, 0.315797920521106, -1.33, 0.73, -0.764], a = 0.2, v = 0.2, t = 0.2)
movej(p[0.382134156009571, 0.212599344024539, 0.314872634352336, -1.33, 0.73, -0.764], a = 0.2, v = 0.2, t = 0.2)
movej(p[0.382202973628091, 0.212682607013673, 0.313846604966781, -1.33, 0.73, -0.764], a = 0.2, v = 0.2, t = 0.2)
movej(p[0.382260564442915, 0.212752286602883, 0.312987960485639, -1.33, 0.73, -0.764], a = 0.2, v = 0.2, t = 0.2)
movej(p[0.382303238837147, 0.212803918695067, 0.31235171088219, -1.33, 0.73, -0.764], a = 0.2, v = 0.2, t = 0.2)
movej(p[0.382335062499927, 0.212842422400153, 0.311877239171739, -1.33, 0.73, -0.764], a = 0.2, v = 0.2, t = 0.2)
movej(p[0.382346684186149, 0.212856483571615, 0.311703966805891, -1.33, 0.73, -0.764], a = 0.2, v = 0.2, t = 0.2)
movej(p[0.382356406834278, 0.212868247081643, 0.311559007958127, -1.33, 0.73, -0.764], a = 0.2, v = 0.2, t = 0.2)
movej(p[0.38236347403083, 0.212876797739488, 0.311453640299506, -1.33, 0.73, -0.764], a = 0.2, v = 0.2, t = 0.2)
movej(p[0.38237070531708, 0.212885546930776, 0.311345826161977, -1.33, 0.73, -0.764], a = 0.2, v = 0.2, t = 0.2)
movej(p[0.38236279832813, 0.212875980201366, 0.311463714621184, -1.33, 0.73, -0.764], a = 0.2, v = 0.2, t = 0.2)
movej(p[0.382357121891825, 0.212869112235509, 0.311548346879312, -1.33, 0.73, -0.764], a = 0.2, v = 0.2, t = 0.2)
movej(p[0.382354109578505, 0.212865467613439, 0.311593258662826, -1.33, 0.73, -0.764], a = 0.2, v = 0.2, t = 0.2)
movej(p[0.382352554061529, 0.212863585580962, 0.311616450487263, -1.33, 0.73, -0.764], a = 0.2, v = 0.2, t = 0.2)
movej(p[0.382322296188007, 0.212826976336869, 0.312067577219719, -1.33, 0.73, -0.764], a = 0.2, v = 0.2, t = 0.2)
movej(p[0.3822812764316, 0.212777346204275, 0.312679157166352, -1.33, 0.73, -0.764], a = 0.2, v = 0.2, t = 0.2)
movej(p[0.38223384917259, 0.21271996358284, 0.313386269130796, -1.33, 0.73, -0.764], a = 0.2, v = 0.2, t = 0.2)
movej(p[0.382182802601784, 0.212658201927006, 0.314147342861704, -1.33, 0.73, -0.764], a = 0.2, v = 0.2, t = 0.2)
movej(p[0.382119781485202, 0.212581952172103, 0.315086949882613, -1.33, 0.73, -0.764], a = 0.2, v = 0.2, t = 0.2)
movej(p[0.382071508430513, 0.212523546215686, 0.315806672152969, -1.33, 0.73, -0.764], a = 0.2, v = 0.2, t = 0.2)
movej(p[0.382042299130184, 0.212488205648717, 0.316242165288506, -1.33, 0.73, -0.764], a = 0.2, v = 0.2, t = 0.2)
movej(p[0.382032126902963, 0.212475898189337, 0.316393827090675, -1.33, 0.73, -0.764], a = 0.2, v = 0.2, t = 0.2)
movej(p[0.382030759488811, 0.212474243743977, 0.316414214414901, -1.33, 0.73, -0.764], a = 0.2, v = 0.2, t = 0.2)
movej(p[0.382039364192494, 0.212484654644043, 0.316285923447821, -1.33, 0.73, -0.764], a = 0.2, v = 0.2, t = 0.2)
movej(p[0.382054112254386, 0.212502498442529, 0.316066038697267, -1.33, 0.73, -0.764], a = 0.2, v = 0.2, t = 0.2)
movej(p[0.382072702416528, 0.212524990828951, 0.315788870538157, -1.33, 0.73, -0.764], a = 0.2, v = 0.2, t = 0.2)
movej(p[0.382121769238456, 0.212584357170723, 0.315057313674714, -1.33, 0.73, -0.764], a = 0.2, v = 0.2, t = 0.2)
movej(p[0.38219944503255, 0.212678337737599, 0.31389921420832, -1.33, 0.73, -0.764], a = 0.2, v = 0.2, t = 0.2)
movej(p[0.382277290919623, 0.212772524101337, 0.312738578757693, -1.33, 0.73, -0.764], a = 0.2, v = 0.2, t = 0.2)
movej(p[0.382320383142258, 0.212824661727459, 0.312096099583563, -1.33, 0.73, -0.764], a = 0.2, v = 0.2, t = 0.2)
movej(p[0.382347065728048, 0.212856945202222, 0.31169827824518, -1.33, 0.73, -0.764], a = 0.2, v = 0.2, t = 0.2)
movej(p[0.382364515266679, 0.212878057539101, 0.311438116097985, -1.33, 0.73, -0.764], a = 0.2, v = 0.2, t = 0.2)
movej(p[0.382381224400573, 0.212898274054345, 0.311188992940981, -1.33, 0.73, -0.764], a = 0.2, v = 0.2, t = 0.2)
movej(p[0.382377742497223, 0.212894061271528, 0.311240906029985, -1.33, 0.73, -0.764], a = 0.2, v = 0.2, t = 0.2)
movej(p[0.382376701928406, 0.212892802278962, 0.311256420286469, -1.33, 0.73, -0.764], a = 0.2, v = 0.2, t = 0.2)
movej(p[0.382373280057871, 0.212888662130331, 0.311307438322215, -1.33, 0.73, -0.764], a = 0.2, v = 0.2, t = 0.2)
movej(p[0.382378456220707, 0.212894924811301, 0.311230264841243, -1.33, 0.73, -0.764], a = 0.2, v = 0.2, t = 0.2)
movej(p[0.382367130029348, 0.212881221161446, 0.311399131556051, -1.33, 0.73, -0.764], a = 0.2, v = 0.2, t = 0.2)
movej(p[0.3823531630611, 0.212864322414432, 0.311607370669205, -1.33, 0.73, -0.764], a = 0.2, v = 0.2, t = 0.2)
movej(p[0.382329541481913, 0.212835742476134, 0.311959554236431, -1.33, 0.73, -0.764], a = 0.2, v = 0.2, t = 0.2)
movej(p[0.382299996955536, 0.212799996316478, 0.312400045391134, -1.33, 0.73, -0.764], a = 0.2, v = 0.2, t = 0.2)
movej(p[0.382239919157359, 0.212727307706143, 0.313295769301305, -1.33, 0.73, -0.764], a = 0.2, v = 0.2, t = 0.2)
movej(p[0.382174551424687, 0.212648218761594, 0.314270362959594, -1.33, 0.73, -0.764], a = 0.2, v = 0.2, t = 0.2)
movej(p[0.382118554147623, 0.212580467206512, 0.315105248749235, -1.33, 0.73, -0.764], a = 0.2, v = 0.2, t = 0.2)
movej(p[0.38208419536571, 0.212538896240434, 0.315617517564297, -1.33, 0.73, -0.764], a = 0.2, v = 0.2, t = 0.2)
movej(p[0.382054926032564, 0.212503483039279, 0.316053905753094, -1.33, 0.73, -0.764], a = 0.2, v = 0.2, t = 0.2)
movej(p[0.382040985078536, 0.212486615767079, 0.316261757009836, -1.33, 0.73, -0.764], a = 0.2, v = 0.2, t = 0.2)
movej(p[0.382045981142922, 0.21249266054549, 0.31618726868864, -1.33, 0.73, -0.764], a = 0.2, v = 0.2, t = 0.2)
movej(p[0.382061456268925, 0.212511384024678, 0.31595654384862, -1.33, 0.73, -0.764], a = 0.2, v = 0.2, t = 0.2)
movej(p[0.382077665129349, 0.212530995255035, 0.315714879468771, -1.33, 0.73, -0.764], a = 0.2, v = 0.2, t = 0.2)
movej(p[0.382119848188332, 0.212582032876755, 0.315085955378992, -1.33, 0.73, -0.764], a = 0.2, v = 0.2, t = 0.2)
movej(p[0.382187311733326, 0.212663657561459, 0.314080114416939, -1.33, 0.73, -0.764], a = 0.2, v = 0.2, t = 0.2)
movej(p[0.382262451474443, 0.212754569737479, 0.312959825978207, -1.33, 0.73, -0.764], a = 0.2, v = 0.2, t = 0.2)
movej(p[0.382301170506513, 0.212801416205228, 0.312382548450463, -1.33, 0.73, -0.764], a = 0.2, v = 0.2, t = 0.2)
movej(p[0.382323129310092, 0.212827984337968, 0.312055155869496, -1.33, 0.73, -0.764], a = 0.2, v = 0.2, t = 0.2)
movej(p[0.382336954867706, 0.212844711991121, 0.311849025104018, -1.33, 0.73, -0.764], a = 0.2, v = 0.2, t = 0.2)
movej(p[0.382353676675195, 0.21286494384025, 0.311599712991325, -1.33, 0.73, -0.764], a = 0.2, v = 0.2, t = 0.2)
movej(p[0.382356512225223, 0.212868374594992, 0.311557436642406, -1.33, 0.73, -0.764], a = 0.2, v = 0.2, t = 0.2)
movej(p[0.382348132978118, 0.212858236476649, 0.311682366187248, -1.33, 0.73, -0.764], a = 0.2, v = 0.2, t = 0.2)
movej(p[0.382338897929863, 0.212847062917625, 0.311820055213544, -1.33, 0.73, -0.764], a = 0.2, v = 0.2, t = 0.2)
movej(p[0.382336710734253, 0.212844416612096, 0.31185266498727, -1.33, 0.73, -0.764], a = 0.2, v = 0.2, t = 0.2)
movej(p[0.382326277030764, 0.212831792790481, 0.312008225243631, -1.33, 0.73, -0.764], a = 0.2, v = 0.2, t = 0.2)
movej(p[0.382288380314872, 0.212785941249678, 0.312573242530739, -1.33, 0.73, -0.764], a = 0.2, v = 0.2, t = 0.2)
movej(p[0.382240892356015, 0.212728485187011, 0.313281259493478, -1.33, 0.73, -0.764], a = 0.2, v = 0.2, t = 0.2)
movej(p[0.382188665806851, 0.212665295865889, 0.314059925993437, -1.33, 0.73, -0.764], a = 0.2, v = 0.2, t = 0.2)
movej(p[0.382143547810179, 0.212610707239495, 0.31473260824253, -1.33, 0.73, -0.764], a = 0.2, v = 0.2, t = 0.2)
movej(p[0.382100404226135, 0.212558507470792, 0.315375853184448, -1.33, 0.73, -0.764], a = 0.2, v = 0.2, t = 0.2)
movej(p[0.382062303398667, 0.212512408973755, 0.315943913652636, -1.33, 0.73, -0.764], a = 0.2, v = 0.2, t = 0.2)
movej(p[0.382037789998642, 0.212482750014264, 0.316309393733271, -1.33, 0.73, -0.764], a = 0.2, v = 0.2, t = 0.2)
movej(p[0.382021687863224, 0.212463267911349, 0.316549466907326, -1.33, 0.73, -0.764], a = 0.2, v = 0.2, t = 0.2)
movej(p[0.38203969770814, 0.212485058167302, 0.316280950929717, -1.33, 0.73, -0.764], a = 0.2, v = 0.2, t = 0.2)
movej(p[0.382072142110242, 0.212524312909877, 0.315797224368571, -1.33, 0.73, -0.764], a = 0.2, v = 0.2, t = 0.2)
movej(p[0.382114965519265, 0.212576125296252, 0.315158753044033, -1.33, 0.73, -0.764], a = 0.2, v = 0.2, t = 0.2)
movej(p[0.382156694996968, 0.21262661412634, 0.314536591578875, -1.33, 0.73, -0.764], a = 0.2, v = 0.2, t = 0.2)
movej(p[0.382201519499871, 0.212680847652266, 0.313868285145714, -1.33, 0.73, -0.764], a = 0.2, v = 0.2, t = 0.2)
movej(p[0.382254258329069, 0.212744656785114, 0.313081980857947, -1.33, 0.73, -0.764], a = 0.2, v = 0.2, t = 0.2)
movej(p[0.382293775997706, 0.212792469529657, 0.312492796138351, -1.33, 0.73, -0.764], a = 0.2, v = 0.2, t = 0.2)
movej(p[0.382325519283215, 0.212830875985638, 0.312019522804763, -1.33, 0.73, -0.764], a = 0.2, v = 0.2, t = 0.2)
movej(p[0.38233457890224, 0.212841837291429, 0.31188444932299, -1.33, 0.73, -0.764], a = 0.2, v = 0.2, t = 0.2)
movej(p[0.38232674928892, 0.212832364179415, 0.312001184157996, -1.33, 0.73, -0.764], a = 0.2, v = 0.2, t = 0.2)
movej(p[0.382323027254304, 0.212827860859851, 0.312056677460036, -1.33, 0.73, -0.764], a = 0.2, v = 0.2, t = 0.2)
movej(p[0.382320239063498, 0.212824487405411, 0.312098247711384, -1.33, 0.73, -0.764], a = 0.2, v = 0.2, t = 0.2)
movej(p[0.382319405274382, 0.212823478597265, 0.312110679006644, -1.33, 0.73, -0.764], a = 0.2, v = 0.2, t = 0.2)
movej(p[0.382287259035269, 0.212784584604483, 0.312589960136604, -1.33, 0.73, -0.764], a = 0.2, v = 0.2, t = 0.2)
movej(p[0.382229388067302, 0.212714566055736, 0.313452781532954, -1.33, 0.73, -0.764], a = 0.2, v = 0.2, t = 0.2)
movej(p[0.382166713806992, 0.212638735965022, 0.314387217135035, -1.33, 0.73, -0.764], a = 0.2, v = 0.2, t = 0.2)
movej(p[0.382118314016357, 0.212580176669766, 0.31510882896227, -1.33, 0.73, -0.764], a = 0.2, v = 0.2, t = 0.2)
movej(p[0.382078232105949, 0.212531681244575, 0.315706426187994, -1.33, 0.73, -0.764], a = 0.2, v = 0.2, t = 0.2)
movej(p[0.382040858342591, 0.212486462428241, 0.316263646566715, -1.33, 0.73, -0.764], a = 0.2, v = 0.2, t = 0.2)
movej(p[0.382021834610108, 0.212463445461583, 0.316547278999361, -1.33, 0.73, -0.764], a = 0.2, v = 0.2, t = 0.2)
movej(p[0.382028478241789, 0.21247148364489, 0.316448226438731, -1.33, 0.73, -0.764], a = 0.2, v = 0.2, t = 0.2)
movej(p[0.382054018870005, 0.212502385456016, 0.316067431002336, -1.33, 0.73, -0.764], a = 0.2, v = 0.2, t = 0.2)
movej(p[0.382103652668533, 0.212562437787328, 0.315327420858117, -1.33, 0.73, -0.764], a = 0.2, v = 0.2, t = 0.2)
movej(p[0.382169602052492, 0.21264223047644, 0.314344155128255, -1.33, 0.73, -0.764], a = 0.2, v = 0.2, t = 0.2)
movej(p[0.382234296083557, 0.212720504304007, 0.313379605956537, -1.33, 0.73, -0.764], a = 0.2, v = 0.2, t = 0.2)
movej(p[0.382264775411469, 0.212757381487543, 0.312925177472059, -1.33, 0.73, -0.764], a = 0.2, v = 0.2, t = 0.2)
movej(p[0.382284031270841, 0.212780679306389, 0.312638084166814, -1.33, 0.73, -0.764], a = 0.2, v = 0.2, t = 0.2)
movej(p[0.382299879213973, 0.212799853860017, 0.312401800847156, -1.33, 0.73, -0.764], a = 0.2, v = 0.2, t = 0.2)
movej(p[0.382313176536166, 0.212815942396892, 0.312203545754752, -1.33, 0.73, -0.764], a = 0.2, v = 0.2, t = 0.2)
movej(p[0.382310798569606, 0.21281306527606, 0.312238999808833, -1.33, 0.73, -0.764], a = 0.2, v = 0.2, t = 0.2)
movej(p[0.382304239984415, 0.212805129991184, 0.312336784377345, -1.33, 0.73, -0.764], a = 0.2, v = 0.2, t = 0.2)
movej(p[0.382292684000776, 0.212791148313804, 0.312509077157127, -1.33, 0.73, -0.764], a = 0.2, v = 0.2, t = 0.2)
movej(p[0.382259562561912, 0.212751074419015, 0.313002897930023, -1.33, 0.73, -0.764], a = 0.2, v = 0.2, t = 0.2)
movej(p[0.382204914689154, 0.212684955519037, 0.313817664911416, -1.33, 0.73, -0.764], a = 0.2, v = 0.2, t = 0.2)
movej(p[0.382148357105803, 0.212616526044881, 0.314660904531472, -1.33, 0.73, -0.764], a = 0.2, v = 0.2, t = 0.2)
movej(p[0.382103839437295, 0.212562663760353, 0.315324636247978, -1.33, 0.73, -0.764], a = 0.2, v = 0.2, t = 0.2)
movej(p[0.382065325050425, 0.212516064894475, 0.315898862638615, -1.33, 0.73, -0.764], a = 0.2, v = 0.2, t = 0.2)
movej(p[0.382034948445333, 0.212479311996102, 0.316351759587516, -1.33, 0.73, -0.764], a = 0.2, v = 0.2, t = 0.2)
movej(p[0.382025996885378, 0.212468481431848, 0.316485221973424, -1.33, 0.73, -0.764], a = 0.2, v = 0.2, t = 0.2)
movej(p[0.382037996778343, 0.212483000198684, 0.316306310772046, -1.33, 0.73, -0.764], a = 0.2, v = 0.2, t = 0.2)
movej(p[0.382057580817111, 0.212506695084416, 0.316014324508987, -1.33, 0.73, -0.764], a = 0.2, v = 0.2, t = 0.2)
movej(p[0.382103425877893, 0.212562163391512, 0.315330802170427, -1.33, 0.73, -0.764], a = 0.2, v = 0.2, t = 0.2)
movej(p[0.382170342457227, 0.212643126298073, 0.314333116138065, -1.33, 0.73, -0.764], a = 0.2, v = 0.2, t = 0.2)
movej(p[0.382244161476383, 0.212732440521989, 0.313232518871024, -1.33, 0.73, -0.764], a = 0.2, v = 0.2, t = 0.2)
movej(p[0.382288676476767, 0.212786299578332, 0.312568826934663, -1.33, 0.73, -0.764], a = 0.2, v = 0.2, t = 0.2)
movej(p[0.382311865819675, 0.212814356550487, 0.3122230877509, -1.33, 0.73, -0.764], a = 0.2, v = 0.2, t = 0.2)
movej(p[0.38232835349918, 0.212834305126288, 0.311977266345917, -1.33, 0.73, -0.764], a = 0.2, v = 0.2, t = 0.2)
movej(p[0.382332168251146, 0.212838920625317, 0.311920390683844, -1.33, 0.73, -0.764], a = 0.2, v = 0.2, t = 0.2)
movej(p[0.382330690776832, 0.212837133017282, 0.311942418939045, -1.33, 0.73, -0.764], a = 0.2, v = 0.2, t = 0.2)
movej(p[0.382326329059205, 0.212831855740109, 0.312007449530807, -1.33, 0.73, -0.764], a = 0.2, v = 0.2, t = 0.2)
movej(p[0.382328921809842, 0.21283499272992, 0.311968793175068, -1.33, 0.73, -0.764], a = 0.2, v = 0.2, t = 0.2)
movej(p[0.382305530223046, 0.212806691061261, 0.312317547693809, -1.33, 0.73, -0.764], a = 0.2, v = 0.2, t = 0.2)
movej(p[0.382265018210859, 0.212757675252475, 0.31292155747888, -1.33, 0.73, -0.764], a = 0.2, v = 0.2, t = 0.2)
movej(p[0.382211978550549, 0.212693502141649, 0.313712346977976, -1.33, 0.73, -0.764], a = 0.2, v = 0.2, t = 0.2)
movej(p[0.382162578212974, 0.212633732276618, 0.314448876359523, -1.33, 0.73, -0.764], a = 0.2, v = 0.2, t = 0.2)
movej(p[0.382116079461525, 0.212577473063935, 0.315142144833566, -1.33, 0.73, -0.764], a = 0.2, v = 0.2, t = 0.2)
movej(p[0.382064851458207, 0.212515491891448, 0.315905923614322, -1.33, 0.73, -0.764], a = 0.2, v = 0.2, t = 0.2)
movej(p[0.382021027502244, 0.212462468935298, 0.316559312493172, -1.33, 0.73, -0.764], a = 0.2, v = 0.2, t = 0.2)
movej(p[0.381988589770455, 0.212423222263188, 0.317042939603955, -1.33, 0.73, -0.764], a = 0.2, v = 0.2, t = 0.2)
movej(p[0.381988803220469, 0.212423480518073, 0.317039757192369, -1.33, 0.73, -0.764], a = 0.2, v = 0.2, t = 0.2)
movej(p[0.382022108092939, 0.212463776350655, 0.316543201534515, -1.33, 0.73, -0.764], a = 0.2, v = 0.2, t = 0.2)
movej(p[0.382078779071609, 0.212532343022718, 0.315698271258304, -1.33, 0.73, -0.764], a = 0.2, v = 0.2, t = 0.2)
movej(p[0.382138378317657, 0.21260445262899, 0.31480968227314, -1.33, 0.73, -0.764], a = 0.2, v = 0.2, t = 0.2)
movej(p[0.382207669528395, 0.212688288621151, 0.313776591911878, -1.33, 0.73, -0.764], a = 0.2, v = 0.2, t = 0.2)
movej(p[0.382265568511676, 0.212758341065852, 0.312913352824008, -1.33, 0.73, -0.764], a = 0.2, v = 0.2, t = 0.2)
movej(p[0.382308442615078, 0.212810214787763, 0.312274125676718, -1.33, 0.73, -0.764], a = 0.2, v = 0.2, t = 0.2)
movej(p[0.38231866687074, 0.212822585196771, 0.312121688161726, -1.33, 0.73, -0.764], a = 0.2, v = 0.2, t = 0.2)
movej(p[0.382325147079754, 0.212830425653682, 0.312025072134967, -1.33, 0.73, -0.764], a = 0.2, v = 0.2, t = 0.2)
movej(p[0.382327725822733, 0.212833545695515, 0.311986624624988, -1.33, 0.73, -0.764], a = 0.2, v = 0.2, t = 0.2)
movej(p[0.382331253084212, 0.212837813357496, 0.311934035273522, -1.33, 0.73, -0.764], a = 0.2, v = 0.2, t = 0.2)
movej(p[0.382333735774685, 0.212840817184631, 0.311897019848756, -1.33, 0.73, -0.764], a = 0.2, v = 0.2, t = 0.2)
movej(p[0.382327178190042, 0.212832883110325, 0.311994789499715, -1.33, 0.73, -0.764], a = 0.2, v = 0.2, t = 0.2)
movej(p[0.382305782360875, 0.212806996124844, 0.312313788470122, -1.33, 0.73, -0.764], a = 0.2, v = 0.2, t = 0.2)
movej(p[0.382256316120608, 0.212747146523618, 0.313051300421246, -1.33, 0.73, -0.764], a = 0.2, v = 0.2, t = 0.2)
movej(p[0.382190113264758, 0.21266704715683, 0.314038345264867, -1.33, 0.73, -0.764], a = 0.2, v = 0.2, t = 0.2)
movej(p[0.382142073671021, 0.212608923666693, 0.31475458677255, -1.33, 0.73, -0.764], a = 0.2, v = 0.2, t = 0.2)
movej(p[0.382101104608993, 0.212559354869634, 0.31536541089643, -1.33, 0.73, -0.764], a = 0.2, v = 0.2, t = 0.2)
movej(p[0.382057113895206, 0.212506130151854, 0.316021286034332, -1.33, 0.73, -0.764], a = 0.2, v = 0.2, t = 0.2)
movej(p[0.382010988681281, 0.212450322885221, 0.316708985288099, -1.33, 0.73, -0.764], a = 0.2, v = 0.2, t = 0.2)
movej(p[0.381990317381505, 0.212425312513666, 0.317017181960177, -1.33, 0.73, -0.764], a = 0.2, v = 0.2, t = 0.2)
movej(p[0.381999949313378, 0.212436966265368, 0.316873575637337, -1.33, 0.73, -0.764], a = 0.2, v = 0.2, t = 0.2)
movej(p[0.382017672334839, 0.212458409491318, 0.316609336025297, -1.33, 0.73, -0.764], a = 0.2, v = 0.2, t = 0.2)
movej(p[0.382053792079366, 0.212502111060201, 0.316070812314647, -1.33, 0.73, -0.764], a = 0.2, v = 0.2, t = 0.2)
movej(p[0.382107027846876, 0.212566521442703, 0.315277098974905, -1.33, 0.73, -0.764], a = 0.2, v = 0.2, t = 0.2)
movej(p[0.382176872693588, 0.212651027283472, 0.314235754233591, -1.33, 0.73, -0.764], a = 0.2, v = 0.2, t = 0.2)
movej(p[0.382226253020223, 0.212710772937108, 0.31349952320313, -1.33, 0.73, -0.764], a = 0.2, v = 0.2, t = 0.2)
movej(p[0.382263385318253, 0.212755699602602, 0.312945902927516, -1.33, 0.73, -0.764], a = 0.2, v = 0.2, t = 0.2)
movej(p[0.382292705345778, 0.212791174139293, 0.312508758915968, -1.33, 0.73, -0.764], a = 0.2, v = 0.2, t = 0.2)
movej(p[0.382308630050872, 0.212810441567834, 0.312271331121544, -1.33, 0.73, -0.764], a = 0.2, v = 0.2, t = 0.2)
movej(p[0.382318811616531, 0.212822760325866, 0.312119530088869, -1.33, 0.73, -0.764], a = 0.2, v = 0.2, t = 0.2)
movej(p[0.382324281273135, 0.212829378107303, 0.312037980791965, -1.33, 0.73, -0.764], a = 0.2, v = 0.2, t = 0.2)
movej(p[0.382325968862307, 0.21283141993499, 0.312012819850359, -1.33, 0.73, -0.764], a = 0.2, v = 0.2, t = 0.2)
movej(p[0.382298417201444, 0.21279808495932, 0.312423598576417, -1.33, 0.73, -0.764], a = 0.2, v = 0.2, t = 0.2)
movej(p[0.382250719728058, 0.212740375403342, 0.313134739275029, -1.33, 0.73, -0.764], a = 0.2, v = 0.2, t = 0.2)
movej(p[0.382197437268357, 0.212675908527584, 0.313929148767305, -1.33, 0.73, -0.764], a = 0.2, v = 0.2, t = 0.2)
movej(p[0.382154226981183, 0.212623628054228, 0.314573388212844, -1.33, 0.73, -0.764], a = 0.2, v = 0.2, t = 0.2)
movej(p[0.382098469835384, 0.212556167035893, 0.315404693789451, -1.33, 0.73, -0.764], a = 0.2, v = 0.2, t = 0.2)
movej(p[0.382044266872499, 0.212490586435941, 0.316212827431694, -1.33, 0.73, -0.764], a = 0.2, v = 0.2, t = 0.2)
movej(p[0.382016178184742, 0.212456601707121, 0.316631612906402, -1.33, 0.73, -0.764], a = 0.2, v = 0.2, t = 0.2)
