def moving():
set_payload_mass(0.606)
set_tcp(p[0.0001,-0.0009,0.0582,0,0,0])
movej(p[0.4763, -0.0211, 0.2251, -1.21, 1.207, -1.216], a = 0.2, v = 0.2, t = 0.2)
movej(p[0.476399503559594, -0.0211997494971276, 0.225200742639686, -1.2082623738881, 1.20525469812697, -1.21424848537015], a = 0.2, v = 0.2, t = 0.2)
movej(p[0.4763, -0.0211, 0.2251, -1.21, 1.207, -1.216], a = 0.2, v = 0.2, t = 0.2)
movej(p[0.476399503559594, -0.0211997494971276, 0.225200742639686, -1.2082623738881, 1.20525469812697, -1.21424848537015], a = 0.2, v = 0.2, t = 0.2)
movej(p[0.4763, -0.0211, 0.2251, -1.21, 1.207, -1.216], a = 0.2, v = 0.2, t = 0.2)
movej(p[0.476399503559594, -0.0211997494971276, 0.225200742639686, -1.2082623738881, 1.20525469812697, -1.21424848537015], a = 0.2, v = 0.2, t = 0.2)
movej(p[0.4763, -0.0211, 0.2251, -1.21, 1.207, -1.216], a = 0.2, v = 0.2, t = 0.2)
movej(p[0.477161413259285, -0.021225100774081, 0.22497314780588, -1.20348625445645, 1.24123427160849, -1.20591363999387], a = 0.2, v = 0.2, t = 0.2)
movej(p[0.478639210258599, -0.0213964054521022, 0.224511797801322, -1.20344625998985, 1.2567388475272, -1.19922006746711], a = 0.2, v = 0.2, t = 0.2)
movej(p[0.479950711998823, -0.0215622655437023, 0.224071224153105, -1.20106212739687, 1.25558767506044, -1.19331844958114], a = 0.2, v = 0.2, t = 0.2)
movej(p[0.480972471579371, -0.0216198376471215, 0.223683984908623, -1.18934965881347, 1.223286530446, -1.20119179580496], a = 0.2, v = 0.2, t = 0.2)
movej(p[0.481971947126798, -0.0216672316474172, 0.223429743978735, -1.19966029115962, 1.1998243906961, -1.23176340936032], a = 0.2, v = 0.2, t = 0.2)
movej(p[0.483003982949123, -0.021716230088125, 0.223404890473021, -1.20371539891599, 1.20246030563696, -1.24325742222971], a = 0.2, v = 0.2, t = 0.2)
movej(p[0.483486286675836, -0.0216527961256988, 0.223090481084309, -1.20635433941639, 1.20826730825895, -1.24401169066906], a = 0.2, v = 0.2, t = 0.2)
movej(p[0.482715728210484, -0.0215389722037266, 0.222599102150836, -1.16928732482468, 1.19716267496853, -1.2334113667964], a = 0.2, v = 0.2, t = 0.2)
movej(p[0.480381364022582, -0.0212579533929198, 0.222336740861367, -1.16344882389426, 1.18727407262906, -1.20050043333786], a = 0.2, v = 0.2, t = 0.2)
movej(p[0.477359137385217, -0.0211206827858508, 0.222280320584182, -1.16387824850506, 1.17755902264599, -1.17425171520874], a = 0.2, v = 0.2, t = 0.2)
movej(p[0.474280081934626, -0.0207960567558675, 0.222660717314779, -1.20822370423461, 1.16960785085071, -1.15800022347858], a = 0.2, v = 0.2, t = 0.2)
movej(p[0.471410574754611, -0.0207152573638962, 0.22330365140518, -1.21839306351203, 1.17506341898893, -1.14111153010852], a = 0.2, v = 0.2, t = 0.2)
movej(p[0.46930282468497, -0.0205209676158561, 0.224051675673394, -1.22791191346951, 1.16640895046292, -1.15055260134834], a = 0.2, v = 0.2, t = 0.2)
movej(p[0.468556690484861, -0.0206169348927153, 0.224812885837015, -1.21384489361623, 1.20464645620994, -1.12447033929646], a = 0.2, v = 0.2, t = 0.2)
movej(p[0.469735252698501, -0.0207093358085338, 0.225070897933317, -1.21398561112657, 1.24254259649586, -1.11801812144903], a = 0.2, v = 0.2, t = 0.2)
movej(p[0.471963800476016, -0.0209189247812995, 0.225248997979434, -1.21710450822578, 1.28845451438841, -1.09615250505596], a = 0.2, v = 0.2, t = 0.2)
movej(p[0.474454430558725, -0.0212251928191194, 0.224812900198409, -1.19707710292002, 1.28198638149654, -1.12981175803546], a = 0.2, v = 0.2, t = 0.2)
movej(p[0.476534595940122, -0.0213402530790676, 0.224639695851988, -1.18826889486164, 1.27269997212082, -1.15107219142323], a = 0.2, v = 0.2, t = 0.2)
movej(p[0.47825484820031, -0.0215068244612631, 0.224327636976053, -1.18558985701046, 1.26285456957688, -1.17207387475929], a = 0.2, v = 0.2, t = 0.2)
movej(p[0.479675154115139, -0.0214544383656486, 0.224302086647487, -1.19056590292337, 1.23909678953009, -1.18885691349056], a = 0.2, v = 0.2, t = 0.2)
movej(p[0.480869282813526, -0.0215498628671142, 0.223885990719595, -1.18438070632229, 1.22018087224872, -1.21198354233054], a = 0.2, v = 0.2, t = 0.2)
movej(p[0.481925921154889, -0.0215806860646989, 0.22353799631784, -1.1651699232172, 1.23027037777898, -1.22129997414306], a = 0.2, v = 0.2, t = 0.2)
movej(p[0.482602845470806, -0.0217125743302046, 0.223081435249809, -1.16658135880894, 1.24865843091747, -1.20200810310155], a = 0.2, v = 0.2, t = 0.2)
movej(p[0.482567383691089, -0.0216295711906532, 0.222644421633769, -1.15074182092872, 1.22782970671836, -1.2068852402983], a = 0.2, v = 0.2, t = 0.2)
movej(p[0.481205836371843, -0.021487384382856, 0.222050123799312, -1.12921431341755, 1.18291581663069, -1.20946668759261], a = 0.2, v = 0.2, t = 0.2)
movej(p[0.478955770517721, -0.0213354184008774, 0.221729317157647, -1.14795620969038, 1.14232556597069, -1.23458286185326], a = 0.2, v = 0.2, t = 0.2)
movej(p[0.476283729271122, -0.0211304060899018, 0.221748064833413, -1.16983638796688, 1.15657381459514, -1.20565189619476], a = 0.2, v = 0.2, t = 0.2)
movej(p[0.473713621119354, -0.0209498820220271, 0.222469585481082, -1.19594123025861, 1.1547556350913, -1.19132036482704], a = 0.2, v = 0.2, t = 0.2)
movej(p[0.471688684909482, -0.0207463881459769, 0.223265055729715, -1.18310441510198, 1.17715766144157, -1.16100276871645], a = 0.2, v = 0.2, t = 0.2)
movej(p[0.470650304686351, -0.0207296483222858, 0.224129032668188, -1.19515333962389, 1.21676627802128, -1.14406280246278], a = 0.2, v = 0.2, t = 0.2)
movej(p[0.471147350552691, -0.0207598782378062, 0.224462106610371, -1.22009703390589, 1.24012568791818, -1.14969578873823], a = 0.2, v = 0.2, t = 0.2)
movej(p[0.47259844634329, -0.0208598381990729, 0.224612329472318, -1.22841474394758, 1.25701121378138, -1.14519506574181], a = 0.2, v = 0.2, t = 0.2)
movej(p[0.474794471914377, -0.0209569593604594, 0.224069856608166, -1.23201097099625, 1.24099291319756, -1.17033674419676], a = 0.2, v = 0.2, t = 0.2)
movej(p[0.476754773474732, -0.0211681102316035, 0.223768583220418, -1.20558068010999, 1.24256033930287, -1.18021052642355], a = 0.2, v = 0.2, t = 0.2)
movej(p[0.478374247887681, -0.0213123818650703, 0.223390475283525, -1.18931127215436, 1.2578601494525, -1.1845617707763], a = 0.2, v = 0.2, t = 0.2)
movej(p[0.479646756857016, -0.021447635369569, 0.223494923200609, -1.15311807605678, 1.26297417043426, -1.18409396405611], a = 0.2, v = 0.2, t = 0.2)
movej(p[0.480754548335666, -0.0215242189505792, 0.223286983750407, -1.13343113198793, 1.2614123172004, -1.18345311678203], a = 0.2, v = 0.2, t = 0.2)
movej(p[0.481736969458447, -0.0216263428530761, 0.222951681769422, -1.1624930608605, 1.26524706370896, -1.20653070573335], a = 0.2, v = 0.2, t = 0.2)
movej(p[0.482615151102455, -0.0217327899225094, 0.22288506408681, -1.1534165089443, 1.27472038731331, -1.21730450501297], a = 0.2, v = 0.2, t = 0.2)
movej(p[0.483307576025728, -0.0218860598976099, 0.222618351326031, -1.1618689916548, 1.28298361340623, -1.21996623421798], a = 0.2, v = 0.2, t = 0.2)
movej(p[0.483238782921357, -0.0218232732060791, 0.222685771632747, -1.15078902104905, 1.25718690933556, -1.22879161433937], a = 0.2, v = 0.2, t = 0.2)
movej(p[0.481967505393442, -0.0215811103949517, 0.222174173542129, -1.16029702973468, 1.21399441148449, -1.22635741631288], a = 0.2, v = 0.2, t = 0.2)
movej(p[0.479559873309861, -0.0212657057320911, 0.222064968730621, -1.17385195993301, 1.18222898235402, -1.21070141354776], a = 0.2, v = 0.2, t = 0.2)
movej(p[0.476736437763256, -0.0210769864351241, 0.222083548173738, -1.17801937523045, 1.19519278575078, -1.16256997911782], a = 0.2, v = 0.2, t = 0.2)
movej(p[0.473907977874931, -0.0210473025491178, 0.222593236821174, -1.16528553967681, 1.2017372334745, -1.12293832132252], a = 0.2, v = 0.2, t = 0.2)
movej(p[0.471558798989745, -0.0208343022350439, 0.223416806023611, -1.17182427989505, 1.2038608003692, -1.10796899511799], a = 0.2, v = 0.2, t = 0.2)
movej(p[0.470487588881431, -0.0207235941465888, 0.223885260048138, -1.19883743582071, 1.21246447327789, -1.12064156685799], a = 0.2, v = 0.2, t = 0.2)
movej(p[0.471019337153768, -0.0207647358067798, 0.224290771500952, -1.23113316047086, 1.23656104050922, -1.12945557246113], a = 0.2, v = 0.2, t = 0.2)
movej(p[0.472867153706849, -0.0210327129542278, 0.224158710138947, -1.24833268825429, 1.25763159813651, -1.13959212961852], a = 0.2, v = 0.2, t = 0.2)
movej(p[0.475136617522878, -0.021247480439584, 0.224110137094359, -1.23394694077425, 1.24638839278429, -1.16137155129179], a = 0.2, v = 0.2, t = 0.2)
movej(p[0.47729243221676, -0.0213243255376558, 0.223847631606718, -1.2307845127247, 1.24615032471306, -1.1792137824121], a = 0.2, v = 0.2, t = 0.2)
movej(p[0.478896785564602, -0.0215002204507593, 0.223635652864116, -1.21146713643275, 1.23850144371568, -1.2033086945132], a = 0.2, v = 0.2, t = 0.2)
movej(p[0.48008127762352, -0.0215881544601242, 0.223500550692574, -1.19041729505374, 1.24784954961794, -1.19524312613105], a = 0.2, v = 0.2, t = 0.2)
movej(p[0.480998463037487, -0.0217592856673604, 0.223402553802744, -1.1875389702672, 1.25058891543813, -1.20009756672141], a = 0.2, v = 0.2, t = 0.2)
movej(p[0.481743173046722, -0.0218331505103377, 0.223145956618001, -1.18231628934451, 1.25869191744826, -1.20174620840258], a = 0.2, v = 0.2, t = 0.2)
movej(p[0.4823373016746, -0.0218443491432779, 0.222908589685689, -1.16440909699475, 1.25939302507881, -1.19987796876432], a = 0.2, v = 0.2, t = 0.2)
movej(p[0.482628492069813, -0.0218345206180562, 0.222453508395997, -1.16295322189594, 1.24085191830902, -1.2044706166553], a = 0.2, v = 0.2, t = 0.2)
movej(p[0.481916108808346, -0.021752241939564, 0.222108728142145, -1.15392848765765, 1.21981882690443, -1.20558851297254], a = 0.2, v = 0.2, t = 0.2)
movej(p[0.480307130628093, -0.0216265717599227, 0.221765344182385, -1.17597735648863, 1.1847008423594, -1.21110970238766], a = 0.2, v = 0.2, t = 0.2)
movej(p[0.477960076797737, -0.0214703237279031, 0.221786495834835, -1.15327333185819, 1.19255439164024, -1.182160577928], a = 0.2, v = 0.2, t = 0.2)
movej(p[0.475565466098826, -0.0210792345523965, 0.222078640621446, -1.15078433813703, 1.18439862042178, -1.17415438325898], a = 0.2, v = 0.2, t = 0.2)
movej(p[0.473435973061912, -0.0208087102829776, 0.222776523835141, -1.1628230752647, 1.2174405173933, -1.14980961045997], a = 0.2, v = 0.2, t = 0.2)
movej(p[0.47202584713099, -0.0206829447127288, 0.223353415627664, -1.1959989407208, 1.21327138668446, -1.15235890356686], a = 0.2, v = 0.2, t = 0.2)
movej(p[0.471711243939792, -0.0207362661691841, 0.224150410317966, -1.22852046164145, 1.23124443776337, -1.14175398319315], a = 0.2, v = 0.2, t = 0.2)
movej(p[0.472637121098862, -0.0209041802814539, 0.224273680650215, -1.24033218735013, 1.23096613249147, -1.15767481276453], a = 0.2, v = 0.2, t = 0.2)
movej(p[0.47440880763203, -0.0210461375222149, 0.224124607924285, -1.23932979922612, 1.25621078250283, -1.16375649657598], a = 0.2, v = 0.2, t = 0.2)
movej(p[0.476274165904936, -0.0212677884023868, 0.223703075869529, -1.22436587874957, 1.26658558300791, -1.1644978003604], a = 0.2, v = 0.2, t = 0.2)
movej(p[0.477902268810484, -0.021449008693274, 0.223312376683004, -1.19000416877906, 1.25709158885655, -1.18104341222854], a = 0.2, v = 0.2, t = 0.2)
movej(p[0.479201942633203, -0.0216348651453307, 0.223289444394251, -1.19565497689617, 1.25798673638728, -1.1943032448311], a = 0.2, v = 0.2, t = 0.2)
movej(p[0.480259118470161, -0.0217072925121781, 0.222921463642193, -1.17301013857677, 1.26367782283, -1.19671888988848], a = 0.2, v = 0.2, t = 0.2)
movej(p[0.481195426653964, -0.0217143111756949, 0.22274127077273, -1.19870207024377, 1.28153008297299, -1.19723193489472], a = 0.2, v = 0.2, t = 0.2)
movej(p[0.4818547151553, -0.0217390414971954, 0.222206319634023, -1.18990995053123, 1.26702082673993, -1.19380614467254], a = 0.2, v = 0.2, t = 0.2)
movej(p[0.4822023645757, -0.0217964591375493, 0.222035917750313, -1.182302021637, 1.21478561415072, -1.21677144354972], a = 0.2, v = 0.2, t = 0.2)
movej(p[0.481447640673283, -0.0219001977585428, 0.221713490617407, -1.16720877840799, 1.15010199167651, -1.23488806968064], a = 0.2, v = 0.2, t = 0.2)
movej(p[0.479838072565831, -0.0216596167373409, 0.221494919731393, -1.17339710307808, 1.15182637782271, -1.22584111189496], a = 0.2, v = 0.2, t = 0.2)
movej(p[0.47757492718525, -0.0214217220325643, 0.221433147460972, -1.20225535983935, 1.15493498465416, -1.19677849741804], a = 0.2, v = 0.2, t = 0.2)
movej(p[0.475097698193775, -0.0210609273808726, 0.22163035380495, -1.21348292424747, 1.1974538629403, -1.14113439569022], a = 0.2, v = 0.2, t = 0.2)
movej(p[0.472743675190598, -0.0209721907023794, 0.222290344524346, -1.20634340669856, 1.18668817248337, -1.12828323348647], a = 0.2, v = 0.2, t = 0.2)
movej(p[0.470409315338867, -0.0207682349309595, 0.223224096117025, -1.21297079279975, 1.19540824951867, -1.12349530804563], a = 0.2, v = 0.2, t = 0.2)
movej(p[0.469069872220408, -0.0206828428618632, 0.224191354612695, -1.2199996498987, 1.21145076343734, -1.12243553558009], a = 0.2, v = 0.2, t = 0.2)
movej(p[0.469181716202844, -0.0206838434957535, 0.224985251945053, -1.21821334350036, 1.23753585138314, -1.10582820570558], a = 0.2, v = 0.2, t = 0.2)
movej(p[0.470875259792776, -0.0209036408639158, 0.22489534669243, -1.21447150107232, 1.26723677375835, -1.11527887301804], a = 0.2, v = 0.2, t = 0.2)
movej(p[0.473371715616567, -0.0210675947706259, 0.224522525802474, -1.23688714806616, 1.26791553640792, -1.14637053327582], a = 0.2, v = 0.2, t = 0.2)
movej(p[0.475805969241061, -0.0212245027126382, 0.224239755875133, -1.24554726343766, 1.26603300969136, -1.16963161791321], a = 0.2, v = 0.2, t = 0.2)
movej(p[0.477837022445916, -0.0213520327634346, 0.223912038811658, -1.23529513656114, 1.25468061863851, -1.20089329072897], a = 0.2, v = 0.2, t = 0.2)
movej(p[0.479425901413418, -0.0215065761032062, 0.223837217132562, -1.19900909654864, 1.24762976590824, -1.21008250270782], a = 0.2, v = 0.2, t = 0.2)
movej(p[0.480520599925045, -0.0215766867973765, 0.22341941087686, -1.17960597962222, 1.2479352736484, -1.21678734885413], a = 0.2, v = 0.2, t = 0.2)
movej(p[0.481548337038773, -0.0215995999911507, 0.223209211096847, -1.17120857335312, 1.25451686769979, -1.20707866226826], a = 0.2, v = 0.2, t = 0.2)
movej(p[0.482366650372584, -0.0217601366197092, 0.222939627754264, -1.15257721516093, 1.25492118590997, -1.20768092430039], a = 0.2, v = 0.2, t = 0.2)
movej(p[0.482703963372165, -0.0217981458134262, 0.222806603226049, -1.12702340650759, 1.23162712606201, -1.21078826595739], a = 0.2, v = 0.2, t = 0.2)
movej(p[0.482130122737864, -0.0217837027743611, 0.222324889340897, -1.12241278030014, 1.17471391952648, -1.23468679253766], a = 0.2, v = 0.2, t = 0.2)
movej(p[0.48032855089295, -0.021584470635595, 0.222146584673, -1.11567038784852, 1.16875264323635, -1.20654418336493], a = 0.2, v = 0.2, t = 0.2)
movej(p[0.477873204909483, -0.0213005549839084, 0.221793726228576, -1.14698554634278, 1.14258695445697, -1.21379478823324], a = 0.2, v = 0.2, t = 0.2)
movej(p[0.475197851467503, -0.0209839230718121, 0.222293803105793, -1.15176780408869, 1.1649554186588, -1.17611998197233], a = 0.2, v = 0.2, t = 0.2)
movej(p[0.472793154474278, -0.0207337469188657, 0.222695746673563, -1.17413957794597, 1.14595263876076, -1.17357318062363], a = 0.2, v = 0.2, t = 0.2)
movej(p[0.470848876583295, -0.020622723631784, 0.223662279696258, -1.20691538886787, 1.16972939189121, -1.14099039786643], a = 0.2, v = 0.2, t = 0.2)
movej(p[0.469680399505065, -0.0205692587731078, 0.224266102680699, -1.23022743770742, 1.18841542297672, -1.13527486140539], a = 0.2, v = 0.2, t = 0.2)
movej(p[0.470111583937347, -0.0206361405574786, 0.224841034903728, -1.255700501206, 1.23364968890698, -1.13881432180537], a = 0.2, v = 0.2, t = 0.2)
movej(p[0.471821639735979, -0.0207609988789549, 0.224766992831058, -1.2327201470492, 1.27010605083065, -1.13752373384799], a = 0.2, v = 0.2, t = 0.2)
movej(p[0.474210330137728, -0.0211148365599583, 0.224551075037401, -1.20076412277753, 1.28289211086136, -1.13166027796359], a = 0.2, v = 0.2, t = 0.2)
movej(p[0.476498044737076, -0.0213402525674149, 0.224254744908938, -1.17746533270713, 1.28926441558763, -1.13945002357081], a = 0.2, v = 0.2, t = 0.2)
movej(p[0.478326036332455, -0.0214867449786942, 0.223884462622077, -1.17873658526483, 1.27590691829077, -1.18254173417234], a = 0.2, v = 0.2, t = 0.2)
movej(p[0.479717637041166, -0.0214632819928596, 0.223614469666782, -1.19345795969965, 1.25777713682017, -1.22200946051537], a = 0.2, v = 0.2, t = 0.2)
movej(p[0.480813266847446, -0.0216239788944678, 0.223209928938295, -1.17919017133285, 1.25356092131285, -1.21852164664853], a = 0.2, v = 0.2, t = 0.2)
movej(p[0.481793252281203, -0.0218970455043222, 0.223125999273049, -1.15339439335587, 1.26448122302415, -1.20199757425388], a = 0.2, v = 0.2, t = 0.2)
movej(p[0.482725725281977, -0.0220766906536683, 0.222766877294268, -1.13175282172827, 1.26121359525525, -1.20174258782397], a = 0.2, v = 0.2, t = 0.2)
movej(p[0.48332730851442, -0.0220134458076641, 0.222461345976728, -1.11017456226168, 1.24043062705716, -1.20866557356416], a = 0.2, v = 0.2, t = 0.2)
movej(p[0.482832152812405, -0.0217779459866279, 0.221977784532179, -1.12754771670873, 1.19808486386663, -1.22266952036625], a = 0.2, v = 0.2, t = 0.2)
movej(p[0.4811321484272, -0.0215106392984769, 0.221633265024529, -1.14496989330499, 1.18044221933388, -1.21426675076234], a = 0.2, v = 0.2, t = 0.2)
movej(p[0.478478829952709, -0.0211769963891323, 0.221580897381201, -1.18812406899481, 1.16413343217028, -1.21169712719844], a = 0.2, v = 0.2, t = 0.2)
movej(p[0.475513344315005, -0.0208512978836163, 0.222134155060295, -1.20001164296591, 1.15839838909928, -1.19690058523192], a = 0.2, v = 0.2, t = 0.2)
movej(p[0.472628368986058, -0.0206035438034738, 0.223049503911248, -1.22134108412784, 1.1808776606132, -1.1681334299815], a = 0.2, v = 0.2, t = 0.2)
movej(p[0.470189662164012, -0.0204809753759292, 0.224082910906907, -1.22610981469389, 1.20827645409102, -1.14253869113048], a = 0.2, v = 0.2, t = 0.2)
movej(p[0.469007818636822, -0.0205045347742764, 0.224671416428366, -1.23548342623177, 1.23180315426809, -1.12392344763544], a = 0.2, v = 0.2, t = 0.2)
movej(p[0.469288270391424, -0.0206271176620771, 0.225111712323396, -1.24299601951592, 1.24768094055432, -1.12877177244899], a = 0.2, v = 0.2, t = 0.2)
movej(p[0.471068722294121, -0.0207809716383885, 0.225092579225641, -1.26029592572447, 1.26619373570789, -1.13470611895502], a = 0.2, v = 0.2, t = 0.2)
movej(p[0.473599594488294, -0.0209644472998811, 0.224990634932737, -1.25863078764978, 1.29117008047689, -1.14663572408907], a = 0.2, v = 0.2, t = 0.2)
movej(p[0.476107348415535, -0.0211861054489779, 0.224510993626881, -1.23223284311865, 1.28701833764778, -1.16475106367417], a = 0.2, v = 0.2, t = 0.2)
movej(p[0.478095457052733, -0.0215326685118632, 0.22442284051182, -1.22985049366356, 1.2539449056601, -1.19410446448481], a = 0.2, v = 0.2, t = 0.2)
movej(p[0.479694853862105, -0.0216576288557891, 0.224073917679207, -1.19454297602435, 1.23471155196862, -1.21597891569005], a = 0.2, v = 0.2, t = 0.2)
movej(p[0.480856377224014, -0.0216724543319768, 0.22413596148869, -1.19204471735507, 1.23941401118456, -1.2241210402809], a = 0.2, v = 0.2, t = 0.2)
movej(p[0.481827640752432, -0.0216712677948513, 0.223598832204911, -1.13973663710996, 1.24885415007438, -1.21779639998675], a = 0.2, v = 0.2, t = 0.2)
movej(p[0.482660905378224, -0.0217507352315845, 0.223269968147884, -1.13049214592667, 1.25915273224829, -1.2047079257805], a = 0.2, v = 0.2, t = 0.2)
movej(p[0.48343882247568, -0.0218435202203758, 0.222946343748712, -1.13330004006582, 1.26338818313708, -1.20562316812741], a = 0.2, v = 0.2, t = 0.2)
movej(p[0.484215164134235, -0.0218302658545138, 0.222774175913798, -1.12665037598245, 1.24501507227922, -1.21892168790832], a = 0.2, v = 0.2, t = 0.2)
movej(p[0.484173600443559, -0.0218941492311029, 0.222858007353085, -1.12232996916078, 1.21383859401775, -1.22633954607578], a = 0.2, v = 0.2, t = 0.2)
movej(p[0.483205977039138, -0.0217654562217359, 0.222581898209711, -1.12305876837295, 1.18467914401752, -1.22456922585434], a = 0.2, v = 0.2, t = 0.2)
movej(p[0.481095689130664, -0.0216229664815945, 0.222046161191293, -1.1705138877251, 1.17521524743398, -1.20107448250937], a = 0.2, v = 0.2, t = 0.2)
movej(p[0.478722900671887, -0.0213304536679586, 0.221678550254762, -1.20528954845506, 1.15863888292624, -1.20865810327431], a = 0.2, v = 0.2, t = 0.2)
movej(p[0.476386607270946, -0.0211139794638543, 0.221551416626055, -1.20875405880353, 1.1736066385816, -1.19497727398973], a = 0.2, v = 0.2, t = 0.2)
movej(p[0.474471324974128, -0.020918393842547, 0.22241968307019, -1.17620139983869, 1.19187827419086, -1.1864058863898], a = 0.2, v = 0.2, t = 0.2)
movej(p[0.47357902615004, -0.0208452297433097, 0.222970045771609, -1.17716473677357, 1.23689384505822, -1.15640462815622], a = 0.2, v = 0.2, t = 0.2)
movej(p[0.474152898248386, -0.0209316472185754, 0.223400226913349, -1.1892107079679, 1.25127674158106, -1.15339646861859], a = 0.2, v = 0.2, t = 0.2)
movej(p[0.475987466438917, -0.0211203394427977, 0.223373651078498, -1.20767230523976, 1.24741656791577, -1.19118906350853], a = 0.2, v = 0.2, t = 0.2)
movej(p[0.478235910258649, -0.0212305779607528, 0.223241233460861, -1.21112769848473, 1.25217517196601, -1.21079952123608], a = 0.2, v = 0.2, t = 0.2)
movej(p[0.480141409752272, -0.0213741072221528, 0.223299292748859, -1.18472622361588, 1.25635241960421, -1.21011898750978], a = 0.2, v = 0.2, t = 0.2)
movej(p[0.481762334688065, -0.0214465774519396, 0.223125824295189, -1.18361497971388, 1.28381996761425, -1.19482133893645], a = 0.2, v = 0.2, t = 0.2)
movej(p[0.483146062693237, -0.0216534209487824, 0.222970692398028, -1.19999517708791, 1.26836759529729, -1.21479946202592], a = 0.2, v = 0.2, t = 0.2)
movej(p[0.484335878583972, -0.021806650137735, 0.222537931741075, -1.20318169100264, 1.26496541758868, -1.22538676832724], a = 0.2, v = 0.2, t = 0.2)
movej(p[0.48528136992177, -0.021900459541297, 0.22239590454631, -1.19703241646972, 1.26807935788238, -1.21752236691155], a = 0.2, v = 0.2, t = 0.2)
movej(p[0.485921306536109, -0.0220551831123037, 0.222036775883846, -1.15173925806866, 1.27729957655868, -1.21202437627949], a = 0.2, v = 0.2, t = 0.2)
movej(p[0.486367090736796, -0.0220423686639169, 0.221887843117705, -1.12900280189008, 1.29074465867385, -1.2107452873105], a = 0.2, v = 0.2, t = 0.2)
movej(p[0.486477610340159, -0.0219427514182403, 0.221777588673184, -1.11595872102806, 1.26213921921884, -1.23314475991269], a = 0.2, v = 0.2, t = 0.2)
movej(p[0.485826359950868, -0.0219286124447169, 0.221513600031806, -1.13443629212338, 1.21099795419452, -1.26020412080339], a = 0.2, v = 0.2, t = 0.2)
movej(p[0.484175862770768, -0.0217819825345496, 0.221244613674481, -1.14436075996714, 1.16416648753675, -1.27720654801482], a = 0.2, v = 0.2, t = 0.2)
movej(p[0.481753864026147, -0.0217184526492456, 0.220838058619016, -1.14880271399491, 1.15274012384211, -1.26480968471407], a = 0.2, v = 0.2, t = 0.2)
movej(p[0.479030650286907, -0.0213247994205009, 0.221107826934456, -1.16783505785698, 1.17695900988709, -1.22492713010065], a = 0.2, v = 0.2, t = 0.2)
movej(p[0.47658295880816, -0.0211645224738142, 0.221487629964007, -1.19291742547714, 1.17434645323743, -1.19369252747614], a = 0.2, v = 0.2, t = 0.2)
movej(p[0.474798854712184, -0.0209984124191307, 0.22244635313188, -1.18868317632016, 1.20334666078842, -1.15101479018385], a = 0.2, v = 0.2, t = 0.2)
movej(p[0.474354765682372, -0.0210302696901066, 0.222875691618726, -1.16919406606646, 1.22508049383851, -1.13658927014], a = 0.2, v = 0.2, t = 0.2)
movej(p[0.475276514651317, -0.0209869503304349, 0.223077113588052, -1.18430994279428, 1.29639135935246, -1.12128124951515], a = 0.2, v = 0.2, t = 0.2)
movej(p[0.477265342829451, -0.0211306716919635, 0.222728960940924, -1.20962856080307, 1.29706400198955, -1.16441073107259], a = 0.2, v = 0.2, t = 0.2)
movej(p[0.479644851837523, -0.0212769678285639, 0.222746834381185, -1.22834070289425, 1.31202703464498, -1.19501765826315], a = 0.2, v = 0.2, t = 0.2)
movej(p[0.481727631279939, -0.0215893439381348, 0.222752667777915, -1.19730274721199, 1.27904081559957, -1.22035913788776], a = 0.2, v = 0.2, t = 0.2)
movej(p[0.483261483479692, -0.0217317733728202, 0.222659956109028, -1.18656044073333, 1.27326367093857, -1.2290827584677], a = 0.2, v = 0.2, t = 0.2)
movej(p[0.484399711756123, -0.0217112068055365, 0.222502691415139, -1.1865013465083, 1.28013163789529, -1.23211924092661], a = 0.2, v = 0.2, t = 0.2)
movej(p[0.485116825083196, -0.0216395349455709, 0.222279686570747, -1.19044574242022, 1.28588489070462, -1.24202549387033], a = 0.2, v = 0.2, t = 0.2)
movej(p[0.485636493138384, -0.0217002575223023, 0.222226502856198, -1.1741395956623, 1.25372110958823, -1.25505541330265], a = 0.2, v = 0.2, t = 0.2)
movej(p[0.485781131972278, -0.0218690827147192, 0.221677993237563, -1.15238933988318, 1.18010417394935, -1.27479390334564], a = 0.2, v = 0.2, t = 0.2)
movej(p[0.485022986358349, -0.0219378811329659, 0.221318478930023, -1.12303529958724, 1.11111336246933, -1.29210915269384], a = 0.2, v = 0.2, t = 0.2)
movej(p[0.483331124158974, -0.0217767142266244, 0.22100792154285, -1.13119971546103, 1.09683607817893, -1.29953433406511], a = 0.2, v = 0.2, t = 0.2)
movej(p[0.480659184576062, -0.0215324694797371, 0.220821265625758, -1.12678109282713, 1.13213803170754, -1.26328998382985], a = 0.2, v = 0.2, t = 0.2)
movej(p[0.477691391329387, -0.0212226547573878, 0.221201496430324, -1.14994524771948, 1.16209810907245, -1.22180028553008], a = 0.2, v = 0.2, t = 0.2)
movej(p[0.474798011959519, -0.0211060035312869, 0.221744290205361, -1.16303809260782, 1.18311989473102, -1.16455560939513], a = 0.2, v = 0.2, t = 0.2)
movej(p[0.472297375913362, -0.0208611835697735, 0.222756148006674, -1.20247286662998, 1.17858525564696, -1.14702723053178], a = 0.2, v = 0.2, t = 0.2)
movej(p[0.471059813536874, -0.0207039263361578, 0.22359858366171, -1.22316578160465, 1.2028417133404, -1.12288757913131], a = 0.2, v = 0.2, t = 0.2)
movej(p[0.47155104980087, -0.020734307562125, 0.224149678325216, -1.23897732266997, 1.22492882605716, -1.13118763589499], a = 0.2, v = 0.2, t = 0.2)
movej(p[0.473611012096763, -0.0209306431738788, 0.224121914911221, -1.23560543380187, 1.25476588149137, -1.14456936635527], a = 0.2, v = 0.2, t = 0.2)
movej(p[0.476191308574994, -0.0212451252442565, 0.223725467955954, -1.25202708848427, 1.25648699295636, -1.17583682507616], a = 0.2, v = 0.2, t = 0.2)
movej(p[0.47862958346936, -0.0213111743968954, 0.223120357734393, -1.23888986855622, 1.27528543073697, -1.19359894197528], a = 0.2, v = 0.2, t = 0.2)
movej(p[0.480640182546296, -0.021463967709417, 0.223040006244832, -1.22901197384999, 1.27855386370347, -1.20396390954382], a = 0.2, v = 0.2, t = 0.2)
movej(p[0.482257255062583, -0.0215470026780376, 0.222834282353523, -1.20916922163695, 1.28345199830052, -1.21445110025293], a = 0.2, v = 0.2, t = 0.2)
movej(p[0.483395556394924, -0.0217635479979432, 0.222935934234067, -1.19382345555298, 1.26274629851634, -1.22796189972855], a = 0.2, v = 0.2, t = 0.2)
movej(p[0.484309658074838, -0.0218342983079219, 0.222601213216927, -1.181284235277, 1.23323768957572, -1.25443906699517], a = 0.2, v = 0.2, t = 0.2)
movej(p[0.484972865127995, -0.0218533541683048, 0.222621350916103, -1.15173334454772, 1.22470273497367, -1.25932829583406], a = 0.2, v = 0.2, t = 0.2)
movej(p[0.484761068327028, -0.0217811776199564, 0.22261488999754, -1.14376805460669, 1.21688026613647, -1.25110682314641], a = 0.2, v = 0.2, t = 0.2)
movej(p[0.483453868646016, -0.0218152029912707, 0.222487426667646, -1.13801121499493, 1.21256324852865, -1.2136640757873], a = 0.2, v = 0.2, t = 0.2)
movej(p[0.480983705107518, -0.0217052371792438, 0.221818118210984, -1.14651669431238, 1.17491657658127, -1.20461105824509], a = 0.2, v = 0.2, t = 0.2)
movej(p[0.478107707441151, -0.0215530319131475, 0.221295453764011, -1.15174212257162, 1.16053601255788, -1.19275140162127], a = 0.2, v = 0.2, t = 0.2)
movej(p[0.475055593640371, -0.021219621288576, 0.221453864638027, -1.18389111326528, 1.17542569936455, -1.16754369845027], a = 0.2, v = 0.2, t = 0.2)
movej(p[0.472265296247516, -0.0208682713390616, 0.222311202741989, -1.18808618751791, 1.20679569639264, -1.11942784251702], a = 0.2, v = 0.2, t = 0.2)
movej(p[0.470495125795817, -0.020722712887506, 0.22365636943408, -1.21447048601912, 1.23889792400194, -1.0815059105696], a = 0.2, v = 0.2, t = 0.2)
movej(p[0.469950918008386, -0.020774895541244, 0.224456005206884, -1.21069614382813, 1.27485951400622, -1.0661793429216], a = 0.2, v = 0.2, t = 0.2)
movej(p[0.471155072499297, -0.0208994028016785, 0.224724132042948, -1.24368709722789, 1.30241991248178, -1.09718404358238], a = 0.2, v = 0.2, t = 0.2)
movej(p[0.473457550489655, -0.0209687016703015, 0.224319216275874, -1.24098090316441, 1.32771053119024, -1.12453557623536], a = 0.2, v = 0.2, t = 0.2)
movej(p[0.476161150333161, -0.0210567512240748, 0.224107590821889, -1.23630239285649, 1.31894389308742, -1.17179738482921], a = 0.2, v = 0.2, t = 0.2)
movej(p[0.478520179206323, -0.0213934168051448, 0.223843035589259, -1.19164126449824, 1.27801456809534, -1.19991599977385], a = 0.2, v = 0.2, t = 0.2)
movej(p[0.480273580005032, -0.021566882286535, 0.223866494222092, -1.15408679677875, 1.27730221044344, -1.20027721472007], a = 0.2, v = 0.2, t = 0.2)
movej(p[0.481618902977338, -0.0217218669343646, 0.223814509627996, -1.12736329711954, 1.27469341085748, -1.19883213285517], a = 0.2, v = 0.2, t = 0.2)
movej(p[0.482648613986084, -0.0216824025615208, 0.223471493408785, -1.12325357204597, 1.29905264264325, -1.18473559339093], a = 0.2, v = 0.2, t = 0.2)
movej(p[0.483491623331604, -0.0218066396606542, 0.223030379110485, -1.12185376004932, 1.29098481883336, -1.19288813049253], a = 0.2, v = 0.2, t = 0.2)
movej(p[0.484161598559641, -0.0218186417305211, 0.222386985998433, -1.12725665155168, 1.26296343690681, -1.21668995295482], a = 0.2, v = 0.2, t = 0.2)
movej(p[0.483930798017484, -0.0217155197224838, 0.222117118580433, -1.13010889927141, 1.25207626836048, -1.20891768106139], a = 0.2, v = 0.2, t = 0.2)
movej(p[0.482581185015303, -0.0215080039604522, 0.221924120765804, -1.13200628983521, 1.22512012478395, -1.19564718606395], a = 0.2, v = 0.2, t = 0.2)
movej(p[0.479903989902865, -0.0214501594217345, 0.221637404108141, -1.135310017157, 1.19740673836988, -1.17514767948053], a = 0.2, v = 0.2, t = 0.2)
movej(p[0.476915645930504, -0.0213547484564608, 0.221819780293702, -1.14539747592373, 1.16416324487392, -1.17209199446803], a = 0.2, v = 0.2, t = 0.2)
movej(p[0.47376980147673, -0.0211116938174809, 0.222125037821099, -1.16373935699212, 1.14601433356962, -1.15789306611105], a = 0.2, v = 0.2, t = 0.2)
movej(p[0.470979409652326, -0.0207443878073758, 0.223169197070052, -1.15929428834065, 1.15634176547287, -1.14177296726812], a = 0.2, v = 0.2, t = 0.2)
movej(p[0.46916261536989, -0.0204228582107742, 0.223951446909563, -1.19361393844793, 1.18243579234973, -1.13889975076967], a = 0.2, v = 0.2, t = 0.2)
movej(p[0.469261931123788, -0.0204647013027196, 0.224454589389666, -1.22922126908631, 1.22114110845791, -1.13898412022026], a = 0.2, v = 0.2, t = 0.2)
movej(p[0.471060503393542, -0.0206704567147233, 0.224711011676927, -1.25117134183241, 1.25998241772331, -1.14699194528357], a = 0.2, v = 0.2, t = 0.2)
movej(p[0.47366359461995, -0.0210092298325247, 0.224769149014805, -1.23315601736288, 1.28210171319949, -1.14984967815253], a = 0.2, v = 0.2, t = 0.2)
movej(p[0.476259716724469, -0.0211854549296325, 0.224599345489577, -1.21707199468184, 1.28892160599656, -1.16003163940914], a = 0.2, v = 0.2, t = 0.2)
movej(p[0.478454953318268, -0.0213636169681245, 0.224187167199317, -1.1928378120283, 1.2852988260661, -1.16820226206081], a = 0.2, v = 0.2, t = 0.2)
movej(p[0.480190173295476, -0.0214901170697676, 0.223955409464856, -1.17788961129807, 1.28434695745511, -1.1820582136651], a = 0.2, v = 0.2, t = 0.2)
movej(p[0.481553987866656, -0.0215557750957644, 0.223921811382202, -1.14268124114406, 1.29112973307289, -1.17910199644253], a = 0.2, v = 0.2, t = 0.2)
movej(p[0.482585760450264, -0.0215830495418444, 0.223948447005077, -1.13261772943558, 1.2725683381786, -1.19357856495839], a = 0.2, v = 0.2, t = 0.2)
movej(p[0.483527023122916, -0.021668499053528, 0.223571163539197, -1.12373998053062, 1.27844510879697, -1.1828835167132], a = 0.2, v = 0.2, t = 0.2)
movej(p[0.48396600616597, -0.0217273386011892, 0.223085276025938, -1.12829984825261, 1.21403593343601, -1.23026775824371], a = 0.2, v = 0.2, t = 0.2)
movej(p[0.483375040951854, -0.0218187433931263, 0.222409460503909, -1.12175917940727, 1.17264614212984, -1.24281494399873], a = 0.2, v = 0.2, t = 0.2)
movej(p[0.481232715968847, -0.0216042481658394, 0.222098884491388, -1.13082605702895, 1.1163263053838, -1.26249205440877], a = 0.2, v = 0.2, t = 0.2)
movej(p[0.478037294885157, -0.0213698227523911, 0.222063165647059, -1.13879988721598, 1.14050308667154, -1.22208760508694], a = 0.2, v = 0.2, t = 0.2)
movej(p[0.47496908615479, -0.0210488599835382, 0.222505107263629, -1.17766931373825, 1.16444229102921, -1.17705809253373], a = 0.2, v = 0.2, t = 0.2)
movej(p[0.472339256525584, -0.0207358363098482, 0.223119510097087, -1.18866763229156, 1.16053711472613, -1.15297063711156], a = 0.2, v = 0.2, t = 0.2)
movej(p[0.470557686204265, -0.0205916662127779, 0.223820747264817, -1.21166851388479, 1.18737180934532, -1.12875533349597], a = 0.2, v = 0.2, t = 0.2)
movej(p[0.470052757652359, -0.0204905019466499, 0.224416326982763, -1.20994518797675, 1.20196985888417, -1.12980685481761], a = 0.2, v = 0.2, t = 0.2)
movej(p[0.471168488167135, -0.0207211684881954, 0.224660830906673, -1.22865362265487, 1.26604181205886, -1.12590665396086], a = 0.2, v = 0.2, t = 0.2)
movej(p[0.473498067145001, -0.0208922651358175, 0.22474063618883, -1.24158095995004, 1.27529152625105, -1.14484651605529], a = 0.2, v = 0.2, t = 0.2)
movej(p[0.475968666693791, -0.0211258580210063, 0.22441207201411, -1.23146478250041, 1.25084794973566, -1.19278974356507], a = 0.2, v = 0.2, t = 0.2)
movej(p[0.478194192372071, -0.0212951242706984, 0.224246722463044, -1.20650765022915, 1.21649537968377, -1.22132112940715], a = 0.2, v = 0.2, t = 0.2)
movej(p[0.479886122620871, -0.0215078274072273, 0.224170497408078, -1.19416018018693, 1.20498795477297, -1.24223509723817], a = 0.2, v = 0.2, t = 0.2)
movej(p[0.481080412248384, -0.0216259367928509, 0.224045372426385, -1.1697546349063, 1.22006445742928, -1.23532433659294], a = 0.2, v = 0.2, t = 0.2)
movej(p[0.482059870780208, -0.0216994299537985, 0.22372621743562, -1.18222493133243, 1.24945539493479, -1.23091138685084], a = 0.2, v = 0.2, t = 0.2)
movej(p[0.482942784735728, -0.0218460418973226, 0.223300910443832, -1.19095885786837, 1.25929597046862, -1.22784415160125], a = 0.2, v = 0.2, t = 0.2)
movej(p[0.483500266902114, -0.0219262513168793, 0.223048611027113, -1.20102609454048, 1.25555601405018, -1.2229572756318], a = 0.2, v = 0.2, t = 0.2)
movej(p[0.483302998113584, -0.0220027430481674, 0.222649037765974, -1.19274306205243, 1.22716813169486, -1.21639803384928], a = 0.2, v = 0.2, t = 0.2)
movej(p[0.481870210859224, -0.0219075035907852, 0.222061714659754, -1.16458027763444, 1.18609066860014, -1.22476765820126], a = 0.2, v = 0.2, t = 0.2)
movej(p[0.479353147986388, -0.0217098033233979, 0.221875956352903, -1.15112348128004, 1.1957461884085, -1.20329833073809], a = 0.2, v = 0.2, t = 0.2)
movej(p[0.476464969697905, -0.0213880232570337, 0.222199209945966, -1.14084609722592, 1.19297771203243, -1.18334303552643], a = 0.2, v = 0.2, t = 0.2)
movej(p[0.473508901710726, -0.0209973894076544, 0.222852159058374, -1.15928372522454, 1.21998181201108, -1.1400693476075], a = 0.2, v = 0.2, t = 0.2)
movej(p[0.470918657824618, -0.0207399341921318, 0.223667241087425, -1.18647289904704, 1.22291543950948, -1.11615969691283], a = 0.2, v = 0.2, t = 0.2)
movej(p[0.468935906905348, -0.0205631424665321, 0.224439115441961, -1.22853662968147, 1.23185650581767, -1.1151303179295], a = 0.2, v = 0.2, t = 0.2)
movej(p[0.468655886061353, -0.0205338197223817, 0.224994078066487, -1.23939142414616, 1.26514857838341, -1.10285373328211], a = 0.2, v = 0.2, t = 0.2)
movej(p[0.470071624198227, -0.0206746132105523, 0.225037370919415, -1.24900542797709, 1.28845431458029, -1.1146711082309], a = 0.2, v = 0.2, t = 0.2)
movej(p[0.472682573688939, -0.0209603899928335, 0.224573488310061, -1.23243059223956, 1.30032330158782, -1.12892440045546], a = 0.2, v = 0.2, t = 0.2)
movej(p[0.475516678102406, -0.0212418560218871, 0.224369844924072, -1.20856628558496, 1.27575855152548, -1.16246780864974], a = 0.2, v = 0.2, t = 0.2)
movej(p[0.477794515878534, -0.0214963897156044, 0.224137891751842, -1.19368953010629, 1.2433986135319, -1.19272114691127], a = 0.2, v = 0.2, t = 0.2)
movej(p[0.479545064067086, -0.021501817598254, 0.224115783887939, -1.17763834836201, 1.25523006200424, -1.19442288814746], a = 0.2, v = 0.2, t = 0.2)
movej(p[0.48098242437278, -0.0215954984614135, 0.223988488376653, -1.16975273081476, 1.26988152845169, -1.1890024598576], a = 0.2, v = 0.2, t = 0.2)
movej(p[0.482221885675058, -0.021630686487751, 0.223626240577685, -1.17591604442323, 1.28306863952681, -1.19605901736648], a = 0.2, v = 0.2, t = 0.2)
movej(p[0.483354458402936, -0.0218743724224191, 0.223452713584364, -1.17959614146922, 1.27030252522862, -1.20883394752833], a = 0.2, v = 0.2, t = 0.2)
movej(p[0.483944720347108, -0.0218803738548563, 0.223206910968082, -1.18853028750592, 1.24240865952743, -1.23476410717695], a = 0.2, v = 0.2, t = 0.2)
movej(p[0.483508252470915, -0.0217929414846717, 0.222819244357068, -1.15544888032955, 1.23367021257615, -1.22755808732717], a = 0.2, v = 0.2, t = 0.2)
movej(p[0.481542919809915, -0.0215838326634441, 0.22212100074443, -1.14423539623785, 1.20353325541271, -1.21885502660921], a = 0.2, v = 0.2, t = 0.2)
movej(p[0.478607471456987, -0.0214414142931353, 0.221523247109565, -1.14215568176872, 1.18993819855302, -1.19007566550687], a = 0.2, v = 0.2, t = 0.2)
movej(p[0.475226043431035, -0.0212180743272224, 0.221948560308791, -1.14202876791556, 1.16972525659602, -1.15857504215753], a = 0.2, v = 0.2, t = 0.2)
movej(p[0.471979188107131, -0.020898402569589, 0.22279390007309, -1.15800144792288, 1.17598908338814, -1.12278449762097], a = 0.2, v = 0.2, t = 0.2)
movej(p[0.469149804832925, -0.0205724022073886, 0.223787879184081, -1.1753846305521, 1.20253330911537, -1.08345638145546], a = 0.2, v = 0.2, t = 0.2)
movej(p[0.467915663848153, -0.0204004829951039, 0.224209451183096, -1.22822509030064, 1.23740175202577, -1.07082999722182], a = 0.2, v = 0.2, t = 0.2)
movej(p[0.468716232416061, -0.0205539833886115, 0.224566360539895, -1.24114308134951, 1.26990873290113, -1.07765031183117], a = 0.2, v = 0.2, t = 0.2)
movej(p[0.47098700979804, -0.0207636684070441, 0.224731787933445, -1.24810796875492, 1.27069194696002, -1.11638763619724], a = 0.2, v = 0.2, t = 0.2)
movej(p[0.47377972505394, -0.0210012041185239, 0.225065175299897, -1.22566635561432, 1.27051650673493, -1.14806306402556], a = 0.2, v = 0.2, t = 0.2)
movej(p[0.476226305478863, -0.0211833403118589, 0.22496484286033, -1.21264641220983, 1.26535346291947, -1.17111388358338], a = 0.2, v = 0.2, t = 0.2)
movej(p[0.478320899600099, -0.0213952908777642, 0.224516773071069, -1.20604032267285, 1.27638234264231, -1.18710469033155], a = 0.2, v = 0.2, t = 0.2)
movej(p[0.47993822748415, -0.0216548421150683, 0.224046168101391, -1.18503688749699, 1.29057902471596, -1.17730952852727], a = 0.2, v = 0.2, t = 0.2)
movej(p[0.481313745390391, -0.0217027365546793, 0.223731401937606, -1.18513725488008, 1.30722507431409, -1.18692933639952], a = 0.2, v = 0.2, t = 0.2)
movej(p[0.482662627259593, -0.0216947916525822, 0.223837295058574, -1.15728074445054, 1.30628558525172, -1.18090908839863], a = 0.2, v = 0.2, t = 0.2)
movej(p[0.483724469928408, -0.0216475151671528, 0.22378931815779, -1.12293356205492, 1.2855049195861, -1.20094305578342], a = 0.2, v = 0.2, t = 0.2)
movej(p[0.484015951002314, -0.0217585780998366, 0.22337365626702, -1.07291612777063, 1.23413318879595, -1.21262354036714], a = 0.2, v = 0.2, t = 0.2)
movej(p[0.482872193728904, -0.0217442928154641, 0.222512013864935, -1.05673892425429, 1.18529076607, -1.22009263924767], a = 0.2, v = 0.2, t = 0.2)
movej(p[0.480371888146459, -0.0216216202144946, 0.221789269608462, -1.10346248076234, 1.15964605042677, -1.20575784180556], a = 0.2, v = 0.2, t = 0.2)
movej(p[0.477381939081355, -0.0212758161889697, 0.221719957871278, -1.15445621726864, 1.17208886483964, -1.17830485209508], a = 0.2, v = 0.2, t = 0.2)
movej(p[0.474011887905787, -0.0208576844009403, 0.222374105149722, -1.20717466219268, 1.19766734002286, -1.14350747826589], a = 0.2, v = 0.2, t = 0.2)
movej(p[0.471132159114801, -0.0206021205013739, 0.223393927899616, -1.19246639185247, 1.21882977108176, -1.10309553590413], a = 0.2, v = 0.2, t = 0.2)
movej(p[0.469481135718039, -0.0204513011429874, 0.224211346029266, -1.23042529528176, 1.24548215004967, -1.08855631941372], a = 0.2, v = 0.2, t = 0.2)
movej(p[0.469429381679616, -0.0205919855768117, 0.224675722480636, -1.24072184447273, 1.26229039880842, -1.10006755671624], a = 0.2, v = 0.2, t = 0.2)
movej(p[0.471046193280516, -0.0207839824304732, 0.224973103023844, -1.24729789943424, 1.28147756952179, -1.118808175373], a = 0.2, v = 0.2, t = 0.2)
movej(p[0.473376076104071, -0.0210700553110254, 0.224836423456963, -1.22697376997134, 1.25712416616149, -1.15402826273088], a = 0.2, v = 0.2, t = 0.2)
movej(p[0.475888394657286, -0.0213376644117847, 0.22470139312472, -1.19065182472168, 1.24574791597273, -1.16882695750903], a = 0.2, v = 0.2, t = 0.2)
movej(p[0.478115159060333, -0.0215132501519099, 0.224358215956942, -1.19146528112071, 1.23087613926773, -1.19291908889553], a = 0.2, v = 0.2, t = 0.2)
movej(p[0.479776364437893, -0.0216154597519544, 0.224331085394359, -1.14658394697997, 1.24880519920132, -1.18093883289282], a = 0.2, v = 0.2, t = 0.2)
movej(p[0.481207658937493, -0.0217687223733654, 0.224122179145544, -1.14844089986662, 1.25663998050387, -1.19837434419109], a = 0.2, v = 0.2, t = 0.2)
movej(p[0.482394513643968, -0.0217873654545441, 0.223866846288786, -1.14499496735823, 1.27449394262844, -1.19857612638277], a = 0.2, v = 0.2, t = 0.2)
movej(p[0.483433671801119, -0.0218375897822512, 0.223231605965024, -1.17444496995405, 1.27428710887603, -1.21957846092501], a = 0.2, v = 0.2, t = 0.2)
movej(p[0.484175418465305, -0.0218381873376672, 0.222784724293105, -1.15318736265172, 1.25491318378097, -1.21514331275883], a = 0.2, v = 0.2, t = 0.2)
movej(p[0.483673775294586, -0.0217753107051856, 0.222401531967428, -1.12918630581682, 1.19920281264748, -1.23219219039944], a = 0.2, v = 0.2, t = 0.2)
movej(p[0.481866336378138, -0.0216045222028873, 0.221963055002934, -1.12117312929162, 1.15018247140883, -1.24084373347113], a = 0.2, v = 0.2, t = 0.2)
movej(p[0.478790728493626, -0.021370318499509, 0.221836114057406, -1.14992057463404, 1.13422527679531, -1.23022902472077], a = 0.2, v = 0.2, t = 0.2)
movej(p[0.475433223615559, -0.021197864871915, 0.221877536928267, -1.17912057388401, 1.15657660454982, -1.20089303707929], a = 0.2, v = 0.2, t = 0.2)
movej(p[0.47223376615636, -0.0210072040988455, 0.222767347067021, -1.1937999050946, 1.19344905775622, -1.14954941196411], a = 0.2, v = 0.2, t = 0.2)
movej(p[0.469612822000879, -0.0207529512130104, 0.223835778178317, -1.22646200521601, 1.20814142348886, -1.11583690850772], a = 0.2, v = 0.2, t = 0.2)
movej(p[0.468759991269879, -0.0204688267681712, 0.224636967865349, -1.24471980582813, 1.22794547733693, -1.10172785316526], a = 0.2, v = 0.2, t = 0.2)
movej(p[0.469614881550135, -0.0205251008941145, 0.224879884453241, -1.26593987294252, 1.24634130377504, -1.1162997093479], a = 0.2, v = 0.2, t = 0.2)
movej(p[0.472196955406891, -0.0207614232784891, 0.224546703002077, -1.26006610311984, 1.26813251666131, -1.14870877564617], a = 0.2, v = 0.2, t = 0.2)
movej(p[0.474999536073116, -0.0211510766640848, 0.224338619496694, -1.25253585734744, 1.26088941453932, -1.18207170050768], a = 0.2, v = 0.2, t = 0.2)
movej(p[0.47750538667675, -0.0213145999965733, 0.224311093663872, -1.21966583302429, 1.2674599455, -1.18766335070013], a = 0.2, v = 0.2, t = 0.2)
movej(p[0.479185543291289, -0.0213622560443532, 0.22428055812665, -1.19601677000666, 1.25578230723878, -1.18698423878595], a = 0.2, v = 0.2, t = 0.2)
movej(p[0.480556992352522, -0.021426851382802, 0.223848036048031, -1.17948212257539, 1.26533829783903, -1.18551312728932], a = 0.2, v = 0.2, t = 0.2)
movej(p[0.481674555213903, -0.0215757086167362, 0.223399885025309, -1.17625990704307, 1.25414882764057, -1.20001307707201], a = 0.2, v = 0.2, t = 0.2)
movej(p[0.482732474497529, -0.0216760549466056, 0.223024748632761, -1.14767797548752, 1.27613179002198, -1.20123793707797], a = 0.2, v = 0.2, t = 0.2)
movej(p[0.483473608681683, -0.0217411353878678, 0.222853299574019, -1.11941421317908, 1.29717627913962, -1.18770657090043], a = 0.2, v = 0.2, t = 0.2)
movej(p[0.48317160614556, -0.0216730009602266, 0.222459143754012, -1.08628663787362, 1.27396187352428, -1.19202241691432], a = 0.2, v = 0.2, t = 0.2)
movej(p[0.481580022573264, -0.0216374217571821, 0.221974058573545, -1.0760316292242, 1.20333213523478, -1.21020530394265], a = 0.2, v = 0.2, t = 0.2)
movej(p[0.478936081934656, -0.0214602038808416, 0.221712609189877, -1.06488902306202, 1.157499314497, -1.20299023039335], a = 0.2, v = 0.2, t = 0.2)
movej(p[0.47612496692289, -0.021166863842581, 0.222101188162259, -1.09158716773158, 1.17242488825472, -1.16113377695454], a = 0.2, v = 0.2, t = 0.2)
movej(p[0.473826884916225, -0.020854755812087, 0.223020470794555, -1.13309032536167, 1.225282989554, -1.11848997912441], a = 0.2, v = 0.2, t = 0.2)
movej(p[0.472466610652423, -0.0206690825436208, 0.224070879506922, -1.18538513543157, 1.24670999191022, -1.1002139807307], a = 0.2, v = 0.2, t = 0.2)
movej(p[0.472436038542663, -0.0207713049915963, 0.224372175919836, -1.22166299423595, 1.24349037103419, -1.1380803318445], a = 0.2, v = 0.2, t = 0.2)
movej(p[0.473593872974879, -0.0209077428962618, 0.224549724773527, -1.23645638365831, 1.2549405073023, -1.16608909113652], a = 0.2, v = 0.2, t = 0.2)
movej(p[0.475480330554815, -0.0211020038053725, 0.224277504023618, -1.22953823819582, 1.27947083800015, -1.1934885577941], a = 0.2, v = 0.2, t = 0.2)
movej(p[0.477525035700986, -0.0212521928991564, 0.224146187608984, -1.22387396912549, 1.29670028500524, -1.19249668811376], a = 0.2, v = 0.2, t = 0.2)
movej(p[0.479256911864922, -0.0215231323546291, 0.223856509696881, -1.21176084081671, 1.28954834428662, -1.19706779376401], a = 0.2, v = 0.2, t = 0.2)
movej(p[0.480712494854024, -0.0217289674023448, 0.223636338463817, -1.20259941703333, 1.27419000591144, -1.20944890645877], a = 0.2, v = 0.2, t = 0.2)
movej(p[0.481857544986519, -0.0218612066049715, 0.223640573432657, -1.1644492783978, 1.30200265969489, -1.18696579892718], a = 0.2, v = 0.2, t = 0.2)
movej(p[0.482762847172676, -0.0218387847260823, 0.223281855227534, -1.16510843280972, 1.29746987694975, -1.20456818017701], a = 0.2, v = 0.2, t = 0.2)
movej(p[0.483542241548571, -0.0218080952926094, 0.222849801240172, -1.15787642833255, 1.29381711868179, -1.19519110421461], a = 0.2, v = 0.2, t = 0.2)
movej(p[0.483316671247601, -0.0217864486781934, 0.222047254141302, -1.16278931093125, 1.23523016604847, -1.22754744344985], a = 0.2, v = 0.2, t = 0.2)
movej(p[0.481826372570924, -0.021644933760631, 0.221730765164556, -1.15421861693153, 1.22079750225183, -1.20441121531678], a = 0.2, v = 0.2, t = 0.2)
movej(p[0.478794045453805, -0.0214419726555646, 0.221619884708577, -1.14634921465547, 1.20406403610939, -1.18232799692385], a = 0.2, v = 0.2, t = 0.2)
movej(p[0.475142608092657, -0.0211432050103562, 0.222004784663146, -1.15366673406903, 1.19324076983393, -1.15033401640969], a = 0.2, v = 0.2, t = 0.2)
movej(p[0.471771792199868, -0.0209377352658714, 0.222790219549551, -1.17336590373534, 1.16840639182109, -1.14047014392941], a = 0.2, v = 0.2, t = 0.2)
movej(p[0.469234796132901, -0.0207187080962643, 0.223627422045229, -1.21630745530265, 1.18525979612039, -1.12022829955625], a = 0.2, v = 0.2, t = 0.2)
movej(p[0.468359734221132, -0.0205630558729229, 0.224597269633069, -1.2751799096927, 1.2397525956111, -1.10848278150653], a = 0.2, v = 0.2, t = 0.2)
movej(p[0.469551879245543, -0.0204187860959198, 0.224914535135787, -1.29633926997602, 1.29976868411321, -1.09879754145745], a = 0.2, v = 0.2, t = 0.2)
movej(p[0.471922739184401, -0.0206380264524899, 0.224948501701249, -1.27806008565749, 1.31214146108321, -1.13057084982081], a = 0.2, v = 0.2, t = 0.2)
movej(p[0.474544633401522, -0.0209579268030047, 0.224769702469516, -1.23483850371267, 1.29809566483184, -1.14621835849215], a = 0.2, v = 0.2, t = 0.2)
movej(p[0.476608460186348, -0.021363859551148, 0.22466292842622, -1.17907116283675, 1.29139279216531, -1.14332166920282], a = 0.2, v = 0.2, t = 0.2)
movej(p[0.478361932033203, -0.0215001227307803, 0.224385192264616, -1.14932049063427, 1.26403747488316, -1.16215667180799], a = 0.2, v = 0.2, t = 0.2)
movej(p[0.479701680077644, -0.021625531351582, 0.223841865760437, -1.16109309388473, 1.2538255850307, -1.18277687334959], a = 0.2, v = 0.2, t = 0.2)
movej(p[0.480861844144832, -0.0217992071222734, 0.223408240779744, -1.18548605029268, 1.22852953506806, -1.22706985337426], a = 0.2, v = 0.2, t = 0.2)
movej(p[0.481950148740714, -0.0219353664785154, 0.223298962240269, -1.1847651298648, 1.23915413170152, -1.22341941001316], a = 0.2, v = 0.2, t = 0.2)
movej(p[0.482760308837768, -0.0219278843486211, 0.223112502218351, -1.16950936135712, 1.2355305004256, -1.22714818904382], a = 0.2, v = 0.2, t = 0.2)
movej(p[0.483121363314444, -0.0217634708716304, 0.222846695762718, -1.14526156366988, 1.22944647516324, -1.22178435213245], a = 0.2, v = 0.2, t = 0.2)
movej(p[0.482513184701573, -0.0217434271548796, 0.222216171163781, -1.13447612530776, 1.18148967631219, -1.22846752211533], a = 0.2, v = 0.2, t = 0.2)
movej(p[0.480917933273929, -0.0216866740945106, 0.221655468015191, -1.10904071276646, 1.13966764582497, -1.22145094910623], a = 0.2, v = 0.2, t = 0.2)
movej(p[0.478506625724157, -0.0214833283456742, 0.221409825460972, -1.12713221793442, 1.13176959478903, -1.20598952727368], a = 0.2, v = 0.2, t = 0.2)
movej(p[0.475745212361876, -0.021103776110461, 0.221830479553292, -1.16242179345283, 1.13908419648181, -1.19075811739346], a = 0.2, v = 0.2, t = 0.2)
movej(p[0.473140043656063, -0.0207682382452075, 0.222876631343913, -1.20713687288154, 1.18282893934762, -1.16317570178116], a = 0.2, v = 0.2, t = 0.2)
movej(p[0.471526155559215, -0.0206366327147267, 0.22361462268641, -1.22691492438331, 1.19596017208479, -1.15269098123429], a = 0.2, v = 0.2, t = 0.2)
movej(p[0.47156134905801, -0.0206360809754497, 0.224046308390165, -1.24529094765814, 1.23174085059314, -1.14156366554729], a = 0.2, v = 0.2, t = 0.2)
movej(p[0.473037358086445, -0.0207310699425148, 0.223982420308213, -1.23880843020121, 1.26460227485829, -1.13841204087678], a = 0.2, v = 0.2, t = 0.2)
movej(p[0.475301574111357, -0.0209703069856431, 0.223926800076963, -1.22275617490021, 1.28203889187801, -1.14898874962699], a = 0.2, v = 0.2, t = 0.2)
movej(p[0.477431138683942, -0.0213144219413777, 0.223775001899003, -1.19244021674877, 1.30202844089121, -1.1595560222431], a = 0.2, v = 0.2, t = 0.2)
movej(p[0.479323973753737, -0.0216067306813849, 0.223607788919035, -1.17678864481175, 1.27689657490731, -1.19479768783679], a = 0.2, v = 0.2, t = 0.2)
movej(p[0.480722717080262, -0.0217195968728978, 0.223252008229684, -1.17357532378263, 1.25381589853305, -1.21049612367228], a = 0.2, v = 0.2, t = 0.2)
movej(p[0.481843711908248, -0.0218174474697198, 0.223104409124234, -1.16517994283204, 1.23855720409207, -1.22099317998511], a = 0.2, v = 0.2, t = 0.2)
movej(p[0.48266896677427, -0.0218492495749366, 0.222876084347192, -1.17622049438235, 1.23678215197599, -1.22379583295738], a = 0.2, v = 0.2, t = 0.2)
movej(p[0.483492265381147, -0.0219335181479384, 0.222698524082443, -1.17948998245409, 1.23573284495254, -1.239740383292], a = 0.2, v = 0.2, t = 0.2)
movej(p[0.483995879694186, -0.021924841025779, 0.222403744450592, -1.18697629575736, 1.21760181729713, -1.25229193734024], a = 0.2, v = 0.2, t = 0.2)
movej(p[0.483581152124331, -0.0219881164845258, 0.222000798628895, -1.15191627889115, 1.19225930464371, -1.24790753001774], a = 0.2, v = 0.2, t = 0.2)
movej(p[0.481766523117378, -0.0218729535918052, 0.221581189673243, -1.12748114605814, 1.17053629545417, -1.23492489883287], a = 0.2, v = 0.2, t = 0.2)
movej(p[0.479211226433041, -0.021606679123733, 0.221315590718482, -1.13046119403246, 1.16625490447306, -1.21256722015796], a = 0.2, v = 0.2, t = 0.2)
movej(p[0.476799220964635, -0.0212646841660828, 0.221417543128561, -1.17081135591567, 1.17309746781878, -1.1942869348884], a = 0.2, v = 0.2, t = 0.2)
movej(p[0.4746326307253, -0.0209637572068202, 0.221938481968548, -1.20104332269676, 1.17439806197501, -1.18469939100784], a = 0.2, v = 0.2, t = 0.2)
movej(p[0.473120845940619, -0.0208205271421403, 0.222602749795467, -1.21315807427099, 1.1881499273023, -1.1704226829053], a = 0.2, v = 0.2, t = 0.2)
movej(p[0.472620857281203, -0.0206991795764025, 0.223289579227818, -1.21062496109319, 1.20624545956655, -1.16765842164375], a = 0.2, v = 0.2, t = 0.2)
movej(p[0.473628486342088, -0.0207759839264742, 0.223707318196398, -1.21702490891084, 1.25182330895384, -1.15078653067923], a = 0.2, v = 0.2, t = 0.2)
movej(p[0.475618863855389, -0.0211239210577569, 0.223639517695943, -1.21046450808841, 1.28406866975035, -1.14648969326645], a = 0.2, v = 0.2, t = 0.2)
movej(p[0.477882335229099, -0.021375754065362, 0.22349465873018, -1.20153431311976, 1.29841149670551, -1.1628870556501], a = 0.2, v = 0.2, t = 0.2)
movej(p[0.479782417542352, -0.0216246794482008, 0.223484443239947, -1.17571915542243, 1.28773175046516, -1.18552195001411], a = 0.2, v = 0.2, t = 0.2)
movej(p[0.481243920553803, -0.0215929217808122, 0.223693977747087, -1.15138443445085, 1.27624112701077, -1.19386165084062], a = 0.2, v = 0.2, t = 0.2)
movej(p[0.482384251621967, -0.0218161713470971, 0.223304360872923, -1.16291725191939, 1.26251580803141, -1.204130583242], a = 0.2, v = 0.2, t = 0.2)
movej(p[0.483363622795409, -0.0219139101222055, 0.222909728453991, -1.16375490830614, 1.23892588460954, -1.21685154795087], a = 0.2, v = 0.2, t = 0.2)
movej(p[0.4838048980158, -0.0220666416005119, 0.222407326060085, -1.17123126448894, 1.2117489893152, -1.24867075757683], a = 0.2, v = 0.2, t = 0.2)
movej(p[0.48340752258188, -0.0218311001868433, 0.222103794284873, -1.17538603729287, 1.19950094570216, -1.25059030998028], a = 0.2, v = 0.2, t = 0.2)
movej(p[0.481760674809355, -0.0216860167856627, 0.221811923947686, -1.18340320777938, 1.20362765342281, -1.23177699770769], a = 0.2, v = 0.2, t = 0.2)
movej(p[0.479297089393246, -0.0214789395130414, 0.221518040166062, -1.18232772234544, 1.19504884532143, -1.20133335566779], a = 0.2, v = 0.2, t = 0.2)
movej(p[0.476267835696449, -0.0214137145945219, 0.221801577292523, -1.16504232646383, 1.2001763621099, -1.17060815927147], a = 0.2, v = 0.2, t = 0.2)
movej(p[0.473074200778121, -0.0211712850194551, 0.222270629629927, -1.17971778246612, 1.20583524119854, -1.15086192520526], a = 0.2, v = 0.2, t = 0.2)
movej(p[0.470219536014028, -0.0208417997693002, 0.223260532155823, -1.20221936858655, 1.22020966064976, -1.13474909236359], a = 0.2, v = 0.2, t = 0.2)
movej(p[0.468389784402459, -0.0206052485516377, 0.223928984598024, -1.23190118895638, 1.2300211995469, -1.11970061899506], a = 0.2, v = 0.2, t = 0.2)
movej(p[0.468255431953379, -0.0205554804306344, 0.224820572234075, -1.24214989216095, 1.24569574729551, -1.09647607018899], a = 0.2, v = 0.2, t = 0.2)
movej(p[0.469867924608539, -0.0207872782472635, 0.224910052968109, -1.24488280018997, 1.2608521015853, -1.09873050190432], a = 0.2, v = 0.2, t = 0.2)
movej(p[0.472392291452748, -0.0210312030416034, 0.224870911028749, -1.24490897421846, 1.26494110963879, -1.1187512858166], a = 0.2, v = 0.2, t = 0.2)
movej(p[0.475115582152924, -0.0212956243419512, 0.224370858514989, -1.22974852348119, 1.27485797185614, -1.14938893412791], a = 0.2, v = 0.2, t = 0.2)
movej(p[0.477333132648908, -0.0215019945395258, 0.223994736830274, -1.22381799985892, 1.26800518704896, -1.17330351285587], a = 0.2, v = 0.2, t = 0.2)
movej(p[0.47910582858376, -0.0216574583826085, 0.22378364452783, -1.20044128450306, 1.25721132558563, -1.19925330357872], a = 0.2, v = 0.2, t = 0.2)
movej(p[0.48044526666171, -0.0218377737370188, 0.22361107388055, -1.19307860944082, 1.27070711139995, -1.1816907074372], a = 0.2, v = 0.2, t = 0.2)
movej(p[0.481422184490991, -0.0219106067763289, 0.223609814627362, -1.17505233416446, 1.28106876307884, -1.18013645237094], a = 0.2, v = 0.2, t = 0.2)
movej(p[0.48239379743695, -0.0219260167415891, 0.22341824645904, -1.18260395642523, 1.27497428065779, -1.19020206388868], a = 0.2, v = 0.2, t = 0.2)
movej(p[0.483223831766793, -0.0219085992099187, 0.223125580111685, -1.17816239321298, 1.27244023528101, -1.21149776759921], a = 0.2, v = 0.2, t = 0.2)
movej(p[0.483800016167992, -0.0218523291098509, 0.222768824671989, -1.17442372005581, 1.27267664778151, -1.21455845453874], a = 0.2, v = 0.2, t = 0.2)
movej(p[0.483543850577867, -0.0217168387079256, 0.222134927121969, -1.17897887223156, 1.26322842092263, -1.19787310644446], a = 0.2, v = 0.2, t = 0.2)
movej(p[0.482114725015795, -0.0216129694277124, 0.22170217083194, -1.17100393634819, 1.20725115788651, -1.21604636454387], a = 0.2, v = 0.2, t = 0.2)
movej(p[0.479919888258229, -0.0213595413270956, 0.221268971896166, -1.17421435984928, 1.15197656405294, -1.22594109346531], a = 0.2, v = 0.2, t = 0.2)
movej(p[0.477420071710445, -0.0211723970179527, 0.221394112507971, -1.17447487819111, 1.14557840679422, -1.21224109703138], a = 0.2, v = 0.2, t = 0.2)
movej(p[0.475032735319879, -0.0209019925076816, 0.222049796962315, -1.18818372748076, 1.15219160198332, -1.18675195140658], a = 0.2, v = 0.2, t = 0.2)
movej(p[0.472825177825943, -0.020832219364556, 0.222917728007886, -1.19536580192113, 1.17662847647545, -1.15130934751221], a = 0.2, v = 0.2, t = 0.2)
movej(p[0.471697459703233, -0.0209386136706951, 0.223744966495526, -1.1936706646885, 1.20402172158184, -1.12913353112788], a = 0.2, v = 0.2, t = 0.2)
movej(p[0.471943232499851, -0.0210166502438753, 0.22409776172765, -1.20140999553136, 1.23465608494119, -1.12185616089699], a = 0.2, v = 0.2, t = 0.2)
movej(p[0.473633780988682, -0.0211316050839949, 0.22386665124779, -1.22624223939296, 1.25353494891874, -1.13645115770025], a = 0.2, v = 0.2, t = 0.2)
movej(p[0.475864531312971, -0.0212586915797551, 0.223686777939589, -1.23776406904398, 1.24918073023048, -1.16336485348532], a = 0.2, v = 0.2, t = 0.2)
movej(p[0.477963570748591, -0.0215308876001497, 0.22330533755002, -1.21908789758614, 1.25464967368643, -1.17965476794006], a = 0.2, v = 0.2, t = 0.2)
movej(p[0.479630383157569, -0.0216814012704176, 0.223092474050943, -1.19997873988291, 1.25591297070868, -1.19668523012882], a = 0.2, v = 0.2, t = 0.2)
movej(p[0.480883939895424, -0.0218489929598553, 0.223054441055914, -1.16862292933934, 1.27005427802122, -1.19792791201194], a = 0.2, v = 0.2, t = 0.2)
movej(p[0.481952627094635, -0.0218594024506129, 0.222879772991449, -1.17395322819712, 1.26413196210577, -1.21508869372077], a = 0.2, v = 0.2, t = 0.2)
movej(p[0.482874468486485, -0.0220355960733348, 0.22270931165365, -1.17701487309526, 1.27027759537186, -1.22030066515838], a = 0.2, v = 0.2, t = 0.2)
movej(p[0.483591759469244, -0.0220544729300452, 0.222265666706949, -1.20288559556757, 1.25700940944791, -1.23808688565697], a = 0.2, v = 0.2, t = 0.2)
movej(p[0.484044030438358, -0.0220971184074048, 0.222145733019613, -1.19305284130335, 1.26381510960776, -1.23093798544989], a = 0.2, v = 0.2, t = 0.2)
movej(p[0.483706852263175, -0.0218946304424056, 0.221849210129584, -1.17185278719895, 1.23366210038061, -1.23333637633527], a = 0.2, v = 0.2, t = 0.2)
movej(p[0.482548553594, -0.0217306168169568, 0.221558877428613, -1.1488049946662, 1.1906378639426, -1.24457727087179], a = 0.2, v = 0.2, t = 0.2)
movej(p[0.48044730930845, -0.021612470285462, 0.22110558717288, -1.13457722744848, 1.17142791023374, -1.22744658094386], a = 0.2, v = 0.2, t = 0.2)
movej(p[0.477951046370622, -0.0214542952474446, 0.221303685302534, -1.14011537683867, 1.17409282048984, -1.20788362413111], a = 0.2, v = 0.2, t = 0.2)
movej(p[0.475493008716749, -0.0211960513853983, 0.221684863437959, -1.16516562983805, 1.20532019735406, -1.17924524528298], a = 0.2, v = 0.2, t = 0.2)
movej(p[0.473202641885787, -0.0208389682588028, 0.222241428313999, -1.19674519125047, 1.2105786275545, -1.16740257193682], a = 0.2, v = 0.2, t = 0.2)
movej(p[0.471989914945339, -0.0206097112766831, 0.222892750497684, -1.22754675749863, 1.22504293841984, -1.14658725455994], a = 0.2, v = 0.2, t = 0.2)
movej(p[0.472197295691636, -0.0207080946499878, 0.223604546275153, -1.23771273886098, 1.25053319952921, -1.12472425416554], a = 0.2, v = 0.2, t = 0.2)
movej(p[0.47391759386021, -0.0208641031106665, 0.22416248721593, -1.25411914167375, 1.27013286914644, -1.13615933450092], a = 0.2, v = 0.2, t = 0.2)
movej(p[0.475992080644088, -0.0211918414685177, 0.224165019850454, -1.24106321607802, 1.27989764265797, -1.15060404225753], a = 0.2, v = 0.2, t = 0.2)
movej(p[0.477943227920063, -0.0214403710216063, 0.22411044020859, -1.2187155117892, 1.27471329675806, -1.17144075177286], a = 0.2, v = 0.2, t = 0.2)
movej(p[0.479591282303634, -0.0216755699868058, 0.223955667054711, -1.19247031062396, 1.27703990125213, -1.17244306097961], a = 0.2, v = 0.2, t = 0.2)
movej(p[0.48093704397928, -0.0218012323206219, 0.223620329090527, -1.18478080475271, 1.25815119029789, -1.18916778596907], a = 0.2, v = 0.2, t = 0.2)
movej(p[0.481860725892003, -0.0219226259894241, 0.223237188488028, -1.17879820335019, 1.24624141649382, -1.19467406667903], a = 0.2, v = 0.2, t = 0.2)
movej(p[0.482558676554423, -0.0220390741494898, 0.222658295370653, -1.18289123911225, 1.23809254478739, -1.20573613669936], a = 0.2, v = 0.2, t = 0.2)
movej(p[0.48317446269099, -0.0220844848991454, 0.222443554005455, -1.19325916261926, 1.25669770683901, -1.215734418229], a = 0.2, v = 0.2, t = 0.2)
movej(p[0.483854810670215, -0.0220797261394522, 0.222087603814738, -1.20891970556638, 1.2580411550412, -1.22888842420657], a = 0.2, v = 0.2, t = 0.2)
movej(p[0.484536093663649, -0.0220232386937286, 0.221774791993137, -1.19569672134815, 1.25819014338609, -1.22839000089998], a = 0.2, v = 0.2, t = 0.2)
movej(p[0.484370590554235, -0.0219771693389849, 0.221399266231267, -1.16504336919034, 1.2510308943769, -1.21934042230357], a = 0.2, v = 0.2, t = 0.2)
movej(p[0.483046570212794, -0.0218701416331451, 0.22105373921983, -1.13090195485884, 1.25791633011059, -1.20337063161471], a = 0.2, v = 0.2, t = 0.2)
movej(p[0.480783325887199, -0.0216657276553983, 0.220825435276664, -1.12968411606196, 1.21620347466266, -1.21703538532164], a = 0.2, v = 0.2, t = 0.2)
movej(p[0.478154280825787, -0.0213589441945236, 0.221054065754941, -1.14628372017159, 1.1749680032794, -1.20716275919888], a = 0.2, v = 0.2, t = 0.2)
movej(p[0.475695370580641, -0.0210781589236734, 0.221662930202755, -1.17772478070785, 1.13565049149962, -1.20957098384036], a = 0.2, v = 0.2, t = 0.2)
movej(p[0.473150782992349, -0.0208456774164908, 0.222430245178909, -1.19217285816571, 1.15746576142242, -1.16849498826646], a = 0.2, v = 0.2, t = 0.2)
movej(p[0.471374823447856, -0.0207430117919734, 0.22299460542367, -1.23314403906185, 1.17711338384513, -1.17081827359134], a = 0.2, v = 0.2, t = 0.2)
movej(p[0.470927655436057, -0.0206241797187424, 0.223584268833757, -1.25414826993178, 1.24206551517141, -1.1447955639785], a = 0.2, v = 0.2, t = 0.2)
movej(p[0.472260906509725, -0.0206856875216526, 0.223668080414965, -1.2655133103149, 1.2773344076936, -1.15331885247469], a = 0.2, v = 0.2, t = 0.2)
movej(p[0.474687821763715, -0.0209728433853944, 0.223816286183992, -1.2429346684079, 1.31544939003462, -1.14161676709833], a = 0.2, v = 0.2, t = 0.2)
movej(p[0.477154158983229, -0.0212874035811316, 0.223706019529496, -1.22646862130689, 1.29737670737612, -1.17623325173757], a = 0.2, v = 0.2, t = 0.2)
movej(p[0.479149824355973, -0.0216005416293714, 0.223678254015314, -1.21047360318657, 1.29445975928574, -1.18060180605227], a = 0.2, v = 0.2, t = 0.2)
movej(p[0.480609589589616, -0.0217778546749656, 0.223497747289376, -1.1951005321032, 1.28691988728568, -1.19837870972258], a = 0.2, v = 0.2, t = 0.2)
movej(p[0.48169088812616, -0.0218171556359994, 0.223200154288401, -1.18915101747796, 1.26213825720742, -1.21728469370498], a = 0.2, v = 0.2, t = 0.2)
movej(p[0.482668858147773, -0.0218535525211095, 0.22278930472715, -1.18325258467347, 1.24711059032621, -1.23499900267504], a = 0.2, v = 0.2, t = 0.2)
movej(p[0.483523722518646, -0.0218826836931308, 0.222431533005616, -1.16974000794816, 1.23308296836618, -1.23841848341661], a = 0.2, v = 0.2, t = 0.2)
movej(p[0.484316310419828, -0.0220061740336447, 0.222214401343256, -1.14179382314486, 1.27580031224498, -1.20448814805297], a = 0.2, v = 0.2, t = 0.2)
movej(p[0.484926196822854, -0.0219866113044497, 0.222243817927529, -1.12981430079635, 1.27732250319908, -1.20741359495443], a = 0.2, v = 0.2, t = 0.2)
movej(p[0.485106934696883, -0.02198544745205, 0.222100929393213, -1.13125120872639, 1.24087794887851, -1.2324578654098], a = 0.2, v = 0.2, t = 0.2)
movej(p[0.484413227120435, -0.0219324343472656, 0.221776542456517, -1.13641608726169, 1.17017112204553, -1.26434445934945], a = 0.2, v = 0.2, t = 0.2)
movej(p[0.482751258665393, -0.0218424820110619, 0.221388717374607, -1.12682020787665, 1.13866973065508, -1.26370546539471], a = 0.2, v = 0.2, t = 0.2)
movej(p[0.480424846316547, -0.02157052892732, 0.221393725116532, -1.13970477414864, 1.14132698823308, -1.23706561897213], a = 0.2, v = 0.2, t = 0.2)
movej(p[0.478061434104469, -0.0213178741682991, 0.221505347296427, -1.14398598598346, 1.17441877435445, -1.19864294224075], a = 0.2, v = 0.2, t = 0.2)
movej(p[0.476027062317084, -0.0211217761015243, 0.221973728292589, -1.15726330388535, 1.19856949238005, -1.16517592589004], a = 0.2, v = 0.2, t = 0.2)
movej(p[0.474687657734, -0.0210596571818723, 0.222290305611299, -1.15626760039913, 1.23537586247975, -1.14021240704156], a = 0.2, v = 0.2, t = 0.2)
movej(p[0.474417469655115, -0.0211255434856044, 0.223066827352127, -1.17259031531507, 1.25613147427527, -1.12397181322203], a = 0.2, v = 0.2, t = 0.2)
movej(p[0.475318252368621, -0.0211154600333754, 0.223246370224247, -1.2023454673587, 1.26719946975683, -1.15384574100386], a = 0.2, v = 0.2, t = 0.2)
movej(p[0.476986361770889, -0.021329754767382, 0.22312583729687, -1.20455620902843, 1.27086176431222, -1.18151459860506], a = 0.2, v = 0.2, t = 0.2)
movej(p[0.478814709205953, -0.0214505422695831, 0.222439389425502, -1.21116032564809, 1.28025864275199, -1.19516716477237], a = 0.2, v = 0.2, t = 0.2)
movej(p[0.480410925507127, -0.0217954607770136, 0.222091853847468, -1.19880839534153, 1.26643238913095, -1.20801952000941], a = 0.2, v = 0.2, t = 0.2)
movej(p[0.481721467599469, -0.0218472011554704, 0.22180505691611, -1.19114198921061, 1.257438913219, -1.20288641523941], a = 0.2, v = 0.2, t = 0.2)
movej(p[0.482795256996543, -0.0220552569808573, 0.221749913123592, -1.1861627178887, 1.24765959109001, -1.21661797088528], a = 0.2, v = 0.2, t = 0.2)
movej(p[0.48366112453115, -0.0220795031681181, 0.221952950816932, -1.16246992118507, 1.27426097584403, -1.19304838044867], a = 0.2, v = 0.2, t = 0.2)
movej(p[0.484379702832945, -0.0220878812684389, 0.222040363553562, -1.17375204523792, 1.2596523053989, -1.20903258733166], a = 0.2, v = 0.2, t = 0.2)
movej(p[0.484658793811581, -0.0221070062666299, 0.222109110463951, -1.15780007428411, 1.22135663223242, -1.22399863035167], a = 0.2, v = 0.2, t = 0.2)
movej(p[0.483930042863821, -0.0220438500303531, 0.221557686717221, -1.15516665617134, 1.17937689484536, -1.23576086726174], a = 0.2, v = 0.2, t = 0.2)
movej(p[0.482046761051869, -0.021927307676828, 0.221290513701733, -1.13818150115184, 1.17012720634735, -1.21647221983848], a = 0.2, v = 0.2, t = 0.2)
movej(p[0.479480058619065, -0.0217082779602491, 0.221145531721143, -1.14834913342399, 1.19435700991943, -1.18511410301089], a = 0.2, v = 0.2, t = 0.2)
movej(p[0.477023433968324, -0.0214006468770705, 0.221572361346796, -1.15233764246463, 1.18825331356887, -1.16675722580351], a = 0.2, v = 0.2, t = 0.2)
movej(p[0.474794895772451, -0.0211803160231973, 0.222267171163927, -1.16789841386669, 1.20981587361302, -1.14833705531146], a = 0.2, v = 0.2, t = 0.2)
movej(p[0.472979591888555, -0.0209633712291462, 0.222807555379333, -1.18599200746556, 1.20968452624731, -1.14092131102669], a = 0.2, v = 0.2, t = 0.2)
movej(p[0.472098340442274, -0.0209016341317923, 0.223282000960342, -1.21514614957547, 1.22188582684436, -1.1362971958176], a = 0.2, v = 0.2, t = 0.2)
movej(p[0.472344640466112, -0.0209618547530866, 0.223471883757425, -1.24737379646854, 1.20564606667558, -1.16536940160215], a = 0.2, v = 0.2, t = 0.2)
movej(p[0.47399774299904, -0.0209998587077998, 0.223560917936552, -1.23477365546786, 1.22375602684497, -1.17561994376585], a = 0.2, v = 0.2, t = 0.2)
movej(p[0.476214684033229, -0.0211985751302589, 0.223228276389449, -1.22088882386694, 1.25499751221984, -1.18105140729639], a = 0.2, v = 0.2, t = 0.2)
movej(p[0.478352767208553, -0.0213892461293474, 0.223167314884481, -1.20577165866108, 1.26786088304912, -1.17262012256933], a = 0.2, v = 0.2, t = 0.2)
movej(p[0.47991268220823, -0.0216361538569304, 0.222973196318032, -1.20013764508724, 1.26053445414634, -1.18963328889822], a = 0.2, v = 0.2, t = 0.2)
movej(p[0.48103764322916, -0.0218129807853178, 0.2229226117474, -1.200409983744, 1.24568416691209, -1.20840050060736], a = 0.2, v = 0.2, t = 0.2)
movej(p[0.482027268242521, -0.0219579976062761, 0.22249464433863, -1.19854609067346, 1.25235193159369, -1.22583957792033], a = 0.2, v = 0.2, t = 0.2)
movej(p[0.48296063148879, -0.0221179718883474, 0.222204624941882, -1.20024228986302, 1.26536862080277, -1.22775334302082], a = 0.2, v = 0.2, t = 0.2)
movej(p[0.483836900453045, -0.0221699219024978, 0.221862119831827, -1.20552952085546, 1.26203313556495, -1.23636445790154], a = 0.2, v = 0.2, t = 0.2)
movej(p[0.484575752172999, -0.0221747941956301, 0.221622356559659, -1.19322322382023, 1.24884154599144, -1.24193578557592], a = 0.2, v = 0.2, t = 0.2)
movej(p[0.484575783189763, -0.0220703087658881, 0.221341117976941, -1.18475462643315, 1.2098075657113, -1.25543335033996], a = 0.2, v = 0.2, t = 0.2)
movej(p[0.48360444856838, -0.0219780672720317, 0.220900383992532, -1.15119618648183, 1.17455304466146, -1.265871756433], a = 0.2, v = 0.2, t = 0.2)
movej(p[0.481548094091129, -0.0218573970049593, 0.220625687882195, -1.12069888538238, 1.14211075424278, -1.25564072133215], a = 0.2, v = 0.2, t = 0.2)
movej(p[0.478879872445865, -0.0216154497943018, 0.220600054883866, -1.11563403870747, 1.13787706399, -1.23819345897169], a = 0.2, v = 0.2, t = 0.2)
movej(p[0.476103226458361, -0.0213746683781013, 0.221118484665309, -1.13028346513771, 1.16033377334889, -1.20064067110282], a = 0.2, v = 0.2, t = 0.2)
movej(p[0.473507504490983, -0.0210003441231436, 0.221734353297102, -1.18055704952373, 1.19112261997202, -1.16858389536293], a = 0.2, v = 0.2, t = 0.2)
movej(p[0.471599329331672, -0.0209048609325461, 0.222682349311755, -1.19354690829057, 1.21688413854864, -1.12900147834651], a = 0.2, v = 0.2, t = 0.2)
movej(p[0.471072112441351, -0.0208524167663848, 0.223303766783666, -1.21106564129878, 1.22952561103366, -1.13200038362667], a = 0.2, v = 0.2, t = 0.2)
movej(p[0.472093523917996, -0.0210050586030322, 0.223815126978096, -1.1961650988137, 1.23555848364267, -1.15688144836292], a = 0.2, v = 0.2, t = 0.2)
movej(p[0.474279732888497, -0.0211619446866781, 0.223726404044488, -1.20070889607134, 1.2417645864517, -1.19118697976245], a = 0.2, v = 0.2, t = 0.2)
movej(p[0.476637122648205, -0.0213351863956521, 0.223773564355362, -1.20483333423076, 1.23183435911856, -1.2048742866312], a = 0.2, v = 0.2, t = 0.2)
movej(p[0.478793939325758, -0.0216249386982853, 0.22355785049918, -1.215527268834, 1.25470366996734, -1.20629771606988], a = 0.2, v = 0.2, t = 0.2)
movej(p[0.480484858947524, -0.021741499973789, 0.223508571961458, -1.19524858690983, 1.27551794793236, -1.19024276866714], a = 0.2, v = 0.2, t = 0.2)
movej(p[0.481812469053408, -0.0218986618827166, 0.223117052017218, -1.18055949347581, 1.30080297768737, -1.18445768614071], a = 0.2, v = 0.2, t = 0.2)
movej(p[0.482839052641305, -0.0218566399677635, 0.222959918390568, -1.14675674182547, 1.30655760245218, -1.17365478061767], a = 0.2, v = 0.2, t = 0.2)
movej(p[0.483754670401006, -0.0219831744611961, 0.222684087039572, -1.14614190798289, 1.26895383948728, -1.19895046505726], a = 0.2, v = 0.2, t = 0.2)
movej(p[0.484641656277466, -0.0220844990576784, 0.22245016097175, -1.14961367723947, 1.23876000386426, -1.23318558941819], a = 0.2, v = 0.2, t = 0.2)
movej(p[0.485348559912143, -0.0221721427724716, 0.22226634759863, -1.17387502379942, 1.21901605566385, -1.25511565952463], a = 0.2, v = 0.2, t = 0.2)
movej(p[0.485280472169713, -0.0220973599388393, 0.222002402983938, -1.18258546746607, 1.19867499555586, -1.26302501854635], a = 0.2, v = 0.2, t = 0.2)
movej(p[0.483945789822185, -0.0218628624159652, 0.221741000805169, -1.16321403029858, 1.20734770065085, -1.23707859534961], a = 0.2, v = 0.2, t = 0.2)
movej(p[0.481645690877804, -0.0217044678465629, 0.221184541403829, -1.15799426200381, 1.19085501105929, -1.20750818834229], a = 0.2, v = 0.2, t = 0.2)
movej(p[0.478760352852138, -0.0215496501354296, 0.220853344930468, -1.17993491370749, 1.17809718152212, -1.19301451269588], a = 0.2, v = 0.2, t = 0.2)
movej(p[0.475868428328087, -0.0212763728152642, 0.221223238548513, -1.20848443916898, 1.15163431420336, -1.1909625623303], a = 0.2, v = 0.2, t = 0.2)
movej(p[0.47309325826528, -0.0210215623601889, 0.221943303207453, -1.20210272199779, 1.15417524158262, -1.174969746731], a = 0.2, v = 0.2, t = 0.2)
movej(p[0.470771186496656, -0.0208050005411626, 0.222810717833769, -1.21144080264823, 1.20705815834132, -1.13705192834131], a = 0.2, v = 0.2, t = 0.2)
movej(p[0.469804292304869, -0.0208288586381758, 0.22354960636088, -1.21524429391499, 1.25307390228359, -1.09452123076633], a = 0.2, v = 0.2, t = 0.2)
movej(p[0.470499962720349, -0.0209836466940347, 0.223946819365689, -1.21709331707453, 1.2747762088176, -1.08892114041781], a = 0.2, v = 0.2, t = 0.2)
movej(p[0.472721664695716, -0.0210871128839114, 0.224349403463242, -1.20526116638073, 1.26674477593085, -1.10718904708131], a = 0.2, v = 0.2, t = 0.2)
movej(p[0.475306310764746, -0.0212542236748063, 0.224302868634182, -1.18564339511755, 1.26833514730533, -1.12291979430947], a = 0.2, v = 0.2, t = 0.2)
movej(p[0.477666201864023, -0.0214869240536171, 0.224025733644586, -1.16866884091866, 1.26069746424513, -1.14644650836076], a = 0.2, v = 0.2, t = 0.2)
movej(p[0.479680764087646, -0.0215750630721922, 0.223648456106753, -1.14856665194247, 1.26538669628224, -1.17890284787555], a = 0.2, v = 0.2, t = 0.2)
movej(p[0.481314533896422, -0.0216677709033286, 0.22309051488899, -1.169497807974, 1.25724624681197, -1.22435060036446], a = 0.2, v = 0.2, t = 0.2)
movej(p[0.482622351008329, -0.0216912797061008, 0.222931769304817, -1.18262925869902, 1.26062506639165, -1.24305303279655], a = 0.2, v = 0.2, t = 0.2)
movej(p[0.483645400202287, -0.0218582527684301, 0.222768595940574, -1.18838779039732, 1.25093788162174, -1.24514389983536], a = 0.2, v = 0.2, t = 0.2)
movej(p[0.484589654026795, -0.0220390468440994, 0.222844614051603, -1.18090424228384, 1.25799078742184, -1.23379471642644], a = 0.2, v = 0.2, t = 0.2)
movej(p[0.485089152451918, -0.0220548939897245, 0.222486249249656, -1.15513562137572, 1.24039844508922, -1.23005346573077], a = 0.2, v = 0.2, t = 0.2)
movej(p[0.484742426157089, -0.0220631586576672, 0.22197347833069, -1.16560830121811, 1.2043363877708, -1.24715173806088], a = 0.2, v = 0.2, t = 0.2)
movej(p[0.483087087159851, -0.0218820468196994, 0.221461400596385, -1.14268058134248, 1.18254425127545, -1.24158872233013], a = 0.2, v = 0.2, t = 0.2)
movej(p[0.480420068591057, -0.0217629484869817, 0.22103949225414, -1.14057661848316, 1.16676623358736, -1.22166968919931], a = 0.2, v = 0.2, t = 0.2)
movej(p[0.47754489537754, -0.0215356956357005, 0.221190156629018, -1.12721676019761, 1.19787038178521, -1.17446682689149], a = 0.2, v = 0.2, t = 0.2)
movej(p[0.474812468681365, -0.0212639401280246, 0.221927934178472, -1.14418785502271, 1.18743512449624, -1.16034037155052], a = 0.2, v = 0.2, t = 0.2)
movej(p[0.472632067515789, -0.0209028226599003, 0.222713837381082, -1.19094269163824, 1.21591526305508, -1.14896644109099], a = 0.2, v = 0.2, t = 0.2)
movej(p[0.471278088362445, -0.0207164364246561, 0.223296149684936, -1.23488820153881, 1.23948107187043, -1.15358606956671], a = 0.2, v = 0.2, t = 0.2)
movej(p[0.47161336446581, -0.0207834686393427, 0.223531674628851, -1.25575597657953, 1.29055062991302, -1.12213982510571], a = 0.2, v = 0.2, t = 0.2)
movej(p[0.473331056234502, -0.0209725425594904, 0.223926736009003, -1.24113858762964, 1.30851503269669, -1.11958444476829], a = 0.2, v = 0.2, t = 0.2)
movej(p[0.475704128986899, -0.0211435099922171, 0.224043722208262, -1.22591526907945, 1.30908790396, -1.12921579830016], a = 0.2, v = 0.2, t = 0.2)
movej(p[0.478007815308016, -0.0212979713074977, 0.223890658642394, -1.21236619060165, 1.30331853830977, -1.16508221706528], a = 0.2, v = 0.2, t = 0.2)
movej(p[0.479931502713357, -0.0214936787802277, 0.223467119349591, -1.22153133015541, 1.28706459241793, -1.19060323642186], a = 0.2, v = 0.2, t = 0.2)
movej(p[0.481446327437897, -0.0218480794760101, 0.223190744385363, -1.21156991594978, 1.29117253903122, -1.21129911371592], a = 0.2, v = 0.2, t = 0.2)
movej(p[0.482626644526387, -0.0219366978789653, 0.223258239213125, -1.19435429128722, 1.28475044514209, -1.21471838593446], a = 0.2, v = 0.2, t = 0.2)
movej(p[0.483645002898746, -0.0220199186996546, 0.222928324113515, -1.16507953943702, 1.27902111603936, -1.23139948295246], a = 0.2, v = 0.2, t = 0.2)
movej(p[0.48444632027314, -0.0218553445473023, 0.222893842763903, -1.16387680051504, 1.2547637696455, -1.23867421955392], a = 0.2, v = 0.2, t = 0.2)
movej(p[0.484654726812873, -0.0218358975121142, 0.222399619456663, -1.16111687199953, 1.2294140052815, -1.24739875380703], a = 0.2, v = 0.2, t = 0.2)
movej(p[0.483818114623803, -0.0218382863670019, 0.222271487056108, -1.15556459657639, 1.211169518127, -1.24400154521309], a = 0.2, v = 0.2, t = 0.2)
movej(p[0.481806660791789, -0.0216535197215524, 0.221854565245083, -1.15079184846358, 1.1948311874474, -1.22520271131966], a = 0.2, v = 0.2, t = 0.2)
movej(p[0.479149170941033, -0.0214900766391272, 0.221555854241713, -1.15573064300426, 1.18184993072863, -1.2000804549227], a = 0.2, v = 0.2, t = 0.2)
movej(p[0.476388390190695, -0.0212812470376736, 0.221653377591108, -1.15554068155007, 1.16678581931466, -1.1773181684563], a = 0.2, v = 0.2, t = 0.2)
movej(p[0.474151448045519, -0.0212397608156489, 0.221919375543119, -1.16264606802058, 1.17728209303815, -1.1563165787444], a = 0.2, v = 0.2, t = 0.2)
movej(p[0.472668858789994, -0.0211515005638366, 0.222352588572004, -1.18618618881615, 1.21436627851133, -1.14033873707282], a = 0.2, v = 0.2, t = 0.2)
movej(p[0.472388001785068, -0.0210945550494816, 0.222911254081696, -1.20915979673409, 1.25521825700279, -1.11764761571844], a = 0.2, v = 0.2, t = 0.2)
movej(p[0.473378939596838, -0.0210782306559097, 0.223258577028078, -1.21535539429389, 1.28086048531402, -1.12685675410795], a = 0.2, v = 0.2, t = 0.2)
movej(p[0.475335580263927, -0.0212236406372675, 0.223288464236404, -1.19729642098594, 1.29297901738604, -1.14063328316425], a = 0.2, v = 0.2, t = 0.2)
movej(p[0.477683374814223, -0.0214420382555227, 0.223017328125308, -1.20553598726262, 1.30254828159853, -1.16891899828193], a = 0.2, v = 0.2, t = 0.2)
movej(p[0.479615198807866, -0.0216362075656378, 0.222879604367399, -1.19053437136243, 1.28920262527817, -1.18820583664817], a = 0.2, v = 0.2, t = 0.2)
movej(p[0.481155355476643, -0.0217755502038462, 0.222617188879292, -1.20884672188358, 1.27924075111137, -1.21334397394905], a = 0.2, v = 0.2, t = 0.2)
movej(p[0.482299777837712, -0.0218169381825982, 0.22286386170228, -1.18076929071102, 1.27724291552924, -1.20879643723629], a = 0.2, v = 0.2, t = 0.2)
movej(p[0.483218800185228, -0.0218516874110161, 0.2228176725911, -1.17647493644076, 1.28687155404768, -1.2118225648312], a = 0.2, v = 0.2, t = 0.2)
movej(p[0.484141586344906, -0.021915063464982, 0.222797638997065, -1.16498223236897, 1.28128536996181, -1.21175144919483], a = 0.2, v = 0.2, t = 0.2)
movej(p[0.484852889500023, -0.0220209218184316, 0.222251023248458, -1.16213939990343, 1.27395073304631, -1.218712358468], a = 0.2, v = 0.2, t = 0.2)
movej(p[0.485471122079494, -0.0220801815757984, 0.222043658488342, -1.16268200213684, 1.25339786145452, -1.23865004813464], a = 0.2, v = 0.2, t = 0.2)
movej(p[0.485556554580453, -0.0220465116054732, 0.222024984415991, -1.1657519044868, 1.26246342313322, -1.22224614842843], a = 0.2, v = 0.2, t = 0.2)
movej(p[0.485002907958209, -0.021999506378341, 0.221753754253215, -1.16746520473478, 1.23644783502315, -1.22859449467246], a = 0.2, v = 0.2, t = 0.2)
movej(p[0.483422959094943, -0.0218431860436574, 0.22130387930956, -1.17490926851443, 1.22526361112436, -1.21707750482943], a = 0.2, v = 0.2, t = 0.2)
movej(p[0.481054592410929, -0.0216925080539669, 0.221067305889505, -1.16654647822556, 1.20590199322426, -1.20702856995448], a = 0.2, v = 0.2, t = 0.2)
movej(p[0.47847601773889, -0.0214464999921634, 0.221497367471547, -1.16292811525659, 1.21963838314857, -1.1849247660336], a = 0.2, v = 0.2, t = 0.2)
movej(p[0.476386731705244, -0.0211696879244873, 0.222039709443913, -1.16910153651445, 1.22916889844087, -1.16636579285196], a = 0.2, v = 0.2, t = 0.2)
movej(p[0.475403725401054, -0.0210399191730802, 0.222623672642119, -1.17091214140348, 1.25739866087649, -1.15359880115435], a = 0.2, v = 0.2, t = 0.2)
movej(p[0.475729825385626, -0.0210678262989437, 0.222665973191256, -1.17759563910166, 1.26855974593805, -1.16133577264844], a = 0.2, v = 0.2, t = 0.2)
movej(p[0.477304429982969, -0.021330748521103, 0.222925077759569, -1.20201223673539, 1.28816959445794, -1.16715249873367], a = 0.2, v = 0.2, t = 0.2)
movej(p[0.479370248441367, -0.0214250738782777, 0.222623952068145, -1.21651750403646, 1.2869405495022, -1.19570739014917], a = 0.2, v = 0.2, t = 0.2)
movej(p[0.481416946742767, -0.0215546311103214, 0.222398863315044, -1.23331022549488, 1.21887841429321, -1.25020837166633], a = 0.2, v = 0.2, t = 0.2)
movej(p[0.482952953798436, -0.021712985125047, 0.222179136067402, -1.21355185666914, 1.20441041653752, -1.26792642472041], a = 0.2, v = 0.2, t = 0.2)
movej(p[0.484147414835088, -0.0218836730437621, 0.222264083623127, -1.19524271406205, 1.22488329461435, -1.25656933656974], a = 0.2, v = 0.2, t = 0.2)
movej(p[0.484931048593454, -0.0219884618883452, 0.222348040298263, -1.17300464283737, 1.27009788007664, -1.2299500917024], a = 0.2, v = 0.2, t = 0.2)
movej(p[0.485480177216324, -0.0220650038807177, 0.222208404510051, -1.14419773998813, 1.29595672620978, -1.19793138612974], a = 0.2, v = 0.2, t = 0.2)
movej(p[0.485896838939714, -0.0223170502063805, 0.222156759855136, -1.12690131650696, 1.28438360983455, -1.19298561855599], a = 0.2, v = 0.2, t = 0.2)
movej(p[0.486177021804318, -0.0223657652796667, 0.222024457421232, -1.12291025777746, 1.3039990508958, -1.17983277442422], a = 0.2, v = 0.2, t = 0.2)
movej(p[0.485779857806675, -0.0222682155927913, 0.221946335224856, -1.13275483751743, 1.29797298367988, -1.1709294486769], a = 0.2, v = 0.2, t = 0.2)
movej(p[0.484477308414392, -0.0220041046379272, 0.221404451826157, -1.14985187242269, 1.2908795717816, -1.17289409652029], a = 0.2, v = 0.2, t = 0.2)
movej(p[0.481989242868328, -0.0216806562061868, 0.220890212737217, -1.15416975088061, 1.26185884742736, -1.17991212067551], a = 0.2, v = 0.2, t = 0.2)
movej(p[0.479080328859438, -0.0215088775614927, 0.220439272913946, -1.1813132270525, 1.22292595738415, -1.20366477294634], a = 0.2, v = 0.2, t = 0.2)
movej(p[0.475900551861234, -0.0212896101615321, 0.220795874081363, -1.18931581162996, 1.18135202198124, -1.20213418067787], a = 0.2, v = 0.2, t = 0.2)
movej(p[0.472899792260621, -0.0211399405512531, 0.221666754876058, -1.21498808907404, 1.16374048875137, -1.18050355757026], a = 0.2, v = 0.2, t = 0.2)
movej(p[0.470614435832338, -0.0208675016605836, 0.222547669275121, -1.22647044748001, 1.19565624080646, -1.1514206265225], a = 0.2, v = 0.2, t = 0.2)
movej(p[0.469875914874067, -0.020771022307867, 0.223262572431565, -1.24165544454548, 1.25531291523069, -1.12148673367495], a = 0.2, v = 0.2, t = 0.2)
movej(p[0.470847641673787, -0.020863275122671, 0.223621006086887, -1.24108936497955, 1.28865201880872, -1.11815254527075], a = 0.2, v = 0.2, t = 0.2)
movej(p[0.472885527034563, -0.0211455287482175, 0.224000587120954, -1.23320043397119, 1.30657493647105, -1.12072796944762], a = 0.2, v = 0.2, t = 0.2)
movej(p[0.475304007606581, -0.021406810335034, 0.223922937452015, -1.21564116097811, 1.29209448615298, -1.14138090256834], a = 0.2, v = 0.2, t = 0.2)
movej(p[0.477599491520971, -0.0216049141782927, 0.223854579314495, -1.18602632730395, 1.31841549516019, -1.14050657351222], a = 0.2, v = 0.2, t = 0.2)
movej(p[0.479583705811327, -0.0217480392409245, 0.223564413819489, -1.17306339289188, 1.30683443767346, -1.1646865601447], a = 0.2, v = 0.2, t = 0.2)
movej(p[0.481158269548852, -0.0218770192748628, 0.223353526053561, -1.17930933275421, 1.3016380480487, -1.19128802804994], a = 0.2, v = 0.2, t = 0.2)
movej(p[0.482423466077078, -0.0221378323264274, 0.223108093444686, -1.16941722657855, 1.25745950255043, -1.21962849725038], a = 0.2, v = 0.2, t = 0.2)
movej(p[0.483363202854288, -0.0220750139150143, 0.222780049137244, -1.15413085298355, 1.25445336115961, -1.22665630592259], a = 0.2, v = 0.2, t = 0.2)
movej(p[0.484106104799648, -0.0221062175384801, 0.222788933818652, -1.13181394965549, 1.24127952720712, -1.23980659652679], a = 0.2, v = 0.2, t = 0.2)
movej(p[0.484091397645954, -0.0218937129917405, 0.222474108196846, -1.14173399027708, 1.22368094518034, -1.24394154245392], a = 0.2, v = 0.2, t = 0.2)
movej(p[0.482624267327649, -0.0219284982745064, 0.222101573533072, -1.12563050952336, 1.19331211606803, -1.24768836014784], a = 0.2, v = 0.2, t = 0.2)
movej(p[0.48014155495142, -0.0217162273114781, 0.221354011631437, -1.10202082068687, 1.16725212537157, -1.23566387460921], a = 0.2, v = 0.2, t = 0.2)
movej(p[0.477011971112332, -0.0214720658428955, 0.22111649269877, -1.11972702341836, 1.17406553261969, -1.21698720119348], a = 0.2, v = 0.2, t = 0.2)
movej(p[0.474101899868202, -0.0211421634882534, 0.221621356792067, -1.15937962631459, 1.19889022576566, -1.17970760376149], a = 0.2, v = 0.2, t = 0.2)
movej(p[0.471527300000781, -0.0209283765403608, 0.222454198696414, -1.21322134664412, 1.21534378250144, -1.15540202139465], a = 0.2, v = 0.2, t = 0.2)
movej(p[0.46985772126637, -0.020924814330224, 0.223429519137428, -1.21046803478785, 1.21753495277154, -1.13887661022054], a = 0.2, v = 0.2, t = 0.2)
movej(p[0.469794478354256, -0.0210400518511115, 0.224088971880805, -1.22472870436014, 1.22515127415901, -1.14927626441978], a = 0.2, v = 0.2, t = 0.2)
movej(p[0.471614747128191, -0.021327233804512, 0.224212628777009, -1.23188096909719, 1.24663356858304, -1.15016097364544], a = 0.2, v = 0.2, t = 0.2)
movej(p[0.474476075026365, -0.0215287370675131, 0.224238723386192, -1.22858472320985, 1.27659658282011, -1.16714937103203], a = 0.2, v = 0.2, t = 0.2)
movej(p[0.477270395362752, -0.0217251003252161, 0.223948231133663, -1.21316603551578, 1.28966300489079, -1.17613459438515], a = 0.2, v = 0.2, t = 0.2)
movej(p[0.479342210473969, -0.0217864216272512, 0.223989656021715, -1.19441696145255, 1.29054927428254, -1.1757523337326], a = 0.2, v = 0.2, t = 0.2)
movej(p[0.480987555182314, -0.0219310557832909, 0.223769512499151, -1.20632552553098, 1.27693554997026, -1.19511935849999], a = 0.2, v = 0.2, t = 0.2)
movej(p[0.482309020251941, -0.0221153418676982, 0.223452418142138, -1.18006153412724, 1.24832636793293, -1.20667434665002], a = 0.2, v = 0.2, t = 0.2)
movej(p[0.48339346558609, -0.0222273089412155, 0.222967501026961, -1.18886166972416, 1.20998523341188, -1.26435510044412], a = 0.2, v = 0.2, t = 0.2)
movej(p[0.484275084483035, -0.0222083024780813, 0.222640545793161, -1.17677198089281, 1.22698987738764, -1.25961104909493], a = 0.2, v = 0.2, t = 0.2)
movej(p[0.484432756677262, -0.0220528069780287, 0.22239941307404, -1.1745516913001, 1.18334219861231, -1.2737287065663], a = 0.2, v = 0.2, t = 0.2)
movej(p[0.483351232088558, -0.0218743173951852, 0.222222286411888, -1.16338525447584, 1.18071109618866, -1.24035891261376], a = 0.2, v = 0.2, t = 0.2)
movej(p[0.480845055010001, -0.0216623015503723, 0.221716175137006, -1.17642746515069, 1.12111779295846, -1.23524129298279], a = 0.2, v = 0.2, t = 0.2)
movej(p[0.477603332658117, -0.0213307838099647, 0.221490249362706, -1.21075999861013, 1.15465020737703, -1.19601092707477], a = 0.2, v = 0.2, t = 0.2)
movej(p[0.47434563200206, -0.0209953490824734, 0.221901676509014, -1.20943921651013, 1.16174518841831, -1.16769166771857], a = 0.2, v = 0.2, t = 0.2)
movej(p[0.471345634383388, -0.0206404093203035, 0.22280541007113, -1.20238275531548, 1.18528958231641, -1.13237317763089], a = 0.2, v = 0.2, t = 0.2)
movej(p[0.469469368362557, -0.02054488356182, 0.223878081926143, -1.22954546702371, 1.2176155706272, -1.11725026065532], a = 0.2, v = 0.2, t = 0.2)
movej(p[0.469219174221796, -0.0206663921556149, 0.224466291512994, -1.25700106640637, 1.25866448203885, -1.10900297553447], a = 0.2, v = 0.2, t = 0.2)
movej(p[0.470656088030612, -0.0208808653652597, 0.224865450861094, -1.26820339874591, 1.31646292143588, -1.10434836094832], a = 0.2, v = 0.2, t = 0.2)
movej(p[0.473303935212852, -0.021104869384213, 0.224985896304033, -1.23592092971157, 1.32561308363983, -1.11576414364529], a = 0.2, v = 0.2, t = 0.2)
movej(p[0.475954902567946, -0.0213357029894945, 0.224704667577685, -1.19120203674949, 1.31101392081678, -1.1417138695517], a = 0.2, v = 0.2, t = 0.2)
movej(p[0.478183053562001, -0.0215893997857766, 0.22444645434091, -1.15841482124966, 1.30106513478203, -1.14036603621264], a = 0.2, v = 0.2, t = 0.2)
movej(p[0.479839004900029, -0.0218082131639836, 0.224140143356938, -1.14488590129263, 1.27661744032622, -1.16501271072537], a = 0.2, v = 0.2, t = 0.2)
movej(p[0.481182589477327, -0.0218729143691976, 0.224034772276984, -1.15066574975078, 1.26032343557785, -1.18924471525151], a = 0.2, v = 0.2, t = 0.2)
movej(p[0.482322743163747, -0.0219158921253162, 0.224052139701159, -1.14904452423097, 1.2604141809135, -1.21266354828742], a = 0.2, v = 0.2, t = 0.2)
movej(p[0.483165616430764, -0.021843610331019, 0.223890124711542, -1.14417448937707, 1.25792473029863, -1.22656561816909], a = 0.2, v = 0.2, t = 0.2)
movej(p[0.483714222423494, -0.0219250556832875, 0.223626210820595, -1.14629410964724, 1.28169290408014, -1.2111799964528], a = 0.2, v = 0.2, t = 0.2)
movej(p[0.483348395690741, -0.0219365009283224, 0.222895908382992, -1.14936958191981, 1.21788961633978, -1.23583705842596], a = 0.2, v = 0.2, t = 0.2)
movej(p[0.481981355866584, -0.0219198908198629, 0.222542643652844, -1.13423792238507, 1.16364454210509, -1.24400089111299], a = 0.2, v = 0.2, t = 0.2)
movej(p[0.47962686268652, -0.0218506372129916, 0.222140316145749, -1.11015190154528, 1.13080755201229, -1.23593365929407], a = 0.2, v = 0.2, t = 0.2)
movej(p[0.476813387658071, -0.0214032233037976, 0.222543602110239, -1.1208893486942, 1.13798045756607, -1.20755623214302], a = 0.2, v = 0.2, t = 0.2)
movej(p[0.473848381083011, -0.0211211519511096, 0.223108184140269, -1.15841136962472, 1.17987864198125, -1.17255932446828], a = 0.2, v = 0.2, t = 0.2)
movej(p[0.471061031113042, -0.0207014316138493, 0.223850777709953, -1.19966649283132, 1.18939383551612, -1.13835450799448], a = 0.2, v = 0.2, t = 0.2)
movej(p[0.469113186983025, -0.0206348532414199, 0.224581625977094, -1.24597706947808, 1.21348103064443, -1.13386148488358], a = 0.2, v = 0.2, t = 0.2)
movej(p[0.46843764200207, -0.0207402322439577, 0.225208606051841, -1.26195848357699, 1.21454976453194, -1.13187514705799], a = 0.2, v = 0.2, t = 0.2)
movej(p[0.469574250665238, -0.0209917531236452, 0.225738819584558, -1.28147181794347, 1.26276434731793, -1.13325766100251], a = 0.2, v = 0.2, t = 0.2)
movej(p[0.471836215566898, -0.0211777520892282, 0.225893365240424, -1.26258384311206, 1.28131800032271, -1.13584303245158], a = 0.2, v = 0.2, t = 0.2)
movej(p[0.47451974669696, -0.0213234784264376, 0.225766189412803, -1.22928435821813, 1.29329717973123, -1.15340095048944], a = 0.2, v = 0.2, t = 0.2)
movej(p[0.477010700652727, -0.0215062735923417, 0.22560848547224, -1.21465236513537, 1.27400102895098, -1.18541900204307], a = 0.2, v = 0.2, t = 0.2)
movej(p[0.478926274171502, -0.0217022603591502, 0.225169147518082, -1.20418965218877, 1.27361102695251, -1.19361417522899], a = 0.2, v = 0.2, t = 0.2)
movej(p[0.480439407089337, -0.0218188525813075, 0.224728301148244, -1.21295538269831, 1.27449827839813, -1.19886369553171], a = 0.2, v = 0.2, t = 0.2)
movej(p[0.481566943734201, -0.0217867860840446, 0.224451890952446, -1.19784632090219, 1.26969896227529, -1.20770414340558], a = 0.2, v = 0.2, t = 0.2)
movej(p[0.482438656544464, -0.0218674848187626, 0.224358026171836, -1.1644363914558, 1.26441411254234, -1.21125345769767], a = 0.2, v = 0.2, t = 0.2)
movej(p[0.483209126717359, -0.0219594442519728, 0.224098221266336, -1.14573206428494, 1.24131283344897, -1.21710431817135], a = 0.2, v = 0.2, t = 0.2)
movej(p[0.483098700920944, -0.0219910065188714, 0.223645319093241, -1.13033155120669, 1.21485037928467, -1.22882728750195], a = 0.2, v = 0.2, t = 0.2)
movej(p[0.481941365214964, -0.0218450201720879, 0.223093676679427, -1.14458292216896, 1.16940355201841, -1.24104863415907], a = 0.2, v = 0.2, t = 0.2)
movej(p[0.479319236790804, -0.0215108355274344, 0.223089079442034, -1.15618333253071, 1.15493107191923, -1.23582930683809], a = 0.2, v = 0.2, t = 0.2)
movej(p[0.476273232270582, -0.0212017827215907, 0.223252129113188, -1.17062575777014, 1.16091315055577, -1.20480181924475], a = 0.2, v = 0.2, t = 0.2)
movej(p[0.473354223168424, -0.0210935401010478, 0.223847807202502, -1.19008694796645, 1.17421664498555, -1.17307666048517], a = 0.2, v = 0.2, t = 0.2)
movej(p[0.470767499145409, -0.0209085733270861, 0.224572936610413, -1.20759593032961, 1.18641675016898, -1.14409557960871], a = 0.2, v = 0.2, t = 0.2)
movej(p[0.469183783968286, -0.0208074773065778, 0.225416775673795, -1.23187366937406, 1.19428080166064, -1.1381132070035], a = 0.2, v = 0.2, t = 0.2)
movej(p[0.469027424759412, -0.0207753099708914, 0.226034507883426, -1.22818852200634, 1.22337831520964, -1.13519879024273], a = 0.2, v = 0.2, t = 0.2)
movej(p[0.47060012898384, -0.0209480964458712, 0.226099604127785, -1.23177383205309, 1.26683753074184, -1.14625678380159], a = 0.2, v = 0.2, t = 0.2)
movej(p[0.473116030808723, -0.0211911263703877, 0.225789553686174, -1.2255617660386, 1.28230822918028, -1.1580390933999], a = 0.2, v = 0.2, t = 0.2)
movej(p[0.475653057189511, -0.0213763866595394, 0.225525397650187, -1.21949548095756, 1.29097579375179, -1.16614249777934], a = 0.2, v = 0.2, t = 0.2)
movej(p[0.477794716343738, -0.0214776333575102, 0.225443336900956, -1.21637796349503, 1.28405387857044, -1.17779857353519], a = 0.2, v = 0.2, t = 0.2)
movej(p[0.479513202199031, -0.0216261885592598, 0.225415456289593, -1.19037173072388, 1.27877100701114, -1.18658878145066], a = 0.2, v = 0.2, t = 0.2)
movej(p[0.480824943075834, -0.0216166306522116, 0.225326521851169, -1.20005827623303, 1.271109572567, -1.20593394544327], a = 0.2, v = 0.2, t = 0.2)
movej(p[0.482031183552215, -0.0217859459296424, 0.225079295503077, -1.19011127922592, 1.25137592023831, -1.22197063122992], a = 0.2, v = 0.2, t = 0.2)
movej(p[0.482914644897418, -0.0218246298085534, 0.22501189260296, -1.17692810728709, 1.2266257449196, -1.24453317930071], a = 0.2, v = 0.2, t = 0.2)
movej(p[0.482847237347405, -0.0218745155928745, 0.224701976257435, -1.17280603988407, 1.21494397680689, -1.23565414799296], a = 0.2, v = 0.2, t = 0.2)
movej(p[0.481749448590014, -0.021769118350888, 0.22429887197908, -1.16291928636836, 1.1948221619489, -1.21966172899186], a = 0.2, v = 0.2, t = 0.2)
movej(p[0.479318454333677, -0.0216189359957029, 0.223987744497892, -1.16224490720026, 1.20182132173343, -1.19084944229037], a = 0.2, v = 0.2, t = 0.2)
movej(p[0.476610100709362, -0.0213645042860339, 0.224006855187853, -1.14734168809035, 1.19173518349335, -1.16840337632688], a = 0.2, v = 0.2, t = 0.2)
movej(p[0.473673114119251, -0.021040197992525, 0.224640387424941, -1.15752738347577, 1.17571950987629, -1.1682476828003], a = 0.2, v = 0.2, t = 0.2)
movej(p[0.471105841958065, -0.0207431563760868, 0.225512121286846, -1.19356394441683, 1.17092977521782, -1.14548891838247], a = 0.2, v = 0.2, t = 0.2)
movej(p[0.469059998517584, -0.0205968811518924, 0.226246334575155, -1.22082547911509, 1.18593641988705, -1.13487932418711], a = 0.2, v = 0.2, t = 0.2)
movej(p[0.46822766041773, -0.0206943705559887, 0.226621906277524, -1.23067000562305, 1.23678321861338, -1.10354802587062], a = 0.2, v = 0.2, t = 0.2)
movej(p[0.469148917421056, -0.0208505811223454, 0.22676694638639, -1.2335339801505, 1.27051924759151, -1.11350939982569], a = 0.2, v = 0.2, t = 0.2)
movej(p[0.471224272581309, -0.0211682517989742, 0.226734389009255, -1.2240486143856, 1.29707670487858, -1.11790886412111], a = 0.2, v = 0.2, t = 0.2)
movej(p[0.473917619808203, -0.0213608468078736, 0.226419222643891, -1.22204195988884, 1.28944234693163, -1.15953902512879], a = 0.2, v = 0.2, t = 0.2)
movej(p[0.476465915188722, -0.021531462720182, 0.226189108436174, -1.20880132196429, 1.27952383849959, -1.18264198304093], a = 0.2, v = 0.2, t = 0.2)
movej(p[0.478458521932929, -0.0216167331302057, 0.225800215068254, -1.21811421022064, 1.2695189427153, -1.19904620154764], a = 0.2, v = 0.2, t = 0.2)
movej(p[0.479818912288722, -0.0217330896633951, 0.225677186839579, -1.19945598622939, 1.25392631541609, -1.21202890133082], a = 0.2, v = 0.2, t = 0.2)
movej(p[0.480942569556093, -0.0218661725363297, 0.225334810983369, -1.19637983375184, 1.23767109923528, -1.22707391109872], a = 0.2, v = 0.2, t = 0.2)
movej(p[0.481921356899312, -0.0219401966670236, 0.225216815320506, -1.19068312028325, 1.20867109885694, -1.26352696416074], a = 0.2, v = 0.2, t = 0.2)
movej(p[0.482468877941249, -0.0220293249622184, 0.224895002279351, -1.2076452582341, 1.17892996949994, -1.27474780306328], a = 0.2, v = 0.2, t = 0.2)
movej(p[0.482031219595563, -0.0219250373105863, 0.224650648984779, -1.20119715309553, 1.16860563495248, -1.27676259566512], a = 0.2, v = 0.2, t = 0.2)
movej(p[0.480737603679653, -0.0218220623492815, 0.224298753192465, -1.19467451065114, 1.14797327610429, -1.25979637181417], a = 0.2, v = 0.2, t = 0.2)
movej(p[0.47893622975993, -0.0216528650410151, 0.223959130004917, -1.17383676616622, 1.16846926251793, -1.22510205295443], a = 0.2, v = 0.2, t = 0.2)
movej(p[0.476844686324979, -0.0214725401200267, 0.224029252616697, -1.17157361450146, 1.18478295363721, -1.18107214512156], a = 0.2, v = 0.2, t = 0.2)
movej(p[0.474540016598967, -0.0212104143628322, 0.224279064950092, -1.14232922162028, 1.21001718466897, -1.14286690060026], a = 0.2, v = 0.2, t = 0.2)
movej(p[0.472149971244499, -0.0208809961797107, 0.224833619790498, -1.15337869347922, 1.21301363403212, -1.12169377144424], a = 0.2, v = 0.2, t = 0.2)
movej(p[0.469862078386175, -0.020749096787218, 0.225443742590917, -1.17709662902215, 1.21014391234199, -1.12037684972655], a = 0.2, v = 0.2, t = 0.2)
movej(p[0.468490235021723, -0.0207238251996825, 0.226343462177384, -1.22351002134058, 1.2402599709004, -1.10399195224873], a = 0.2, v = 0.2, t = 0.2)
movej(p[0.468254632444062, -0.0208812804909145, 0.226894928857032, -1.24370002765471, 1.24323210754886, -1.11090581395916], a = 0.2, v = 0.2, t = 0.2)
movej(p[0.469546315579109, -0.0210446365304888, 0.22710736668337, -1.25995690324894, 1.26188880767, -1.1145585723443], a = 0.2, v = 0.2, t = 0.2)
movej(p[0.471854053583313, -0.0212337590307058, 0.22692748932083, -1.24878533044328, 1.26105381318012, -1.14037665841823], a = 0.2, v = 0.2, t = 0.2)
movej(p[0.474342922770798, -0.0213414578482683, 0.226783416796443, -1.23627416211619, 1.2616275240523, -1.16520472635492], a = 0.2, v = 0.2, t = 0.2)
movej(p[0.476784105091253, -0.0215232225618895, 0.226421908805414, -1.22116282598383, 1.26618080086482, -1.18667376971748], a = 0.2, v = 0.2, t = 0.2)
