def moving():
set_payload_mass(0)
set_tcp(p[0,0,0,0,0,0])
movej(p[-0.3465, 0.0759, 0.5231, -1.593, -1.081, 1.829], a = 0.2, v = 0.2, t = 0.2)
movej(p[-0.346565655903783, 0.0759552910418299, 0.523111497955982, -1.59256083832609, -1.07991199171136, 1.83065352406737], a = 0.2, v = 0.2, t = 0.2)
movej(p[-0.3465, 0.0759, 0.5231, -1.593, -1.081, 1.829], a = 0.2, v = 0.2, t = 0.2)
movej(p[-0.346565655903783, 0.0759552910418299, 0.523111497955982, -1.59256083832609, -1.07991199171136, 1.83065352406737], a = 0.2, v = 0.2, t = 0.2)
movej(p[-0.3465, 0.0759, 0.5231, -1.593, -1.081, 1.829], a = 0.2, v = 0.2, t = 0.2)
movej(p[-0.3465, 0.0759, 0.5231, -1.593, -1.081, 1.829], a = 0.2, v = 0.2, t = 0.2)
movej(p[-0.346634653619251, 0.0758845702875508, 0.523082807362151, -1.59321870476151, -1.08083594911162, 1.82922428729403], a = 0.2, v = 0.2, t = 0.2)
movej(p[-0.346769404109292, 0.0758691157737111, 0.523065615694522, -1.59343741000774, -1.08067187135261, 1.82944856411074], a = 0.2, v = 0.2, t = 0.2)
movej(p[-0.346778219351065, 0.0758668588471781, 0.523065703984447, -1.59368000801141, -1.08049126378355, 1.82964063648682], a = 0.2, v = 0.2, t = 0.2)
movej(p[-0.346781590261213, 0.0758823180499307, 0.523124316525895, -1.59375044281528, -1.08044293428728, 1.82964128826327], a = 0.2, v = 0.2, t = 0.2)
movej(p[-0.346222648573092, 0.0760537680756343, 0.523605982237739, -1.60049820282409, -1.08266024612424, 1.82952675074294], a = 0.2, v = 0.2, t = 0.2)
movej(p[-0.346222648573092, 0.0760537680756343, 0.523605982237739, -1.60093540839631, -1.08235422456117, 1.82959283629617], a = 0.2, v = 0.2, t = 0.2)
movej(p[-0.346416391313808, 0.0760172523458331, 0.523519761521569, -1.60092944075906, -1.08234291764253, 1.8295955838377], a = 0.2, v = 0.2, t = 0.2)
movej(p[-0.346414430862818, 0.0760086417790047, 0.523495392180773, -1.59878474715242, -1.08055528931516, 1.83013021130358], a = 0.2, v = 0.2, t = 0.2)
movej(p[-0.346407724214269, 0.0759803237266129, 0.523441127378424, -1.59583712722617, -1.07773899362936, 1.83112968149232], a = 0.2, v = 0.2, t = 0.2)
movej(p[-0.346672780901322, 0.0758549576739461, 0.523198395828174, -1.59184610956843, -1.07561582354242, 1.83061939956962], a = 0.2, v = 0.2, t = 0.2)
movej(p[-0.347352314992993, 0.075839821555799, 0.523092852442855, -1.59119072332303, -1.07610475182296, 1.83010274645124], a = 0.2, v = 0.2, t = 0.2)
movej(p[-0.347516127849921, 0.0758638303199547, 0.523120444237805, -1.59093456278167, -1.07608986623022, 1.83021296502734], a = 0.2, v = 0.2, t = 0.2)
movej(p[-0.347534639458356, 0.0758760856786629, 0.523131488989324, -1.58915131204873, -1.07650960512557, 1.8291876557502], a = 0.2, v = 0.2, t = 0.2)
movej(p[-0.347533143948882, 0.0758664017102698, 0.523115714509695, -1.58806270349943, -1.07515362886586, 1.82935673341876], a = 0.2, v = 0.2, t = 0.2)
movej(p[-0.347802643921555, 0.0758822581277552, 0.523081275160779, -1.58718162205104, -1.07507470968642, 1.82879192822437], a = 0.2, v = 0.2, t = 0.2)
movej(p[-0.347881355271495, 0.0759235378401569, 0.523100820971962, -1.5878953831988, -1.07406955126728, 1.82916434830099], a = 0.2, v = 0.2, t = 0.2)
movej(p[-0.347883305641628, 0.0759316017122821, 0.523112221850117, -1.58930435241567, -1.07312183781314, 1.82892646255683], a = 0.2, v = 0.2, t = 0.2)
movej(p[-0.347829886941476, 0.0759305876780485, 0.523122077518972, -1.58974561875211, -1.07361399696157, 1.82888533308671], a = 0.2, v = 0.2, t = 0.2)
movej(p[-0.347265534385805, 0.0760569020467399, 0.52340247727498, -1.59497652723785, -1.07813914238185, 1.83002998436039], a = 0.2, v = 0.2, t = 0.2)
movej(p[-0.34563838291249, 0.076390694306794, 0.524177517532011, -1.60679585051458, -1.08565622171284, 1.83181351909794], a = 0.2, v = 0.2, t = 0.2)
movej(p[-0.34406356430633, 0.0765183326102405, 0.524733606293978, -1.61855791845714, -1.08340201848086, 1.83811525006077], a = 0.2, v = 0.2, t = 0.2)
movej(p[-0.342099649974036, 0.0770934773468223, 0.525816165556739, -1.62723715261246, -1.0806015171353, 1.84029549196402], a = 0.2, v = 0.2, t = 0.2)
movej(p[-0.337884413561368, 0.0777414093339293, 0.527643474842383, -1.65613643298888, -1.07456088921104, 1.85088970266384], a = 0.2, v = 0.2, t = 0.2)
movej(p[-0.335543635559682, 0.0782690405285498, 0.528786514250841, -1.66094018786758, -1.07086033451419, 1.85434982149177], a = 0.2, v = 0.2, t = 0.2)
movej(p[-0.335546678690387, 0.0782816224566884, 0.528804302855054, -1.66357113732101, -1.06882668214697, 1.85074873874657], a = 0.2, v = 0.2, t = 0.2)
movej(p[-0.336467660674896, 0.0784186846055694, 0.528549804266545, -1.6596250965495, -1.06466163413159, 1.85084167284426], a = 0.2, v = 0.2, t = 0.2)
movej(p[-0.338618363406529, 0.0776601878964517, 0.527331478299324, -1.64576627780329, -1.0621003529798, 1.84838882987722], a = 0.2, v = 0.2, t = 0.2)
movej(p[-0.340869414279704, 0.0770195419626722, 0.526177116738152, -1.62725071622884, -1.07054806820595, 1.83905436069746], a = 0.2, v = 0.2, t = 0.2)
movej(p[-0.342877296751555, 0.0764923013382883, 0.525175838338689, -1.61355113007481, -1.07041311359921, 1.83451978297394], a = 0.2, v = 0.2, t = 0.2)
movej(p[-0.344704505180711, 0.0761862743175096, 0.52434817227138, -1.60465542553902, -1.07137571972799, 1.831463147777], a = 0.2, v = 0.2, t = 0.2)
movej(p[-0.345452207034115, 0.0761463624515981, 0.524038615311554, -1.59843981479457, -1.07513154538555, 1.82958149448192], a = 0.2, v = 0.2, t = 0.2)
movej(p[-0.346018923555327, 0.0760042053778551, 0.523766543242113, -1.59838295223489, -1.07502427373182, 1.82960729209141], a = 0.2, v = 0.2, t = 0.2)
movej(p[-0.346683552812065, 0.0759715534332988, 0.52349549728364, -1.59540724559375, -1.07283614203844, 1.82959999829903], a = 0.2, v = 0.2, t = 0.2)
movej(p[-0.347149346265521, 0.0759588444119934, 0.523292470316233, -1.59251067335701, -1.07492781389579, 1.82833406299347], a = 0.2, v = 0.2, t = 0.2)
movej(p[-0.347360442241318, 0.0758977467085852, 0.52318492586198, -1.59170623014377, -1.07482776881918, 1.8291949339744], a = 0.2, v = 0.2, t = 0.2)
movej(p[-0.347560341863707, 0.0760206006351812, 0.523063833733049, -1.59130493822749, -1.07788638146844, 1.83070415185723], a = 0.2, v = 0.2, t = 0.2)
movej(p[-0.347566773935424, 0.0760471942560195, 0.523101432373771, -1.59430646082893, -1.07753328244815, 1.83246972007624], a = 0.2, v = 0.2, t = 0.2)
movej(p[-0.347250233768029, 0.0759981194377498, 0.523241990278697, -1.59493887907057, -1.07796250862763, 1.83254366968641], a = 0.2, v = 0.2, t = 0.2)
movej(p[-0.34609923640988, 0.0763006481734917, 0.523768835469987, -1.602939348646, -1.07778383290305, 1.8348393834972], a = 0.2, v = 0.2, t = 0.2)
movej(p[-0.344524450081704, 0.0764624107511037, 0.524513750323559, -1.61568148623767, -1.0760508574147, 1.84128287338178], a = 0.2, v = 0.2, t = 0.2)
movej(p[-0.343723797430407, 0.0766474531234039, 0.524883936806868, -1.62532594549847, -1.074641950508, 1.84623185755459], a = 0.2, v = 0.2, t = 0.2)
movej(p[-0.341206807449261, 0.0771517480295286, 0.526079563342399, -1.63190126690742, -1.07631221969901, 1.84342109491469], a = 0.2, v = 0.2, t = 0.2)
movej(p[-0.338926140991949, 0.0774874981796629, 0.52717934506946, -1.64932746961741, -1.07183947647355, 1.85240390536898], a = 0.2, v = 0.2, t = 0.2)
movej(p[-0.336431585155655, 0.0781172533881135, 0.528342377561286, -1.66131186677975, -1.07468926065219, 1.85656794047461], a = 0.2, v = 0.2, t = 0.2)
movej(p[-0.336431585155655, 0.0781172533881135, 0.528342377561286, -1.66079025710452, -1.07503087332599, 1.857256553576], a = 0.2, v = 0.2, t = 0.2)
movej(p[-0.337367893167286, 0.0779229017101537, 0.527928978695019, -1.65299460307443, -1.07064630952439, 1.85568587322159], a = 0.2, v = 0.2, t = 0.2)
movej(p[-0.34040489839783, 0.077238707549696, 0.526510681800698, -1.62555184515882, -1.07864474609923, 1.83579022136113], a = 0.2, v = 0.2, t = 0.2)
movej(p[-0.342181808219928, 0.076725046084443, 0.525727173604668, -1.62265676854137, -1.0712421662323, 1.83465292413637], a = 0.2, v = 0.2, t = 0.2)
movej(p[-0.343762535857435, 0.0765663609947198, 0.524910920893602, -1.61825952419039, -1.06838882939999, 1.8337128585732], a = 0.2, v = 0.2, t = 0.2)
movej(p[-0.34486180211329, 0.0763313155498248, 0.524409752511148, -1.60942845361425, -1.06762492726032, 1.83053715100384], a = 0.2, v = 0.2, t = 0.2)
movej(p[-0.345929552979524, 0.0761894553123212, 0.523850909894061, -1.59698547494097, -1.0763780887844, 1.8292208556001], a = 0.2, v = 0.2, t = 0.2)
movej(p[-0.346417542870124, 0.0760780296979613, 0.523628820071836, -1.59189486237872, -1.08041779635855, 1.82770195651664], a = 0.2, v = 0.2, t = 0.2)
movej(p[-0.346781303154237, 0.075997246222446, 0.523462581160068, -1.59189486237872, -1.08041779635855, 1.82770195651664], a = 0.2, v = 0.2, t = 0.2)
movej(p[-0.347025987995155, 0.0759438607190247, 0.523331839289767, -1.59402516949282, -1.07755124931199, 1.82919461701858], a = 0.2, v = 0.2, t = 0.2)
movej(p[-0.347056252245991, 0.075960324359973, 0.523307720341863, -1.59446869448388, -1.07652278205844, 1.82834396900334], a = 0.2, v = 0.2, t = 0.2)
movej(p[-0.347107146627009, 0.0759513338413594, 0.523283853365601, -1.59470952435758, -1.07471496283424, 1.82545197414601], a = 0.2, v = 0.2, t = 0.2)
movej(p[-0.347107146627009, 0.0759513338413594, 0.523283853365601, -1.59478509651983, -1.07467048016909, 1.82535214020519], a = 0.2, v = 0.2, t = 0.2)
movej(p[-0.346241829718909, 0.0760523030260217, 0.523745715652765, -1.60590473135051, -1.07545248608304, 1.82492810965848], a = 0.2, v = 0.2, t = 0.2)
movej(p[-0.34357208912862, 0.0763401211237931, 0.525145570449934, -1.61753531210196, -1.07866138392208, 1.82851906140823], a = 0.2, v = 0.2, t = 0.2)
movej(p[-0.341656700278343, 0.0767719989820799, 0.52603856476557, -1.62833313380457, -1.08112383034096, 1.83235258215494], a = 0.2, v = 0.2, t = 0.2)
movej(p[-0.3393489867275, 0.0772836385416183, 0.527192329363905, -1.64576718673537, -1.07034338211165, 1.84603535835741], a = 0.2, v = 0.2, t = 0.2)
movej(p[-0.336944564841176, 0.0777507937542298, 0.528382105498266, -1.65506131011229, -1.06883518751477, 1.85554279366538], a = 0.2, v = 0.2, t = 0.2)
movej(p[-0.335275116529914, 0.0782760454317347, 0.529111576478705, -1.65479459998721, -1.07218036438618, 1.85698348785365], a = 0.2, v = 0.2, t = 0.2)
movej(p[-0.335275116529914, 0.0782760454317347, 0.529111576478705, -1.65114631282749, -1.07499363772538, 1.85404467941368], a = 0.2, v = 0.2, t = 0.2)
movej(p[-0.336364432359752, 0.0780868851093283, 0.528622694452761, -1.64223227767178, -1.0773761451167, 1.84810849014367], a = 0.2, v = 0.2, t = 0.2)
movej(p[-0.338912984764782, 0.077480368125794, 0.527444871576646, -1.6350126421934, -1.07208816108292, 1.84684253541621], a = 0.2, v = 0.2, t = 0.2)
movej(p[-0.341652691233158, 0.0769536940130899, 0.526063970144194, -1.62218854647378, -1.07504345567164, 1.83607108241713], a = 0.2, v = 0.2, t = 0.2)
movej(p[-0.344042867687177, 0.0765283221566576, 0.524839409691457, -1.61231951514622, -1.07560071520904, 1.83145216076985], a = 0.2, v = 0.2, t = 0.2)
movej(p[-0.344957450287419, 0.0763939310654387, 0.524314349083587, -1.60158360499539, -1.08366809621019, 1.82303455939467], a = 0.2, v = 0.2, t = 0.2)
movej(p[-0.345813525015568, 0.0762958244653616, 0.523797131600468, -1.60009341751491, -1.08478269993489, 1.82184701383533], a = 0.2, v = 0.2, t = 0.2)
movej(p[-0.346364893000504, 0.0761890304923336, 0.523518750526195, -1.59457652179287, -1.08201718644073, 1.82076073005436], a = 0.2, v = 0.2, t = 0.2)
movej(p[-0.346681516183235, 0.0760882598362551, 0.523394253036139, -1.59302826115842, -1.08197649973354, 1.82246690079358], a = 0.2, v = 0.2, t = 0.2)
movej(p[-0.347233667080757, 0.0759985923197789, 0.523083836488811, -1.59202494191653, -1.08077646993676, 1.82316670702975], a = 0.2, v = 0.2, t = 0.2)
movej(p[-0.347233667080757, 0.0759985923197789, 0.523083836488811, -1.59448599780528, -1.07893968170725, 1.82511529432616], a = 0.2, v = 0.2, t = 0.2)
movej(p[-0.347006358625537, 0.0759773352932789, 0.52328208609161, -1.59832758807521, -1.07659274329313, 1.82351886823971], a = 0.2, v = 0.2, t = 0.2)
movej(p[-0.346521287565131, 0.0760150193098934, 0.523605551439443, -1.60290212335059, -1.07640048889298, 1.82473465245758], a = 0.2, v = 0.2, t = 0.2)
movej(p[-0.345916353610122, 0.076071868618621, 0.523987291293497, -1.60921625216844, -1.07358926022518, 1.82600619482491], a = 0.2, v = 0.2, t = 0.2)
movej(p[-0.343815530477451, 0.0764397798339515, 0.52511394781297, -1.62089221160141, -1.07665321702936, 1.82969075005813], a = 0.2, v = 0.2, t = 0.2)
movej(p[-0.341956510273256, 0.0767895831793557, 0.526114096036953, -1.63114260190725, -1.07906467103104, 1.83030106979116], a = 0.2, v = 0.2, t = 0.2)
movej(p[-0.33977226022772, 0.0772622596110843, 0.527168556367865, -1.64310691646688, -1.07323573257764, 1.84010959925342], a = 0.2, v = 0.2, t = 0.2)
movej(p[-0.337361544824676, 0.0778443297753678, 0.528234348650336, -1.65510320113894, -1.06755223282758, 1.84810234970737], a = 0.2, v = 0.2, t = 0.2)
movej(p[-0.336350028539028, 0.0781215764223964, 0.528628571760492, -1.65949638356621, -1.06780115296953, 1.85158854517592], a = 0.2, v = 0.2, t = 0.2)
movej(p[-0.336350028539028, 0.0781215764223964, 0.528628571760492, -1.65818920957109, -1.06865531356625, 1.85332677356995], a = 0.2, v = 0.2, t = 0.2)
movej(p[-0.339435466986154, 0.0774287334323877, 0.52725535037259, -1.63723628076565, -1.06986755778397, 1.84769462643281], a = 0.2, v = 0.2, t = 0.2)
movej(p[-0.341377143705687, 0.077099591410607, 0.526147420006401, -1.62027470886101, -1.08024039055027, 1.83796949000601], a = 0.2, v = 0.2, t = 0.2)
movej(p[-0.343323443778624, 0.0767483657820159, 0.525044053510668, -1.61048652732764, -1.08269191246401, 1.83246545221035], a = 0.2, v = 0.2, t = 0.2)
movej(p[-0.344671244282173, 0.0765238207556091, 0.524300379439755, -1.60304987315995, -1.08300520478674, 1.82748156314414], a = 0.2, v = 0.2, t = 0.2)
movej(p[-0.345543234745831, 0.0763931859165459, 0.52374346431147, -1.6026409814131, -1.07940413109459, 1.82631560030988], a = 0.2, v = 0.2, t = 0.2)
movej(p[-0.346623760513359, 0.0761063795417897, 0.523398614098903, -1.59554752902981, -1.08070805976848, 1.82259424373311], a = 0.2, v = 0.2, t = 0.2)
movej(p[-0.346918143734869, 0.0760614544323689, 0.523211707803031, -1.59212753194596, -1.08194360042639, 1.8244697925382], a = 0.2, v = 0.2, t = 0.2)
movej(p[-0.347033540258749, 0.0760079399828012, 0.523164517380657, -1.59086089622897, -1.07956249830989, 1.825054595657], a = 0.2, v = 0.2, t = 0.2)
movej(p[-0.347103384097411, 0.0759900581802707, 0.523165216908528, -1.59031770833356, -1.07991322524131, 1.82532996726534], a = 0.2, v = 0.2, t = 0.2)
movej(p[-0.347099655172872, 0.0759770115791744, 0.523204022595245, -1.59194904858166, -1.0793142679201, 1.82439972220378], a = 0.2, v = 0.2, t = 0.2)
movej(p[-0.34706575397519, 0.0758912230295448, 0.523530093773898, -1.59421114861537, -1.08356505248343, 1.82335484075507], a = 0.2, v = 0.2, t = 0.2)
movej(p[-0.345906102571035, 0.0760711082031213, 0.524228645966055, -1.60972501662897, -1.0792038491241, 1.82103773243536], a = 0.2, v = 0.2, t = 0.2)
movej(p[-0.34411221554432, 0.0764264225129, 0.525071280576459, -1.62211236077084, -1.07688075125795, 1.82520369891601], a = 0.2, v = 0.2, t = 0.2)
movej(p[-0.342424180277474, 0.0767547611219485, 0.525931459317009, -1.63755489856253, -1.0760296817988, 1.83096070118307], a = 0.2, v = 0.2, t = 0.2)
movej(p[-0.340254376415645, 0.0772139494600294, 0.526920020413433, -1.64532482473458, -1.07615390699326, 1.8343745584528], a = 0.2, v = 0.2, t = 0.2)
movej(p[-0.337914015439151, 0.0777156332107328, 0.527894097707072, -1.65223455483829, -1.07559785529224, 1.84339576445944], a = 0.2, v = 0.2, t = 0.2)
movej(p[-0.337625304766845, 0.0778146633301767, 0.527959768653, -1.64984710847814, -1.07711991564997, 1.84677988182861], a = 0.2, v = 0.2, t = 0.2)
movej(p[-0.337625304766845, 0.0778146633301767, 0.527959768653, -1.64790193549923, -1.07006405017109, 1.84912877970027], a = 0.2, v = 0.2, t = 0.2)
movej(p[-0.339468711118564, 0.0774536113414785, 0.527066342946018, -1.64299205044441, -1.06055984701276, 1.85123160369073], a = 0.2, v = 0.2, t = 0.2)
movej(p[-0.34135848391613, 0.0771095726661179, 0.52599811097522, -1.62386615474365, -1.07251755836744, 1.84243124128713], a = 0.2, v = 0.2, t = 0.2)
movej(p[-0.343209429339645, 0.0767722511980685, 0.524937953913099, -1.60968263691, -1.07819764442819, 1.83541673976748], a = 0.2, v = 0.2, t = 0.2)
movej(p[-0.345263165663844, 0.0763716086084313, 0.523903598908262, -1.59868078840006, -1.08374252881226, 1.82794263318528], a = 0.2, v = 0.2, t = 0.2)
movej(p[-0.345840514317688, 0.0762658843240333, 0.523501288980975, -1.5948556810984, -1.08534968217176, 1.82549367392472], a = 0.2, v = 0.2, t = 0.2)
movej(p[-0.346310580983391, 0.0761648580212565, 0.523335015754202, -1.58755701582473, -1.09052115610652, 1.82280254163095], a = 0.2, v = 0.2, t = 0.2)
movej(p[-0.34670194695616, 0.0760780951557667, 0.523217753396512, -1.58662250286735, -1.09108740840964, 1.82211804095536], a = 0.2, v = 0.2, t = 0.2)
movej(p[-0.347035005671739, 0.0759964517189535, 0.523188346404106, -1.58605596679342, -1.08842170304246, 1.82184573362103], a = 0.2, v = 0.2, t = 0.2)
movej(p[-0.347338598723564, 0.0759187241612134, 0.52319138707033, -1.58640136232954, -1.08710840398055, 1.82104705357635], a = 0.2, v = 0.2, t = 0.2)
movej(p[-0.347341749357971, 0.0759124576075196, 0.523211358144604, -1.58811655351617, -1.08583881449889, 1.82240855564355], a = 0.2, v = 0.2, t = 0.2)
movej(p[-0.347335560188297, 0.075909163267036, 0.523250365342651, -1.58793091889139, -1.08592114987875, 1.82298409857625], a = 0.2, v = 0.2, t = 0.2)
movej(p[-0.347075900405609, 0.0759532989713377, 0.523485440919563, -1.58844248969326, -1.08560766454506, 1.823358575996], a = 0.2, v = 0.2, t = 0.2)
movej(p[-0.34600066799301, 0.0761246041579897, 0.524265902559826, -1.60566116023954, -1.08451043496284, 1.82229493617327], a = 0.2, v = 0.2, t = 0.2)
movej(p[-0.345093923176867, 0.0762939935093201, 0.524892747601326, -1.61685115179257, -1.08673145416307, 1.81986384638697], a = 0.2, v = 0.2, t = 0.2)
movej(p[-0.343206197348601, 0.0766713081395078, 0.52574143987014, -1.63232284412504, -1.0839810935709, 1.82540343307503], a = 0.2, v = 0.2, t = 0.2)
movej(p[-0.341643520747698, 0.0769767067746993, 0.526475321253344, -1.63962096630232, -1.08504275436944, 1.82816730309786], a = 0.2, v = 0.2, t = 0.2)
movej(p[-0.341264842222383, 0.0770498037873871, 0.526708047038769, -1.64291378801439, -1.08400282105971, 1.83013723061699], a = 0.2, v = 0.2, t = 0.2)
movej(p[-0.339834882722806, 0.0773380095228812, 0.52726380564068, -1.64749387684437, -1.08247130921815, 1.83374460547187], a = 0.2, v = 0.2, t = 0.2)
movej(p[-0.337367948583061, 0.0778334484132421, 0.528450578153033, -1.66011307822343, -1.07261501136409, 1.84548201207408], a = 0.2, v = 0.2, t = 0.2)
movej(p[-0.337367948583061, 0.0778334484132421, 0.528450578153033, -1.65421806533912, -1.06936130093327, 1.85085506857597], a = 0.2, v = 0.2, t = 0.2)
movej(p[-0.340331622335529, 0.0772739090780459, 0.526625456715621, -1.63513827375447, -1.06618673128187, 1.84610625020122], a = 0.2, v = 0.2, t = 0.2)
movej(p[-0.342386354593541, 0.0768575258192152, 0.525367577552247, -1.62255315943808, -1.0724568338412, 1.8376336201282], a = 0.2, v = 0.2, t = 0.2)
movej(p[-0.344087957026067, 0.0765243040228775, 0.524378178625591, -1.61137865956709, -1.079590874857, 1.82935571462259], a = 0.2, v = 0.2, t = 0.2)
movej(p[-0.345200765527513, 0.0763009209189061, 0.523791868905418, -1.60305148256629, -1.08134624935104, 1.82613711611004], a = 0.2, v = 0.2, t = 0.2)
movej(p[-0.346185746109074, 0.0761236369834731, 0.5235829120434, -1.59806541702819, -1.08507546486228, 1.82216784918601], a = 0.2, v = 0.2, t = 0.2)
movej(p[-0.346479398846928, 0.0760795761614575, 0.523542568598895, -1.59634680241486, -1.08702252241299, 1.82047815344009], a = 0.2, v = 0.2, t = 0.2)
movej(p[-0.346690695637413, 0.0760467407564244, 0.523426254186603, -1.59275070580483, -1.08959593440002, 1.8189345828297], a = 0.2, v = 0.2, t = 0.2)
movej(p[-0.346754146004019, 0.076030495845665, 0.523426889680022, -1.59254085641447, -1.0892021217958, 1.81903326410165], a = 0.2, v = 0.2, t = 0.2)
movej(p[-0.346789039232421, 0.0760576721261884, 0.523461804467558, -1.59250452702187, -1.08901437263887, 1.8190096777149], a = 0.2, v = 0.2, t = 0.2)
movej(p[-0.347334450104511, 0.0759568881081665, 0.523457717620799, -1.59265109592382, -1.08827420794921, 1.81873967422154], a = 0.2, v = 0.2, t = 0.2)
movej(p[-0.347337424073155, 0.0759691840833928, 0.523475101938552, -1.59619709559321, -1.08577670453053, 1.81969446861154], a = 0.2, v = 0.2, t = 0.2)
movej(p[-0.346808368296144, 0.0760754699166954, 0.523883346738213, -1.60123475330287, -1.08734169859985, 1.82077228578464], a = 0.2, v = 0.2, t = 0.2)
movej(p[-0.345661656535729, 0.0763121199857844, 0.524586408060807, -1.61223271446821, -1.09285425292734, 1.81898681374068], a = 0.2, v = 0.2, t = 0.2)
movej(p[-0.344157572635935, 0.0766006272384574, 0.525284368745614, -1.62808585856251, -1.0914900917443, 1.82152187491701], a = 0.2, v = 0.2, t = 0.2)
movej(p[-0.342888166304812, 0.0768604417651689, 0.525956540746081, -1.6355034224146, -1.08990389175608, 1.82532245821641], a = 0.2, v = 0.2, t = 0.2)
movej(p[-0.342487117246443, 0.0769386684683901, 0.526162751525831, -1.63846498876696, -1.0876804458545, 1.827200525029], a = 0.2, v = 0.2, t = 0.2)
movej(p[-0.342045940159509, 0.0770325067900027, 0.526414749516618, -1.64129560305518, -1.08551658300438, 1.82949684610295], a = 0.2, v = 0.2, t = 0.2)
movej(p[-0.340135976733076, 0.0773679831587445, 0.527228940928821, -1.64943009541796, -1.08279032080364, 1.83466721397499], a = 0.2, v = 0.2, t = 0.2)
movej(p[-0.339884112682423, 0.0774324667739724, 0.527226418359521, -1.64832922323548, -1.08349304134015, 1.83611743463731], a = 0.2, v = 0.2, t = 0.2)
movej(p[-0.339866450980115, 0.0773522824666922, 0.526940112594407, -1.63742874390162, -1.07540645892729, 1.8418426294931], a = 0.2, v = 0.2, t = 0.2)
movej(p[-0.34322430178027, 0.0766698842264519, 0.525123944621555, -1.6159853971755, -1.07683350238599, 1.83320489426427], a = 0.2, v = 0.2, t = 0.2)
movej(p[-0.344430481055411, 0.076371715921013, 0.524290600486247, -1.60967386422864, -1.08156497904727, 1.82820592435211], a = 0.2, v = 0.2, t = 0.2)
movej(p[-0.345379582569031, 0.0761914210720081, 0.523835264978882, -1.60416578264279, -1.0835761137371, 1.82500987476867], a = 0.2, v = 0.2, t = 0.2)
movej(p[-0.346017543134072, 0.0760925365971474, 0.523606228457594, -1.60131342200643, -1.0856184042743, 1.82350412613457], a = 0.2, v = 0.2, t = 0.2)
movej(p[-0.346326987279147, 0.0760594312249698, 0.523506088528437, -1.599085543607, -1.0872323792452, 1.82176848697717], a = 0.2, v = 0.2, t = 0.2)
movej(p[-0.346955453430902, 0.076001440048585, 0.523415105345595, -1.5954829777124, -1.08523736169768, 1.82114793753677], a = 0.2, v = 0.2, t = 0.2)
movej(p[-0.347183144819113, 0.0759988682782944, 0.52339405047129, -1.59513655139378, -1.08544126917571, 1.82078651430641], a = 0.2, v = 0.2, t = 0.2)
movej(p[-0.347225830699383, 0.0759879740168688, 0.523378375947577, -1.59475202910578, -1.08574576095456, 1.82024023550422], a = 0.2, v = 0.2, t = 0.2)
movej(p[-0.347252371767801, 0.0760049331430555, 0.523377917988812, -1.59495861692443, -1.08586569391078, 1.81951973261943], a = 0.2, v = 0.2, t = 0.2)
movej(p[-0.347306604929215, 0.0759918070728158, 0.52337879004564, -1.59629691246472, -1.08717086276164, 1.81848301365594], a = 0.2, v = 0.2, t = 0.2)
movej(p[-0.347346190929827, 0.0760065826613238, 0.523390878078555, -1.59619868015937, -1.08724405544533, 1.81840467671614], a = 0.2, v = 0.2, t = 0.2)
movej(p[-0.347518725138233, 0.0759969657644114, 0.523368164377323, -1.59530139110985, -1.08570158017292, 1.81851662445029], a = 0.2, v = 0.2, t = 0.2)
movej(p[-0.347540594182072, 0.0760873840752617, 0.523495999755777, -1.59530139110985, -1.08570158017292, 1.81851662445029], a = 0.2, v = 0.2, t = 0.2)
movej(p[-0.346521873573478, 0.0763569222068222, 0.524175422965022, -1.60394681368319, -1.08836980043203, 1.8206783229858], a = 0.2, v = 0.2, t = 0.2)
movej(p[-0.345226941943259, 0.0765713370002752, 0.5247720237188, -1.61588424980547, -1.09194203948573, 1.82397728176755], a = 0.2, v = 0.2, t = 0.2)
movej(p[-0.3441433089025, 0.0767298470268748, 0.525229298225461, -1.62819428085609, -1.09715181965679, 1.82727285570259], a = 0.2, v = 0.2, t = 0.2)
movej(p[-0.342921558768469, 0.0769243575497737, 0.525761168394278, -1.63379119995587, -1.09375391198804, 1.83153660433258], a = 0.2, v = 0.2, t = 0.2)
movej(p[-0.342060540984441, 0.0771625201118959, 0.526301494397345, -1.63841460048411, -1.09363592601938, 1.83372186003343], a = 0.2, v = 0.2, t = 0.2)
movej(p[-0.340394948888139, 0.0774757363460086, 0.527111021110569, -1.64623524931001, -1.08797649144071, 1.84008803975758], a = 0.2, v = 0.2, t = 0.2)
movej(p[-0.340051209559619, 0.0775124359901363, 0.527233160621577, -1.64771701607472, -1.08684418729848, 1.84129256620745], a = 0.2, v = 0.2, t = 0.2)
movej(p[-0.340051209559619, 0.0775124359901363, 0.527233160621577, -1.64724502739359, -1.08559805413495, 1.84139407852672], a = 0.2, v = 0.2, t = 0.2)
movej(p[-0.340587660591153, 0.0773636760817733, 0.526856042549311, -1.64191172482444, -1.07933456794971, 1.840659277674], a = 0.2, v = 0.2, t = 0.2)
movej(p[-0.34223234538944, 0.0768918460585641, 0.525769737005976, -1.62520381519938, -1.07713349849711, 1.83420764647068], a = 0.2, v = 0.2, t = 0.2)
movej(p[-0.344359424596217, 0.0764456573867747, 0.524627788711498, -1.6119359849797, -1.07691276707825, 1.82897372889131], a = 0.2, v = 0.2, t = 0.2)
movej(p[-0.345062022301119, 0.0761679281602001, 0.524092584972933, -1.60712476144525, -1.08040271155232, 1.82705308384057], a = 0.2, v = 0.2, t = 0.2)
movej(p[-0.345373060029977, 0.0760888080195296, 0.523945443324964, -1.60591022766166, -1.08228826846663, 1.82682307016057], a = 0.2, v = 0.2, t = 0.2)
movej(p[-0.345636479859978, 0.0760488949789581, 0.523545960719141, -1.59625681506609, -1.08552549935663, 1.82314553602063], a = 0.2, v = 0.2, t = 0.2)
movej(p[-0.346168983831993, 0.0759994758259037, 0.523391620843869, -1.59484764432589, -1.08554186987946, 1.8222830884334], a = 0.2, v = 0.2, t = 0.2)
movej(p[-0.347092698954187, 0.0759143893632313, 0.523132632896464, -1.59059342826482, -1.08516213692923, 1.82046207138615], a = 0.2, v = 0.2, t = 0.2)
movej(p[-0.347266563677305, 0.0759070648408463, 0.523107822829419, -1.59083903971393, -1.08504704841916, 1.81977424931285], a = 0.2, v = 0.2, t = 0.2)
movej(p[-0.34744122674443, 0.0759059175776262, 0.52307875434529, -1.59136702241386, -1.08525054541796, 1.8192580401838], a = 0.2, v = 0.2, t = 0.2)
movej(p[-0.347455653950455, 0.0759655673551195, 0.523163088500716, -1.59364915822605, -1.08369297627152, 1.81921185212709], a = 0.2, v = 0.2, t = 0.2)
movej(p[-0.347283146250715, 0.0761319806029456, 0.523604470177362, -1.59736508061777, -1.08113287287118, 1.81930941268472], a = 0.2, v = 0.2, t = 0.2)
movej(p[-0.346862148548527, 0.0762951634815136, 0.524026582879012, -1.6042858580108, -1.08020858461202, 1.82054738371973], a = 0.2, v = 0.2, t = 0.2)
movej(p[-0.345727202457899, 0.0765201139005458, 0.524636966873186, -1.6160842197863, -1.08254938944883, 1.82281152154623], a = 0.2, v = 0.2, t = 0.2)
movej(p[-0.344000195724926, 0.0767745015297223, 0.525364298832052, -1.62916686113645, -1.08690002719938, 1.82655241426468], a = 0.2, v = 0.2, t = 0.2)
movej(p[-0.342557086209913, 0.0769712799169811, 0.52593688559752, -1.63629524754828, -1.08449722805071, 1.83101965545712], a = 0.2, v = 0.2, t = 0.2)
movej(p[-0.34083055272072, 0.0772248376637442, 0.526616366774412, -1.64145435682605, -1.08055054434282, 1.83518847293678], a = 0.2, v = 0.2, t = 0.2)
movej(p[-0.339811523543216, 0.0776198368389932, 0.527431326035325, -1.62741703177924, -1.0483183088084, 1.84264071673437], a = 0.2, v = 0.2, t = 0.2)
movej(p[-0.339666845603362, 0.0776480003937274, 0.527507145478111, -1.62743367544361, -1.04830788569382, 1.84261821140458], a = 0.2, v = 0.2, t = 0.2)
movej(p[-0.339666845603362, 0.0776480003937274, 0.527507145478111, -1.62737332531893, -1.04836806542098, 1.8425649315108], a = 0.2, v = 0.2, t = 0.2)
movej(p[-0.340832774116622, 0.077281091389629, 0.526657576284532, -1.62623560080082, -1.06054205147994, 1.8387799938604], a = 0.2, v = 0.2, t = 0.2)
movej(p[-0.341859850828127, 0.0769089942428029, 0.525779158341861, -1.62159816492166, -1.07051318678923, 1.83463950996129], a = 0.2, v = 0.2, t = 0.2)
movej(p[-0.342794102134486, 0.0766724338766223, 0.525193015484086, -1.61590900344901, -1.07467897742432, 1.83241427058824], a = 0.2, v = 0.2, t = 0.2)
movej(p[-0.34409878057227, 0.0764059645365892, 0.524487979339763, -1.60644750132116, -1.07831394872661, 1.82844025451782], a = 0.2, v = 0.2, t = 0.2)
movej(p[-0.344308884840492, 0.0763847470431069, 0.524426972992179, -1.60509310350336, -1.07927540165498, 1.82814701833497], a = 0.2, v = 0.2, t = 0.2)
movej(p[-0.344844716343713, 0.0762695061632088, 0.52414399110273, -1.6036081547773, -1.0819784073566, 1.82624864032057], a = 0.2, v = 0.2, t = 0.2)
movej(p[-0.34556836435921, 0.0761747079691126, 0.523884790809398, -1.6025289115475, -1.08552701619567, 1.82404260523348], a = 0.2, v = 0.2, t = 0.2)
movej(p[-0.345977142334197, 0.0760552420585652, 0.523604889517186, -1.60191836262207, -1.0890873868451, 1.82172217898956], a = 0.2, v = 0.2, t = 0.2)
movej(p[-0.346665907392155, 0.0760242959712741, 0.523472218025831, -1.60123342863327, -1.08974990967372, 1.81999800136375], a = 0.2, v = 0.2, t = 0.2)
movej(p[-0.347215915720008, 0.0760016611764834, 0.52337830633669, -1.60026330769031, -1.09052340116833, 1.81853482671313], a = 0.2, v = 0.2, t = 0.2)
movej(p[-0.347590959028127, 0.0760033895728796, 0.52330834849452, -1.59998486332491, -1.08986405695518, 1.81861910783728], a = 0.2, v = 0.2, t = 0.2)
movej(p[-0.347590959028127, 0.0760033895728796, 0.52330834849452, -1.6006648915003, -1.08929471804303, 1.81795236468612], a = 0.2, v = 0.2, t = 0.2)
movej(p[-0.347031879899349, 0.0762262881994711, 0.523840838635301, -1.60481034851306, -1.08633729727434, 1.8191903756823], a = 0.2, v = 0.2, t = 0.2)
movej(p[-0.346316980923652, 0.0764275809555027, 0.524320284910619, -1.60941285905627, -1.08246016691109, 1.82164481838574], a = 0.2, v = 0.2, t = 0.2)
movej(p[-0.345786435532025, 0.07658728044382, 0.524686305280073, -1.61366031131034, -1.07922525072687, 1.82326242124082], a = 0.2, v = 0.2, t = 0.2)
movej(p[-0.344061965353277, 0.076715081076733, 0.525202085476314, -1.62122906809947, -1.07335891238392, 1.82898362059658], a = 0.2, v = 0.2, t = 0.2)
movej(p[-0.342822351576201, 0.0771735399544784, 0.526163499305578, -1.62223179742578, -1.06028091347699, 1.83241950995207], a = 0.2, v = 0.2, t = 0.2)
movej(p[-0.340408218772205, 0.0774381192831345, 0.527009580503524, -1.63018561812853, -1.05219049670753, 1.83949313631319], a = 0.2, v = 0.2, t = 0.2)
movej(p[-0.338281650420188, 0.0775107033483239, 0.527506931383367, -1.63291584715273, -1.04912263724272, 1.84214868253779], a = 0.2, v = 0.2, t = 0.2)
movej(p[-0.338260970963806, 0.0774252034275641, 0.527386049732014, -1.63207585007564, -1.04965251852703, 1.84328427213993], a = 0.2, v = 0.2, t = 0.2)
movej(p[-0.340198970738817, 0.0774580830385765, 0.527025196488664, -1.6268087349195, -1.05383879102404, 1.83925879162777], a = 0.2, v = 0.2, t = 0.2)
movej(p[-0.341319840626082, 0.0771409928849874, 0.526289458715868, -1.62252268902424, -1.06019426081546, 1.83628519602617], a = 0.2, v = 0.2, t = 0.2)
movej(p[-0.342234123536759, 0.0768682441542792, 0.525669130255177, -1.6184435160792, -1.06820027549477, 1.83359893801576], a = 0.2, v = 0.2, t = 0.2)
movej(p[-0.343230214401448, 0.0765931563605915, 0.525035595453413, -1.61431703188268, -1.07626002908457, 1.83064599338308], a = 0.2, v = 0.2, t = 0.2)
movej(p[-0.344372474635216, 0.0763141686989703, 0.524374990251333, -1.61012113796154, -1.08402855506121, 1.82707552008837], a = 0.2, v = 0.2, t = 0.2)
movej(p[-0.345319358179935, 0.07611377606484, 0.523885026870123, -1.60574404665913, -1.08724421602551, 1.82449343147534], a = 0.2, v = 0.2, t = 0.2)
movej(p[-0.345788085862161, 0.0760237150375563, 0.52363801152388, -1.60262351571973, -1.08827235936571, 1.82295137394871], a = 0.2, v = 0.2, t = 0.2)
movej(p[-0.346332464089778, 0.0759523567637127, 0.523406999052246, -1.59939087488353, -1.08932878550759, 1.82101827066855], a = 0.2, v = 0.2, t = 0.2)
movej(p[-0.346723301018135, 0.0759843178208076, 0.523316294938438, -1.59799798502779, -1.08761188357863, 1.82047355373617], a = 0.2, v = 0.2, t = 0.2)
movej(p[-0.346873337031478, 0.0759591763840199, 0.523308410595944, -1.59632810526498, -1.08843196991311, 1.81865488008233], a = 0.2, v = 0.2, t = 0.2)
movej(p[-0.347813652026127, 0.0759496119035507, 0.523157653302416, -1.59710626437583, -1.08797520876356, 1.81763656271767], a = 0.2, v = 0.2, t = 0.2)
movej(p[-0.347836434009178, 0.0760438047928426, 0.523290825262134, -1.60119744278683, -1.08934150604426, 1.81691753800716], a = 0.2, v = 0.2, t = 0.2)
movej(p[-0.347549807596955, 0.076230432352506, 0.523686972537513, -1.6053637493901, -1.08773227603459, 1.81841266772202], a = 0.2, v = 0.2, t = 0.2)
movej(p[-0.346810124350214, 0.0764169621011635, 0.524119757977838, -1.61251014786431, -1.08779407712249, 1.82116866399828], a = 0.2, v = 0.2, t = 0.2)
movej(p[-0.345879273945977, 0.0765552151456573, 0.524543456739483, -1.62095298697139, -1.08834645976028, 1.82465102660713], a = 0.2, v = 0.2, t = 0.2)
movej(p[-0.344512540795178, 0.0766747596759852, 0.525008701051406, -1.62323379856556, -1.08802693121753, 1.82615571921701], a = 0.2, v = 0.2, t = 0.2)
movej(p[-0.343400872057684, 0.0768150403215978, 0.52543889513382, -1.6248795645733, -1.08535345921358, 1.82816073367524], a = 0.2, v = 0.2, t = 0.2)
movej(p[-0.341800474625646, 0.0770917042365644, 0.526112362985824, -1.62409559862656, -1.06276255307247, 1.83464018091205], a = 0.2, v = 0.2, t = 0.2)
movej(p[-0.340127001318439, 0.0774225182673111, 0.526952716701307, -1.63113782000532, -1.05510537595868, 1.83825398925637], a = 0.2, v = 0.2, t = 0.2)
movej(p[-0.339529874241233, 0.0775719442057063, 0.52732391329693, -1.63375643092242, -1.05289775124991, 1.84033502787568], a = 0.2, v = 0.2, t = 0.2)
movej(p[-0.339529874241233, 0.0775719442057063, 0.52732391329693, -1.63380132147605, -1.05286942809828, 1.8402744726867], a = 0.2, v = 0.2, t = 0.2)
movej(p[-0.341382341329904, 0.077301877799587, 0.526511756075897, -1.62689957172235, -1.05836543070174, 1.83476013631846], a = 0.2, v = 0.2, t = 0.2)
movej(p[-0.342847022605568, 0.0769526441917433, 0.525680696807329, -1.61790496835151, -1.06546020574663, 1.83071979481699], a = 0.2, v = 0.2, t = 0.2)
movej(p[-0.343572132657515, 0.0765181438977724, 0.52488892287046, -1.61464730569804, -1.07341711879717, 1.82992358900549], a = 0.2, v = 0.2, t = 0.2)
movej(p[-0.344283781596061, 0.0762124851722836, 0.524292402508864, -1.60669545394467, -1.08360852886003, 1.82788863797873], a = 0.2, v = 0.2, t = 0.2)
movej(p[-0.344890516243979, 0.076083348822558, 0.523975334992087, -1.60410702398054, -1.08565429105917, 1.8274237062183], a = 0.2, v = 0.2, t = 0.2)
movej(p[-0.345540998722254, 0.0759429296532214, 0.523629700268224, -1.60020948937937, -1.088265620335, 1.82531548232124], a = 0.2, v = 0.2, t = 0.2)
movej(p[-0.346156343638633, 0.0758656179256767, 0.523386058644786, -1.59785369897061, -1.08980138478151, 1.82379383173242], a = 0.2, v = 0.2, t = 0.2)
movej(p[-0.346434524816875, 0.0758456938515059, 0.523291466714158, -1.59764858279573, -1.08995372805964, 1.82362995504722], a = 0.2, v = 0.2, t = 0.2)
movej(p[-0.346586559244781, 0.0758516756040947, 0.523261226982554, -1.59816627842203, -1.09091285126585, 1.82257328537477], a = 0.2, v = 0.2, t = 0.2)
movej(p[-0.347073300205875, 0.075924518101408, 0.523277320688717, -1.59941687996414, -1.09063480375185, 1.82037506170804], a = 0.2, v = 0.2, t = 0.2)
movej(p[-0.347470288741234, 0.0760424516400289, 0.523347741092447, -1.59985045654927, -1.09225562129808, 1.81975797004287], a = 0.2, v = 0.2, t = 0.2)
movej(p[-0.347928115297298, 0.0760520261202474, 0.523262647767847, -1.60024800560866, -1.09251940380477, 1.81940742747166], a = 0.2, v = 0.2, t = 0.2)
movej(p[-0.347940329317355, 0.0761025254045491, 0.523334044756572, -1.60184629485776, -1.09326790521947, 1.81858997464555], a = 0.2, v = 0.2, t = 0.2)
movej(p[-0.347355047338623, 0.0761757877736892, 0.523564647880225, -1.60482282026444, -1.0910621052902, 1.82080680026181], a = 0.2, v = 0.2, t = 0.2)
movej(p[-0.346063882178007, 0.0765692671532682, 0.524384074457692, -1.60781515658899, -1.07900432855075, 1.82294399082639], a = 0.2, v = 0.2, t = 0.2)
movej(p[-0.344903623846516, 0.0766141087148013, 0.524721392910443, -1.61142617969132, -1.07631685096836, 1.82525012065321], a = 0.2, v = 0.2, t = 0.2)
movej(p[-0.34428936933412, 0.0767787488702828, 0.52508896341144, -1.61521319758842, -1.07383079544286, 1.82739922515909], a = 0.2, v = 0.2, t = 0.2)
movej(p[-0.342910812616038, 0.0769293718225612, 0.525663612270552, -1.62755195656778, -1.07776307667174, 1.83099836387299], a = 0.2, v = 0.2, t = 0.2)
movej(p[-0.341238561970384, 0.0771598567183677, 0.526414561177547, -1.6345853369352, -1.07238124993807, 1.83663184704641], a = 0.2, v = 0.2, t = 0.2)
movej(p[-0.340350147356611, 0.0772747005644124, 0.526702858376735, -1.62945371324488, -1.05722274280944, 1.83692130555692], a = 0.2, v = 0.2, t = 0.2)
movej(p[-0.340350147356611, 0.0772747005644124, 0.526702858376735, -1.6287615128053, -1.05775825251561, 1.83637443978608], a = 0.2, v = 0.2, t = 0.2)
movej(p[-0.341482282524505, 0.0770029468338883, 0.526063108948002, -1.6214851587772, -1.0631937355288, 1.83319070482112], a = 0.2, v = 0.2, t = 0.2)
movej(p[-0.342962849721668, 0.0767702382990372, 0.525398096825938, -1.61647183871446, -1.07042573272182, 1.83029346546777], a = 0.2, v = 0.2, t = 0.2)
movej(p[-0.343905276426167, 0.0765181974258625, 0.524847105451325, -1.61153386221786, -1.07515083995153, 1.82962891148177], a = 0.2, v = 0.2, t = 0.2)
movej(p[-0.344605685087799, 0.0761338707112775, 0.524186454179347, -1.60557040066526, -1.08085440882551, 1.82830117557193], a = 0.2, v = 0.2, t = 0.2)
movej(p[-0.345331549654865, 0.0759757054291594, 0.523797065756546, -1.60091903379915, -1.0864223321325, 1.8259917133936], a = 0.2, v = 0.2, t = 0.2)
movej(p[-0.345629894027883, 0.0759785623819925, 0.523735225778303, -1.60186229591711, -1.0882254674746, 1.8255437089888], a = 0.2, v = 0.2, t = 0.2)
movej(p[-0.34597069370287, 0.0759229360953803, 0.523577382477001, -1.6023829945073, -1.08792881439247, 1.82469539548381], a = 0.2, v = 0.2, t = 0.2)
movej(p[-0.34631620313033, 0.0758872007445773, 0.523447455996869, -1.60287196360502, -1.0875952610545, 1.82385081364843], a = 0.2, v = 0.2, t = 0.2)
movej(p[-0.346737757336554, 0.0759044295999605, 0.523324814740528, -1.59996187287883, -1.08918541818152, 1.82180328675949], a = 0.2, v = 0.2, t = 0.2)
movej(p[-0.34717806910673, 0.0759079711899596, 0.523246984783666, -1.59652683944999, -1.09147733112192, 1.82116899834561], a = 0.2, v = 0.2, t = 0.2)
movej(p[-0.347230757208475, 0.0758157227272398, 0.523121417132337, -1.59230665284309, -1.08831248909105, 1.82084401341635], a = 0.2, v = 0.2, t = 0.2)
movej(p[-0.347502778154701, 0.0758422349746793, 0.523056129801635, -1.59285707273963, -1.08799122221051, 1.82012472103535], a = 0.2, v = 0.2, t = 0.2)
movej(p[-0.347555327489013, 0.0760595019973993, 0.523363306653467, -1.59992815149701, -1.08486749021691, 1.82152073251733], a = 0.2, v = 0.2, t = 0.2)
movej(p[-0.347126189296086, 0.0763348777900366, 0.523765955736667, -1.60635234578243, -1.08955000547453, 1.82209931960324], a = 0.2, v = 0.2, t = 0.2)
movej(p[-0.345763623610992, 0.0764840258858939, 0.524345095883182, -1.61774538967143, -1.09265447159986, 1.82567179299442], a = 0.2, v = 0.2, t = 0.2)
movej(p[-0.344406703095852, 0.0766828321416565, 0.524980655611502, -1.6250800265618, -1.09032186416171, 1.82800265894051], a = 0.2, v = 0.2, t = 0.2)
movej(p[-0.343289640525289, 0.0767918157029137, 0.525417336532567, -1.63242255788603, -1.08850946687968, 1.83216185051867], a = 0.2, v = 0.2, t = 0.2)
movej(p[-0.34202258800149, 0.0769982047899757, 0.526014226184576, -1.63703747473557, -1.08500159011303, 1.83589456965834], a = 0.2, v = 0.2, t = 0.2)
movej(p[-0.340889182795055, 0.0773497262719842, 0.526748161349093, -1.64347902286593, -1.07910823611653, 1.83812307663763], a = 0.2, v = 0.2, t = 0.2)
movej(p[-0.339517421565948, 0.0773463868498262, 0.527027242553366, -1.64896210821514, -1.07232051624532, 1.83696403865788], a = 0.2, v = 0.2, t = 0.2)
movej(p[-0.339517421565948, 0.0773463868498262, 0.527027242553366, -1.64722885865154, -1.06900367852113, 1.83771496387096], a = 0.2, v = 0.2, t = 0.2)
movej(p[-0.340862647248522, 0.0770239499598424, 0.526264573395131, -1.62872234096311, -1.06551883078342, 1.83255030784021], a = 0.2, v = 0.2, t = 0.2)
movej(p[-0.342446561461218, 0.0766831311862199, 0.52547320716489, -1.62418070184578, -1.06853098941229, 1.83157754860117], a = 0.2, v = 0.2, t = 0.2)
movej(p[-0.343836711083619, 0.0762735136280243, 0.524613632791519, -1.61752997282511, -1.07298796521763, 1.83044493653303], a = 0.2, v = 0.2, t = 0.2)
movej(p[-0.344597601703801, 0.076095262940041, 0.524192140909803, -1.60842825209302, -1.07821128891296, 1.82678241381898], a = 0.2, v = 0.2, t = 0.2)
movej(p[-0.34537582724254, 0.0759114491848763, 0.523763208404312, -1.59891702078479, -1.08492964938921, 1.82488128433232], a = 0.2, v = 0.2, t = 0.2)
movej(p[-0.345838687907677, 0.0758131327254175, 0.523561127632174, -1.59818296315359, -1.08681723223562, 1.82365361040605], a = 0.2, v = 0.2, t = 0.2)
movej(p[-0.346365687633953, 0.0757983324864641, 0.523367412967184, -1.59758973461608, -1.08731515374276, 1.82242040219917], a = 0.2, v = 0.2, t = 0.2)
movej(p[-0.346583723151761, 0.0757839084953328, 0.523296287152925, -1.59674169949393, -1.08567633414361, 1.82280108663111], a = 0.2, v = 0.2, t = 0.2)
movej(p[-0.347008508194619, 0.0758144628279501, 0.523202007196822, -1.59644217252405, -1.08328676907009, 1.82230413069503], a = 0.2, v = 0.2, t = 0.2)
movej(p[-0.347187450300411, 0.0758703738088058, 0.523194181278712, -1.5959128434105, -1.08376819354527, 1.82073531503842], a = 0.2, v = 0.2, t = 0.2)
movej(p[-0.347605121643195, 0.0758995623272756, 0.523136218533721, -1.59646887096717, -1.08481127101624, 1.82047739229619], a = 0.2, v = 0.2, t = 0.2)
movej(p[-0.347614334029784, 0.075937651255186, 0.523190069490109, -1.5976615087076, -1.08637664410069, 1.82003358621151], a = 0.2, v = 0.2, t = 0.2)
movej(p[-0.347425779963703, 0.076199045665718, 0.523487245643774, -1.60174305312055, -1.08483270934751, 1.82306683973707], a = 0.2, v = 0.2, t = 0.2)
movej(p[-0.345870967791256, 0.0764444532147233, 0.524242054529057, -1.61243558970486, -1.09190355705114, 1.82296491188773], a = 0.2, v = 0.2, t = 0.2)
movej(p[-0.344410032220672, 0.0766559197870032, 0.524918856403619, -1.6242373864283, -1.08904092340186, 1.83001819681422], a = 0.2, v = 0.2, t = 0.2)
movej(p[-0.342776186940823, 0.0768611824960898, 0.525643106824244, -1.63601099560367, -1.08680521989085, 1.83637111169369], a = 0.2, v = 0.2, t = 0.2)
movej(p[-0.341362173156956, 0.0770456542372682, 0.526283978836225, -1.6404549154264, -1.08412351609303, 1.83963656469382], a = 0.2, v = 0.2, t = 0.2)
movej(p[-0.340306892640321, 0.0773412632608556, 0.526889379064491, -1.64764549520674, -1.07892445882527, 1.8404192019632], a = 0.2, v = 0.2, t = 0.2)
movej(p[-0.340306892640321, 0.0773412632608556, 0.526889379064491, -1.64797753707752, -1.07550594991666, 1.83887709993478], a = 0.2, v = 0.2, t = 0.2)
movej(p[-0.340685267027282, 0.0773861722709711, 0.526786701831853, -1.64491289121377, -1.07047833700059, 1.83981896191367], a = 0.2, v = 0.2, t = 0.2)
movej(p[-0.34172360920498, 0.0769911893189048, 0.526064027714709, -1.63388640570299, -1.07386343241171, 1.83539248668382], a = 0.2, v = 0.2, t = 0.2)
movej(p[-0.342570536933339, 0.0765213633085028, 0.525337495462921, -1.62322528471989, -1.07453969459948, 1.83348316741431], a = 0.2, v = 0.2, t = 0.2)
movej(p[-0.344043712835023, 0.0761922833022746, 0.524544526792546, -1.6143840884486, -1.07398830870097, 1.83012635104381], a = 0.2, v = 0.2, t = 0.2)
movej(p[-0.344808254184, 0.0759565007565467, 0.52407096517371, -1.60928289499765, -1.07519750413576, 1.82800469836294], a = 0.2, v = 0.2, t = 0.2)
movej(p[-0.345257753901316, 0.0758493350794711, 0.523842923923516, -1.6047892321079, -1.07847475175438, 1.82595956299721], a = 0.2, v = 0.2, t = 0.2)
movej(p[-0.345865794202198, 0.0758241742678038, 0.523641560480806, -1.60178780353218, -1.08160922452286, 1.82612054861016], a = 0.2, v = 0.2, t = 0.2)
movej(p[-0.346369578016523, 0.0758535988256136, 0.523484724248315, -1.59754998804758, -1.08471687965496, 1.82355194402776], a = 0.2, v = 0.2, t = 0.2)
movej(p[-0.347119005236073, 0.0759163185438185, 0.523327986826027, -1.59596777006594, -1.08173894981844, 1.82428388932356], a = 0.2, v = 0.2, t = 0.2)
movej(p[-0.347308461251513, 0.0759032234217847, 0.523186234415139, -1.59778141007711, -1.08073127455301, 1.82109408616029], a = 0.2, v = 0.2, t = 0.2)
movej(p[-0.347519353073972, 0.0759453350764674, 0.523232791345448, -1.5986101113587, -1.08228454427284, 1.82071257469666], a = 0.2, v = 0.2, t = 0.2)
movej(p[-0.347519353073972, 0.0759453350764674, 0.523232791345448, -1.59930947300784, -1.0843903222689, 1.82066359325059], a = 0.2, v = 0.2, t = 0.2)
movej(p[-0.34737774102186, 0.0760845593817117, 0.523388454698637, -1.60468051462689, -1.08609792649791, 1.82220246960094], a = 0.2, v = 0.2, t = 0.2)
movej(p[-0.346568679638231, 0.0763081941072351, 0.523842853672072, -1.60570345313352, -1.08540490568949, 1.82382842662277], a = 0.2, v = 0.2, t = 0.2)
movej(p[-0.345773757301514, 0.0765233868010843, 0.52431886142737, -1.61533051246132, -1.09090698962272, 1.82497615995683], a = 0.2, v = 0.2, t = 0.2)
movej(p[-0.344234280817104, 0.0766893709258362, 0.524975350699389, -1.62147078020738, -1.08670510807012, 1.82971893734133], a = 0.2, v = 0.2, t = 0.2)
movej(p[-0.342684316934723, 0.076928827918449, 0.525712390652176, -1.63469307977234, -1.0804921184636, 1.83525316737092], a = 0.2, v = 0.2, t = 0.2)
movej(p[-0.340901176542599, 0.0771840833955372, 0.526531697385575, -1.6396566809575, -1.07977251733293, 1.83781700386877], a = 0.2, v = 0.2, t = 0.2)
movej(p[-0.338406794365676, 0.0776923188834961, 0.527828018801825, -1.65693013957622, -1.07706143703938, 1.84688427930506], a = 0.2, v = 0.2, t = 0.2)
movej(p[-0.338406794365676, 0.0776923188834961, 0.527828018801825, -1.65764013020515, -1.07660049036391, 1.84594588371515], a = 0.2, v = 0.2, t = 0.2)
movej(p[-0.339613971932201, 0.0775713782044984, 0.527271711400255, -1.64793836427517, -1.06672751841892, 1.84361673806684], a = 0.2, v = 0.2, t = 0.2)
movej(p[-0.340742370942146, 0.0771141255506664, 0.526519918539875, -1.63873093706374, -1.06907408762849, 1.83843326926684], a = 0.2, v = 0.2, t = 0.2)
movej(p[-0.341789533552672, 0.0767620564049052, 0.525869269176761, -1.63155007161892, -1.0689530245839, 1.83530343693196], a = 0.2, v = 0.2, t = 0.2)
movej(p[-0.342631294320453, 0.0763979740705183, 0.525279940742345, -1.62502933915195, -1.06507368156996, 1.83351063628234], a = 0.2, v = 0.2, t = 0.2)
movej(p[-0.343157606116856, 0.0762415352446823, 0.524976772856944, -1.62089951513922, -1.06581751178931, 1.83135753108293], a = 0.2, v = 0.2, t = 0.2)
movej(p[-0.344436992945903, 0.0760454800581047, 0.524371082329135, -1.6103150312243, -1.07189498027087, 1.82782217757353], a = 0.2, v = 0.2, t = 0.2)
movej(p[-0.345064484639382, 0.0758930613680622, 0.524035270808278, -1.60456858136287, -1.07606629366271, 1.82562294385875], a = 0.2, v = 0.2, t = 0.2)
movej(p[-0.345574528927079, 0.0758287755984075, 0.523826277879192, -1.60433867655788, -1.07563392506134, 1.8257269965746], a = 0.2, v = 0.2, t = 0.2)
movej(p[-0.345829525096709, 0.0758691621135934, 0.523754089702426, -1.60500605976503, -1.07520505778305, 1.82525089844314], a = 0.2, v = 0.2, t = 0.2)
movej(p[-0.345830095965449, 0.0758709357487116, 0.523752737545871, -1.60513002324571, -1.0751092904991, 1.8253449284734], a = 0.2, v = 0.2, t = 0.2)
movej(p[-0.346447689608854, 0.0758454334294639, 0.523526730503196, -1.60517688527658, -1.07508126800431, 1.82528294150785], a = 0.2, v = 0.2, t = 0.2)
movej(p[-0.347189388841652, 0.0759370812046267, 0.523335023869574, -1.60217172375351, -1.07820616918058, 1.82249052915574], a = 0.2, v = 0.2, t = 0.2)
movej(p[-0.347191629692444, 0.0759463460789833, 0.523348122750857, -1.60053326649867, -1.08060745836505, 1.82395047033146], a = 0.2, v = 0.2, t = 0.2)
movej(p[-0.346735901039907, 0.0761310577807069, 0.52363455402098, -1.60369147338544, -1.08707326853887, 1.82267104280898], a = 0.2, v = 0.2, t = 0.2)
movej(p[-0.345646897827165, 0.0764243461561962, 0.524259732124754, -1.61407031075393, -1.08911392331301, 1.82658801267419], a = 0.2, v = 0.2, t = 0.2)
movej(p[-0.344643225855283, 0.0765759641552166, 0.524730587405316, -1.6216853829357, -1.08653854521093, 1.83120910336854], a = 0.2, v = 0.2, t = 0.2)
movej(p[-0.343303246329199, 0.0767769987293235, 0.525370453813004, -1.63005321211253, -1.08283097122872, 1.83574105411704], a = 0.2, v = 0.2, t = 0.2)
movej(p[-0.341366992825586, 0.0769958720363184, 0.526251457408475, -1.63975877905505, -1.08282356144542, 1.83980746127459], a = 0.2, v = 0.2, t = 0.2)
movej(p[-0.33927363927288, 0.0774022986897342, 0.527307668300658, -1.65747363837979, -1.07034515660839, 1.84646266826039], a = 0.2, v = 0.2, t = 0.2)
movej(p[-0.338674556498196, 0.0776334297957783, 0.527674589287923, -1.65872372681357, -1.06945563094726, 1.84606373923501], a = 0.2, v = 0.2, t = 0.2)
movej(p[-0.338674556498196, 0.0776334297957783, 0.527674589287923, -1.65876070210768, -1.06842185092107, 1.84566154236093], a = 0.2, v = 0.2, t = 0.2)
movej(p[-0.340364221785415, 0.0772918923052062, 0.526808997363457, -1.65114016299846, -1.06128250667123, 1.84310749240538], a = 0.2, v = 0.2, t = 0.2)
movej(p[-0.341394210603926, 0.0768934310302006, 0.526151184117875, -1.63980198715905, -1.06252742569046, 1.83750788791971], a = 0.2, v = 0.2, t = 0.2)
movej(p[-0.342331849267859, 0.0764873414996932, 0.525541649632296, -1.63153534619606, -1.06392681577494, 1.83573098298765], a = 0.2, v = 0.2, t = 0.2)
movej(p[-0.343221403108452, 0.0762314892807083, 0.525029112827054, -1.61865836462211, -1.06944828238793, 1.83042969464656], a = 0.2, v = 0.2, t = 0.2)
movej(p[-0.344254186943884, 0.0760833356199587, 0.524543653856516, -1.61572882177432, -1.07139539305168, 1.82845281549735], a = 0.2, v = 0.2, t = 0.2)
movej(p[-0.345236642193516, 0.0759567053569617, 0.524098577515913, -1.60689842407581, -1.0776364244909, 1.82760561511345], a = 0.2, v = 0.2, t = 0.2)
movej(p[-0.345452513485777, 0.0759457586770038, 0.524033524957353, -1.60209431122336, -1.08138308960496, 1.82538531809318], a = 0.2, v = 0.2, t = 0.2)
movej(p[-0.34562602533931, 0.0759134323151296, 0.523930487570877, -1.60091264573675, -1.08226814789712, 1.82444527132911], a = 0.2, v = 0.2, t = 0.2)
movej(p[-0.345733506792972, 0.0758920060987493, 0.523885947988815, -1.60044762666083, -1.08131795584564, 1.82463342955796], a = 0.2, v = 0.2, t = 0.2)
movej(p[-0.346230277395549, 0.0758772191501836, 0.52369084051954, -1.60218009077565, -1.08029086425831, 1.82234456575528], a = 0.2, v = 0.2, t = 0.2)
movej(p[-0.347079835822532, 0.0759053440648475, 0.523381778441119, -1.60262927649202, -1.08068171623255, 1.82235461547204], a = 0.2, v = 0.2, t = 0.2)
movej(p[-0.347355983880278, 0.0758968540435615, 0.523287733187429, -1.60276718444302, -1.08166775617826, 1.8225434903871], a = 0.2, v = 0.2, t = 0.2)
movej(p[-0.347355983880278, 0.0758968540435615, 0.523287733187429, -1.60360074581623, -1.08129980746929, 1.82377122708778], a = 0.2, v = 0.2, t = 0.2)
movej(p[-0.347089571663056, 0.0759427386368661, 0.523406843743687, -1.60296414111789, -1.08235320729396, 1.82492118469335], a = 0.2, v = 0.2, t = 0.2)
movej(p[-0.346350513445071, 0.0761492217569201, 0.523813165391598, -1.60535882355359, -1.08807362572491, 1.8251577360667], a = 0.2, v = 0.2, t = 0.2)
movej(p[-0.345455967422319, 0.0762372579113705, 0.524234511316805, -1.61237257110943, -1.08937672938173, 1.82764498752122], a = 0.2, v = 0.2, t = 0.2)
movej(p[-0.344353055799486, 0.0763727271810221, 0.524749596114873, -1.62530792721135, -1.08159539530923, 1.8336330402907], a = 0.2, v = 0.2, t = 0.2)
movej(p[-0.342837673290065, 0.0766096615513586, 0.525494377192971, -1.63365453731424, -1.08089928126756, 1.8362340914439], a = 0.2, v = 0.2, t = 0.2)
movej(p[-0.342436658865969, 0.0766945279026014, 0.525701945866169, -1.63674747497382, -1.07994963916766, 1.83806544081891], a = 0.2, v = 0.2, t = 0.2)
movej(p[-0.341308272270756, 0.0769388436472409, 0.526276114847104, -1.64238100792398, -1.07583101086656, 1.84016318442917], a = 0.2, v = 0.2, t = 0.2)
movej(p[-0.340729669741847, 0.077111176997096, 0.526589229762219, -1.64771284735558, -1.07196930167847, 1.84047159471015], a = 0.2, v = 0.2, t = 0.2)
movej(p[-0.340729669741847, 0.077111176997096, 0.526589229762219, -1.64497917245106, -1.06562987607572, 1.84126737137578], a = 0.2, v = 0.2, t = 0.2)
movej(p[-0.341979884500222, 0.0768094599510932, 0.525927222525029, -1.63669255612174, -1.06750645346033, 1.83672393530593], a = 0.2, v = 0.2, t = 0.2)
movej(p[-0.342746719056731, 0.0765920910220256, 0.525509873448571, -1.63052185610406, -1.07046179141288, 1.83495751798064], a = 0.2, v = 0.2, t = 0.2)
movej(p[-0.343900009637037, 0.0762860253589971, 0.524890402821912, -1.62294583443858, -1.07232870951632, 1.83074399893585], a = 0.2, v = 0.2, t = 0.2)
movej(p[-0.344576749232052, 0.0761246278244755, 0.52453050303532, -1.61606692799305, -1.07076624750327, 1.82845334671769], a = 0.2, v = 0.2, t = 0.2)
movej(p[-0.345798200897297, 0.0760043296423266, 0.523946564359738, -1.60692062401337, -1.07391169784024, 1.82250908570169], a = 0.2, v = 0.2, t = 0.2)
movej(p[-0.346327944039264, 0.0759561322399576, 0.52371775150183, -1.60338523153306, -1.07635606922065, 1.82273962482212], a = 0.2, v = 0.2, t = 0.2)
movej(p[-0.346605074825676, 0.0759514713357686, 0.52361316195553, -1.60329787952991, -1.07804284123217, 1.8219004041317], a = 0.2, v = 0.2, t = 0.2)
movej(p[-0.346940454285255, 0.07590285392391, 0.523443868023694, -1.59750322164065, -1.08208426893995, 1.8227105570473], a = 0.2, v = 0.2, t = 0.2)
movej(p[-0.347137450406658, 0.0758417168312281, 0.523341360687125, -1.59750322164065, -1.08208426893995, 1.8227105570473], a = 0.2, v = 0.2, t = 0.2)
movej(p[-0.347599277251944, 0.0759386610395868, 0.523193786179031, -1.60124525536525, -1.07955829793296, 1.82197156517834], a = 0.2, v = 0.2, t = 0.2)
movej(p[-0.34760847580612, 0.0759766927769147, 0.523247556278127, -1.60467159144413, -1.07771533026186, 1.8240332192694], a = 0.2, v = 0.2, t = 0.2)
movej(p[-0.34614696703799, 0.0761033658912504, 0.523885738456492, -1.61450632131464, -1.07637482340402, 1.82841909669634], a = 0.2, v = 0.2, t = 0.2)
movej(p[-0.344643323942002, 0.0763964566739928, 0.524646547744657, -1.62405564812578, -1.07827957492635, 1.8310866302466], a = 0.2, v = 0.2, t = 0.2)
movej(p[-0.342908650995771, 0.0765447410279892, 0.525467800117547, -1.63211607574629, -1.07307356562686, 1.83593331392188], a = 0.2, v = 0.2, t = 0.2)
movej(p[-0.341084898572257, 0.0769066054339931, 0.526398596308661, -1.65246444148574, -1.05839796662438, 1.84047990408234], a = 0.2, v = 0.2, t = 0.2)
movej(p[-0.339548746237675, 0.077270906996619, 0.527206118702422, -1.66075276494901, -1.05819455906872, 1.84426468263997], a = 0.2, v = 0.2, t = 0.2)
movej(p[-0.337690671223163, 0.0777036871472272, 0.52818192074776, -1.66794038678809, -1.05819158194699, 1.84939795697896], a = 0.2, v = 0.2, t = 0.2)
movej(p[-0.337690671223163, 0.0777036871472272, 0.52818192074776, -1.66794038678809, -1.05819158194699, 1.84939795697896], a = 0.2, v = 0.2, t = 0.2)
movej(p[-0.338748609397865, 0.0774866024473333, 0.527659041046893, -1.66505146770638, -1.05405032655969, 1.84747683466855], a = 0.2, v = 0.2, t = 0.2)
movej(p[-0.339890253736147, 0.0771695304003477, 0.527034630323179, -1.65457196430176, -1.05255592145904, 1.84347951909564], a = 0.2, v = 0.2, t = 0.2)
movej(p[-0.341700162705152, 0.0768303306948078, 0.526117379984571, -1.64063593580029, -1.05924867927692, 1.83771356569732], a = 0.2, v = 0.2, t = 0.2)
movej(p[-0.342512468634738, 0.0766045192952004, 0.525685361248209, -1.62930035997486, -1.06693456395868, 1.83276362818229], a = 0.2, v = 0.2, t = 0.2)
movej(p[-0.343169238318407, 0.0765669184683062, 0.525371669121387, -1.62773740418971, -1.0680849513358, 1.83226075147569], a = 0.2, v = 0.2, t = 0.2)
movej(p[-0.343601155666544, 0.0763649062464788, 0.525123933119541, -1.622993439429, -1.07160379576832, 1.83014806797067], a = 0.2, v = 0.2, t = 0.2)
movej(p[-0.344714127442214, 0.0762080394820265, 0.524572544595202, -1.61495443764475, -1.07301123571863, 1.8267706033751], a = 0.2, v = 0.2, t = 0.2)
movej(p[-0.345844538375309, 0.0761070746226201, 0.524028474048762, -1.60813649901832, -1.0756778052125, 1.82388415954862], a = 0.2, v = 0.2, t = 0.2)
movej(p[-0.346279286510389, 0.0759542842345105, 0.523787488434366, -1.60552289074755, -1.07743837326208, 1.82469362776299], a = 0.2, v = 0.2, t = 0.2)
movej(p[-0.346555211588642, 0.076010051090414, 0.523667943886294, -1.60342025374572, -1.07955144972389, 1.82374722568711], a = 0.2, v = 0.2, t = 0.2)
movej(p[-0.346834614919491, 0.0759354334911552, 0.52355802927129, -1.60259337360979, -1.08097265097745, 1.82486225475728], a = 0.2, v = 0.2, t = 0.2)
movej(p[-0.346899480390139, 0.0759692979397484, 0.52350269754586, -1.60188471431527, -1.08217301064831, 1.82606240850379], a = 0.2, v = 0.2, t = 0.2)
movej(p[-0.34699797850253, 0.0759367678535005, 0.523452831271243, -1.59920840860425, -1.08445378890062, 1.82694251531014], a = 0.2, v = 0.2, t = 0.2)
movej(p[-0.34699797850253, 0.0759367678535005, 0.523452831271243, -1.60017294398096, -1.08627793842151, 1.8264950504481], a = 0.2, v = 0.2, t = 0.2)
movej(p[-0.34666328116908, 0.0760829180423352, 0.523635390651405, -1.60687827735263, -1.08218387774617, 1.82426091787934], a = 0.2, v = 0.2, t = 0.2)
movej(p[-0.344723349348112, 0.0762867865456418, 0.524613466672661, -1.62758247993145, -1.06873932531364, 1.83215867358581], a = 0.2, v = 0.2, t = 0.2)
movej(p[-0.34238169102622, 0.0766840844247399, 0.525790343662316, -1.63884401958354, -1.07143545884934, 1.83517067265862], a = 0.2, v = 0.2, t = 0.2)
movej(p[-0.340398368969646, 0.0770929411081059, 0.526817107910999, -1.65299473190469, -1.0653508587192, 1.84403042254284], a = 0.2, v = 0.2, t = 0.2)
movej(p[-0.33868862068937, 0.07748368968689, 0.527709455436502, -1.6655013002367, -1.06063211074363, 1.84948981556787], a = 0.2, v = 0.2, t = 0.2)
movej(p[-0.337969109905812, 0.0777096007155287, 0.528093373643263, -1.66928296706502, -1.06058960228996, 1.85121640297902], a = 0.2, v = 0.2, t = 0.2)
movej(p[-0.337969109905812, 0.0777096007155287, 0.528093373643263, -1.66872520931351, -1.06096017993792, 1.85196453421505], a = 0.2, v = 0.2, t = 0.2)
movej(p[-0.339827797309294, 0.0772436742817541, 0.527157360024533, -1.65318195357951, -1.06351738525473, 1.84782075630266], a = 0.2, v = 0.2, t = 0.2)
movej(p[-0.341102573122691, 0.0769786624958587, 0.526496479045148, -1.64397680978204, -1.06507715471844, 1.84417477132024], a = 0.2, v = 0.2, t = 0.2)
movej(p[-0.342540314820771, 0.0766531159460472, 0.525744917401962, -1.62697075086442, -1.07799682785662, 1.83275723204575], a = 0.2, v = 0.2, t = 0.2)
movej(p[-0.34346325815257, 0.0764603418511042, 0.525366328542372, -1.6323305721456, -1.06626734844293, 1.83337925733601], a = 0.2, v = 0.2, t = 0.2)
movej(p[-0.343480793885531, 0.0764573313681848, 0.525362860825236, -1.63304163154052, -1.0653330185455, 1.83344555508937], a = 0.2, v = 0.2, t = 0.2)
movej(p[-0.34380914082361, 0.0765645558543965, 0.52509703370508, -1.6329010439349, -1.06506660179339, 1.83350636982791], a = 0.2, v = 0.2, t = 0.2)
movej(p[-0.344579456924608, 0.076484117576281, 0.524647537845303, -1.62811904533981, -1.06831712179784, 1.83329505932424], a = 0.2, v = 0.2, t = 0.2)
movej(p[-0.345309314115572, 0.0763044510994352, 0.524278734309668, -1.62359409231101, -1.0715910563363, 1.83073054214793], a = 0.2, v = 0.2, t = 0.2)
movej(p[-0.345754740122161, 0.0762358096591115, 0.524040466717822, -1.6149666258589, -1.07654910208861, 1.8299026236087], a = 0.2, v = 0.2, t = 0.2)
movej(p[-0.346647645765201, 0.0761136492288778, 0.52355993352239, -1.60538896637586, -1.08336704346956, 1.82781961530456], a = 0.2, v = 0.2, t = 0.2)
movej(p[-0.346840097836222, 0.076035694950899, 0.523450310436752, -1.60350036231811, -1.0846100884691, 1.83033396212896], a = 0.2, v = 0.2, t = 0.2)
movej(p[-0.346982004099538, 0.0759567901765138, 0.523395147867823, -1.61046104275325, -1.07939508715203, 1.83587893479238], a = 0.2, v = 0.2, t = 0.2)
movej(p[-0.347252979609864, 0.0760195312966583, 0.523205969553403, -1.62023295848875, -1.0654638633036, 1.83656017255708], a = 0.2, v = 0.2, t = 0.2)
movej(p[-0.347330796361936, 0.0759818744716344, 0.523183179059198, -1.62392159457725, -1.06075008358212, 1.83747401583195], a = 0.2, v = 0.2, t = 0.2)
movej(p[-0.347308291763574, 0.0758964878339156, 0.523247423165166, -1.62392159457725, -1.06075008358212, 1.83747401583195], a = 0.2, v = 0.2, t = 0.2)
movej(p[-0.346547463027428, 0.0759524717108634, 0.523691196947376, -1.62168977458927, -1.06513195791371, 1.83599270644262], a = 0.2, v = 0.2, t = 0.2)
movej(p[-0.345946662488745, 0.0760505882526511, 0.524003960063721, -1.62362904937201, -1.06881333165597, 1.83514401833176], a = 0.2, v = 0.2, t = 0.2)
movej(p[-0.345360575641748, 0.0761473490506931, 0.524307497171402, -1.625599318978, -1.07252577598436, 1.83426397570037], a = 0.2, v = 0.2, t = 0.2)
movej(p[-0.343423323130146, 0.076399464238256, 0.525375282884217, -1.63046404835953, -1.07860420194925, 1.83346238019076], a = 0.2, v = 0.2, t = 0.2)
movej(p[-0.341414562631205, 0.076821107454083, 0.526424068718619, -1.64549170250438, -1.06861148170644, 1.83540925208273], a = 0.2, v = 0.2, t = 0.2)
movej(p[-0.340443766267237, 0.0772001637081971, 0.526839368400684, -1.64731879878659, -1.06934774606748, 1.83588486402682], a = 0.2, v = 0.2, t = 0.2)
movej(p[-0.340443766267237, 0.0772001637081971, 0.526839368400684, -1.64243656788095, -1.07246077783076, 1.84237666370742], a = 0.2, v = 0.2, t = 0.2)
movej(p[-0.341205299152342, 0.0769253903790851, 0.526535259896178, -1.63716653878432, -1.07457572835304, 1.84027003638574], a = 0.2, v = 0.2, t = 0.2)
movej(p[-0.341706196108596, 0.0768046369917006, 0.526290845864972, -1.63545830790339, -1.07314206546357, 1.84158215667084], a = 0.2, v = 0.2, t = 0.2)
movej(p[-0.342622693881654, 0.0767519233785168, 0.525724754028814, -1.63076760676326, -1.07465817243673, 1.83900940107982], a = 0.2, v = 0.2, t = 0.2)
movej(p[-0.34424428099233, 0.0764905090823984, 0.524850868396551, -1.6142849901687, -1.08291768832835, 1.83231844965626], a = 0.2, v = 0.2, t = 0.2)
movej(p[-0.3446533835441, 0.0764257780760986, 0.52460813368754, -1.60513303387805, -1.08961917513222, 1.82718091040444], a = 0.2, v = 0.2, t = 0.2)
movej(p[-0.345181694288224, 0.0763453582488291, 0.524306756350926, -1.60224952935318, -1.09176591133151, 1.82487079265036], a = 0.2, v = 0.2, t = 0.2)
movej(p[-0.345807379039839, 0.0763019782748888, 0.5239187418287, -1.60228807877652, -1.08781530267645, 1.82231299584034], a = 0.2, v = 0.2, t = 0.2)
movej(p[-0.346260916210996, 0.0761509466265247, 0.523732909173951, -1.60083080774285, -1.0858670951444, 1.82260742044601], a = 0.2, v = 0.2, t = 0.2)
movej(p[-0.346902187688668, 0.0760231003786492, 0.523350275408022, -1.59913268413486, -1.08472523627691, 1.82409863444086], a = 0.2, v = 0.2, t = 0.2)
movej(p[-0.346918243678008, 0.0760649799821306, 0.523312465435547, -1.59847269140384, -1.08520070212686, 1.82380221503789], a = 0.2, v = 0.2, t = 0.2)
movej(p[-0.347001651183196, 0.0760266205662296, 0.523290699561107, -1.59978228238815, -1.08245891940513, 1.82568787663374], a = 0.2, v = 0.2, t = 0.2)
movej(p[-0.347051719724158, 0.0760120405149026, 0.523288860183721, -1.60140354311226, -1.08079089121531, 1.82407093961138], a = 0.2, v = 0.2, t = 0.2)
movej(p[-0.347021033508993, 0.0758956112991852, 0.523376460434441, -1.60347734002179, -1.07918516668471, 1.82535406268204], a = 0.2, v = 0.2, t = 0.2)
movej(p[-0.346768046641447, 0.0757978471070471, 0.523636555835371, -1.60741735606971, -1.07634915908898, 1.82670039070498], a = 0.2, v = 0.2, t = 0.2)
movej(p[-0.346576184705225, 0.0758723468487748, 0.523702019687317, -1.60882035491663, -1.07538480506515, 1.82773247668781], a = 0.2, v = 0.2, t = 0.2)
movej(p[-0.344823155195099, 0.0762064004290016, 0.524611447970453, -1.61891803063267, -1.0778368717966, 1.82850286783577], a = 0.2, v = 0.2, t = 0.2)
movej(p[-0.342872888938158, 0.0766166263186631, 0.525588550066697, -1.63595931808964, -1.07045587465222, 1.83556269547792], a = 0.2, v = 0.2, t = 0.2)
movej(p[-0.341343383208445, 0.0768700113567, 0.526442715650924, -1.64468325557287, -1.06909119102728, 1.83825275167754], a = 0.2, v = 0.2, t = 0.2)
movej(p[-0.340753962186126, 0.077043768259567, 0.526707699248821, -1.64885858681721, -1.06588616124545, 1.8415841299907], a = 0.2, v = 0.2, t = 0.2)
movej(p[-0.340753962186126, 0.077043768259567, 0.526707699248821, -1.64859074388864, -1.0661039410855, 1.84195793884172], a = 0.2, v = 0.2, t = 0.2)
movej(p[-0.34078381001597, 0.0770820907786745, 0.526655204853093, -1.64275952484533, -1.07021172462196, 1.84372297568686], a = 0.2, v = 0.2, t = 0.2)
movej(p[-0.342052734754942, 0.0768768810063773, 0.525973680373576, -1.63065760064517, -1.06941773598891, 1.84426728034518], a = 0.2, v = 0.2, t = 0.2)
movej(p[-0.342866226810494, 0.0767682065092075, 0.525490391868418, -1.62567588777443, -1.07130677016616, 1.84160791293284], a = 0.2, v = 0.2, t = 0.2)
movej(p[-0.343943414129896, 0.0765980327302331, 0.524883795228244, -1.62079757752525, -1.07286844690014, 1.83872168598134], a = 0.2, v = 0.2, t = 0.2)
movej(p[-0.344673047401483, 0.0764576364548655, 0.524510504919162, -1.61573506162734, -1.07600605039891, 1.83501964544152], a = 0.2, v = 0.2, t = 0.2)
movej(p[-0.345243049105504, 0.0764045977907388, 0.524116833727021, -1.60491872688544, -1.08407609833624, 1.82738938351844], a = 0.2, v = 0.2, t = 0.2)
movej(p[-0.345677467307499, 0.0763204293601211, 0.523869541124902, -1.5977993392216, -1.0891866807315, 1.82444488412421], a = 0.2, v = 0.2, t = 0.2)
movej(p[-0.346028513536057, 0.076266529991675, 0.523650101671986, -1.59715416102703, -1.08796775420466, 1.82474678613585], a = 0.2, v = 0.2, t = 0.2)
movej(p[-0.346763637382044, 0.0760984686862805, 0.523309785894081, -1.5970075450156, -1.08432529660568, 1.824130082963], a = 0.2, v = 0.2, t = 0.2)
movej(p[-0.347089163378274, 0.0760135970426635, 0.523125399913356, -1.59846921735353, -1.08171366262911, 1.82446460491245], a = 0.2, v = 0.2, t = 0.2)
movej(p[-0.347127233598238, 0.0760038500962079, 0.523125781209408, -1.59844715040617, -1.08161065636712, 1.82445354998942], a = 0.2, v = 0.2, t = 0.2)
movej(p[-0.347096050369454, 0.0758864531458568, 0.523238267529869, -1.60263947060996, -1.07866532349045, 1.82674529327516], a = 0.2, v = 0.2, t = 0.2)
movej(p[-0.346363007253822, 0.0759565850952146, 0.523701909913936, -1.60664390448406, -1.08067160702228, 1.82682604538594], a = 0.2, v = 0.2, t = 0.2)
movej(p[-0.345638867932492, 0.0760664257632442, 0.524116402424061, -1.61211064523219, -1.07994232738729, 1.82740916172277], a = 0.2, v = 0.2, t = 0.2)
movej(p[-0.344631016702754, 0.076229970984047, 0.524711621064116, -1.627626571357, -1.06997588937943, 1.82930631033223], a = 0.2, v = 0.2, t = 0.2)
movej(p[-0.34263397372368, 0.0766161201607931, 0.525775468535809, -1.64213489624202, -1.06719021543875, 1.83175828301206], a = 0.2, v = 0.2, t = 0.2)
movej(p[-0.340278004157858, 0.0772188194099652, 0.526808647107001, -1.65762553961527, -1.0601065849855, 1.84187959283592], a = 0.2, v = 0.2, t = 0.2)
movej(p[-0.337984566566539, 0.0777415214895957, 0.527902056692048, -1.66850499757151, -1.06037395790611, 1.84725473633339], a = 0.2, v = 0.2, t = 0.2)
movej(p[-0.336269004810802, 0.0780570263652368, 0.528739785094157, -1.67448799876257, -1.0571989686721, 1.8553334634933], a = 0.2, v = 0.2, t = 0.2)
movej(p[-0.336269004810802, 0.0780570263652368, 0.528739785094157, -1.66963627610538, -1.06044429181815, 1.86184054717143], a = 0.2, v = 0.2, t = 0.2)
movej(p[-0.338495705350226, 0.0775519722042844, 0.527679938835386, -1.66248044836979, -1.05360438042933, 1.86245477317884], a = 0.2, v = 0.2, t = 0.2)
movej(p[-0.339928087142706, 0.0772641249534289, 0.526984254596132, -1.64583346857828, -1.06040583574787, 1.85369726440781], a = 0.2, v = 0.2, t = 0.2)
movej(p[-0.341090528028217, 0.0770827360704958, 0.526319186245629, -1.63450034691077, -1.06541222045543, 1.84666482546891], a = 0.2, v = 0.2, t = 0.2)
movej(p[-0.341826419985417, 0.0769241805884132, 0.525959648102409, -1.63148691091921, -1.06772571749911, 1.84426756543012], a = 0.2, v = 0.2, t = 0.2)
movej(p[-0.34266397952355, 0.0768301941742149, 0.525417454194265, -1.62767254262106, -1.07065908508691, 1.84101577180353], a = 0.2, v = 0.2, t = 0.2)
movej(p[-0.343624471556241, 0.0766199584873682, 0.524966259013534, -1.6237682459884, -1.07282307205422, 1.83828240875928], a = 0.2, v = 0.2, t = 0.2)
movej(p[-0.343930987720269, 0.0765828659968834, 0.52475763816525, -1.61646842774288, -1.07518521752096, 1.83256519702489], a = 0.2, v = 0.2, t = 0.2)
movej(p[-0.344472964421074, 0.0764366637273582, 0.524533224858668, -1.61646842774288, -1.07518521752096, 1.83256519702489], a = 0.2, v = 0.2, t = 0.2)
movej(p[-0.344962339889639, 0.0763295582286279, 0.524345068453227, -1.61728881048157, -1.07097302655463, 1.83017515681272], a = 0.2, v = 0.2, t = 0.2)
movej(p[-0.345316560555538, 0.0762601573321627, 0.524144212745268, -1.61512648082164, -1.07082371906527, 1.82929744642761], a = 0.2, v = 0.2, t = 0.2)
movej(p[-0.345773276277321, 0.0761556667696023, 0.523913415947604, -1.61435833689858, -1.07134977132416, 1.82949747535855], a = 0.2, v = 0.2, t = 0.2)
movej(p[-0.345773276277321, 0.0761556667696023, 0.523913415947604, -1.61486025766785, -1.07283135617099, 1.82902375429905], a = 0.2, v = 0.2, t = 0.2)
movej(p[-0.345512099977741, 0.0762065661405494, 0.524081140258826, -1.61501748938946, -1.07273577133673, 1.82881527706095], a = 0.2, v = 0.2, t = 0.2)
movej(p[-0.345422549526433, 0.0762408352691158, 0.524096337742103, -1.61551488684873, -1.07234732359513, 1.82921267001643], a = 0.2, v = 0.2, t = 0.2)
movej(p[-0.345332999075126, 0.0762751043976822, 0.524111535225379, -1.61601638029213, -1.07196595597996, 1.82961107691028], a = 0.2, v = 0.2, t = 0.2)
movej(p[-0.344373959393223, 0.076427569519564, 0.524662212376843, -1.62286767206784, -1.07004829788614, 1.83292924767081], a = 0.2, v = 0.2, t = 0.2)
movej(p[-0.344365190263308, 0.0763944625815836, 0.524691457769952, -1.62349111320523, -1.07094018157157, 1.83255174740547], a = 0.2, v = 0.2, t = 0.2)
movej(p[-0.344366158971195, 0.0763942145676789, 0.524691467472141, -1.62287235704237, -1.07141285923021, 1.83205912524524], a = 0.2, v = 0.2, t = 0.2)
movej(p[-0.345032528902191, 0.0762882980501941, 0.524352721569748, -1.61764373173997, -1.0715198440346, 1.83282493133821], a = 0.2, v = 0.2, t = 0.2)
movej(p[-0.346380410424776, 0.076011736928633, 0.523673033194743, -1.60864124199936, -1.07490051852442, 1.82788219658429], a = 0.2, v = 0.2, t = 0.2)
movej(p[-0.347159448780487, 0.0758815209942734, 0.523234373257241, -1.60417991232156, -1.07368099581649, 1.82650793139879], a = 0.2, v = 0.2, t = 0.2)
movej(p[-0.347159448780487, 0.0758815209942734, 0.523234373257241, -1.60417991232156, -1.07368099581649, 1.82650793139879], a = 0.2, v = 0.2, t = 0.2)
movej(p[-0.346967910213645, 0.0758036936269642, 0.523527363936802, -1.60789132261575, -1.07626105141901, 1.82624161735923], a = 0.2, v = 0.2, t = 0.2)
movej(p[-0.344814440402716, 0.0761915051755239, 0.524657608492737, -1.62435537190028, -1.07194808655745, 1.83136388180155], a = 0.2, v = 0.2, t = 0.2)
movej(p[-0.34296938492429, 0.0764722307738272, 0.525764950892353, -1.63748110727296, -1.06914038350654, 1.8376996872083], a = 0.2, v = 0.2, t = 0.2)
movej(p[-0.34121504913101, 0.0768217724976453, 0.526664760909927, -1.64800381327697, -1.06782920176138, 1.84211805623042], a = 0.2, v = 0.2, t = 0.2)
movej(p[-0.337799982082749, 0.0776270167273295, 0.528119499575957, -1.66927326497375, -1.05661083192539, 1.85464011356767], a = 0.2, v = 0.2, t = 0.2)
movej(p[-0.33520589243483, 0.0781745502291061, 0.529326549124647, -1.68095240276792, -1.05303809010708, 1.86150988753167], a = 0.2, v = 0.2, t = 0.2)
movej(p[-0.33520589243483, 0.0781745502291061, 0.529326549124647, -1.67312063147923, -1.05832997581972, 1.87202312413824], a = 0.2, v = 0.2, t = 0.2)
movej(p[-0.33604099595815, 0.0779881788544801, 0.528925190038469, -1.66053882184147, -1.06133447357607, 1.86789868535005], a = 0.2, v = 0.2, t = 0.2)
movej(p[-0.338489290683437, 0.0774906401384302, 0.527721448349332, -1.64838703731645, -1.06062356845741, 1.86270733058621], a = 0.2, v = 0.2, t = 0.2)
movej(p[-0.339873112486497, 0.0772930179435656, 0.52686265795845, -1.64412725284605, -1.05989243447792, 1.85621351743933], a = 0.2, v = 0.2, t = 0.2)
movej(p[-0.341164564743556, 0.0770632330458799, 0.526210244716299, -1.63658044431212, -1.06583309301339, 1.84835759167919], a = 0.2, v = 0.2, t = 0.2)
movej(p[-0.342187487296348, 0.0768672856803668, 0.525683475373097, -1.62458707642861, -1.07500573522732, 1.83879808115496], a = 0.2, v = 0.2, t = 0.2)
movej(p[-0.34354700640573, 0.076612701142459, 0.524980810350285, -1.61921170695262, -1.07595468959419, 1.83700457547862], a = 0.2, v = 0.2, t = 0.2)
movej(p[-0.344858484379656, 0.0763351842572199, 0.52433486302092, -1.61315449418397, -1.07629440161993, 1.83416653554187], a = 0.2, v = 0.2, t = 0.2)
movej(p[-0.345297372567337, 0.0762836665622106, 0.524053323102232, -1.60926652426775, -1.07853767692435, 1.82735583732512], a = 0.2, v = 0.2, t = 0.2)
movej(p[-0.346036632124852, 0.0761118505522454, 0.52374006149376, -1.60853778223598, -1.07721517916051, 1.82732537794591], a = 0.2, v = 0.2, t = 0.2)
movej(p[-0.346328089146684, 0.0760610676726106, 0.523602816590172, -1.61102402656432, -1.07457628989171, 1.82363614741954], a = 0.2, v = 0.2, t = 0.2)
movej(p[-0.346533147954355, 0.0760079619074474, 0.52350870871004, -1.61534922255991, -1.06827985963536, 1.82406570747978], a = 0.2, v = 0.2, t = 0.2)
movej(p[-0.347147726969208, 0.0758101405067905, 0.523342767099995, -1.61929916874753, -1.05992709855777, 1.82475900284941], a = 0.2, v = 0.2, t = 0.2)
movej(p[-0.347147726969208, 0.0758101405067905, 0.523342767099995, -1.61929916874753, -1.05992709855777, 1.82475900284941], a = 0.2, v = 0.2, t = 0.2)
movej(p[-0.346842289484014, 0.0758102782196703, 0.523622482890885, -1.61818737303689, -1.06528935787968, 1.82649143047057], a = 0.2, v = 0.2, t = 0.2)
movej(p[-0.345759258972987, 0.0759736507226904, 0.524288193486747, -1.61810839931231, -1.07624507471348, 1.82940719972524], a = 0.2, v = 0.2, t = 0.2)
movej(p[-0.344401054162709, 0.0761923815317246, 0.525097494726407, -1.62113869659316, -1.08198766550726, 1.82804004107697], a = 0.2, v = 0.2, t = 0.2)
movej(p[-0.343500913048591, 0.0763587740243299, 0.525617114397974, -1.63587154607149, -1.07322486042353, 1.82830803006865], a = 0.2, v = 0.2, t = 0.2)
movej(p[-0.341253281763812, 0.0768019556752278, 0.526721335721798, -1.65224232787407, -1.06611139699502, 1.8387591666852], a = 0.2, v = 0.2, t = 0.2)
movej(p[-0.338925136012051, 0.0773202681712971, 0.527735731288122, -1.66096377671217, -1.068638488196, 1.84151971819656], a = 0.2, v = 0.2, t = 0.2)
movej(p[-0.33632869712064, 0.0779401514049783, 0.528800490298306, -1.67190564914215, -1.05999952071799, 1.85575842444552], a = 0.2, v = 0.2, t = 0.2)
movej(p[-0.33632869712064, 0.0779401514049783, 0.528800490298306, -1.66980343668103, -1.06140193465957, 1.85857385763102], a = 0.2, v = 0.2, t = 0.2)
movej(p[-0.337504519727071, 0.0776552562244823, 0.528307137864101, -1.66307431632618, -1.05320901944799, 1.86138034656152], a = 0.2, v = 0.2, t = 0.2)
movej(p[-0.340007521733778, 0.0771563104089538, 0.52710913145444, -1.64957923943844, -1.05361134205882, 1.8562728924005], a = 0.2, v = 0.2, t = 0.2)
movej(p[-0.341009986419502, 0.0770165185252468, 0.526483934586946, -1.63580670376449, -1.06400013142702, 1.84984310354045], a = 0.2, v = 0.2, t = 0.2)
movej(p[-0.342394501252173, 0.0767562907589513, 0.525769606897602, -1.62393599263424, -1.07299557874236, 1.84168774155097], a = 0.2, v = 0.2, t = 0.2)
movej(p[-0.343632677550745, 0.0765615945117512, 0.524984369452633, -1.61849133131292, -1.076187215874, 1.83778727376109], a = 0.2, v = 0.2, t = 0.2)
movej(p[-0.345036194337255, 0.0762874203666896, 0.524283828505819, -1.61878510202962, -1.0707577873076, 1.83557146901875], a = 0.2, v = 0.2, t = 0.2)
movej(p[-0.346132186345752, 0.0760361726081393, 0.523839697780544, -1.62266711935245, -1.05999405251944, 1.82780480446417], a = 0.2, v = 0.2, t = 0.2)
movej(p[-0.346645303048084, 0.0759244945083336, 0.523596668293008, -1.62406265276271, -1.05656415906573, 1.82564463480405], a = 0.2, v = 0.2, t = 0.2)
movej(p[-0.346916778717884, 0.0758404698015616, 0.523522466680098, -1.62606315620788, -1.05498642406455, 1.82712063286366], a = 0.2, v = 0.2, t = 0.2)
movej(p[-0.347095661157014, 0.0757908958003881, 0.523473006581244, -1.62738745543999, -1.05252776205122, 1.82471750463271], a = 0.2, v = 0.2, t = 0.2)
movej(p[-0.347247195745146, 0.0757424426910994, 0.523461690009328, -1.62862952789754, -1.04775985905681, 1.82575986856232], a = 0.2, v = 0.2, t = 0.2)
movej(p[-0.347339357725707, 0.0756899665253426, 0.523483040216973, -1.62862952789754, -1.04775985905681, 1.82575986856232], a = 0.2, v = 0.2, t = 0.2)
movej(p[-0.347334126837479, 0.0756716919776553, 0.52353816805672, -1.62339907660934, -1.05709084438534, 1.82631810603516], a = 0.2, v = 0.2, t = 0.2)
movej(p[-0.346130900364704, 0.0759019765829763, 0.524196654294819, -1.62861489958195, -1.06685443278047, 1.82406657645828], a = 0.2, v = 0.2, t = 0.2)
movej(p[-0.345009604910868, 0.0760971165496007, 0.524825911737072, -1.63526066499261, -1.06586707172404, 1.82754992678285], a = 0.2, v = 0.2, t = 0.2)
movej(p[-0.343623311980624, 0.0763658601638684, 0.525543795927834, -1.64005525821707, -1.06906186761653, 1.82818249526887], a = 0.2, v = 0.2, t = 0.2)
movej(p[-0.343347190442787, 0.076430546875022, 0.525659678565631, -1.64092926823991, -1.07153299048828, 1.83119123427918], a = 0.2, v = 0.2, t = 0.2)
movej(p[-0.342281235945776, 0.0766434781984615, 0.526227432624886, -1.64310436701834, -1.07551241538773, 1.83147534072301], a = 0.2, v = 0.2, t = 0.2)
movej(p[-0.339981920002235, 0.0771054408954393, 0.527334261314603, -1.6601288180128, -1.06468697975368, 1.84457342558016], a = 0.2, v = 0.2, t = 0.2)
movej(p[-0.336679788584297, 0.0778163234069495, 0.528767906390447, -1.67315013081334, -1.05441394839553, 1.85523435551077], a = 0.2, v = 0.2, t = 0.2)
movej(p[-0.336679788584297, 0.0778163234069495, 0.528767906390447, -1.67006630636153, -1.0557952692573, 1.85914203721733], a = 0.2, v = 0.2, t = 0.2)
movej(p[-0.338260697783185, 0.0775053748331432, 0.527957905755065, -1.66243177167337, -1.05024526578852, 1.85958555629207], a = 0.2, v = 0.2, t = 0.2)
movej(p[-0.340809400853854, 0.0770549609091737, 0.52657082891341, -1.63940064195445, -1.06495776689714, 1.84711501817015], a = 0.2, v = 0.2, t = 0.2)
movej(p[-0.341484088077206, 0.0769950202289655, 0.526010032127131, -1.63341461940239, -1.06439041449446, 1.84510064902909], a = 0.2, v = 0.2, t = 0.2)
movej(p[-0.342473446843083, 0.0768554903720591, 0.525329259579642, -1.6283852004492, -1.06804071173019, 1.84119915850013], a = 0.2, v = 0.2, t = 0.2)
movej(p[-0.343295702876468, 0.0767384620841458, 0.524808702094449, -1.61940320752295, -1.07416256248401, 1.83438935174068], a = 0.2, v = 0.2, t = 0.2)
movej(p[-0.344264822432532, 0.0765452151534941, 0.524342654371735, -1.62200828148946, -1.06850692641544, 1.82950049640505], a = 0.2, v = 0.2, t = 0.2)
movej(p[-0.345343227221307, 0.0762731646065543, 0.523988966908771, -1.62937313105818, -1.05355670564596, 1.82832796068358], a = 0.2, v = 0.2, t = 0.2)
movej(p[-0.345562620732113, 0.0762360758681695, 0.523862526674268, -1.63836319176084, -1.04556791721157, 1.82396778319895], a = 0.2, v = 0.2, t = 0.2)
movej(p[-0.345851730881126, 0.0761668888727155, 0.523788046734703, -1.63955176925973, -1.04266613221383, 1.82330074492594], a = 0.2, v = 0.2, t = 0.2)
movej(p[-0.346178638600058, 0.0760716596782593, 0.523736898481304, -1.6426423489295, -1.03843281974387, 1.82268417358652], a = 0.2, v = 0.2, t = 0.2)
movej(p[-0.346554525579654, 0.0759561575269862, 0.523688371152697, -1.64096958474008, -1.03534296808777, 1.82335612853427], a = 0.2, v = 0.2, t = 0.2)
movej(p[-0.347138587811091, 0.0757890409671981, 0.523602522417973, -1.64049825287787, -1.03484204663099, 1.8236904727378], a = 0.2, v = 0.2, t = 0.2)
movej(p[-0.347138587811091, 0.0757890409671981, 0.523602522417973, -1.63952542808387, -1.03504876442722, 1.82328344622287], a = 0.2, v = 0.2, t = 0.2)
movej(p[-0.347123755353792, 0.0757712420516003, 0.52364930977539, -1.63748668373238, -1.03634573627233, 1.82609437324319], a = 0.2, v = 0.2, t = 0.2)
movej(p[-0.346722604120671, 0.0758356064327544, 0.52382057265696, -1.61672940730462, -1.06344527859083, 1.83012419290372], a = 0.2, v = 0.2, t = 0.2)
movej(p[-0.346399226166179, 0.0759108895448463, 0.523937044677559, -1.61417183159795, -1.07055272233235, 1.83032847674825], a = 0.2, v = 0.2, t = 0.2)
movej(p[-0.345619869587824, 0.0760417026974479, 0.524443357715986, -1.61731628554801, -1.07649608436046, 1.82892409279603], a = 0.2, v = 0.2, t = 0.2)
movej(p[-0.344171627685384, 0.076303923580925, 0.525253255160286, -1.63024342529995, -1.07036755222316, 1.83275348742327], a = 0.2, v = 0.2, t = 0.2)
movej(p[-0.341765524229413, 0.0768148424576255, 0.526296976325444, -1.64684336943587, -1.06714315976711, 1.83721131183525], a = 0.2, v = 0.2, t = 0.2)
movej(p[-0.339706939468357, 0.0772544191945415, 0.527213103267472, -1.65535941953354, -1.06448805544419, 1.84222734678885], a = 0.2, v = 0.2, t = 0.2)
movej(p[-0.338514330088856, 0.0775047236807311, 0.527632503973386, -1.66272361584226, -1.05870382171985, 1.84828742979789], a = 0.2, v = 0.2, t = 0.2)
movej(p[-0.338514330088856, 0.0775047236807311, 0.527632503973386, -1.65748295821086, -1.05719807530581, 1.85355658029887], a = 0.2, v = 0.2, t = 0.2)
movej(p[-0.340459113422337, 0.0770938390296172, 0.526732494701604, -1.63771603009919, -1.0621315089318, 1.84994379270198], a = 0.2, v = 0.2, t = 0.2)
movej(p[-0.341559156193333, 0.0769468484786614, 0.52591043192425, -1.63176197856306, -1.06158911861352, 1.84768667743374], a = 0.2, v = 0.2, t = 0.2)
movej(p[-0.342473067284727, 0.0767868286625059, 0.525364161235429, -1.62289834074947, -1.06598424595795, 1.84222298678207], a = 0.2, v = 0.2, t = 0.2)
movej(p[-0.34352015988004, 0.0766010917093648, 0.524829003416577, -1.61759630943652, -1.07001932997288, 1.83809285410641], a = 0.2, v = 0.2, t = 0.2)
movej(p[-0.344236133359244, 0.0765008734313187, 0.524290497888452, -1.61021538217686, -1.07555922635702, 1.83294691530327], a = 0.2, v = 0.2, t = 0.2)
movej(p[-0.345310127833683, 0.0762651928133949, 0.523884508251625, -1.60492371119141, -1.07894045992429, 1.83147828288888], a = 0.2, v = 0.2, t = 0.2)
movej(p[-0.345855772270658, 0.0761622495144038, 0.523616379167804, -1.6012262132559, -1.08135383673892, 1.82932473993871], a = 0.2, v = 0.2, t = 0.2)
movej(p[-0.346096597015089, 0.0761233772936744, 0.523489636582518, -1.59731191954217, -1.08423456986276, 1.82677038894502], a = 0.2, v = 0.2, t = 0.2)
movej(p[-0.346495155099681, 0.0760476422978653, 0.52332784917999, -1.59357862485184, -1.08783994737488, 1.82419503940158], a = 0.2, v = 0.2, t = 0.2)
movej(p[-0.346807584224708, 0.0759854524135824, 0.523206586489406, -1.59182258797554, -1.08910563494969, 1.82327448741078], a = 0.2, v = 0.2, t = 0.2)
movej(p[-0.347068782691646, 0.0759179698380135, 0.523200234099016, -1.59106966860695, -1.08780257132989, 1.82357216086931], a = 0.2, v = 0.2, t = 0.2)
movej(p[-0.347579338745519, 0.0757857972513887, 0.523101254842613, -1.58958565200337, -1.08891023073774, 1.82226972888766], a = 0.2, v = 0.2, t = 0.2)
movej(p[-0.347632761656715, 0.0757814819420751, 0.523088736828997, -1.59008128724771, -1.08983357419288, 1.82203293313103], a = 0.2, v = 0.2, t = 0.2)
movej(p[-0.347630389651171, 0.0757727269186098, 0.523101766148005, -1.59504564726139, -1.08651566896232, 1.82113206520386], a = 0.2, v = 0.2, t = 0.2)
movej(p[-0.347329454646727, 0.0757777425818941, 0.523437985772986, -1.60368969083969, -1.08065074765197, 1.8246865353025], a = 0.2, v = 0.2, t = 0.2)
movej(p[-0.345997832991066, 0.0759866661025348, 0.524300506398071, -1.62344983589656, -1.07070852575221, 1.82759585467441], a = 0.2, v = 0.2, t = 0.2)
movej(p[-0.344714736328412, 0.0762308054141633, 0.525031867185101, -1.63124748644955, -1.07165769950707, 1.82879968120133], a = 0.2, v = 0.2, t = 0.2)
movej(p[-0.343267424441911, 0.0765047880209579, 0.525812509084031, -1.64676710488629, -1.06328501670972, 1.83406554589701], a = 0.2, v = 0.2, t = 0.2)
movej(p[-0.341509570016968, 0.0768724319057276, 0.526557520422669, -1.65220193355527, -1.06783278987455, 1.83439599234908], a = 0.2, v = 0.2, t = 0.2)
movej(p[-0.339572887254442, 0.0772425502837605, 0.527482504516358, -1.66328655533715, -1.06046092645472, 1.84346332342235], a = 0.2, v = 0.2, t = 0.2)
movej(p[-0.339413147323855, 0.0772834477766493, 0.527480904625291, -1.66239890050648, -1.06104440204144, 1.84465589573949], a = 0.2, v = 0.2, t = 0.2)
movej(p[-0.339414625316746, 0.0772866828086859, 0.527416031594649, -1.6550615248844, -1.0577136158248, 1.85014214199219], a = 0.2, v = 0.2, t = 0.2)
movej(p[-0.341254419837971, 0.0769214324778574, 0.526590380430112, -1.6352962615562, -1.0657351025755, 1.84729996945185], a = 0.2, v = 0.2, t = 0.2)
movej(p[-0.342029821643684, 0.0768002777402043, 0.525849732727596, -1.6309057777648, -1.06540166573662, 1.84549987379127], a = 0.2, v = 0.2, t = 0.2)
movej(p[-0.342833507561266, 0.0766826444972396, 0.525322885979453, -1.62089409714717, -1.07119454106989, 1.83840098070998], a = 0.2, v = 0.2, t = 0.2)
movej(p[-0.343630287925162, 0.0765275295791218, 0.524805674964597, -1.61736127214071, -1.07255830364591, 1.838130612396], a = 0.2, v = 0.2, t = 0.2)
movej(p[-0.34442513993663, 0.0763961639300216, 0.524366607047185, -1.61012702780815, -1.07673997978116, 1.83359308391708], a = 0.2, v = 0.2, t = 0.2)
movej(p[-0.345411391112082, 0.0762206194122884, 0.523848499914235, -1.60184035612164, -1.0814376630468, 1.82883565447273], a = 0.2, v = 0.2, t = 0.2)
movej(p[-0.345650347205651, 0.0761684583124826, 0.52365108771853, -1.60092260959179, -1.0802581326551, 1.82899238707603], a = 0.2, v = 0.2, t = 0.2)
movej(p[-0.346089268765415, 0.076075026315269, 0.523449152762985, -1.59993801015638, -1.08105704739981, 1.82736363946118], a = 0.2, v = 0.2, t = 0.2)
movej(p[-0.346357403608288, 0.0760433942399836, 0.523367776121061, -1.59984073099643, -1.08116297040649, 1.82683671989358], a = 0.2, v = 0.2, t = 0.2)
movej(p[-0.346487711715051, 0.0759915300183033, 0.523337521207058, -1.59973889144198, -1.08101583497448, 1.82686207605242], a = 0.2, v = 0.2, t = 0.2)
movej(p[-0.346809190698323, 0.0759394660400405, 0.523200251452627, -1.59834472617725, -1.08008785088921, 1.8268018195626], a = 0.2, v = 0.2, t = 0.2)
movej(p[-0.347078394620156, 0.0758705429759181, 0.52320294769112, -1.59556943042958, -1.08189833508825, 1.82811578828129], a = 0.2, v = 0.2, t = 0.2)
movej(p[-0.347068431825105, 0.0758419978773047, 0.523467986499712, -1.59615103521806, -1.08299745818017, 1.82784702881105], a = 0.2, v = 0.2, t = 0.2)
movej(p[-0.346246470779055, 0.075981243717319, 0.524176594864619, -1.61650361873852, -1.07163775269763, 1.82900897044745], a = 0.2, v = 0.2, t = 0.2)
movej(p[-0.345034112837357, 0.0762242789182886, 0.524835910913483, -1.62527368224523, -1.07382718586058, 1.82928672107813], a = 0.2, v = 0.2, t = 0.2)
movej(p[-0.343821656934681, 0.0764525680898956, 0.525622793552887, -1.63880874236584, -1.07287255752472, 1.83017656807204], a = 0.2, v = 0.2, t = 0.2)
movej(p[-0.342933519581172, 0.0766103457837442, 0.526032672279617, -1.64673535221537, -1.07017445549596, 1.83322050353988], a = 0.2, v = 0.2, t = 0.2)
movej(p[-0.341177283748477, 0.0769659985290994, 0.526659987260051, -1.65827999792905, -1.06466053304217, 1.83817063576966], a = 0.2, v = 0.2, t = 0.2)
movej(p[-0.339244680554304, 0.0773491676545675, 0.527593717502231, -1.66814302734922, -1.06026648767014, 1.84458406013851], a = 0.2, v = 0.2, t = 0.2)
movej(p[-0.339244680554304, 0.0773491676545675, 0.527593717502231, -1.66633811248092, -1.06146088418782, 1.84700890973882], a = 0.2, v = 0.2, t = 0.2)
movej(p[-0.339476954872813, 0.0772775259897048, 0.527318099990421, -1.65502906540073, -1.05379503497608, 1.85200868507543], a = 0.2, v = 0.2, t = 0.2)
movej(p[-0.341196015653204, 0.0769501292520424, 0.526311453026738, -1.63626948765396, -1.05783965392621, 1.84974588653079], a = 0.2, v = 0.2, t = 0.2)
movej(p[-0.342511589231672, 0.0767220447793201, 0.525479205609837, -1.62365975202468, -1.06753190682336, 1.83975456501689], a = 0.2, v = 0.2, t = 0.2)
movej(p[-0.343619998711597, 0.07653455994996, 0.524744953831784, -1.61578690307217, -1.07334185332214, 1.83751087977893], a = 0.2, v = 0.2, t = 0.2)
movej(p[-0.34432217364767, 0.0763904133537906, 0.524286010122859, -1.61017240716525, -1.07963246478219, 1.83120575244852], a = 0.2, v = 0.2, t = 0.2)
movej(p[-0.345085052315899, 0.0762603105568534, 0.523804274998759, -1.6061556195142, -1.08265036562904, 1.8280048010724], a = 0.2, v = 0.2, t = 0.2)
movej(p[-0.345552972349678, 0.0761511333110566, 0.523623356837734, -1.60396646096498, -1.08037345955337, 1.82682533099955], a = 0.2, v = 0.2, t = 0.2)
movej(p[-0.346538029472411, 0.0759681227596571, 0.523414974441574, -1.59988942374212, -1.08290756947005, 1.82382984192446], a = 0.2, v = 0.2, t = 0.2)
movej(p[-0.346772005155018, 0.0759060653333092, 0.523286632921467, -1.59783439876622, -1.08265936211042, 1.8239212983587], a = 0.2, v = 0.2, t = 0.2)
movej(p[-0.346990212946015, 0.075871985566899, 0.523211200040905, -1.5963110641926, -1.08372882563545, 1.82320829766403], a = 0.2, v = 0.2, t = 0.2)
movej(p[-0.347091286580099, 0.0758573223519601, 0.523165075637163, -1.59519596265311, -1.08444868414604, 1.8233010699529], a = 0.2, v = 0.2, t = 0.2)
movej(p[-0.347175467295491, 0.0758357699436397, 0.52316591875744, -1.59565207684001, -1.08418082187243, 1.8227031951273], a = 0.2, v = 0.2, t = 0.2)
movej(p[-0.347175391305421, 0.0758392714294343, 0.523263013267186, -1.59736714056945, -1.08302949836675, 1.82235303919281], a = 0.2, v = 0.2, t = 0.2)
movej(p[-0.346840306151369, 0.0758808527214753, 0.523944547070959, -1.61182632820195, -1.07312935423879, 1.82858208597481], a = 0.2, v = 0.2, t = 0.2)
movej(p[-0.345215801979775, 0.0762015855020978, 0.525049059909232, -1.63297866985134, -1.06813410372122, 1.83070895956256], a = 0.2, v = 0.2, t = 0.2)
movej(p[-0.343361293272214, 0.0765727863921741, 0.525898372721325, -1.64524636339184, -1.06833817995444, 1.83422492342841], a = 0.2, v = 0.2, t = 0.2)
movej(p[-0.341687881180291, 0.0769029386124041, 0.526561092520397, -1.65402751478908, -1.06747543482082, 1.83853937510343], a = 0.2, v = 0.2, t = 0.2)
movej(p[-0.339877452597746, 0.0772471317064281, 0.527492956416861, -1.66058048574655, -1.06469818944233, 1.84428467937536], a = 0.2, v = 0.2, t = 0.2)
movej(p[-0.339877452597746, 0.0772471317064281, 0.527492956416861, -1.66008482979713, -1.06502244785015, 1.84494771593229], a = 0.2, v = 0.2, t = 0.2)
movej(p[-0.339900742931441, 0.0772500468146604, 0.527313765673517, -1.65446660860791, -1.06485424802897, 1.8475379130013], a = 0.2, v = 0.2, t = 0.2)
movej(p[-0.341139651780414, 0.0770093345176625, 0.526577769943901, -1.64067835954584, -1.0663111245142, 1.8442062790346], a = 0.2, v = 0.2, t = 0.2)
movej(p[-0.342084884182204, 0.0768130262889353, 0.525862338335751, -1.62551526267018, -1.07062323706059, 1.84280875323914], a = 0.2, v = 0.2, t = 0.2)
movej(p[-0.342881158459602, 0.0766610509245423, 0.525331615212294, -1.62156388525216, -1.06983470079595, 1.84142088593915], a = 0.2, v = 0.2, t = 0.2)
movej(p[-0.343919255730978, 0.076467659280508, 0.524932032095561, -1.61785167127183, -1.07096940407103, 1.83764224179756], a = 0.2, v = 0.2, t = 0.2)
movej(p[-0.344678784531847, 0.0763088203311956, 0.524297555942477, -1.61029303297455, -1.0763412312158, 1.83180376422258], a = 0.2, v = 0.2, t = 0.2)
movej(p[-0.344962423528626, 0.0762438128923059, 0.524020702764068, -1.60843860870352, -1.07617102528473, 1.83106849371958], a = 0.2, v = 0.2, t = 0.2)
movej(p[-0.345390915070333, 0.0761565063729911, 0.523862350181609, -1.60770586372333, -1.07476990791293, 1.83014149472537], a = 0.2, v = 0.2, t = 0.2)
movej(p[-0.345882722969393, 0.0760783854530461, 0.523646598351284, -1.60603154053834, -1.07600461747352, 1.82658930248919], a = 0.2, v = 0.2, t = 0.2)
movej(p[-0.346551605406548, 0.0759760989937359, 0.523448688736795, -1.60286543259913, -1.0783888969897, 1.82407585426218], a = 0.2, v = 0.2, t = 0.2)
movej(p[-0.346923622061848, 0.0758980018961362, 0.523299790981519, -1.59821093715213, -1.08179636941618, 1.8223489936145], a = 0.2, v = 0.2, t = 0.2)
movej(p[-0.346980744034239, 0.0758852494430764, 0.523289763259389, -1.59801919333209, -1.08370083009151, 1.82206397314581], a = 0.2, v = 0.2, t = 0.2)
movej(p[-0.346987040635505, 0.0758836373526957, 0.523289826323622, -1.59801919333209, -1.08370083009151, 1.82206397314581], a = 0.2, v = 0.2, t = 0.2)
movej(p[-0.346983824306098, 0.0758834907624377, 0.523607211095998, -1.60462576917523, -1.07875662248777, 1.82723171784707], a = 0.2, v = 0.2, t = 0.2)
movej(p[-0.346015263116939, 0.0760873726294631, 0.524320287352196, -1.61828744448733, -1.07025097658934, 1.82891047198152], a = 0.2, v = 0.2, t = 0.2)
movej(p[-0.344907029378532, 0.0763320549578275, 0.52510767485479, -1.62877202831291, -1.0735139300181, 1.83076204235734], a = 0.2, v = 0.2, t = 0.2)
movej(p[-0.343346080184936, 0.0766246854175004, 0.525837429525268, -1.63811904654625, -1.07730089293747, 1.83203338043002], a = 0.2, v = 0.2, t = 0.2)
movej(p[-0.34139997570133, 0.0769998637500024, 0.526585323139166, -1.65375646242214, -1.07007641044301, 1.83587337123191], a = 0.2, v = 0.2, t = 0.2)
movej(p[-0.339704338300847, 0.077305304774887, 0.5274955243567, -1.66669381165846, -1.06110651414852, 1.84576261290972], a = 0.2, v = 0.2, t = 0.2)
movej(p[-0.338989809528394, 0.0774414701624338, 0.527767686313209, -1.66265307822486, -1.0626532683651, 1.85078196341969], a = 0.2, v = 0.2, t = 0.2)
movej(p[-0.338989809528394, 0.0774414701624338, 0.527767686313209, -1.65980328631531, -1.05920692186816, 1.85104411229105], a = 0.2, v = 0.2, t = 0.2)
movej(p[-0.33985776710438, 0.0772911844402896, 0.527440925195558, -1.65522264748235, -1.0554696316424, 1.85083725529545], a = 0.2, v = 0.2, t = 0.2)
movej(p[-0.341329277867033, 0.0770068625069268, 0.526556601655442, -1.63855302246931, -1.0585427617066, 1.84532837620492], a = 0.2, v = 0.2, t = 0.2)
movej(p[-0.342463863770802, 0.0767603892223062, 0.525596909492852, -1.62909876956276, -1.0646256226039, 1.83838146010964], a = 0.2, v = 0.2, t = 0.2)
movej(p[-0.343425624896575, 0.0765668052031147, 0.525073613539815, -1.6270407473109, -1.06613681808459, 1.83533186596761], a = 0.2, v = 0.2, t = 0.2)
movej(p[-0.34407682143166, 0.0764346117814962, 0.524691738269636, -1.62280606755182, -1.06691716846367, 1.83311008226655], a = 0.2, v = 0.2, t = 0.2)
movej(p[-0.345265429937303, 0.0762303919054715, 0.524077051973587, -1.61119694395465, -1.07479198724981, 1.82945795017688], a = 0.2, v = 0.2, t = 0.2)
movej(p[-0.345573785664316, 0.0761538345495073, 0.523902461117967, -1.60903225013564, -1.07460089400881, 1.82859889574846], a = 0.2, v = 0.2, t = 0.2)
movej(p[-0.346175416866623, 0.0760453681487528, 0.523633855112231, -1.60735226618778, -1.0758698042585, 1.82726541381013], a = 0.2, v = 0.2, t = 0.2)
movej(p[-0.346376991229887, 0.0760018548001658, 0.523380449321908, -1.60636160894579, -1.08077047232957, 1.82445622156685], a = 0.2, v = 0.2, t = 0.2)
movej(p[-0.346726314994367, 0.0759243368841104, 0.523327037991086, -1.60362259815681, -1.08273906665106, 1.82348326946663], a = 0.2, v = 0.2, t = 0.2)
movej(p[-0.347188113895586, 0.0758390096990896, 0.523356869791715, -1.6035955733869, -1.0812593950217, 1.82599638244874], a = 0.2, v = 0.2, t = 0.2)
movej(p[-0.34721055006833, 0.0759317728238203, 0.523488020319136, -1.60312679168866, -1.08037512825005, 1.8262111086771], a = 0.2, v = 0.2, t = 0.2)
movej(p[-0.346801892781978, 0.0760367486290082, 0.524210021851431, -1.61647840413766, -1.07087064676969, 1.82869112632983], a = 0.2, v = 0.2, t = 0.2)
movej(p[-0.345664238803193, 0.0762416665745121, 0.524753907519716, -1.62387873635228, -1.06861997917093, 1.83120901282406], a = 0.2, v = 0.2, t = 0.2)
movej(p[-0.344427840220687, 0.0764784998375363, 0.525232871652718, -1.62811748845951, -1.06873006217895, 1.83302306975316], a = 0.2, v = 0.2, t = 0.2)
movej(p[-0.342907948262551, 0.0767449246375745, 0.525862459677952, -1.63265738776006, -1.06532984673199, 1.83706440812328], a = 0.2, v = 0.2, t = 0.2)
movej(p[-0.341506829721651, 0.0770125449753138, 0.52660952261986, -1.63867948290579, -1.06259804231801, 1.84360681561612], a = 0.2, v = 0.2, t = 0.2)
movej(p[-0.339298870259133, 0.0773834893368408, 0.527368846610348, -1.64244925284223, -1.06035940577539, 1.85307269019346], a = 0.2, v = 0.2, t = 0.2)
movej(p[-0.3377038953815, 0.0777379946713095, 0.528480657078707, -1.64906653488753, -1.05517853973636, 1.85958990505709], a = 0.2, v = 0.2, t = 0.2)
movej(p[-0.3377038953815, 0.0777379946713095, 0.528480657078707, -1.64905376258626, -1.05515366863351, 1.85959522313053], a = 0.2, v = 0.2, t = 0.2)
movej(p[-0.338722790403725, 0.0775278006468769, 0.527847533508005, -1.64319822185371, -1.05873623509707, 1.85523505496375], a = 0.2, v = 0.2, t = 0.2)
movej(p[-0.340458536624044, 0.077174416562706, 0.526829699323227, -1.63519807161459, -1.06383913008264, 1.84818011349565], a = 0.2, v = 0.2, t = 0.2)
movej(p[-0.341634895626633, 0.0769004434284382, 0.525964184315427, -1.62966403176699, -1.06801706284499, 1.84208688213553], a = 0.2, v = 0.2, t = 0.2)
movej(p[-0.342571946893678, 0.0766723224491221, 0.525221452195666, -1.62527769937023, -1.07146596717607, 1.83696742974854], a = 0.2, v = 0.2, t = 0.2)
movej(p[-0.343457909505375, 0.0764502200850353, 0.524497549190739, -1.62088588554552, -1.07485592876928, 1.83205555607761], a = 0.2, v = 0.2, t = 0.2)
movej(p[-0.344018397402217, 0.0763243653737023, 0.524120029801662, -1.61871874098579, -1.0763750569467, 1.82952181461654], a = 0.2, v = 0.2, t = 0.2)
movej(p[-0.344639006566194, 0.0762110739456409, 0.523832791402565, -1.61668974948897, -1.07768911800411, 1.82737091908939], a = 0.2, v = 0.2, t = 0.2)
movej(p[-0.346015075206511, 0.075971206060328, 0.523214465416753, -1.61116731945372, -1.0816532559016, 1.82216814284867], a = 0.2, v = 0.2, t = 0.2)
movej(p[-0.346241350208929, 0.075941069143839, 0.523197072040276, -1.61109407663426, -1.08140816059722, 1.82155104315816], a = 0.2, v = 0.2, t = 0.2)
movej(p[-0.346486717155732, 0.0759437180837845, 0.523286544351826, -1.61096483119869, -1.08030563322131, 1.82130460000967], a = 0.2, v = 0.2, t = 0.2)
movej(p[-0.346859223158289, 0.0759795764064609, 0.523476590106194, -1.609941321544, -1.07839188326792, 1.82176605017321], a = 0.2, v = 0.2, t = 0.2)
movej(p[-0.34701566948206, 0.0759395221608482, 0.523478157009817, -1.60880970700431, -1.07734595704779, 1.82265667086883], a = 0.2, v = 0.2, t = 0.2)
movej(p[-0.347017258193684, 0.0759463362369081, 0.52349371928352, -1.60919907748582, -1.07705157040591, 1.82296647866979], a = 0.2, v = 0.2, t = 0.2)
movej(p[-0.346921347196901, 0.0760314987059802, 0.523971056433298, -1.62182329039863, -1.06935665386482, 1.82498142263993], a = 0.2, v = 0.2, t = 0.2)
movej(p[-0.345912329562808, 0.0762757068606066, 0.524745145447109, -1.62824595212136, -1.0652663139013, 1.82969505192235], a = 0.2, v = 0.2, t = 0.2)
movej(p[-0.344694918474216, 0.0764826033796274, 0.525222247744096, -1.63006025835897, -1.06763474931543, 1.83203266215825], a = 0.2, v = 0.2, t = 0.2)
movej(p[-0.343166676032265, 0.0767258920357213, 0.52577464640307, -1.63852862219418, -1.06966276782095, 1.83560837976971], a = 0.2, v = 0.2, t = 0.2)
