def moving():
set_payload_mass(0)
set_tcp(p[0,0,0,0,0,0])
movej(p[0.4329, -0.0876, 0.4349, -1.191, 1.159, -1.321], a = 0.2, v = 0.2, t = 0.2)
movej(p[0.432990045905069, -0.0874708229488064, 0.43475271911385, -1.19021176722361, 1.16096869416049, -1.3294044536386], a = 0.2, v = 0.2, t = 0.2)
movej(p[0.433257202350726, -0.0874339046437931, 0.434631496160582, -1.1936645784128, 1.16435907390909, -1.33349622509509], a = 0.2, v = 0.2, t = 0.2)
movej(p[0.433288509543099, -0.0874371041012426, 0.434544662680416, -1.19206151828617, 1.16720072496098, -1.33141664562286], a = 0.2, v = 0.2, t = 0.2)
movej(p[0.433269835907711, -0.0875865556560293, 0.434580898271445, -1.19622597538176, 1.16761247315478, -1.33655394080824], a = 0.2, v = 0.2, t = 0.2)
movej(p[0.433212725645466, -0.087612609580923, 0.434536236420106, -1.19290516530811, 1.16908146808468, -1.33717292507082], a = 0.2, v = 0.2, t = 0.2)
movej(p[0.433088668138874, -0.0875844778109034, 0.434392597167119, -1.19318963035823, 1.16774219053455, -1.34075682505645], a = 0.2, v = 0.2, t = 0.2)
movej(p[0.432610625007254, -0.0876618181994721, 0.434278401216633, -1.1859800235011, 1.16692490754654, -1.33407085064837], a = 0.2, v = 0.2, t = 0.2)
movej(p[0.431716967540397, -0.0877067956124115, 0.43418729219122, -1.18134458499653, 1.1626412348779, -1.34752120771968], a = 0.2, v = 0.2, t = 0.2)
movej(p[0.4307799563355, -0.0875291944654821, 0.434049997024925, -1.1805760671967, 1.15625074967878, -1.35738152357901], a = 0.2, v = 0.2, t = 0.2)
movej(p[0.429839868366167, -0.0871883576392962, 0.433960375398903, -1.18177725797479, 1.14731457547401, -1.36902074674738], a = 0.2, v = 0.2, t = 0.2)
movej(p[0.428991121008587, -0.0870264631266989, 0.434018659042338, -1.17517440010587, 1.14024009807507, -1.35652770638185], a = 0.2, v = 0.2, t = 0.2)
movej(p[0.428471576187553, -0.0868525690565297, 0.434074826498188, -1.17339517153366, 1.13144669965741, -1.36220292681382], a = 0.2, v = 0.2, t = 0.2)
movej(p[0.428659824541737, -0.0867045024393528, 0.434081980729433, -1.17984093614954, 1.12501173770531, -1.36348635000073], a = 0.2, v = 0.2, t = 0.2)
movej(p[0.429549507505537, -0.0867057936377685, 0.434173405325308, -1.18640382896599, 1.12282237690751, -1.36472292717729], a = 0.2, v = 0.2, t = 0.2)
movej(p[0.430636301503802, -0.0868077527361729, 0.434316890270816, -1.18786549847137, 1.12684313255556, -1.36005460611018], a = 0.2, v = 0.2, t = 0.2)
movej(p[0.431814197108399, -0.0868161514737685, 0.434359062139136, -1.18886628545043, 1.1370461361817, -1.3592129068439], a = 0.2, v = 0.2, t = 0.2)
movej(p[0.432732729689508, -0.0868384961623864, 0.434333888294921, -1.19015072466567, 1.1489503056067, -1.35337725110917], a = 0.2, v = 0.2, t = 0.2)
movej(p[0.433236653645112, -0.087012841007019, 0.434357615497, -1.19690541792879, 1.15819706504221, -1.34947038726709], a = 0.2, v = 0.2, t = 0.2)
movej(p[0.433290706145182, -0.0871941303536651, 0.434348543748062, -1.19515136882449, 1.16279826076116, -1.3470981516232], a = 0.2, v = 0.2, t = 0.2)
movej(p[0.433240613121662, -0.0872416712436074, 0.434251426435095, -1.19314580582292, 1.16563622469681, -1.34311336227322], a = 0.2, v = 0.2, t = 0.2)
movej(p[0.432913478508227, -0.0873445584160623, 0.43415665445684, -1.186421172978, 1.16471341728993, -1.33695169108948], a = 0.2, v = 0.2, t = 0.2)
movej(p[0.432208387255141, -0.0874746277985549, 0.434146655647693, -1.18412398038971, 1.16347530694546, -1.34222565580857], a = 0.2, v = 0.2, t = 0.2)
movej(p[0.43128535429625, -0.0874618777087769, 0.434048722247308, -1.18302279005826, 1.15686638244808, -1.35708812850998], a = 0.2, v = 0.2, t = 0.2)
movej(p[0.430263287061633, -0.0872207736012553, 0.433959431185268, -1.1835086975583, 1.14983795432276, -1.3678543541533], a = 0.2, v = 0.2, t = 0.2)
movej(p[0.429421433555255, -0.0870779212699141, 0.433997352811401, -1.18079746819227, 1.14151574683774, -1.36360024011669], a = 0.2, v = 0.2, t = 0.2)
movej(p[0.428673043825241, -0.0868987844849449, 0.434083530246849, -1.18361740027617, 1.13181377327816, -1.37012356014904], a = 0.2, v = 0.2, t = 0.2)
movej(p[0.428530587868299, -0.0867502249776549, 0.434101920908216, -1.18689427443029, 1.12460325644022, -1.37062589703825], a = 0.2, v = 0.2, t = 0.2)
movej(p[0.428960239130277, -0.0866514763701845, 0.434094352757605, -1.18673122053049, 1.12226335039112, -1.36655057340645], a = 0.2, v = 0.2, t = 0.2)
movej(p[0.429925062967238, -0.086785600175272, 0.434218268533595, -1.18839235033221, 1.12436665568485, -1.3621555796906], a = 0.2, v = 0.2, t = 0.2)
movej(p[0.431098430959699, -0.0868555226016707, 0.434283823279078, -1.18703006223422, 1.13227951812047, -1.35979060070342], a = 0.2, v = 0.2, t = 0.2)
movej(p[0.43219667692872, -0.0868700414181565, 0.434291584348411, -1.19598849792912, 1.14128947752875, -1.360873495217], a = 0.2, v = 0.2, t = 0.2)
movej(p[0.432853379534479, -0.0869924536602446, 0.434316469630744, -1.19111782160706, 1.15418078942652, -1.34434865645909], a = 0.2, v = 0.2, t = 0.2)
movej(p[0.433071239247956, -0.0871315859970025, 0.434351585847962, -1.19556962892935, 1.15939228375742, -1.34828415132375], a = 0.2, v = 0.2, t = 0.2)
movej(p[0.433108508458739, -0.0872114788782802, 0.434286480890019, -1.19735463236699, 1.16166435369504, -1.3504520028985], a = 0.2, v = 0.2, t = 0.2)
movej(p[0.432999069336095, -0.0872469936881464, 0.43417178161707, -1.19967566888196, 1.16060019268055, -1.3532954747319], a = 0.2, v = 0.2, t = 0.2)
movej(p[0.432552904465946, -0.0874501795027602, 0.434132104108524, -1.19273758032758, 1.15904180994176, -1.34916719098543], a = 0.2, v = 0.2, t = 0.2)
movej(p[0.431812320105111, -0.0874344739476655, 0.434010818924654, -1.18431188813094, 1.15554149447491, -1.3548006830518], a = 0.2, v = 0.2, t = 0.2)
movej(p[0.430883427641545, -0.0872711051802793, 0.43387554095759, -1.18060577619451, 1.15015256598122, -1.36371127448678], a = 0.2, v = 0.2, t = 0.2)
movej(p[0.429893350845716, -0.0870708047475998, 0.433834325382501, -1.17675092507349, 1.14477196690672, -1.3625095905134], a = 0.2, v = 0.2, t = 0.2)
movej(p[0.428991302223166, -0.0869433387739435, 0.433902596626198, -1.17530139348974, 1.13847824423226, -1.36488266942164], a = 0.2, v = 0.2, t = 0.2)
movej(p[0.428590838093546, -0.0867360945041144, 0.433924047267462, -1.1798470410167, 1.13095199269925, -1.36473050341301], a = 0.2, v = 0.2, t = 0.2)
movej(p[0.428686729391038, -0.0866505677125549, 0.433983874584726, -1.18762066012526, 1.12358232245746, -1.3674979673355], a = 0.2, v = 0.2, t = 0.2)
movej(p[0.429202951001289, -0.0867241853249578, 0.434136686196698, -1.188374752524, 1.12267643291463, -1.36051624399365], a = 0.2, v = 0.2, t = 0.2)
movej(p[0.430201920113715, -0.0868172459307673, 0.43425769647298, -1.19184779663415, 1.12667367394733, -1.36214487357216], a = 0.2, v = 0.2, t = 0.2)
movej(p[0.431408111861277, -0.0868830044774438, 0.434339083015792, -1.19071064763309, 1.13813369769825, -1.35209510884515], a = 0.2, v = 0.2, t = 0.2)
movej(p[0.43242686307968, -0.0870414030433691, 0.43441095953432, -1.19305437363197, 1.14898258005108, -1.34239206786212], a = 0.2, v = 0.2, t = 0.2)
movej(p[0.432856720694764, -0.0872229506662619, 0.434485772744389, -1.19034249854251, 1.15713312662359, -1.33514352987001], a = 0.2, v = 0.2, t = 0.2)
movej(p[0.433065144473506, -0.087321781810792, 0.434466086649013, -1.18673151271383, 1.16366959541142, -1.32821099629825], a = 0.2, v = 0.2, t = 0.2)
movej(p[0.433095341269717, -0.0874498580871236, 0.434436282229213, -1.18475550420023, 1.16567473297397, -1.3257733947829], a = 0.2, v = 0.2, t = 0.2)
movej(p[0.4328546577655, -0.0876164438449333, 0.434385074455725, -1.1791520738669, 1.16673992449597, -1.32407005232634], a = 0.2, v = 0.2, t = 0.2)
movej(p[0.432277177962838, -0.087661656647206, 0.434236000117447, -1.18412776269848, 1.16049451143392, -1.34373853441494], a = 0.2, v = 0.2, t = 0.2)
movej(p[0.431337731368498, -0.0875509790674675, 0.434048621494265, -1.18199691720292, 1.15537090715368, -1.35045074587755], a = 0.2, v = 0.2, t = 0.2)
movej(p[0.430305643844453, -0.0874451322184906, 0.434008693127196, -1.18602676045773, 1.14830021581699, -1.3582794199951], a = 0.2, v = 0.2, t = 0.2)
movej(p[0.429299626329493, -0.0872858183204651, 0.434018305009958, -1.17781365669499, 1.1424443151986, -1.35522507030761], a = 0.2, v = 0.2, t = 0.2)
movej(p[0.42866115170008, -0.0870189118355421, 0.433977473851484, -1.17668799747496, 1.13626018156847, -1.35313557267129], a = 0.2, v = 0.2, t = 0.2)
movej(p[0.428523509270926, -0.0868844679584767, 0.434003962773999, -1.17490148354488, 1.13136335834818, -1.34562102442419], a = 0.2, v = 0.2, t = 0.2)
movej(p[0.428815799699625, -0.0868956740134984, 0.434148806234748, -1.1799785556453, 1.12748825007918, -1.34628869011182], a = 0.2, v = 0.2, t = 0.2)
movej(p[0.429774458165066, -0.086949270643506, 0.434298372444802, -1.18611035885674, 1.12824477561295, -1.35212909022379], a = 0.2, v = 0.2, t = 0.2)
movej(p[0.431051883337506, -0.0869708129371153, 0.434389761234605, -1.18749935746963, 1.13724116232813, -1.34538689329223], a = 0.2, v = 0.2, t = 0.2)
movej(p[0.432218317865737, -0.0871142564897057, 0.434490340522587, -1.18881980596985, 1.14876584866038, -1.3332018450548], a = 0.2, v = 0.2, t = 0.2)
movej(p[0.432786771631337, -0.0872498311116523, 0.43454161837901, -1.18668606524046, 1.15779513732691, -1.32521248797343], a = 0.2, v = 0.2, t = 0.2)
movej(p[0.433048877271599, -0.0873486208608174, 0.434493427298893, -1.18893284439821, 1.16216188859145, -1.32575959835971], a = 0.2, v = 0.2, t = 0.2)
movej(p[0.433084096670114, -0.0874867631460912, 0.434453549606037, -1.18847440988105, 1.16350348896786, -1.32575034619634], a = 0.2, v = 0.2, t = 0.2)
movej(p[0.43283416556965, -0.087606111479034, 0.434388296148634, -1.18647219338568, 1.16359146793734, -1.33268478345212], a = 0.2, v = 0.2, t = 0.2)
movej(p[0.432365707753127, -0.0876253332414497, 0.43424459680226, -1.18603170517002, 1.16009649657457, -1.34418422150357], a = 0.2, v = 0.2, t = 0.2)
movej(p[0.43151727024896, -0.087514280870083, 0.434089245288465, -1.18222726348225, 1.15600928530365, -1.34952643197065], a = 0.2, v = 0.2, t = 0.2)
movej(p[0.430520117121156, -0.0874981100924923, 0.434097363920896, -1.17912901811171, 1.15207434761474, -1.3487336001738], a = 0.2, v = 0.2, t = 0.2)
movej(p[0.42958295811294, -0.0873126039544645, 0.434103944552812, -1.17164695927298, 1.14601456963821, -1.3492785597148], a = 0.2, v = 0.2, t = 0.2)
movej(p[0.428981527962863, -0.0870312830686158, 0.434060771067149, -1.17585138292907, 1.13813495413683, -1.35433259715055], a = 0.2, v = 0.2, t = 0.2)
movej(p[0.428643295232898, -0.0868735351668969, 0.434046686153811, -1.17740864836636, 1.13052960535005, -1.35276745258171], a = 0.2, v = 0.2, t = 0.2)
movej(p[0.42873764258258, -0.0868973069076264, 0.434137537485396, -1.18940243607421, 1.12440546963509, -1.36590361955619], a = 0.2, v = 0.2, t = 0.2)
movej(p[0.42947416366196, -0.0869524693763234, 0.43425081810102, -1.19499344341911, 1.12524510016581, -1.36863524409864], a = 0.2, v = 0.2, t = 0.2)
movej(p[0.430718123996061, -0.0869600389189042, 0.434319824075459, -1.19645582733484, 1.13268484439639, -1.36187519657221], a = 0.2, v = 0.2, t = 0.2)
movej(p[0.43190168119117, -0.0871242191952236, 0.434484910290728, -1.19889550887044, 1.14242720353692, -1.35312843069562], a = 0.2, v = 0.2, t = 0.2)
movej(p[0.432624887309769, -0.0872481570162442, 0.434514403597455, -1.19131030392394, 1.1529636158905, -1.33971677876252], a = 0.2, v = 0.2, t = 0.2)
movej(p[0.433001609012497, -0.0873649008614965, 0.434491669515247, -1.19462284754921, 1.15832498692073, -1.33906769262444], a = 0.2, v = 0.2, t = 0.2)
movej(p[0.433056427229991, -0.0875096900470546, 0.434458328936066, -1.19086983528272, 1.16259058625779, -1.32901933658205], a = 0.2, v = 0.2, t = 0.2)
movej(p[0.432857365953877, -0.087647118388209, 0.434450275100679, -1.19811287873355, 1.16105192043845, -1.34259445641182], a = 0.2, v = 0.2, t = 0.2)
movej(p[0.432346614234186, -0.0876711400753503, 0.434289487650835, -1.20057135291777, 1.15760868648762, -1.35375498414654], a = 0.2, v = 0.2, t = 0.2)
movej(p[0.431515545994666, -0.0876109917577096, 0.434121581244638, -1.1971534300178, 1.15381875778666, -1.35898319747862], a = 0.2, v = 0.2, t = 0.2)
movej(p[0.43050674336715, -0.0875873205553543, 0.434064592370983, -1.18640134317606, 1.15044369232822, -1.35466337658773], a = 0.2, v = 0.2, t = 0.2)
movej(p[0.429602019823559, -0.0873759984365316, 0.434028612832855, -1.17623633555928, 1.14562779097129, -1.35175208955862], a = 0.2, v = 0.2, t = 0.2)
movej(p[0.428959176301264, -0.087112689958951, 0.433992510312468, -1.17848787614868, 1.13619254767127, -1.3558843479341], a = 0.2, v = 0.2, t = 0.2)
movej(p[0.428599158430948, -0.0870037227186663, 0.434027936077068, -1.17966651046262, 1.12980645106534, -1.34917593473679], a = 0.2, v = 0.2, t = 0.2)
movej(p[0.428473074673925, -0.087043660869768, 0.434134353168277, -1.18591624527089, 1.12273915875197, -1.35762503929905], a = 0.2, v = 0.2, t = 0.2)
movej(p[0.429129700390785, -0.0870931279984406, 0.434229190079018, -1.19302744849878, 1.12249409969544, -1.35954890903493], a = 0.2, v = 0.2, t = 0.2)
movej(p[0.430281563085424, -0.0871149141052263, 0.434332415372674, -1.19809146108229, 1.12640409222257, -1.36179831416074], a = 0.2, v = 0.2, t = 0.2)
movej(p[0.431589213557922, -0.0872733861960366, 0.434502152870029, -1.1964656062792, 1.13801783858555, -1.3507587364865], a = 0.2, v = 0.2, t = 0.2)
movej(p[0.432525413535318, -0.0873385877959083, 0.434560284635866, -1.19525216070382, 1.14905394777695, -1.34481931887393], a = 0.2, v = 0.2, t = 0.2)
movej(p[0.433067503936164, -0.087465382338531, 0.43457079848726, -1.19196717853015, 1.15823133247528, -1.33365062548209], a = 0.2, v = 0.2, t = 0.2)
movej(p[0.433189936283597, -0.0875911102260754, 0.434572969672381, -1.1960361885874, 1.16222807074513, -1.33468099428953], a = 0.2, v = 0.2, t = 0.2)
movej(p[0.433108537953147, -0.0877258613410665, 0.434573020746788, -1.19554937959995, 1.16375679266675, -1.33595052127442], a = 0.2, v = 0.2, t = 0.2)
movej(p[0.432855141691701, -0.0877898903501365, 0.434465814452215, -1.19696929877904, 1.16280586836039, -1.33986215766761], a = 0.2, v = 0.2, t = 0.2)
movej(p[0.432225552208347, -0.0878562740056226, 0.434330550073688, -1.1929432153912, 1.15921585772318, -1.34000504629585], a = 0.2, v = 0.2, t = 0.2)
movej(p[0.431203905945296, -0.0879245817512031, 0.434241550461399, -1.18232933114873, 1.15687495079337, -1.33936532840818], a = 0.2, v = 0.2, t = 0.2)
movej(p[0.430179554786976, -0.0877014263746912, 0.434122692876945, -1.17618158801527, 1.15040788653004, -1.34652916911484], a = 0.2, v = 0.2, t = 0.2)
movej(p[0.429307092728638, -0.0873900210050079, 0.434055736627849, -1.17489544388545, 1.1427312622738, -1.35024637118584], a = 0.2, v = 0.2, t = 0.2)
movej(p[0.428608947735418, -0.0872198941860323, 0.434086317241109, -1.17651542020351, 1.13463278719973, -1.34528749420747], a = 0.2, v = 0.2, t = 0.2)
movej(p[0.428309335564956, -0.0871462818365005, 0.434177245725687, -1.17904173901149, 1.12799699672402, -1.35071609288055], a = 0.2, v = 0.2, t = 0.2)
movej(p[0.428651138212105, -0.0870674397436887, 0.434237863873162, -1.18493346318346, 1.12495608571478, -1.35239800557825], a = 0.2, v = 0.2, t = 0.2)
movej(p[0.429753184785677, -0.0870772979153559, 0.43435093504645, -1.18667843744494, 1.12741446052082, -1.35074787834349], a = 0.2, v = 0.2, t = 0.2)
movej(p[0.431046786213504, -0.0871360404344869, 0.434486023108362, -1.18795761957726, 1.13666737079667, -1.34566716859111], a = 0.2, v = 0.2, t = 0.2)
movej(p[0.432181193833001, -0.08720364625718, 0.434564764877232, -1.19258923049383, 1.14715761402341, -1.3446320441976], a = 0.2, v = 0.2, t = 0.2)
movej(p[0.432934475417105, -0.087291484594598, 0.434597893931483, -1.19211393523692, 1.15923394920877, -1.33239676407623], a = 0.2, v = 0.2, t = 0.2)
movej(p[0.433256143452767, -0.087514902007913, 0.434678256321411, -1.19676032093422, 1.16561408934704, -1.32746639839495], a = 0.2, v = 0.2, t = 0.2)
movej(p[0.433236498861736, -0.0876733431775938, 0.434656523572174, -1.18599857479693, 1.17014899832826, -1.3167940910114], a = 0.2, v = 0.2, t = 0.2)
movej(p[0.43319781421532, -0.0877031757543975, 0.43457001900167, -1.18527621342988, 1.17082531907628, -1.31750990859278], a = 0.2, v = 0.2, t = 0.2)
movej(p[0.432943467175892, -0.0878108466710984, 0.434488496920295, -1.18091194333787, 1.16952750380524, -1.31257716413772], a = 0.2, v = 0.2, t = 0.2)
movej(p[0.432367026043207, -0.0878770663034549, 0.434384370451806, -1.17930417626992, 1.16573002226717, -1.32230460342771], a = 0.2, v = 0.2, t = 0.2)
movej(p[0.431584655563471, -0.0878264145614879, 0.43423599794636, -1.18203877098863, 1.15935057724144, -1.33820517374791], a = 0.2, v = 0.2, t = 0.2)
movej(p[0.430587687213488, -0.0876473594030762, 0.43407950647053, -1.17791685353263, 1.15368235217604, -1.3437129593111], a = 0.2, v = 0.2, t = 0.2)
movej(p[0.429712007581543, -0.0875476710702731, 0.434143092081708, -1.18030672564639, 1.14683348577511, -1.34594421128654], a = 0.2, v = 0.2, t = 0.2)
movej(p[0.429042335234003, -0.0873703946958553, 0.434159990487363, -1.17558154393417, 1.14078274343162, -1.34688231439489], a = 0.2, v = 0.2, t = 0.2)
movej(p[0.429007685620692, -0.0871804750585805, 0.434179583613066, -1.1818407680917, 1.13436009066669, -1.34910715922223], a = 0.2, v = 0.2, t = 0.2)
movej(p[0.429516057607937, -0.0871334965287124, 0.434213518215117, -1.17952424519215, 1.13289689850839, -1.34070326939972], a = 0.2, v = 0.2, t = 0.2)
movej(p[0.430454877225271, -0.0872159250806002, 0.434386181420353, -1.18397169422499, 1.13620354615321, -1.34172579931632], a = 0.2, v = 0.2, t = 0.2)
movej(p[0.431597919316471, -0.087292900112097, 0.434492043386951, -1.18832023601387, 1.14389782462231, -1.34014342569811], a = 0.2, v = 0.2, t = 0.2)
movej(p[0.432480288997726, -0.087328062787809, 0.434554564634851, -1.19562279517175, 1.15350381449243, -1.33868468501611], a = 0.2, v = 0.2, t = 0.2)
movej(p[0.432986090567739, -0.0875645283197155, 0.43465295710013, -1.19631716316489, 1.16136072073202, -1.32998883809069], a = 0.2, v = 0.2, t = 0.2)
movej(p[0.433106198776477, -0.087687230555846, 0.434633011769864, -1.19075221001889, 1.16784755884722, -1.32488912265067], a = 0.2, v = 0.2, t = 0.2)
movej(p[0.433173057535555, -0.0877315680341955, 0.434553761146496, -1.18827855615309, 1.17016316062282, -1.32452391264514], a = 0.2, v = 0.2, t = 0.2)
movej(p[0.433112576577168, -0.0877938680446184, 0.434482530653202, -1.18438203122893, 1.17106447900317, -1.31920974356223], a = 0.2, v = 0.2, t = 0.2)
movej(p[0.432863398448886, -0.0879024113854191, 0.434477333831701, -1.19441220678377, 1.16593269280334, -1.33568133852994], a = 0.2, v = 0.2, t = 0.2)
movej(p[0.43237351066063, -0.0878674840856744, 0.434334062708473, -1.19623766898865, 1.16152287136752, -1.34545725418666], a = 0.2, v = 0.2, t = 0.2)
movej(p[0.43160399657071, -0.0877597421659735, 0.434216231358002, -1.20102051777576, 1.15525932046188, -1.36016380431134], a = 0.2, v = 0.2, t = 0.2)
movej(p[0.43060581857636, -0.0877276601561294, 0.434220733917185, -1.18483573580117, 1.15418008907262, -1.34701267000796], a = 0.2, v = 0.2, t = 0.2)
movej(p[0.4297905006401, -0.0875396713308258, 0.434226124443009, -1.17926681289374, 1.14838359780384, -1.35160554558867], a = 0.2, v = 0.2, t = 0.2)
movej(p[0.429311818944428, -0.0872768847736617, 0.434173394272909, -1.18059922816634, 1.14071654411538, -1.3547307019016], a = 0.2, v = 0.2, t = 0.2)
movej(p[0.429149943827484, -0.0871144041995225, 0.434176912062241, -1.18653391657639, 1.13310186841071, -1.35682830882452], a = 0.2, v = 0.2, t = 0.2)
movej(p[0.42926266344057, -0.0871837959846617, 0.434314072646524, -1.1907309440694, 1.12884980464569, -1.35904871151902], a = 0.2, v = 0.2, t = 0.2)
movej(p[0.429972847395034, -0.087215038899036, 0.434379035873226, -1.18968544352781, 1.13169213836845, -1.35358743189215], a = 0.2, v = 0.2, t = 0.2)
movej(p[0.431024840951347, -0.0872354297621391, 0.434432524294191, -1.18723027040655, 1.13898901186305, -1.34350993228188], a = 0.2, v = 0.2, t = 0.2)
movej(p[0.432054873017288, -0.0873332441151976, 0.43453542007335, -1.18700046765207, 1.15018330874625, -1.33074228158774], a = 0.2, v = 0.2, t = 0.2)
movej(p[0.432646798805858, -0.0874233233013641, 0.434590781783453, -1.18522629637562, 1.15901784263952, -1.32468749480405], a = 0.2, v = 0.2, t = 0.2)
movej(p[0.433022244638309, -0.0874216423151377, 0.434516696229015, -1.18591819805779, 1.16575192672576, -1.32083104729288], a = 0.2, v = 0.2, t = 0.2)
movej(p[0.433149661384215, -0.0875079099625776, 0.434429527089154, -1.18219623878403, 1.16695611819727, -1.31423321619315], a = 0.2, v = 0.2, t = 0.2)
movej(p[0.433098678457525, -0.0875853598802633, 0.434368641837897, -1.18289850592457, 1.16719434720482, -1.32146754011479], a = 0.2, v = 0.2, t = 0.2)
movej(p[0.433050502709594, -0.0875830023578901, 0.434276789936471, -1.18906096389168, 1.16488877396166, -1.33747894272506], a = 0.2, v = 0.2, t = 0.2)
movej(p[0.432989459871658, -0.0875031094069764, 0.434149565779084, -1.19216275166055, 1.16415412999228, -1.34526897476983], a = 0.2, v = 0.2, t = 0.2)
movej(p[0.432814068389129, -0.0876152743203094, 0.434106724018401, -1.18840738275695, 1.16395036367906, -1.33827651766337], a = 0.2, v = 0.2, t = 0.2)
movej(p[0.432228435900482, -0.0876406849121267, 0.434015003654331, -1.18311423636369, 1.15982003779525, -1.3498666360561], a = 0.2, v = 0.2, t = 0.2)
movej(p[0.431620808080432, -0.0874908793798158, 0.433847750094624, -1.18177346905398, 1.15512621385817, -1.35961470169005], a = 0.2, v = 0.2, t = 0.2)
movej(p[0.430946351373666, -0.0872241965436158, 0.433689360302735, -1.18449364734191, 1.14790810498766, -1.37259924124252], a = 0.2, v = 0.2, t = 0.2)
movej(p[0.430334953914594, -0.0871570378942856, 0.433755923359759, -1.18418391573574, 1.14396091320484, -1.37142481679394], a = 0.2, v = 0.2, t = 0.2)
movej(p[0.429761034543828, -0.0869602539617321, 0.433750283169306, -1.1812224706524, 1.13740300705603, -1.37642990614257], a = 0.2, v = 0.2, t = 0.2)
movej(p[0.429518224372396, -0.0866996066643444, 0.43372559510106, -1.18338414145835, 1.13216087320083, -1.3780258807794], a = 0.2, v = 0.2, t = 0.2)
movej(p[0.429617192434453, -0.086561228782461, 0.433745281931638, -1.18281118036485, 1.12767476292453, -1.37145252864511], a = 0.2, v = 0.2, t = 0.2)
movej(p[0.430072038641299, -0.0866512957847116, 0.433880319654605, -1.19266444742134, 1.12481399172235, -1.37787766519649], a = 0.2, v = 0.2, t = 0.2)
movej(p[0.431013801817301, -0.0867363678422058, 0.433988516780074, -1.19331152445915, 1.12988493053256, -1.37286690026917], a = 0.2, v = 0.2, t = 0.2)
movej(p[0.431978878031998, -0.0867849852585161, 0.434048428932074, -1.20021722436919, 1.13658493071429, -1.37427346987779], a = 0.2, v = 0.2, t = 0.2)
movej(p[0.432712511503211, -0.08697921690779, 0.434158102508362, -1.18937965675854, 1.1492869975491, -1.34899132950839], a = 0.2, v = 0.2, t = 0.2)
movej(p[0.432971672980798, -0.0871307671285518, 0.434193336236244, -1.19107800382984, 1.1537348335324, -1.35312558938106], a = 0.2, v = 0.2, t = 0.2)
movej(p[0.433087773874726, -0.087171451329207, 0.434126630707532, -1.18714522945894, 1.15753629048973, -1.34840294079768], a = 0.2, v = 0.2, t = 0.2)
movej(p[0.433114773075795, -0.0872346781141277, 0.434075815141903, -1.18401781127302, 1.15909732972685, -1.34394179648888], a = 0.2, v = 0.2, t = 0.2)
movej(p[0.433045050155751, -0.087374031504884, 0.4340545581562, -1.17634346570348, 1.16137246002304, -1.33883049501889], a = 0.2, v = 0.2, t = 0.2)
movej(p[0.43300138805088, -0.087390086695669, 0.434000780144679, -1.18077533523194, 1.15943384398949, -1.34952822661834], a = 0.2, v = 0.2, t = 0.2)
movej(p[0.432873380834518, -0.0873922260112308, 0.433886626009896, -1.17961739922368, 1.15871188476399, -1.35129493876999], a = 0.2, v = 0.2, t = 0.2)
movej(p[0.432448291704293, -0.087457448581433, 0.43386866691469, -1.18265990367152, 1.15700780765273, -1.35233046850867], a = 0.2, v = 0.2, t = 0.2)
movej(p[0.431695536890109, -0.0874948645738011, 0.433811777307226, -1.17702438314834, 1.15347886361157, -1.35897719190946], a = 0.2, v = 0.2, t = 0.2)
movej(p[0.430951444681139, -0.08731324155799, 0.433699066797163, -1.17859045344499, 1.14887661515758, -1.36648871548678], a = 0.2, v = 0.2, t = 0.2)
movej(p[0.430239351699128, -0.08708118783102, 0.433642983641322, -1.17637892884943, 1.14235051893037, -1.36727112126666], a = 0.2, v = 0.2, t = 0.2)
movej(p[0.429598773655826, -0.0869900704652707, 0.4337529855463, -1.17852082834889, 1.1372723070491, -1.36455076424402], a = 0.2, v = 0.2, t = 0.2)
movej(p[0.429203890413675, -0.0868586442647776, 0.4338152441593, -1.17417056216499, 1.13299268935674, -1.36344071264327], a = 0.2, v = 0.2, t = 0.2)
movej(p[0.429452833066694, -0.0867288043161653, 0.433861204152258, -1.17908195759739, 1.12917008827303, -1.3637493354671], a = 0.2, v = 0.2, t = 0.2)
movej(p[0.430131409528458, -0.0867817128398232, 0.433914638251515, -1.17171964601566, 1.12987708807445, -1.34731205594709], a = 0.2, v = 0.2, t = 0.2)
movej(p[0.430992521694014, -0.0869376405055016, 0.434069339967111, -1.18078130243304, 1.13168189367683, -1.35497622769181], a = 0.2, v = 0.2, t = 0.2)
movej(p[0.43193667796981, -0.0870575131672911, 0.43415646385092, -1.18785795717514, 1.1382913376437, -1.35677137965601], a = 0.2, v = 0.2, t = 0.2)
movej(p[0.432628200536159, -0.0871091950242805, 0.434190469438527, -1.19356368337105, 1.14659797204514, -1.35375718227138], a = 0.2, v = 0.2, t = 0.2)
movej(p[0.433023884621552, -0.0873589147177327, 0.434284790823527, -1.18745636726767, 1.15650211350285, -1.33643604420943], a = 0.2, v = 0.2, t = 0.2)
movej(p[0.43308988758103, -0.0874941756604184, 0.434278415117765, -1.17951601412595, 1.16200247339973, -1.33144116202256], a = 0.2, v = 0.2, t = 0.2)
movej(p[0.433144951807266, -0.0875318376200656, 0.434245038868956, -1.17600650599545, 1.16659092336463, -1.32962223523619], a = 0.2, v = 0.2, t = 0.2)
movej(p[0.433097717407041, -0.087555624608613, 0.434245137799267, -1.17780494964981, 1.16692120683104, -1.3311559737398], a = 0.2, v = 0.2, t = 0.2)
movej(p[0.432955746658456, -0.0876643799395843, 0.434264434016503, -1.18829740487558, 1.16369386266171, -1.34521551255998], a = 0.2, v = 0.2, t = 0.2)
movej(p[0.432578907146442, -0.087699222299594, 0.434145981426463, -1.19236076257694, 1.15939965787884, -1.35363957055104], a = 0.2, v = 0.2, t = 0.2)
movej(p[0.431964277308579, -0.0877142789728022, 0.434012577043909, -1.19358456519575, 1.15501142624463, -1.36096429506132], a = 0.2, v = 0.2, t = 0.2)
movej(p[0.431015620268665, -0.0877960984600178, 0.433973956937819, -1.17316480968629, 1.15603172985883, -1.34136811953773], a = 0.2, v = 0.2, t = 0.2)
movej(p[0.430160277123449, -0.0876854023927666, 0.433936721160299, -1.16493654124055, 1.15180531169262, -1.34256663988889], a = 0.2, v = 0.2, t = 0.2)
movej(p[0.429588891129613, -0.0874028958971995, 0.433875201680376, -1.16578319753091, 1.14533037013496, -1.34651727860602], a = 0.2, v = 0.2, t = 0.2)
movej(p[0.429122104698304, -0.0871491807932836, 0.433878333531343, -1.17140317176739, 1.1365591659291, -1.35050412186237], a = 0.2, v = 0.2, t = 0.2)
movej(p[0.428815205315201, -0.0870869436238301, 0.433993700060239, -1.17325142506473, 1.12979857467141, -1.35382752087653], a = 0.2, v = 0.2, t = 0.2)
movej(p[0.429147175135945, -0.0870445214862817, 0.434036655102566, -1.17289949281979, 1.12819621948232, -1.34912949232615], a = 0.2, v = 0.2, t = 0.2)
movej(p[0.430069794859857, -0.0870320851293577, 0.434128288642683, -1.17553977587461, 1.13080244625593, -1.34566842342687], a = 0.2, v = 0.2, t = 0.2)
movej(p[0.431243880862637, -0.0870982170402463, 0.434233920850079, -1.17323636158315, 1.1401029318931, -1.33434194851995], a = 0.2, v = 0.2, t = 0.2)
movej(p[0.432209355482909, -0.0871561006440957, 0.434314047549848, -1.17952692278923, 1.14726155131309, -1.33846915499268], a = 0.2, v = 0.2, t = 0.2)
movej(p[0.432931389958596, -0.0872325570609579, 0.434331424314657, -1.18671565360223, 1.15351883475645, -1.33932912111155], a = 0.2, v = 0.2, t = 0.2)
movej(p[0.433216563524829, -0.0873803774268527, 0.434369474234827, -1.19360315138683, 1.15819585888658, -1.3393933281204], a = 0.2, v = 0.2, t = 0.2)
movej(p[0.433210216734003, -0.0875663599010432, 0.434400995053364, -1.19317566077228, 1.15975430731298, -1.34091454441972], a = 0.2, v = 0.2, t = 0.2)
movej(p[0.433199487664576, -0.0876155675822286, 0.434339236245032, -1.18320283504257, 1.1645257827259, -1.33222819831953], a = 0.2, v = 0.2, t = 0.2)
movej(p[0.433186099328871, -0.0876744293249647, 0.434318409024739, -1.18103704098068, 1.1645856659484, -1.33031473451451], a = 0.2, v = 0.2, t = 0.2)
movej(p[0.433108862933621, -0.0878109456475704, 0.434379707653689, -1.17862229926029, 1.16661533901762, -1.32331991556777], a = 0.2, v = 0.2, t = 0.2)
movej(p[0.432699134538097, -0.0878729558088128, 0.434307397428246, -1.18486290491046, 1.16232860540155, -1.33958294676638], a = 0.2, v = 0.2, t = 0.2)
movej(p[0.432074473641116, -0.0878484192907189, 0.434150652767213, -1.18612539309775, 1.1590841945369, -1.34789061070424], a = 0.2, v = 0.2, t = 0.2)
movej(p[0.431239689344655, -0.0878568643978134, 0.434075082334179, -1.1833669803395, 1.15567004761953, -1.35017473486711], a = 0.2, v = 0.2, t = 0.2)
movej(p[0.430433294470085, -0.0877905049876369, 0.43409580970133, -1.17881428665583, 1.15087297662992, -1.35431307068197], a = 0.2, v = 0.2, t = 0.2)
movej(p[0.429882564899917, -0.0875702234498081, 0.43406926691966, -1.17606855958396, 1.14553493760197, -1.35548629145174], a = 0.2, v = 0.2, t = 0.2)
movej(p[0.429497266644436, -0.0873151822517608, 0.434002598188256, -1.17626398193036, 1.13874708046612, -1.35453094381992], a = 0.2, v = 0.2, t = 0.2)
movej(p[0.429388703018056, -0.0872937263601055, 0.434098415037194, -1.18040079577673, 1.13382233206165, -1.34958941972769], a = 0.2, v = 0.2, t = 0.2)
movej(p[0.429559073848959, -0.0873319542821683, 0.434218468730398, -1.18177538003845, 1.13088075356135, -1.35329380352556], a = 0.2, v = 0.2, t = 0.2)
movej(p[0.430370662601806, -0.0873088767202226, 0.434321175694558, -1.18846009805938, 1.13243617552994, -1.35208310093943], a = 0.2, v = 0.2, t = 0.2)
movej(p[0.431348756398513, -0.0873502316648399, 0.434398012180032, -1.18339640352574, 1.13980747386854, -1.33891396284878], a = 0.2, v = 0.2, t = 0.2)
movej(p[0.432186768140482, -0.0874331286420822, 0.434495416758904, -1.19529780974278, 1.14580925831544, -1.34488705951298], a = 0.2, v = 0.2, t = 0.2)
movej(p[0.432760217096386, -0.0874902615640521, 0.434497389777039, -1.19795193173259, 1.15279050937341, -1.34413649491059], a = 0.2, v = 0.2, t = 0.2)
movej(p[0.432999043103267, -0.0874953112457039, 0.434427576832126, -1.2029790425827, 1.15721091274493, -1.34773286656911], a = 0.2, v = 0.2, t = 0.2)
movej(p[0.433059545150298, -0.0876394091357156, 0.434412596671583, -1.18869940997218, 1.16444587942362, -1.32946874026153], a = 0.2, v = 0.2, t = 0.2)
movej(p[0.432987823584686, -0.0876823521108673, 0.43433276416665, -1.17874035822426, 1.16701689526609, -1.3285661861134], a = 0.2, v = 0.2, t = 0.2)
movej(p[0.433026251043305, -0.0876391553047163, 0.434248788016092, -1.17702959849462, 1.16796427918567, -1.33030995933655], a = 0.2, v = 0.2, t = 0.2)
movej(p[0.432985036426823, -0.0876366378776194, 0.434168503901206, -1.17645940438856, 1.16724964370767, -1.32929006043866], a = 0.2, v = 0.2, t = 0.2)
movej(p[0.432690184833069, -0.0877933281463106, 0.434162196701166, -1.17550076187771, 1.165632455373, -1.33287585855146], a = 0.2, v = 0.2, t = 0.2)
movej(p[0.432203068187002, -0.0877645984776529, 0.43400551471891, -1.17605079656792, 1.16134025437267, -1.34509820090877], a = 0.2, v = 0.2, t = 0.2)
movej(p[0.431529344396694, -0.0876396329342032, 0.433843270048294, -1.17748102110349, 1.15510874429519, -1.35582144477638], a = 0.2, v = 0.2, t = 0.2)
movej(p[0.430795974505085, -0.0875607104806126, 0.433816847613485, -1.17925700411595, 1.14905940197353, -1.35935482523508], a = 0.2, v = 0.2, t = 0.2)
movej(p[0.430115430464472, -0.0874672877138876, 0.433840813200165, -1.17365773878626, 1.14528590183712, -1.35579126619466], a = 0.2, v = 0.2, t = 0.2)
movej(p[0.429656685038661, -0.0872568646947206, 0.433785285191351, -1.17154331558549, 1.14184144442676, -1.3505118828617], a = 0.2, v = 0.2, t = 0.2)
movej(p[0.429475661633058, -0.087095650590398, 0.433815255609959, -1.16997718271141, 1.13787523203047, -1.34396759178399], a = 0.2, v = 0.2, t = 0.2)
movej(p[0.42962422693632, -0.087147393520422, 0.434003659847596, -1.17395447162261, 1.13460482852101, -1.34104681175268], a = 0.2, v = 0.2, t = 0.2)
movej(p[0.430279824453227, -0.0872107830075777, 0.434169403338701, -1.183351097381, 1.13383634350278, -1.35168961572842], a = 0.2, v = 0.2, t = 0.2)
movej(p[0.431260961515782, -0.0872148783586979, 0.43425787044434, -1.19039116216893, 1.13960798473575, -1.35054247968711], a = 0.2, v = 0.2, t = 0.2)
movej(p[0.432175109910455, -0.087355856586338, 0.43436626222792, -1.18943747157824, 1.14825932146854, -1.33817311843847], a = 0.2, v = 0.2, t = 0.2)
movej(p[0.432627077623814, -0.0874928757143293, 0.43443974742402, -1.1850418671824, 1.15553666528275, -1.333640968721], a = 0.2, v = 0.2, t = 0.2)
movej(p[0.432936459708634, -0.0875584803087121, 0.434422378527797, -1.18655452233819, 1.15865095997806, -1.33526793149691], a = 0.2, v = 0.2, t = 0.2)
movej(p[0.43301719988517, -0.0875669743301691, 0.434324193308173, -1.18789666615646, 1.16082841284659, -1.33519539776037], a = 0.2, v = 0.2, t = 0.2)
movej(p[0.433098312471122, -0.087734844685928, 0.434365897414764, -1.18807327600918, 1.1631236987538, -1.32846450535786], a = 0.2, v = 0.2, t = 0.2)
movej(p[0.432984228373174, -0.0878182357710721, 0.434339123587341, -1.17832828544816, 1.16530914300338, -1.32426195395238], a = 0.2, v = 0.2, t = 0.2)
movej(p[0.43273090432652, -0.0878029302094457, 0.43420833468158, -1.17558666793935, 1.16507140811338, -1.32507441219514], a = 0.2, v = 0.2, t = 0.2)
movej(p[0.432155145663173, -0.0878098836634707, 0.434077828583799, -1.17053655352824, 1.16233778509597, -1.325930056065], a = 0.2, v = 0.2, t = 0.2)
movej(p[0.43128284775981, -0.0878535030833608, 0.434026523939781, -1.1783346202281, 1.15444207659166, -1.34513229328882], a = 0.2, v = 0.2, t = 0.2)
movej(p[0.430486871430392, -0.0876978437883558, 0.43393182226775, -1.17620823563107, 1.14856980951094, -1.35327990668468], a = 0.2, v = 0.2, t = 0.2)
movej(p[0.429843844429259, -0.08740948632921, 0.433843901702648, -1.1787099008846, 1.14069073585965, -1.35885517026293], a = 0.2, v = 0.2, t = 0.2)
movej(p[0.429303577226617, -0.0872717672846575, 0.433857584034959, -1.16746679378076, 1.13904619162697, -1.33704768500911], a = 0.2, v = 0.2, t = 0.2)
movej(p[0.429005429267593, -0.0872331094500613, 0.433974862407022, -1.16804249907375, 1.1337575971532, -1.33989090310362], a = 0.2, v = 0.2, t = 0.2)
movej(p[0.429379237399308, -0.0872210163923962, 0.434070498061043, -1.17653865360007, 1.1305773323685, -1.34310593408182], a = 0.2, v = 0.2, t = 0.2)
movej(p[0.430255937334562, -0.087243706969008, 0.434198147848188, -1.18373812374361, 1.13028668460278, -1.34687360361476], a = 0.2, v = 0.2, t = 0.2)
movej(p[0.431379072956777, -0.0874357969385105, 0.434390875455523, -1.17877821171929, 1.13906602384328, -1.3325858185382], a = 0.2, v = 0.2, t = 0.2)
movej(p[0.432311658972644, -0.0874975448738366, 0.434441896294326, -1.17523213454451, 1.14906154993094, -1.32535520783836], a = 0.2, v = 0.2, t = 0.2)
movej(p[0.432957061531788, -0.0875608949892581, 0.434482469935723, -1.17414402131863, 1.16030071113366, -1.3138172599314], a = 0.2, v = 0.2, t = 0.2)
movej(p[0.433138214795, -0.0876889928477936, 0.434517163152583, -1.17847544879831, 1.16530443062122, -1.31238263372542], a = 0.2, v = 0.2, t = 0.2)
movej(p[0.433095978585053, -0.0878306167254828, 0.434577375261444, -1.18055064899074, 1.16840783432586, -1.31627694416667], a = 0.2, v = 0.2, t = 0.2)
movej(p[0.433112978548456, -0.0878473816313985, 0.434522746607114, -1.17892880374868, 1.17016145875945, -1.31381185437391], a = 0.2, v = 0.2, t = 0.2)
movej(p[0.433074438547971, -0.087915436915945, 0.434478006611496, -1.17740538020205, 1.17081187526733, -1.31143799790601], a = 0.2, v = 0.2, t = 0.2)
movej(p[0.432793187270766, -0.0880539466768671, 0.434414164013648, -1.17286857264384, 1.16989807192724, -1.31060640994132], a = 0.2, v = 0.2, t = 0.2)
movej(p[0.432235594686635, -0.0880405472565648, 0.434239988840166, -1.171367404453, 1.16722157702969, -1.32069299829102], a = 0.2, v = 0.2, t = 0.2)
movej(p[0.431390599309355, -0.0879575752713169, 0.434046000812341, -1.17365170693107, 1.16106647534674, -1.33386717190019], a = 0.2, v = 0.2, t = 0.2)
movej(p[0.430476566704949, -0.0878803523225584, 0.434006753612839, -1.17343510414268, 1.15580045011579, -1.33459148827079], a = 0.2, v = 0.2, t = 0.2)
movej(p[0.429629565447281, -0.0877843011074925, 0.434015021217793, -1.16954497038979, 1.14847406641248, -1.33730210547877], a = 0.2, v = 0.2, t = 0.2)
movej(p[0.429121699703191, -0.0875106723415249, 0.433976479332833, -1.16908177094429, 1.14257196522425, -1.33397151780136], a = 0.2, v = 0.2, t = 0.2)
movej(p[0.428990157810107, -0.0873502795127211, 0.433975028245965, -1.17024690119238, 1.13582769813125, -1.33217768813627], a = 0.2, v = 0.2, t = 0.2)
movej(p[0.429277339234949, -0.0873654475169907, 0.434118873890222, -1.17989903950885, 1.13207832478397, -1.33823065847196], a = 0.2, v = 0.2, t = 0.2)
movej(p[0.430101687568647, -0.0874571968608507, 0.434274137317196, -1.18660457851401, 1.13299209827455, -1.34502287695513], a = 0.2, v = 0.2, t = 0.2)
movej(p[0.431216264221046, -0.0874837786905413, 0.434416609350793, -1.1906477821657, 1.14032488660827, -1.33834732225865], a = 0.2, v = 0.2, t = 0.2)
movej(p[0.432206637258075, -0.0876075840529815, 0.434592237553541, -1.18544589051932, 1.15313192332358, -1.31754193618333], a = 0.2, v = 0.2, t = 0.2)
movej(p[0.432759235599081, -0.0876993964529584, 0.434699288243388, -1.1799217897281, 1.16245439059761, -1.30746903487964], a = 0.2, v = 0.2, t = 0.2)
movej(p[0.433070531411548, -0.0877527690066645, 0.434666965579199, -1.17620516841325, 1.16952639012507, -1.30251579170208], a = 0.2, v = 0.2, t = 0.2)
movej(p[0.433127047959652, -0.0878483962826701, 0.434601964200181, -1.17608449031758, 1.17004933646567, -1.30340295827378], a = 0.2, v = 0.2, t = 0.2)
movej(p[0.433113170106445, -0.0880135071450707, 0.434619174642004, -1.18275053877617, 1.16920184010036, -1.31049966640366], a = 0.2, v = 0.2, t = 0.2)
movej(p[0.433057841283479, -0.0880797389933086, 0.434596660172696, -1.18590060724889, 1.16879673800217, -1.31809684750671], a = 0.2, v = 0.2, t = 0.2)
movej(p[0.43292902281571, -0.0880690242941788, 0.434480364294122, -1.18494657343476, 1.16993620939278, -1.31579413919285], a = 0.2, v = 0.2, t = 0.2)
movej(p[0.432484925759317, -0.0881650213707812, 0.43439749957753, -1.17618946618059, 1.1715988098897, -1.30846224155942], a = 0.2, v = 0.2, t = 0.2)
movej(p[0.431771969126594, -0.088154088833099, 0.434291604180669, -1.17128859153175, 1.16712044892974, -1.31848882539461], a = 0.2, v = 0.2, t = 0.2)
movej(p[0.43103908836451, -0.0880040921615241, 0.434178122431993, -1.16816757857467, 1.1614315787121, -1.32561334606125], a = 0.2, v = 0.2, t = 0.2)
movej(p[0.430286588053529, -0.0878019382997887, 0.434089872588033, -1.16596120563286, 1.15476536350684, -1.32837288309545], a = 0.2, v = 0.2, t = 0.2)
movej(p[0.429564868774638, -0.0877395583172685, 0.434116930022477, -1.16763753359136, 1.14784569188232, -1.33066253082361], a = 0.2, v = 0.2, t = 0.2)
movej(p[0.429074236431034, -0.0875814850553665, 0.434102219275904, -1.16667062352738, 1.14305373803122, -1.33027820063771], a = 0.2, v = 0.2, t = 0.2)
movej(p[0.429009386809772, -0.0873889986998543, 0.434131135418191, -1.17284937318174, 1.1367479297578, -1.33238389408664], a = 0.2, v = 0.2, t = 0.2)
movej(p[0.429443588105223, -0.0873942524752451, 0.434266118623672, -1.16935770140489, 1.13713888301596, -1.31952095379791], a = 0.2, v = 0.2, t = 0.2)
movej(p[0.430239795512399, -0.0874602698398528, 0.434444069715627, -1.17404318763853, 1.13889235658009, -1.32558220661843], a = 0.2, v = 0.2, t = 0.2)
movej(p[0.431394982270874, -0.0874675527569786, 0.434530110750984, -1.18315077719357, 1.14463048269309, -1.32491096416488], a = 0.2, v = 0.2, t = 0.2)
movej(p[0.432329266916498, -0.0874919280548005, 0.434608801027204, -1.19080285730683, 1.15239499159594, -1.32443650982868], a = 0.2, v = 0.2, t = 0.2)
movej(p[0.432840227024211, -0.0877116600810055, 0.434748829555851, -1.19509205377389, 1.15674290338103, -1.32179490442147], a = 0.2, v = 0.2, t = 0.2)
movej(p[0.433038130531826, -0.0878011752576394, 0.434728928003778, -1.18864465305913, 1.16232288721109, -1.3175880052985], a = 0.2, v = 0.2, t = 0.2)
movej(p[0.433143768900142, -0.0878638589432695, 0.434670313167813, -1.18904743343205, 1.16418345369812, -1.31848118142397], a = 0.2, v = 0.2, t = 0.2)
movej(p[0.433137027509056, -0.0879281619194657, 0.434640425028049, -1.1886362459292, 1.16632538937745, -1.31545882219295], a = 0.2, v = 0.2, t = 0.2)
movej(p[0.433021903470657, -0.0880302110530523, 0.434632286802392, -1.18954515815921, 1.1675441403997, -1.3183259992126], a = 0.2, v = 0.2, t = 0.2)
movej(p[0.432733622843754, -0.0880399554651139, 0.434479981142333, -1.18482144755546, 1.16881813829859, -1.31677183160611], a = 0.2, v = 0.2, t = 0.2)
movej(p[0.432130215336761, -0.0880848126751191, 0.43436454144849, -1.18108227810252, 1.16687282029109, -1.31976027821409], a = 0.2, v = 0.2, t = 0.2)
movej(p[0.431282489948175, -0.0881453840016621, 0.434327654105826, -1.1691403112848, 1.16461249755097, -1.31734200951449], a = 0.2, v = 0.2, t = 0.2)
movej(p[0.43056264144207, -0.0880025330078859, 0.434290461602086, -1.16714059844446, 1.15798605226783, -1.32731994808651], a = 0.2, v = 0.2, t = 0.2)
movej(p[0.430109631188795, -0.0877546954949397, 0.434242343819463, -1.16634916520903, 1.15281284586359, -1.32785352131476], a = 0.2, v = 0.2, t = 0.2)
movej(p[0.430146694911721, -0.0877172790128575, 0.434348019957788, -1.17211805213337, 1.14810134124247, -1.32817843838084], a = 0.2, v = 0.2, t = 0.2)
movej(p[0.430550827205181, -0.0877830873590413, 0.434549011907268, -1.17139313601015, 1.14779742518578, -1.32547993153043], a = 0.2, v = 0.2, t = 0.2)
movej(p[0.43148680208079, -0.0877816463670861, 0.43465648629245, -1.16791659425719, 1.15359142230907, -1.31498072579561], a = 0.2, v = 0.2, t = 0.2)
movej(p[0.43232647889867, -0.0877981176787869, 0.434734783355011, -1.16534341450247, 1.16106154297537, -1.3029310855419], a = 0.2, v = 0.2, t = 0.2)
movej(p[0.432940261236822, -0.0879001806581572, 0.434805015318804, -1.17108945736096, 1.16562146451872, -1.30014188916544], a = 0.2, v = 0.2, t = 0.2)
movej(p[0.433173110933538, -0.0879960063945248, 0.434826989104392, -1.17501728888569, 1.16858992792869, -1.30149716988392], a = 0.2, v = 0.2, t = 0.2)
movej(p[0.433273070620304, -0.0879812523729202, 0.434744783096898, -1.1793374943569, 1.16955716016488, -1.30394396378481], a = 0.2, v = 0.2, t = 0.2)
movej(p[0.433223709900556, -0.0880972049975286, 0.43470948304035, -1.17626153584822, 1.17118327381745, -1.29611268913717], a = 0.2, v = 0.2, t = 0.2)
movej(p[0.432849056698626, -0.0881729227746231, 0.434609777075056, -1.17304032268789, 1.16933051644436, -1.30426202329289], a = 0.2, v = 0.2, t = 0.2)
movej(p[0.432244417882847, -0.0881628220407799, 0.43445890930073, -1.17312532285423, 1.16553419407378, -1.31399774403013], a = 0.2, v = 0.2, t = 0.2)
movej(p[0.431243648711479, -0.0880680949562288, 0.434299317585435, -1.17024453395748, 1.16138945051001, -1.32065323305937], a = 0.2, v = 0.2, t = 0.2)
movej(p[0.430168729902658, -0.0880342114893751, 0.434299028417674, -1.17358398153988, 1.15331347680642, -1.32960127084382], a = 0.2, v = 0.2, t = 0.2)
movej(p[0.429284149452009, -0.0878371033860599, 0.434265251497513, -1.1703319914344, 1.14548911358364, -1.33417920614888], a = 0.2, v = 0.2, t = 0.2)
movej(p[0.428767445377703, -0.0875638560308328, 0.434194738686919, -1.17142112061547, 1.13759819755918, -1.33514913671578], a = 0.2, v = 0.2, t = 0.2)
movej(p[0.428571089389279, -0.0874649404663564, 0.434209204278472, -1.16809285757282, 1.13352448748586, -1.32664599168638], a = 0.2, v = 0.2, t = 0.2)
movej(p[0.428753867846067, -0.0875333649147167, 0.434344673608007, -1.1700968407671, 1.13191421788959, -1.32807899766144], a = 0.2, v = 0.2, t = 0.2)
movej(p[0.429521601708545, -0.0875757497661267, 0.434491308682954, -1.1765924408761, 1.13389249621073, -1.32915608273836], a = 0.2, v = 0.2, t = 0.2)
movej(p[0.430576430276651, -0.0875492072697046, 0.434582220994641, -1.18111778480813, 1.13856270313258, -1.32844876685724], a = 0.2, v = 0.2, t = 0.2)
movej(p[0.43164883923108, -0.0876486240901771, 0.434714222384004, -1.18503407345803, 1.14537360202586, -1.32385699468102], a = 0.2, v = 0.2, t = 0.2)
movej(p[0.432472533448264, -0.0876723132299194, 0.434719476223044, -1.17948754027655, 1.1546422796437, -1.31433520604108], a = 0.2, v = 0.2, t = 0.2)
movej(p[0.433039701941759, -0.087697337411708, 0.43470265971173, -1.18269932697594, 1.16142914135099, -1.31244648333579], a = 0.2, v = 0.2, t = 0.2)
movej(p[0.433198766296592, -0.0878143201904264, 0.434678975647278, -1.18000952950993, 1.16693911482071, -1.30607665858329], a = 0.2, v = 0.2, t = 0.2)
movej(p[0.433049324289069, -0.0879175134474504, 0.434662473153765, -1.1850195924169, 1.16794426641083, -1.31816461332473], a = 0.2, v = 0.2, t = 0.2)
movej(p[0.432622157075106, -0.0879706737889597, 0.434519984346816, -1.18622849657249, 1.16673184595601, -1.32415998618574], a = 0.2, v = 0.2, t = 0.2)
movej(p[0.431775413271838, -0.0879702098429229, 0.434395962169033, -1.18413706068258, 1.16540535584665, -1.32630999079699], a = 0.2, v = 0.2, t = 0.2)
movej(p[0.430635549867882, -0.08805532082161, 0.434364705825213, -1.17714473165404, 1.16014758430406, -1.32642085984267], a = 0.2, v = 0.2, t = 0.2)
movej(p[0.429465911921777, -0.0878766616117027, 0.434268093726874, -1.1685345232751, 1.15343279911062, -1.32586692385626], a = 0.2, v = 0.2, t = 0.2)
movej(p[0.42849585293946, -0.0876219466631032, 0.434169596840702, -1.17051589836314, 1.14074092180712, -1.33173008637924], a = 0.2, v = 0.2, t = 0.2)
movej(p[0.42796958044246, -0.0874572099316117, 0.434159478875315, -1.17555260491151, 1.13110614707525, -1.33201276191608], a = 0.2, v = 0.2, t = 0.2)
movej(p[0.427893240266316, -0.0874409107479439, 0.434253243807684, -1.18506529581269, 1.12155737916689, -1.3465757598641], a = 0.2, v = 0.2, t = 0.2)
movej(p[0.428675745698961, -0.0874348258414086, 0.43433182672017, -1.18786826958339, 1.12297008046136, -1.34183418421769], a = 0.2, v = 0.2, t = 0.2)
movej(p[0.429842613685064, -0.0874506753817857, 0.434456002151854, -1.18900374404623, 1.12744435403705, -1.3374735131184], a = 0.2, v = 0.2, t = 0.2)
movej(p[0.431088686105338, -0.0875411020352576, 0.434617119539121, -1.18264126080526, 1.1389329764481, -1.32332489302731], a = 0.2, v = 0.2, t = 0.2)
movej(p[0.432102155373353, -0.087541036225025, 0.434677793881554, -1.18807924117914, 1.14844280259299, -1.32918592781767], a = 0.2, v = 0.2, t = 0.2)
movej(p[0.432800630767944, -0.0875644662256772, 0.434646967641044, -1.18866199278628, 1.15885451414387, -1.32200814852011], a = 0.2, v = 0.2, t = 0.2)
movej(p[0.433132360119499, -0.0877076407082396, 0.434665923598658, -1.19378234157488, 1.16514542578145, -1.31754408557202], a = 0.2, v = 0.2, t = 0.2)
movej(p[0.433149349775755, -0.0878489256905011, 0.434681054717476, -1.18689673918251, 1.16881295557558, -1.3113416303047], a = 0.2, v = 0.2, t = 0.2)
movej(p[0.433163476994346, -0.0878806600054406, 0.434619765422732, -1.18120693443052, 1.17261281471362, -1.3076611068484], a = 0.2, v = 0.2, t = 0.2)
movej(p[0.432902704157841, -0.0879732274973057, 0.434563593102145, -1.17904003300048, 1.17194827468731, -1.30826813032239], a = 0.2, v = 0.2, t = 0.2)
movej(p[0.432267632699252, -0.0880787286565852, 0.434513756352921, -1.17750274824418, 1.17073150083696, -1.31556082636846], a = 0.2, v = 0.2, t = 0.2)
movej(p[0.431317563560257, -0.088032885963164, 0.434371094419702, -1.18234023395908, 1.16285075897322, -1.33815456762645], a = 0.2, v = 0.2, t = 0.2)
movej(p[0.430256991089414, -0.0878337902166995, 0.434217964459767, -1.18177688226154, 1.15425278148255, -1.34849147217745], a = 0.2, v = 0.2, t = 0.2)
movej(p[0.429254725669853, -0.0877233780870047, 0.434212242705803, -1.17652346267645, 1.14773457988192, -1.33921701090148], a = 0.2, v = 0.2, t = 0.2)
movej(p[0.428425885797205, -0.0875888186252834, 0.434259153784122, -1.17420942509937, 1.13644685322165, -1.34176975485632], a = 0.2, v = 0.2, t = 0.2)
movej(p[0.428214657436323, -0.0873988220925595, 0.434259837286951, -1.17741598858118, 1.12862684384698, -1.34196055972689], a = 0.2, v = 0.2, t = 0.2)
movej(p[0.428591804495975, -0.0872877773949871, 0.434277237422032, -1.17839780859649, 1.12416638775335, -1.3390553155385], a = 0.2, v = 0.2, t = 0.2)
movej(p[0.429463203116303, -0.0873769132707058, 0.43443242497936, -1.18436837309107, 1.12468882000056, -1.33812864123899], a = 0.2, v = 0.2, t = 0.2)
movej(p[0.430595463332736, -0.0874237424360292, 0.434528602527898, -1.18288045220047, 1.13330421610083, -1.33240882021484], a = 0.2, v = 0.2, t = 0.2)
movej(p[0.43182044465846, -0.0874065263781402, 0.43456903065822, -1.18812045089093, 1.14409026388675, -1.3286971495814], a = 0.2, v = 0.2, t = 0.2)
movej(p[0.432736737764392, -0.0875214404885605, 0.434625750227379, -1.18084533301771, 1.15763684775501, -1.30938031675378], a = 0.2, v = 0.2, t = 0.2)
movej(p[0.433069812307308, -0.0876578406198721, 0.434693824040549, -1.18743886759844, 1.16379746590134, -1.31658366925961], a = 0.2, v = 0.2, t = 0.2)
movej(p[0.433228397183784, -0.0877259049600572, 0.434638167960944, -1.19196757037366, 1.16540416502014, -1.32415815519804], a = 0.2, v = 0.2, t = 0.2)
movej(p[0.433152947217524, -0.0877206018692644, 0.434548163216845, -1.19809018700283, 1.16533010899786, -1.33237495044119], a = 0.2, v = 0.2, t = 0.2)
movej(p[0.432812031180483, -0.087956084645853, 0.434530433882287, -1.18799975074805, 1.16586425056425, -1.32293771155982], a = 0.2, v = 0.2, t = 0.2)
movej(p[0.432143944127967, -0.0879873126052385, 0.434414179056866, -1.17892722277451, 1.16429423634932, -1.32684108715604], a = 0.2, v = 0.2, t = 0.2)
movej(p[0.431230562153129, -0.08789375039194, 0.434227321242517, -1.17382638587871, 1.15953083582702, -1.3310255377111], a = 0.2, v = 0.2, t = 0.2)
movej(p[0.430231849278567, -0.0877204449641765, 0.434137830958173, -1.17270878464428, 1.15219615405755, -1.33710286721594], a = 0.2, v = 0.2, t = 0.2)
movej(p[0.42928764630542, -0.0875674371927606, 0.434165922923418, -1.1689152095029, 1.14518003289646, -1.33998126083587], a = 0.2, v = 0.2, t = 0.2)
movej(p[0.428759586138171, -0.0873182826039511, 0.434150932166131, -1.17265212578215, 1.13746917102657, -1.34372991053099], a = 0.2, v = 0.2, t = 0.2)
movej(p[0.42864745434453, -0.087153268731656, 0.434148472774924, -1.17656336432487, 1.13017453027664, -1.34476762846511], a = 0.2, v = 0.2, t = 0.2)
movej(p[0.42894485804388, -0.0872390405852001, 0.434246216382659, -1.17238463375966, 1.12940580934215, -1.33009214698437], a = 0.2, v = 0.2, t = 0.2)
movej(p[0.429654831765422, -0.0873425330438256, 0.434390253375919, -1.17422716479094, 1.13080349019341, -1.32987660879099], a = 0.2, v = 0.2, t = 0.2)
movej(p[0.43065408216736, -0.0873863590665763, 0.434508235912575, -1.17732644011605, 1.13756621940257, -1.32636181944089], a = 0.2, v = 0.2, t = 0.2)
movej(p[0.431691257476306, -0.08746792384232, 0.434627273160084, -1.18353176635596, 1.14552354548743, -1.32383669184378], a = 0.2, v = 0.2, t = 0.2)
movej(p[0.432388286683567, -0.0875978962208709, 0.434712491637836, -1.18207469094707, 1.15357605543136, -1.31838819847206], a = 0.2, v = 0.2, t = 0.2)
movej(p[0.432895766904915, -0.0876311356252049, 0.434680200191244, -1.18175753503752, 1.16030291766312, -1.31337841890512], a = 0.2, v = 0.2, t = 0.2)
movej(p[0.433077789927818, -0.0877036992266821, 0.434637138916914, -1.18671412129013, 1.16243706153095, -1.31776091561721], a = 0.2, v = 0.2, t = 0.2)
movej(p[0.433024134900389, -0.0878185398121412, 0.434603910144864, -1.1891751668155, 1.16343020260182, -1.32232679842216], a = 0.2, v = 0.2, t = 0.2)
movej(p[0.432675379162325, -0.0879041292001963, 0.434463352759003, -1.19165274639436, 1.16068884063444, -1.33868400112678], a = 0.2, v = 0.2, t = 0.2)
movej(p[0.432053524659277, -0.0878840407752341, 0.434280661084258, -1.19062959520873, 1.15684908293666, -1.34761891347676], a = 0.2, v = 0.2, t = 0.2)
movej(p[0.43115541854256, -0.0878917085967592, 0.434168071076584, -1.18676773847, 1.15324428672292, -1.34873558397551], a = 0.2, v = 0.2, t = 0.2)
movej(p[0.430170952649914, -0.0877871694616093, 0.434139809862185, -1.17883281840764, 1.14832640547928, -1.35196111529712], a = 0.2, v = 0.2, t = 0.2)
movej(p[0.429518284723981, -0.0875056745766022, 0.434061557357802, -1.17584112910688, 1.14325888657465, -1.35157047958803], a = 0.2, v = 0.2, t = 0.2)
movej(p[0.429058733486422, -0.0872560645472701, 0.434019410649043, -1.17186888706322, 1.13896876704159, -1.34577487474416], a = 0.2, v = 0.2, t = 0.2)
movej(p[0.428912569436032, -0.0871977784901502, 0.434114779584861, -1.17755739797518, 1.13368602898919, -1.3446985895257], a = 0.2, v = 0.2, t = 0.2)
movej(p[0.429263227727946, -0.0872711785428249, 0.434236871691811, -1.18207700737341, 1.13122824917024, -1.34914870456377], a = 0.2, v = 0.2, t = 0.2)
movej(p[0.430205620385105, -0.0872791026296391, 0.43434927804208, -1.18538365276958, 1.13495514485019, -1.34465083737979], a = 0.2, v = 0.2, t = 0.2)
movej(p[0.431475926142519, -0.0874250510837686, 0.434504384873711, -1.17735407413453, 1.14513932364924, -1.3233804159535], a = 0.2, v = 0.2, t = 0.2)
movej(p[0.432340438878784, -0.087509779257346, 0.434599573919837, -1.1744158623873, 1.15463897902796, -1.31721231162989], a = 0.2, v = 0.2, t = 0.2)
movej(p[0.432997547476709, -0.0875796861001714, 0.434624202288524, -1.18313141996167, 1.16031552391841, -1.32138034614079], a = 0.2, v = 0.2, t = 0.2)
movej(p[0.433184121263093, -0.0876186059803354, 0.434569948500717, -1.18995883488668, 1.16411655508263, -1.32584349549475], a = 0.2, v = 0.2, t = 0.2)
movej(p[0.433249001262559, -0.0878334989533323, 0.434606666910961, -1.18920781318309, 1.16782672650693, -1.31635126219418], a = 0.2, v = 0.2, t = 0.2)
movej(p[0.433062218432435, -0.0879524079417347, 0.434533577496214, -1.17930672033963, 1.17001353414246, -1.30976026142022], a = 0.2, v = 0.2, t = 0.2)
movej(p[0.432622832085531, -0.0879753035295632, 0.434371642206941, -1.17578600544503, 1.16887353108254, -1.31085525354068], a = 0.2, v = 0.2, t = 0.2)
movej(p[0.431795435928616, -0.0879996689519896, 0.434244744347965, -1.17184824476503, 1.16504520744549, -1.31456331078721], a = 0.2, v = 0.2, t = 0.2)
movej(p[0.430801710566664, -0.0879458012689901, 0.434164693636899, -1.17151418006198, 1.15827613027107, -1.3309440699012], a = 0.2, v = 0.2, t = 0.2)
movej(p[0.429954900856836, -0.0877249229428792, 0.434062490430516, -1.1742582053449, 1.14936674877476, -1.34240873637517], a = 0.2, v = 0.2, t = 0.2)
movej(p[0.429291905348846, -0.0874139490754298, 0.433988540978124, -1.18007052002748, 1.1395524576221, -1.35307501309768], a = 0.2, v = 0.2, t = 0.2)
movej(p[0.428748506478589, -0.0873665346775206, 0.434053726807535, -1.17622313819131, 1.1358863207963, -1.3425287500592], a = 0.2, v = 0.2, t = 0.2)
movej(p[0.428496008693248, -0.0873111214942512, 0.434114157497732, -1.17554075505333, 1.13113633084748, -1.34317556637253], a = 0.2, v = 0.2, t = 0.2)
movej(p[0.428872536368699, -0.0872595836030243, 0.434134945934121, -1.17728226658891, 1.12862786156655, -1.34111530882422], a = 0.2, v = 0.2, t = 0.2)
movej(p[0.429787711722742, -0.0872844323262923, 0.434234510902378, -1.18546520005086, 1.12794752969084, -1.34541479217186], a = 0.2, v = 0.2, t = 0.2)
movej(p[0.430873619520355, -0.0874055958557454, 0.434414639443185, -1.19218507521157, 1.13325737552699, -1.35005493030663], a = 0.2, v = 0.2, t = 0.2)
movej(p[0.431976463426722, -0.0874638200824945, 0.43450823527113, -1.19339717554297, 1.14505814862518, -1.34215755770629], a = 0.2, v = 0.2, t = 0.2)
movej(p[0.432724355847144, -0.0875323253689371, 0.434552288599889, -1.19483186721671, 1.15431652243047, -1.33566429350826], a = 0.2, v = 0.2, t = 0.2)
movej(p[0.433071002246713, -0.0877140821138987, 0.434587429306704, -1.18350615651835, 1.1637482925594, -1.3157339829149], a = 0.2, v = 0.2, t = 0.2)
movej(p[0.433139009478605, -0.087809772536385, 0.43456621928184, -1.18696463100099, 1.16545984727025, -1.32635187521098], a = 0.2, v = 0.2, t = 0.2)
movej(p[0.433171349853147, -0.0878308083207832, 0.434508450455045, -1.19012745597243, 1.16594995090903, -1.32988050958937], a = 0.2, v = 0.2, t = 0.2)
movej(p[0.433068499695178, -0.0879195687748456, 0.434447376868279, -1.18774010304677, 1.1666316604354, -1.32472072350813], a = 0.2, v = 0.2, t = 0.2)
movej(p[0.432558397334741, -0.0880687055438382, 0.434397394768368, -1.18076362198746, 1.16526651648638, -1.32516593432877], a = 0.2, v = 0.2, t = 0.2)
movej(p[0.431877191713949, -0.0879931749832601, 0.434204449366456, -1.17181420677074, 1.16340042345459, -1.32756973477063], a = 0.2, v = 0.2, t = 0.2)
movej(p[0.430930292949309, -0.0878185646384081, 0.434066208131308, -1.17096369856401, 1.15757533028425, -1.33615654070744], a = 0.2, v = 0.2, t = 0.2)
movej(p[0.429981060327142, -0.087657936153608, 0.434032304124407, -1.17326474968211, 1.15090926507728, -1.34152131689194], a = 0.2, v = 0.2, t = 0.2)
movej(p[0.429202429021867, -0.0874761178934521, 0.434022104225167, -1.17299424988863, 1.14343728973924, -1.34713906491437], a = 0.2, v = 0.2, t = 0.2)
movej(p[0.428736913801436, -0.0872150447329622, 0.433960311594994, -1.17508629988409, 1.13783898525931, -1.34492829326983], a = 0.2, v = 0.2, t = 0.2)
movej(p[0.428804396307824, -0.0871639047509258, 0.434017713233201, -1.17196142022807, 1.13487366542911, -1.33100394569236], a = 0.2, v = 0.2, t = 0.2)
movej(p[0.429293884449034, -0.087255714318714, 0.434196696090697, -1.17497036084675, 1.13427604292414, -1.32933372379342], a = 0.2, v = 0.2, t = 0.2)
movej(p[0.430406436768931, -0.0873232242306856, 0.434341772017289, -1.18351804803384, 1.13660097936994, -1.33808841239219], a = 0.2, v = 0.2, t = 0.2)
movej(p[0.4316555713211, -0.0873200298358138, 0.434433188150538, -1.18985988292911, 1.1448987550696, -1.33908950999854], a = 0.2, v = 0.2, t = 0.2)
movej(p[0.432699335234706, -0.0875041674247582, 0.434572340613301, -1.1889418225907, 1.15561123458503, -1.32603718245213], a = 0.2, v = 0.2, t = 0.2)
movej(p[0.433103806452644, -0.0876277055328726, 0.434638492277079, -1.1862384190502, 1.16225717360881, -1.32575184681897], a = 0.2, v = 0.2, t = 0.2)
movej(p[0.433330763363557, -0.0876797077572605, 0.434603781156956, -1.18393641129641, 1.16691463636932, -1.32142657481909], a = 0.2, v = 0.2, t = 0.2)
movej(p[0.433301930873888, -0.0877297376889094, 0.434532087824946, -1.18245905810573, 1.16829823614584, -1.31888773721497], a = 0.2, v = 0.2, t = 0.2)
movej(p[0.433053157405565, -0.0878890193548285, 0.434528179566787, -1.18612990222271, 1.16652843619869, -1.32484830995615], a = 0.2, v = 0.2, t = 0.2)
movej(p[0.432493095495488, -0.0879563832859927, 0.434409970390922, -1.1819628455462, 1.1645755199257, -1.32876367473074], a = 0.2, v = 0.2, t = 0.2)
movej(p[0.431550544150372, -0.0878742510569857, 0.43424944732162, -1.17998132861922, 1.16036439179951, -1.33675834981165], a = 0.2, v = 0.2, t = 0.2)
movej(p[0.43043421123947, -0.0878709561106501, 0.434205987563625, -1.17002411609242, 1.15613149895012, -1.32906566600039], a = 0.2, v = 0.2, t = 0.2)
movej(p[0.429323133007374, -0.0877524187583528, 0.43422026473678, -1.17450365819087, 1.14476556199122, -1.34500483417125], a = 0.2, v = 0.2, t = 0.2)
movej(p[0.428577224224277, -0.0875117647829799, 0.434186391537026, -1.18058873908716, 1.13367670412373, -1.35214612538402], a = 0.2, v = 0.2, t = 0.2)
movej(p[0.428164810009475, -0.0873450601523596, 0.434149825502748, -1.17981738554688, 1.12663285562283, -1.34650101116009], a = 0.2, v = 0.2, t = 0.2)
movej(p[0.428114811546823, -0.0874392461618146, 0.434305769054649, -1.17474471459757, 1.12511574423398, -1.33459512779473], a = 0.2, v = 0.2, t = 0.2)
movej(p[0.428826156650855, -0.0874706040507141, 0.434418425264991, -1.16869295902295, 1.12815586748998, -1.327243565695], a = 0.2, v = 0.2, t = 0.2)
movej(p[0.430014843394056, -0.087441524921433, 0.434520624558469, -1.17418921274309, 1.13270146377697, -1.32901247686109], a = 0.2, v = 0.2, t = 0.2)
movej(p[0.43141469916219, -0.0874681799839417, 0.434610923283454, -1.17443500337566, 1.14414082511755, -1.31816404128388], a = 0.2, v = 0.2, t = 0.2)
movej(p[0.432375469298475, -0.0875966297079591, 0.434710518336103, -1.17665090862905, 1.15395405337587, -1.31596375249982], a = 0.2, v = 0.2, t = 0.2)
movej(p[0.432962944282096, -0.0876408554650765, 0.434665418939439, -1.17891097463653, 1.16275824860688, -1.31203767259835], a = 0.2, v = 0.2, t = 0.2)
movej(p[0.433214107025325, -0.0877119285231821, 0.434600472213074, -1.18044378928196, 1.16696716898111, -1.31148741581886], a = 0.2, v = 0.2, t = 0.2)
movej(p[0.433177213935712, -0.0878416155473632, 0.434559955679919, -1.17780499665722, 1.17027433473143, -1.3083357128776], a = 0.2, v = 0.2, t = 0.2)
movej(p[0.432895232523022, -0.0879382883518628, 0.434506761199297, -1.18123218884495, 1.16865653777704, -1.32074172108155], a = 0.2, v = 0.2, t = 0.2)
movej(p[0.432323806415324, -0.0879200893163721, 0.434357460432758, -1.17950376709876, 1.16691067492542, -1.32483688661563], a = 0.2, v = 0.2, t = 0.2)
movej(p[0.431472665232026, -0.0879507298854181, 0.43431434215099, -1.17977067984868, 1.16259428636155, -1.32980972323643], a = 0.2, v = 0.2, t = 0.2)
movej(p[0.430473238616046, -0.0878901838869488, 0.434277657511972, -1.17426167262098, 1.1561748120485, -1.33761136650302], a = 0.2, v = 0.2, t = 0.2)
movej(p[0.429709463766093, -0.0876489060562634, 0.434206361169851, -1.1758301862906, 1.14755334788644, -1.34756251892061], a = 0.2, v = 0.2, t = 0.2)
movej(p[0.429088153401965, -0.0873956970780366, 0.434105271605462, -1.17404912962363, 1.13969726475779, -1.34641636030992], a = 0.2, v = 0.2, t = 0.2)
movej(p[0.428718149576885, -0.0873256815395969, 0.434137486366038, -1.17891694340326, 1.1322892383219, -1.34599547466501], a = 0.2, v = 0.2, t = 0.2)
movej(p[0.428585010633052, -0.0873330240846496, 0.434173160228559, -1.1755848517464, 1.12943645037272, -1.34382737633973], a = 0.2, v = 0.2, t = 0.2)
movej(p[0.429048795147066, -0.0873079578931212, 0.434203642938469, -1.18164736402401, 1.12861679906985, -1.34655374831535], a = 0.2, v = 0.2, t = 0.2)
movej(p[0.429883278116824, -0.0873735335416346, 0.434295807962232, -1.17753183202486, 1.13391794705077, -1.33360896610306], a = 0.2, v = 0.2, t = 0.2)
movej(p[0.430825355713008, -0.0875185401872855, 0.434494820576642, -1.18634298743232, 1.13759614136592, -1.34079703262612], a = 0.2, v = 0.2, t = 0.2)
movej(p[0.431804939297932, -0.0875796971123261, 0.434582567565994, -1.18622091619369, 1.14702590460757, -1.3331458206063], a = 0.2, v = 0.2, t = 0.2)
movej(p[0.43253830174075, -0.0876159113652335, 0.434593425985966, -1.18869503936975, 1.15567054461417, -1.32790119893407], a = 0.2, v = 0.2, t = 0.2)
movej(p[0.432966875312336, -0.0877935240118221, 0.434641845301518, -1.18045696553808, 1.16472842842513, -1.30975218330891], a = 0.2, v = 0.2, t = 0.2)
movej(p[0.4330471219788, -0.0879271701711925, 0.434617893675123, -1.18318375802257, 1.16584571858958, -1.31969506838255], a = 0.2, v = 0.2, t = 0.2)
movej(p[0.432961607395448, -0.087938876845891, 0.434543106463765, -1.18447193943603, 1.16693545653782, -1.32339478136724], a = 0.2, v = 0.2, t = 0.2)
movej(p[0.432575042338123, -0.087963333024811, 0.434439269242649, -1.18945663119225, 1.16389556770903, -1.33179750016991], a = 0.2, v = 0.2, t = 0.2)
movej(p[0.431781915917351, -0.0880923835341432, 0.434456767060078, -1.18188604779837, 1.16353480897783, -1.32864775882404], a = 0.2, v = 0.2, t = 0.2)
movej(p[0.430943149214599, -0.088008245943501, 0.434340554463962, -1.17263689515651, 1.16036276206581, -1.33218667822242], a = 0.2, v = 0.2, t = 0.2)
movej(p[0.430149937572782, -0.0877533389499614, 0.434194740944596, -1.16601758541284, 1.15601681260525, -1.33294252056815], a = 0.2, v = 0.2, t = 0.2)
movej(p[0.429441715754689, -0.0875896346163656, 0.434170424457833, -1.16594312267374, 1.14878263335389, -1.33004187656603], a = 0.2, v = 0.2, t = 0.2)
movej(p[0.428806921997339, -0.0875079968957383, 0.434229528450423, -1.16764128654768, 1.13994206172919, -1.33542468059144], a = 0.2, v = 0.2, t = 0.2)
movej(p[0.428720158563648, -0.0873647080315335, 0.434241249994056, -1.17307343151399, 1.13423238506525, -1.33864501871065], a = 0.2, v = 0.2, t = 0.2)
movej(p[0.429178818335279, -0.0872890483776023, 0.434273943128722, -1.17557961313689, 1.13174023207545, -1.3386583326517], a = 0.2, v = 0.2, t = 0.2)
movej(p[0.43013505763872, -0.0873211240899254, 0.434382134520863, -1.18138048898296, 1.13405117416547, -1.33899238783446], a = 0.2, v = 0.2, t = 0.2)
movej(p[0.43120650110557, -0.0873690564948336, 0.434472098709882, -1.18476615074505, 1.14032464137099, -1.3411824848581], a = 0.2, v = 0.2, t = 0.2)
movej(p[0.432297825268309, -0.0873559180447302, 0.434450434777896, -1.1848451917058, 1.15155809117205, -1.32900756105159], a = 0.2, v = 0.2, t = 0.2)
movej(p[0.432978793155027, -0.0875055620602592, 0.434508291243393, -1.18535116272586, 1.16071870256519, -1.31665021615858], a = 0.2, v = 0.2, t = 0.2)
movej(p[0.433204163573856, -0.0876888936508287, 0.434588780150058, -1.18476322697106, 1.1675325269276, -1.31354391821081], a = 0.2, v = 0.2, t = 0.2)
movej(p[0.433271459734691, -0.08777055688953, 0.434567622173367, -1.19493638007842, 1.16641838351305, -1.32949175314481], a = 0.2, v = 0.2, t = 0.2)
movej(p[0.433112264641897, -0.0877877886617773, 0.43445723238645, -1.19420211863309, 1.16577898605904, -1.33042443611431], a = 0.2, v = 0.2, t = 0.2)
movej(p[0.43271620097424, -0.0879909807296719, 0.434420256816041, -1.19032043428428, 1.16336720063274, -1.32633158524432], a = 0.2, v = 0.2, t = 0.2)
movej(p[0.431927763324581, -0.0880433894244425, 0.434356424418997, -1.17951581587092, 1.16100092235857, -1.33024195010963], a = 0.2, v = 0.2, t = 0.2)
movej(p[0.431081216592484, -0.0878985511305361, 0.434224396584451, -1.17483803704891, 1.15784857213178, -1.33499313106125], a = 0.2, v = 0.2, t = 0.2)
movej(p[0.430159797151766, -0.0876425098934727, 0.434129831790849, -1.17206200301265, 1.1517955064521, -1.33869184780903], a = 0.2, v = 0.2, t = 0.2)
movej(p[0.429296900375502, -0.0875544295417933, 0.43423883665847, -1.17704238310941, 1.14411456339617, -1.34490283419155], a = 0.2, v = 0.2, t = 0.2)
movej(p[0.428693087075171, -0.0873785724780429, 0.434270630839833, -1.17762784979376, 1.13538812193466, -1.34948071332468], a = 0.2, v = 0.2, t = 0.2)
movej(p[0.428690001683346, -0.0871965762068014, 0.43427367014493, -1.18193079375168, 1.12877167998563, -1.34985741267584], a = 0.2, v = 0.2, t = 0.2)
movej(p[0.429264234371018, -0.087164953798754, 0.434332190833733, -1.17874917865416, 1.12966598580373, -1.33841228190497], a = 0.2, v = 0.2, t = 0.2)
movej(p[0.4301748970776, -0.0872807952264313, 0.434473366769981, -1.18397494017735, 1.13204231924641, -1.34253684839699], a = 0.2, v = 0.2, t = 0.2)
movej(p[0.431391178077529, -0.0873339589713895, 0.434546357185331, -1.18335949061047, 1.14408189921028, -1.33550163083717], a = 0.2, v = 0.2, t = 0.2)
movej(p[0.432398877331666, -0.0874015741987258, 0.434586804225332, -1.18547310179408, 1.15299937397191, -1.33087886288973], a = 0.2, v = 0.2, t = 0.2)
movej(p[0.433017773478733, -0.0875591622371821, 0.434674136654758, -1.17596022806622, 1.16591125577612, -1.31131445995388], a = 0.2, v = 0.2, t = 0.2)
movej(p[0.433275777788865, -0.0876376191977221, 0.434682905275474, -1.18007456629412, 1.16918543022921, -1.32126058720551], a = 0.2, v = 0.2, t = 0.2)
movej(p[0.433388107573735, -0.08766262589866, 0.4346207135512, -1.18361591059691, 1.17078067216686, -1.3249721064387], a = 0.2, v = 0.2, t = 0.2)
movej(p[0.433389780682362, -0.0877621531288922, 0.434594520454898, -1.18408630061239, 1.17182875777556, -1.32263600936097], a = 0.2, v = 0.2, t = 0.2)
movej(p[0.433083686585592, -0.08796297353116, 0.434588763046136, -1.17875702914954, 1.17089344953365, -1.32128906444054], a = 0.2, v = 0.2, t = 0.2)
movej(p[0.432556307906804, -0.0879556357812719, 0.434443500675626, -1.17530144275413, 1.16857952043928, -1.32824027281956], a = 0.2, v = 0.2, t = 0.2)
movej(p[0.431644431911543, -0.0878802634685285, 0.434282126111528, -1.1739201011277, 1.16382765301871, -1.33709289163413], a = 0.2, v = 0.2, t = 0.2)
movej(p[0.43057296036602, -0.0878075005827516, 0.434274655797623, -1.17500633374351, 1.15857570800113, -1.34334109826741], a = 0.2, v = 0.2, t = 0.2)
movej(p[0.42967964086857, -0.0876742886885464, 0.434329674023851, -1.17093754193558, 1.15283323516539, -1.34429124434399], a = 0.2, v = 0.2, t = 0.2)
movej(p[0.42902331712914, -0.0873919251179865, 0.434369676278916, -1.17205560702422, 1.14518672401586, -1.34315987908995], a = 0.2, v = 0.2, t = 0.2)
movej(p[0.428472944162437, -0.0872047321320076, 0.434545491041287, -1.17538360220045, 1.13705639871801, -1.33814224232724], a = 0.2, v = 0.2, t = 0.2)
movej(p[0.427951767367133, -0.0871536499800775, 0.434811191664522, -1.17863730934238, 1.13029939661673, -1.33630703829624], a = 0.2, v = 0.2, t = 0.2)
movej(p[0.42796323299413, -0.0870815243862041, 0.43499467081785, -1.18235774956025, 1.12530491952196, -1.34335301550015], a = 0.2, v = 0.2, t = 0.2)
movej(p[0.428699942432213, -0.0869558304599254, 0.435015080265088, -1.18489329338225, 1.12352910851407, -1.34601016714888], a = 0.2, v = 0.2, t = 0.2)
movej(p[0.429821405338366, -0.0870272852912092, 0.435077425298633, -1.18194355904458, 1.12743930110793, -1.33796031487119], a = 0.2, v = 0.2, t = 0.2)
movej(p[0.430845283399978, -0.0871210038051633, 0.435159504549918, -1.18303829061361, 1.13401474692035, -1.34343148043433], a = 0.2, v = 0.2, t = 0.2)
movej(p[0.431811649152018, -0.0872246261867883, 0.435189029280439, -1.18918212454143, 1.14291184654827, -1.34447836397454], a = 0.2, v = 0.2, t = 0.2)
movej(p[0.432553137291665, -0.0873001245692524, 0.435152883951449, -1.19199337371855, 1.15268043406552, -1.34229501804042], a = 0.2, v = 0.2, t = 0.2)
movej(p[0.43300629275368, -0.087535448466253, 0.435186087224814, -1.19294285835052, 1.16038511285203, -1.33484664149188], a = 0.2, v = 0.2, t = 0.2)
movej(p[0.433162434410148, -0.0876158157632807, 0.43511737212178, -1.18549774686912, 1.16641608309639, -1.32762948301399], a = 0.2, v = 0.2, t = 0.2)
movej(p[0.433262442796053, -0.0876267863345332, 0.435003949078862, -1.18705675204003, 1.16864218217538, -1.32930707924872], a = 0.2, v = 0.2, t = 0.2)
movej(p[0.433260981401722, -0.0876875768816285, 0.434943616303362, -1.18297052442059, 1.17146247112339, -1.32118376488505], a = 0.2, v = 0.2, t = 0.2)
movej(p[0.433175961449618, -0.0878436333795426, 0.434948128313108, -1.18571296720169, 1.17080443432296, -1.32537027145537], a = 0.2, v = 0.2, t = 0.2)
movej(p[0.432936321533254, -0.0878840204608875, 0.434832790044455, -1.18336076068955, 1.17169960635707, -1.32513312855945], a = 0.2, v = 0.2, t = 0.2)
movej(p[0.432356745439057, -0.0879075445885669, 0.434692681115772, -1.18255325414354, 1.16828507725828, -1.33081907921283], a = 0.2, v = 0.2, t = 0.2)
movej(p[0.431387319540892, -0.0879721236649541, 0.434656808863828, -1.17753985865427, 1.16524279588718, -1.33083769266378], a = 0.2, v = 0.2, t = 0.2)
movej(p[0.430416328328452, -0.087854557209616, 0.434632950889378, -1.17783890401898, 1.15631470730377, -1.3469560893088], a = 0.2, v = 0.2, t = 0.2)
movej(p[0.429693093925876, -0.087553630684157, 0.434570480114567, -1.18193667297794, 1.14814355935606, -1.35478108774338], a = 0.2, v = 0.2, t = 0.2)
movej(p[0.42914579274526, -0.0873190300503367, 0.434570659644251, -1.18210710032405, 1.1401990231756, -1.35435546356591], a = 0.2, v = 0.2, t = 0.2)
movej(p[0.428785130147391, -0.0872822430893043, 0.434681146173319, -1.17837844263986, 1.136499830745, -1.34363856622241], a = 0.2, v = 0.2, t = 0.2)
movej(p[0.429005398469178, -0.0872787201105901, 0.434777354326295, -1.18078789908725, 1.13349510154835, -1.34712740074661], a = 0.2, v = 0.2, t = 0.2)
movej(p[0.429773299564737, -0.0872558874486484, 0.434833665976847, -1.18559698835967, 1.13333571784086, -1.34630804591109], a = 0.2, v = 0.2, t = 0.2)
movej(p[0.430888617083495, -0.0873832381658194, 0.434974713428745, -1.18887904974184, 1.13741693470432, -1.34230054305411], a = 0.2, v = 0.2, t = 0.2)
movej(p[0.431787821028688, -0.0874601413389285, 0.435039760685098, -1.18720108748776, 1.1451402845272, -1.3417737777339], a = 0.2, v = 0.2, t = 0.2)
movej(p[0.432652914275945, -0.0874773522889715, 0.435021377739918, -1.19521007766273, 1.15304425083519, -1.34638808890229], a = 0.2, v = 0.2, t = 0.2)
movej(p[0.433101573185992, -0.0875046508313149, 0.434943078660855, -1.1939923584744, 1.16155332341479, -1.33823596129333], a = 0.2, v = 0.2, t = 0.2)
movej(p[0.433240516150187, -0.0877021352622552, 0.434950888847217, -1.19558156264066, 1.16561323337622, -1.33248961324768], a = 0.2, v = 0.2, t = 0.2)
movej(p[0.432911445348233, -0.0878041938668305, 0.434828099563662, -1.18108626453145, 1.16814832384949, -1.32254801170519], a = 0.2, v = 0.2, t = 0.2)
movej(p[0.432214427500932, -0.0877709050406686, 0.434611704643645, -1.17778410434675, 1.16454217286334, -1.32876701651501], a = 0.2, v = 0.2, t = 0.2)
movej(p[0.431139737082655, -0.0877206607626302, 0.434476905019432, -1.1693082264353, 1.1598990709674, -1.32681544207471], a = 0.2, v = 0.2, t = 0.2)
movej(p[0.429981645830549, -0.0876089896819607, 0.434503292054825, -1.17582107645519, 1.15082941843524, -1.34690026399363], a = 0.2, v = 0.2, t = 0.2)
movej(p[0.42916435785362, -0.0873218211169502, 0.434526243014227, -1.18345912319095, 1.14190236087565, -1.35814642680041], a = 0.2, v = 0.2, t = 0.2)
movej(p[0.428682684937697, -0.0870126197954612, 0.434525954576278, -1.19163058834359, 1.13167545783727, -1.36746458413146], a = 0.2, v = 0.2, t = 0.2)
movej(p[0.42860244568365, -0.0870294511561224, 0.434643344252708, -1.18635918144212, 1.12874118049436, -1.34954592833312], a = 0.2, v = 0.2, t = 0.2)
movej(p[0.428826341353717, -0.087099505093237, 0.434735336369917, -1.1838299046034, 1.12685019841936, -1.34985433507543], a = 0.2, v = 0.2, t = 0.2)
movej(p[0.429559978626498, -0.0871358665480229, 0.434797420012628, -1.18753492707627, 1.12895528093439, -1.34868256570051], a = 0.2, v = 0.2, t = 0.2)
movej(p[0.43037423189417, -0.0872137182068895, 0.434880091863936, -1.19107986065098, 1.13390093413972, -1.34935466251879], a = 0.2, v = 0.2, t = 0.2)
movej(p[0.431012713703995, -0.0874155631185716, 0.435001650555729, -1.186641243256, 1.14158469984547, -1.33899786515741], a = 0.2, v = 0.2, t = 0.2)
movej(p[0.431424200142169, -0.0875013764467946, 0.434972554987011, -1.18152170447196, 1.14828857162895, -1.33500270633082], a = 0.2, v = 0.2, t = 0.2)
movej(p[0.431490451312839, -0.0875515084876561, 0.434866591740511, -1.18083723240701, 1.15077537485187, -1.33392014373736], a = 0.2, v = 0.2, t = 0.2)
movej(p[0.4309516284211, -0.0876420199618863, 0.434790224571267, -1.17880221434506, 1.15310320617622, -1.32807431491814], a = 0.2, v = 0.2, t = 0.2)
movej(p[0.429921221935643, -0.0876317114701348, 0.434707422714506, -1.17687242188673, 1.14902602741999, -1.33691715864964], a = 0.2, v = 0.2, t = 0.2)
movej(p[0.428846907069414, -0.0874005314629365, 0.434572420008921, -1.17602947054716, 1.14324556125632, -1.33935577286581], a = 0.2, v = 0.2, t = 0.2)
movej(p[0.427883494704946, -0.0871561093173654, 0.434576660126861, -1.17808649070878, 1.13235874322265, -1.34146312710233], a = 0.2, v = 0.2, t = 0.2)
movej(p[0.426877815585286, -0.0870162013215199, 0.43479575474359, -1.17871505660475, 1.12505832205624, -1.33393639827813], a = 0.2, v = 0.2, t = 0.2)
movej(p[0.426043271712546, -0.0868688897742909, 0.435129949751669, -1.18316384261516, 1.11474732721552, -1.33906752489644], a = 0.2, v = 0.2, t = 0.2)
movej(p[0.425514219421335, -0.0866584888760019, 0.435384451273205, -1.19082660680926, 1.10403470035656, -1.34616468483983], a = 0.2, v = 0.2, t = 0.2)
movej(p[0.425683758274144, -0.086581094914258, 0.435513355435178, -1.19782772118018, 1.09429834627807, -1.34896348312684], a = 0.2, v = 0.2, t = 0.2)
movej(p[0.426192013759086, -0.0866002185665436, 0.435397662425666, -1.19956055530409, 1.09144243967565, -1.35425889110763], a = 0.2, v = 0.2, t = 0.2)
movej(p[0.427146702766557, -0.0866064846207023, 0.435178813534925, -1.19972980068059, 1.09499265690908, -1.35446804280927], a = 0.2, v = 0.2, t = 0.2)
movej(p[0.428006770880714, -0.0866445272504461, 0.435029282488874, -1.19392239826399, 1.10379153916382, -1.34665577253365], a = 0.2, v = 0.2, t = 0.2)
movej(p[0.428813758267662, -0.0869046797581732, 0.435107519480311, -1.19381783825903, 1.11216539307313, -1.34172806092987], a = 0.2, v = 0.2, t = 0.2)
movej(p[0.429516472647477, -0.0870763207363818, 0.43508428491551, -1.19267943751024, 1.11843607927941, -1.3452540962733], a = 0.2, v = 0.2, t = 0.2)
movej(p[0.430290432848835, -0.0871761689319723, 0.434995012017321, -1.19973647642022, 1.12330081487884, -1.35206037975939], a = 0.2, v = 0.2, t = 0.2)
movej(p[0.43098351824053, -0.0872902189808969, 0.434905168309364, -1.19520103460669, 1.12973081140208, -1.34444741591536], a = 0.2, v = 0.2, t = 0.2)
movej(p[0.431524653711602, -0.0874302514451619, 0.434879952508357, -1.20151481215617, 1.13546550759565, -1.34956524467782], a = 0.2, v = 0.2, t = 0.2)
movej(p[0.431897907568046, -0.0875346154031999, 0.434800274403595, -1.20495595572882, 1.14018637734753, -1.35167841429908], a = 0.2, v = 0.2, t = 0.2)
movej(p[0.432001695751528, -0.0875611274703295, 0.434686335331429, -1.21078641911867, 1.14277883585242, -1.35672491493525], a = 0.2, v = 0.2, t = 0.2)
movej(p[0.431662880758973, -0.0877298383526601, 0.434640230427956, -1.20203798472639, 1.14528699229515, -1.34841136614157], a = 0.2, v = 0.2, t = 0.2)
movej(p[0.431056554293683, -0.087636853861747, 0.434524139898909, -1.19375033974203, 1.14437628762702, -1.35372838814836], a = 0.2, v = 0.2, t = 0.2)
movej(p[0.430324309782467, -0.0873427520333016, 0.434373640054871, -1.19145439038538, 1.14079493780185, -1.36165105963647], a = 0.2, v = 0.2, t = 0.2)
movej(p[0.429707633436419, -0.0870798626115063, 0.434335924686214, -1.19110351003799, 1.13543771485194, -1.3635512123511], a = 0.2, v = 0.2, t = 0.2)
movej(p[0.429164721761429, -0.087111938952489, 0.434462145667073, -1.18964156963858, 1.13107156819321, -1.36086135253396], a = 0.2, v = 0.2, t = 0.2)
movej(p[0.429355664519535, -0.0871483377539871, 0.434537555942743, -1.18470344235446, 1.12921447157341, -1.35260935079919], a = 0.2, v = 0.2, t = 0.2)
movej(p[0.430037508226821, -0.0871836911851896, 0.434575013601984, -1.18377303180264, 1.13094882932301, -1.3452286010346], a = 0.2, v = 0.2, t = 0.2)
movej(p[0.431153179730561, -0.0872581177629234, 0.434665548193545, -1.18307097502173, 1.13858739566653, -1.33255993777593], a = 0.2, v = 0.2, t = 0.2)
movej(p[0.43204420760944, -0.0873343461080385, 0.434722066266419, -1.18823934263235, 1.14676534771323, -1.33457854875872], a = 0.2, v = 0.2, t = 0.2)
movej(p[0.432692162087723, -0.0873575841013187, 0.434687564352833, -1.19053856847939, 1.15555213261775, -1.33096244992394], a = 0.2, v = 0.2, t = 0.2)
movej(p[0.432989091329516, -0.0874757935901662, 0.434647530191933, -1.18954555183872, 1.16070480633172, -1.32650281404376], a = 0.2, v = 0.2, t = 0.2)
movej(p[0.4329472628154, -0.0876557091714357, 0.434651100970602, -1.18585649865397, 1.16522551455314, -1.32454554103181], a = 0.2, v = 0.2, t = 0.2)
movej(p[0.432637913045638, -0.0877427755707012, 0.434573212782893, -1.18968426443185, 1.16304693064362, -1.33767435631047], a = 0.2, v = 0.2, t = 0.2)
movej(p[0.431992636825956, -0.0877004121205929, 0.434433056004935, -1.19088543055751, 1.15979775498001, -1.34858447216267], a = 0.2, v = 0.2, t = 0.2)
movej(p[0.431135160627546, -0.0876973290061202, 0.434407010896669, -1.19291455859363, 1.15572822246581, -1.35514091175619], a = 0.2, v = 0.2, t = 0.2)
movej(p[0.430239666860973, -0.0875594569824744, 0.434411189797799, -1.18769643356298, 1.15075092135465, -1.36117011573026], a = 0.2, v = 0.2, t = 0.2)
movej(p[0.429591551338339, -0.0872802197535264, 0.434385686155716, -1.18612351161682, 1.14548297545226, -1.36181396318819], a = 0.2, v = 0.2, t = 0.2)
movej(p[0.429205911369544, -0.0870635997202571, 0.434363015263509, -1.18202369339997, 1.13808224982878, -1.35439388141088], a = 0.2, v = 0.2, t = 0.2)
movej(p[0.429148365284319, -0.0871241260311477, 0.434515609497559, -1.1850177510785, 1.13354633749984, -1.34739357921139], a = 0.2, v = 0.2, t = 0.2)
movej(p[0.429549288846909, -0.087233707233525, 0.434659414251382, -1.18800651733462, 1.13200746102416, -1.35150322314026], a = 0.2, v = 0.2, t = 0.2)
movej(p[0.430549809015847, -0.0872736671300442, 0.434720998331116, -1.19427952869562, 1.13525295837469, -1.35301103181136], a = 0.2, v = 0.2, t = 0.2)
movej(p[0.431636522015568, -0.0873657408628462, 0.434757756843618, -1.19005526094424, 1.14369883665662, -1.34027940311391], a = 0.2, v = 0.2, t = 0.2)
movej(p[0.432369092576226, -0.0875395524641676, 0.434851188726528, -1.19804491037963, 1.14906242255238, -1.34381694322463], a = 0.2, v = 0.2, t = 0.2)
movej(p[0.432788396965503, -0.087639086831957, 0.434828373541141, -1.1996122980042, 1.15554048356865, -1.33953245713454], a = 0.2, v = 0.2, t = 0.2)
movej(p[0.432957658712498, -0.087686160105241, 0.434746674171416, -1.20296659693857, 1.15841764031552, -1.34041714730342], a = 0.2, v = 0.2, t = 0.2)
movej(p[0.432902562142918, -0.087846263739999, 0.434701655905448, -1.19588230462811, 1.16061670697569, -1.33151141607852], a = 0.2, v = 0.2, t = 0.2)
movej(p[0.432562417319002, -0.0879351258364974, 0.434589636092784, -1.19756667573457, 1.15810926982648, -1.34711550355714], a = 0.2, v = 0.2, t = 0.2)
movej(p[0.431985636445114, -0.0878579815525904, 0.434423460919317, -1.19968148850277, 1.15402246428667, -1.36007644189061], a = 0.2, v = 0.2, t = 0.2)
movej(p[0.43121466746019, -0.0877308938485401, 0.434310935302389, -1.1962015071616, 1.15138344361287, -1.36355845590898], a = 0.2, v = 0.2, t = 0.2)
movej(p[0.430281338838266, -0.0876782290683649, 0.434378853144126, -1.1820810417717, 1.15022293705574, -1.34925578918361], a = 0.2, v = 0.2, t = 0.2)
movej(p[0.429654153405013, -0.0874545721429708, 0.434376083125607, -1.17525665030161, 1.14590405343254, -1.35015879740578], a = 0.2, v = 0.2, t = 0.2)
movej(p[0.42941145845571, -0.0871826079041679, 0.43434289105096, -1.18029739553341, 1.13978571694913, -1.35311478032028], a = 0.2, v = 0.2, t = 0.2)
movej(p[0.429666267006801, -0.0871443117107683, 0.434414200811597, -1.18572243305069, 1.13575513859083, -1.35254999811638], a = 0.2, v = 0.2, t = 0.2)
movej(p[0.430230390054056, -0.0872507953776243, 0.434568815974983, -1.18960050438697, 1.13499208909567, -1.35484101352496], a = 0.2, v = 0.2, t = 0.2)
movej(p[0.431141701140786, -0.0873196046431932, 0.434628613504817, -1.19142941418356, 1.13977703025485, -1.35492521697165], a = 0.2, v = 0.2, t = 0.2)
movej(p[0.432097200537128, -0.0873291326373416, 0.43462060113823, -1.19347842758256, 1.14726234184129, -1.34908681047513], a = 0.2, v = 0.2, t = 0.2)
movej(p[0.432815613527464, -0.0875115433527127, 0.434685751272518, -1.19464741386462, 1.15587014754166, -1.33701050831514], a = 0.2, v = 0.2, t = 0.2)
movej(p[0.433008601773426, -0.0876184835351338, 0.434696408238342, -1.19364274418558, 1.15954728629455, -1.33817157796747], a = 0.2, v = 0.2, t = 0.2)
movej(p[0.433200645979132, -0.0876481909853051, 0.434624272968876, -1.19832199482829, 1.16014227503124, -1.34447956929702], a = 0.2, v = 0.2, t = 0.2)
movej(p[0.433249363255853, -0.0876632517401905, 0.43453735518501, -1.19814937996372, 1.16146547589101, -1.34466595854631], a = 0.2, v = 0.2, t = 0.2)
movej(p[0.433284682676261, -0.087882524176251, 0.434586025505146, -1.19101594281116, 1.16529573103879, -1.33424344986067], a = 0.2, v = 0.2, t = 0.2)
movej(p[0.433207254275821, -0.0879580922252682, 0.434537641429531, -1.18353333140041, 1.16751712529389, -1.33351888518113], a = 0.2, v = 0.2, t = 0.2)
movej(p[0.433068291289034, -0.0879398498109096, 0.43443752193332, -1.18637155150989, 1.1661768124691, -1.33596533851183], a = 0.2, v = 0.2, t = 0.2)
movej(p[0.432589408231071, -0.0879880637686671, 0.434376366744065, -1.18947153256307, 1.16353494250031, -1.34106585581121], a = 0.2, v = 0.2, t = 0.2)
movej(p[0.431748554016339, -0.0881338584518663, 0.434423228728862, -1.18737155018103, 1.16090957454249, -1.34678886810522], a = 0.2, v = 0.2, t = 0.2)
movej(p[0.430902334289049, -0.087992064705748, 0.434353391262514, -1.1830153868371, 1.15725105107471, -1.35363437503223], a = 0.2, v = 0.2, t = 0.2)
movej(p[0.430142778654764, -0.0877073786829316, 0.43426598510118, -1.18143341088612, 1.15066274396784, -1.35855930818615], a = 0.2, v = 0.2, t = 0.2)
movej(p[0.42953199165159, -0.0875175183077202, 0.434279789146335, -1.18062646396104, 1.14384458272368, -1.35257092450979], a = 0.2, v = 0.2, t = 0.2)
movej(p[0.428931836920111, -0.0874419788568088, 0.43437261806594, -1.18085932471514, 1.13538996913931, -1.35559013720999], a = 0.2, v = 0.2, t = 0.2)
movej(p[0.428961308147328, -0.0873086495278254, 0.434395142720501, -1.18188789388045, 1.13120176187349, -1.35133422648385], a = 0.2, v = 0.2, t = 0.2)
movej(p[0.42952206382262, -0.0872273297859996, 0.434413181911647, -1.18842199764704, 1.12693659766881, -1.35651156032813], a = 0.2, v = 0.2, t = 0.2)
movej(p[0.430581150227553, -0.0873509535468078, 0.434534676334772, -1.1902316848051, 1.13134356562772, -1.34747900137126], a = 0.2, v = 0.2, t = 0.2)
movej(p[0.431623739461534, -0.0874264755493791, 0.434589042868722, -1.18488016416803, 1.14022621066514, -1.34538442276656], a = 0.2, v = 0.2, t = 0.2)
movej(p[0.432568121685903, -0.0874205522407453, 0.434516823001564, -1.18418306050658, 1.15111467368565, -1.33649722828513], a = 0.2, v = 0.2, t = 0.2)
movej(p[0.433118179570944, -0.0874525547875255, 0.434449676496793, -1.18180855016814, 1.16171047750427, -1.3266074398997], a = 0.2, v = 0.2, t = 0.2)
movej(p[0.433273082313598, -0.0876436800235683, 0.434474414316645, -1.19070089815544, 1.16425636401591, -1.33156651352369], a = 0.2, v = 0.2, t = 0.2)
movej(p[0.433276533675371, -0.0877412294683834, 0.434458962066447, -1.18957543776769, 1.16632414783946, -1.3343804775649], a = 0.2, v = 0.2, t = 0.2)
movej(p[0.433299702390049, -0.0877213191278071, 0.434363528474886, -1.19009693763605, 1.16582392466129, -1.3378264285299], a = 0.2, v = 0.2, t = 0.2)
movej(p[0.433273950920934, -0.0878088630866383, 0.434306253100495, -1.18307176223295, 1.16824231059778, -1.32759076348792], a = 0.2, v = 0.2, t = 0.2)
movej(p[0.433031539279794, -0.0879426780660768, 0.434317878250706, -1.18746130574251, 1.16550816694153, -1.34023050617446], a = 0.2, v = 0.2, t = 0.2)
movej(p[0.432568502881787, -0.0879122240576967, 0.434201337490478, -1.18385732880629, 1.16401710763255, -1.341456216158], a = 0.2, v = 0.2, t = 0.2)
movej(p[0.431829545728466, -0.0878369649385559, 0.434116139495542, -1.18502866585356, 1.15891031610648, -1.35183893433753], a = 0.2, v = 0.2, t = 0.2)
movej(p[0.430931562750959, -0.0877828736209651, 0.434167596091528, -1.17772902179565, 1.1567807375597, -1.34776041016677], a = 0.2, v = 0.2, t = 0.2)
movej(p[0.430113733517748, -0.0876353530886717, 0.434244051877814, -1.18168434596474, 1.14928022159371, -1.3652278440152], a = 0.2, v = 0.2, t = 0.2)
movej(p[0.429618886247462, -0.087324332826462, 0.434228689752765, -1.18883224116597, 1.14137836972106, -1.37228486762187], a = 0.2, v = 0.2, t = 0.2)
movej(p[0.429453762784093, -0.0871473416823423, 0.434235591002506, -1.19048374037254, 1.13469911317833, -1.37111979735263], a = 0.2, v = 0.2, t = 0.2)
movej(p[0.429465576902536, -0.087187107354686, 0.43438790858819, -1.19296389120868, 1.13166242429086, -1.36606010964479], a = 0.2, v = 0.2, t = 0.2)
movej(p[0.430061758672655, -0.0872206950736326, 0.4344979902275, -1.19517097089149, 1.13224202455536, -1.36785811250771], a = 0.2, v = 0.2, t = 0.2)
movej(p[0.431018575275952, -0.0872191073301156, 0.434555703369219, -1.20104710970905, 1.1366124629969, -1.36543943857599], a = 0.2, v = 0.2, t = 0.2)
movej(p[0.432102405663954, -0.0873449961248535, 0.43462625570441, -1.19968311377569, 1.14467660987947, -1.35103559451214], a = 0.2, v = 0.2, t = 0.2)
movej(p[0.432707304418422, -0.0874725552294887, 0.434653154266981, -1.1931615171795, 1.15314206068423, -1.34118477835698], a = 0.2, v = 0.2, t = 0.2)
movej(p[0.433137918582628, -0.0875271288138116, 0.434603027360244, -1.18649649466623, 1.16099650086074, -1.32957360720833], a = 0.2, v = 0.2, t = 0.2)
movej(p[0.433284228644977, -0.0875867764662979, 0.434540940963204, -1.18799558988332, 1.16427205762841, -1.32886523452482], a = 0.2, v = 0.2, t = 0.2)
movej(p[0.433366510139656, -0.0877645293923132, 0.434566941663874, -1.18845719747997, 1.16782890984822, -1.32348648058742], a = 0.2, v = 0.2, t = 0.2)
movej(p[0.433327711335308, -0.0878437162146668, 0.434555795137661, -1.18655276847816, 1.16946694712567, -1.32493640869345], a = 0.2, v = 0.2, t = 0.2)
movej(p[0.433311061697282, -0.0878260861342137, 0.434466867243742, -1.18141907754486, 1.17175025417197, -1.31951992514265], a = 0.2, v = 0.2, t = 0.2)
movej(p[0.433036118985701, -0.0879235935661724, 0.434415491835607, -1.17540283625344, 1.17135337207067, -1.31368326939024], a = 0.2, v = 0.2, t = 0.2)
movej(p[0.43240567081453, -0.0880466940216304, 0.434384131755356, -1.17955532974643, 1.16692672635244, -1.33281325567422], a = 0.2, v = 0.2, t = 0.2)
movej(p[0.431717358882573, -0.0880068358951177, 0.434271437326581, -1.17757377279116, 1.16366381506697, -1.34048032100469], a = 0.2, v = 0.2, t = 0.2)
movej(p[0.430981351947254, -0.0878252014297446, 0.434160843681867, -1.1756902159975, 1.15858337558278, -1.34787366037413], a = 0.2, v = 0.2, t = 0.2)
movej(p[0.430240296637721, -0.0877746717813158, 0.434221365162702, -1.16848616242824, 1.15469653698922, -1.33608517213113], a = 0.2, v = 0.2, t = 0.2)
movej(p[0.42959126496141, -0.087626723004217, 0.434257121127232, -1.16701264990772, 1.1480260392356, -1.34132440435517], a = 0.2, v = 0.2, t = 0.2)
movej(p[0.429347557963218, -0.0873783963257576, 0.434252168209125, -1.17406546532538, 1.14107701950475, -1.34547170033949], a = 0.2, v = 0.2, t = 0.2)
movej(p[0.429567260655363, -0.0872348297747667, 0.434298208047319, -1.17822847692129, 1.13666321591182, -1.3458663068598], a = 0.2, v = 0.2, t = 0.2)
movej(p[0.430140855220209, -0.0873414205164568, 0.434449059397546, -1.17608028870216, 1.1378477013821, -1.33855783382366], a = 0.2, v = 0.2, t = 0.2)
movej(p[0.431139856457202, -0.0873934882135564, 0.43453385665402, -1.17866310758355, 1.14206334108904, -1.33995371304622], a = 0.2, v = 0.2, t = 0.2)
movej(p[0.432181721407174, -0.0874075006976721, 0.434549422646067, -1.18031786764013, 1.15122018850062, -1.33223580583131], a = 0.2, v = 0.2, t = 0.2)
movej(p[0.432887316710114, -0.0875486379555217, 0.434617938189103, -1.18697622425592, 1.15839070427962, -1.32752629733773], a = 0.2, v = 0.2, t = 0.2)
movej(p[0.433131125786812, -0.0877438064447915, 0.434681812284931, -1.18669266967687, 1.16434283798631, -1.32447856005153], a = 0.2, v = 0.2, t = 0.2)
movej(p[0.433246131566253, -0.0878091959547369, 0.434616837761584, -1.18691219858726, 1.16761736977385, -1.32192667911245], a = 0.2, v = 0.2, t = 0.2)
movej(p[0.433184782819491, -0.0878761874667762, 0.434545400732772, -1.18560177389881, 1.1674694342983, -1.32203235569181], a = 0.2, v = 0.2, t = 0.2)
movej(p[0.432858879297929, -0.0879622337026271, 0.43447557623832, -1.18549550768676, 1.16681116868986, -1.32591377640809], a = 0.2, v = 0.2, t = 0.2)
movej(p[0.432254593561037, -0.0879065779765114, 0.434335122955358, -1.18885685200152, 1.16173538737601, -1.34677079765825], a = 0.2, v = 0.2, t = 0.2)
movej(p[0.431508477617678, -0.0877019447422614, 0.434147227828209, -1.19040154417536, 1.15694955438958, -1.35889314962479], a = 0.2, v = 0.2, t = 0.2)
movej(p[0.430707229125521, -0.0875530744221325, 0.434093311964007, -1.18183713390529, 1.15303173105086, -1.35155084472661], a = 0.2, v = 0.2, t = 0.2)
movej(p[0.429869583331949, -0.0874054101573706, 0.434122090090277, -1.17398590798548, 1.14776847915201, -1.35139433205884], a = 0.2, v = 0.2, t = 0.2)
movej(p[0.429468782148406, -0.0871753364261189, 0.434083572432534, -1.17141503246548, 1.14099205715257, -1.35154231175964], a = 0.2, v = 0.2, t = 0.2)
movej(p[0.42955545330754, -0.0869904111738158, 0.434079446873783, -1.17872634216923, 1.13395056296623, -1.35698584680859], a = 0.2, v = 0.2, t = 0.2)
movej(p[0.430197397960055, -0.0870959851022251, 0.434225652956923, -1.18248451822149, 1.13265055762664, -1.35171073545081], a = 0.2, v = 0.2, t = 0.2)
movej(p[0.431088292530368, -0.0871861960415117, 0.434337046854065, -1.18303024968889, 1.13590582226107, -1.35244485406052], a = 0.2, v = 0.2, t = 0.2)
movej(p[0.432114404917127, -0.0872058254876985, 0.43436400705031, -1.18329229992098, 1.14559366032955, -1.34633161273222], a = 0.2, v = 0.2, t = 0.2)
movej(p[0.432859215427722, -0.0872598244851625, 0.434337174577805, -1.18140242719532, 1.15488721131676, -1.33550863126608], a = 0.2, v = 0.2, t = 0.2)
movej(p[0.43312294987609, -0.087439341033393, 0.434397929977194, -1.1887470063612, 1.16127462259677, -1.33587636361457], a = 0.2, v = 0.2, t = 0.2)
movej(p[0.433215152157612, -0.0875651143715019, 0.434374841764355, -1.19021308591214, 1.16457127890609, -1.33497328601463], a = 0.2, v = 0.2, t = 0.2)
movej(p[0.433262469536263, -0.0875933035681303, 0.434298372880278, -1.19274392986144, 1.16489863669708, -1.33831812032877], a = 0.2, v = 0.2, t = 0.2)
movej(p[0.433147780485067, -0.0877577364748094, 0.434281356440561, -1.18626681466509, 1.16512285923845, -1.32878256346264], a = 0.2, v = 0.2, t = 0.2)
movej(p[0.43272013668699, -0.0878361532729701, 0.434199497889797, -1.18634210712064, 1.16219162632245, -1.34249886150716], a = 0.2, v = 0.2, t = 0.2)
movej(p[0.432051587533093, -0.087760446777521, 0.434039662901544, -1.18501247659265, 1.15919877290818, -1.35111211500137], a = 0.2, v = 0.2, t = 0.2)
movej(p[0.431170072374682, -0.0876466535147588, 0.433928687056887, -1.17909742144853, 1.1564158434293, -1.35198328218427], a = 0.2, v = 0.2, t = 0.2)
movej(p[0.43028102643108, -0.087591896612825, 0.433965192354519, -1.172046614723, 1.15176306273489, -1.34874441830817], a = 0.2, v = 0.2, t = 0.2)
movej(p[0.429597725970681, -0.087378378611324, 0.433972148885991, -1.1734512581694, 1.14370511899418, -1.35538201489475], a = 0.2, v = 0.2, t = 0.2)
movej(p[0.429291184490067, -0.0871441183051755, 0.433980591783975, -1.18407757587941, 1.13399158125768, -1.36310187967267], a = 0.2, v = 0.2, t = 0.2)
movej(p[0.429470791299464, -0.0870802446817, 0.434062648619416, -1.18904665462429, 1.1308780607393, -1.36104259209784], a = 0.2, v = 0.2, t = 0.2)
movej(p[0.430027063050739, -0.087190310774544, 0.434213976797027, -1.19075082064324, 1.13044764177473, -1.36258550342398], a = 0.2, v = 0.2, t = 0.2)
movej(p[0.431118680963513, -0.0872472967354961, 0.434295144887219, -1.19118225455447, 1.13868872469803, -1.35521193375381], a = 0.2, v = 0.2, t = 0.2)
movej(p[0.432144893411824, -0.0873539940091982, 0.434356860370823, -1.18971012981793, 1.14663793481762, -1.34470462231781], a = 0.2, v = 0.2, t = 0.2)
movej(p[0.432854482743671, -0.0875378709615851, 0.434456702787896, -1.19319971437057, 1.15580514634769, -1.33668495725234], a = 0.2, v = 0.2, t = 0.2)
movej(p[0.433104503530954, -0.0876685321633739, 0.434473907207633, -1.19886273879728, 1.15918720456928, -1.34371262607227], a = 0.2, v = 0.2, t = 0.2)
movej(p[0.433192802055552, -0.0877137677309681, 0.434423505505409, -1.2027173172662, 1.16180770146763, -1.34640737289163], a = 0.2, v = 0.2, t = 0.2)
movej(p[0.433217431844227, -0.0878284704085998, 0.434426207918212, -1.19499733502381, 1.16663608885294, -1.33304310444342], a = 0.2, v = 0.2, t = 0.2)
movej(p[0.433124636474961, -0.0879169498884412, 0.434429984873292, -1.18190680736382, 1.17010864365345, -1.32335568640232], a = 0.2, v = 0.2, t = 0.2)
movej(p[0.433121575490981, -0.0879126946988646, 0.434386711820028, -1.17002982022465, 1.17551762705156, -1.31106578654793], a = 0.2, v = 0.2, t = 0.2)
movej(p[0.432854512392847, -0.0879399057349464, 0.43429538555058, -1.17002981899527, 1.1746993493136, -1.31218664369424], a = 0.2, v = 0.2, t = 0.2)
movej(p[0.432331355969015, -0.0880431831142948, 0.434305012393214, -1.17361265353034, 1.17312098069785, -1.31660653795134], a = 0.2, v = 0.2, t = 0.2)
movej(p[0.431595064020519, -0.0880109988086524, 0.434229836564976, -1.17031719546719, 1.16855824339422, -1.32610542529331], a = 0.2, v = 0.2, t = 0.2)
movej(p[0.430914547053004, -0.0878303512428157, 0.434138023814874, -1.17066661097627, 1.16329817471456, -1.33442291045637], a = 0.2, v = 0.2, t = 0.2)
movej(p[0.430269888763969, -0.0877159814312949, 0.434077842704952, -1.16144267243753, 1.15957341754554, -1.32395145880448], a = 0.2, v = 0.2, t = 0.2)
movej(p[0.429685293647763, -0.0875831241442751, 0.434082408829901, -1.16549558126925, 1.15296641169107, -1.33315963600772], a = 0.2, v = 0.2, t = 0.2)
movej(p[0.429475647005582, -0.0873989668906425, 0.434078350098484, -1.1699735079426, 1.14690443713513, -1.33558486610139], a = 0.2, v = 0.2, t = 0.2)
movej(p[0.429709323100274, -0.0872625515365439, 0.434140812707585, -1.17861726580708, 1.14076646648802, -1.34348118407629], a = 0.2, v = 0.2, t = 0.2)
movej(p[0.430413971276757, -0.0873906148355908, 0.434323167921978, -1.18321263609959, 1.1397752005007, -1.34089977117993], a = 0.2, v = 0.2, t = 0.2)
movej(p[0.431271048076513, -0.0874882885157673, 0.43442265627411, -1.18490163557625, 1.14334890300045, -1.34479269378249], a = 0.2, v = 0.2, t = 0.2)
movej(p[0.432219011147551, -0.0875294574158293, 0.43445082937723, -1.19064662021922, 1.15163138648442, -1.34289389077086], a = 0.2, v = 0.2, t = 0.2)
movej(p[0.432809552373531, -0.0876273147774429, 0.434485176015721, -1.18916119335872, 1.16083133294847, -1.32909426729877], a = 0.2, v = 0.2, t = 0.2)
movej(p[0.433062955169206, -0.0878324660792229, 0.434603073177635, -1.19183783597945, 1.16548944315247, -1.32564006941074], a = 0.2, v = 0.2, t = 0.2)
movej(p[0.433188725788071, -0.0878914256205049, 0.434559469502076, -1.18099829230431, 1.17138055439414, -1.31118064499225], a = 0.2, v = 0.2, t = 0.2)
movej(p[0.433253872192419, -0.0879401574516901, 0.434516249441574, -1.18508232977384, 1.17120818703468, -1.31592548714339], a = 0.2, v = 0.2, t = 0.2)
movej(p[0.433219234563177, -0.0880396230476207, 0.434485117489072, -1.17507172209671, 1.17486264228945, -1.30631640676954], a = 0.2, v = 0.2, t = 0.2)
movej(p[0.43306416104351, -0.0880980283558979, 0.434426162136786, -1.18443126914099, 1.17083616471011, -1.32842567227718], a = 0.2, v = 0.2, t = 0.2)
movej(p[0.432717867712599, -0.0881918817698392, 0.434292328836526, -1.18464864228632, 1.16965165033809, -1.33101533281841], a = 0.2, v = 0.2, t = 0.2)
movej(p[0.432100776931873, -0.0880915907671724, 0.434201109875084, -1.18572843069451, 1.16611485562188, -1.33636200347941], a = 0.2, v = 0.2, t = 0.2)
movej(p[0.431246245311629, -0.0881451171042912, 0.434232614640406, -1.1757756340808, 1.1641780614287, -1.33318745026693], a = 0.2, v = 0.2, t = 0.2)
movej(p[0.43062166166196, -0.087932844358271, 0.434150011604368, -1.16784844453556, 1.1612194311392, -1.33357081153268], a = 0.2, v = 0.2, t = 0.2)
movej(p[0.43008823457987, -0.0876656435443877, 0.434070832973073, -1.1662961371288, 1.15593444162598, -1.33478314778668], a = 0.2, v = 0.2, t = 0.2)
movej(p[0.429677012327428, -0.087543147248584, 0.434072762492752, -1.17280066157501, 1.14771177599864, -1.33764171371564], a = 0.2, v = 0.2, t = 0.2)
movej(p[0.42952665519139, -0.0875123561232422, 0.434198138925221, -1.1774461209031, 1.14199538447359, -1.34564138239058], a = 0.2, v = 0.2, t = 0.2)
movej(p[0.429969650685589, -0.0874441877573201, 0.434308598159522, -1.18408601165875, 1.13938880251068, -1.3485078369729], a = 0.2, v = 0.2, t = 0.2)
movej(p[0.430859893305053, -0.0874861885216226, 0.434428960782832, -1.17842988784651, 1.14416473862524, -1.33313782238181], a = 0.2, v = 0.2, t = 0.2)
movej(p[0.431779670515148, -0.0875716510051664, 0.434543310526398, -1.17607169071635, 1.15129213046598, -1.32318195797959], a = 0.2, v = 0.2, t = 0.2)
