def moving():
set_payload_mass(0)
set_tcp(p[0,0,0,0,0,0])
movej(p[0.455938059105967, 0.0618113999044438, 0.416698441128547, -1.192, 0.952, -1.048], a = 0.2, v = 0.2, t = 0.100000000000023)
movej(p[0.455937567596179, 0.0618079885277987, 0.416689139854789, -1.192, 0.952, -1.048], a = 0.2, v = 0.2, t = 0.100000000000023)
movej(p[0.455935407695165, 0.0618106739115466, 0.416675339266369, -1.192, 0.952, -1.048], a = 0.2, v = 0.2, t = 0.100000000000023)
movej(p[0.455930526120892, 0.061818134152706, 0.41666035626839, -1.192, 0.952, -1.048], a = 0.2, v = 0.2, t = 0.100000000000023)
movej(p[0.455923478572447, 0.0618268917648482, 0.416646353089484, -1.192, 0.952, -1.048], a = 0.2, v = 0.2, t = 0.100000000000023)
movej(p[0.455915423823929, 0.0618344515361971, 0.416634651588107, -1.192, 0.952, -1.048], a = 0.2, v = 0.2, t = 0.100000000000023)
movej(p[0.455907360161036, 0.0618397474642274, 0.416624991108769, -1.192, 0.952, -1.048], a = 0.2, v = 0.2, t = 0.100000000000023)
movej(p[0.455896597496584, 0.0618425410675727, 0.41662010293168, -1.192, 0.952, -1.048], a = 0.2, v = 0.2, t = 0.100000000000023)
movej(p[0.455882413047876, 0.0618421824611706, 0.416618793395006, -1.192, 0.952, -1.048], a = 0.2, v = 0.2, t = 0.100000000000023)
movej(p[0.455866484874944, 0.0618386278615916, 0.416618776222616, -1.192, 0.952, -1.048], a = 0.2, v = 0.2, t = 0.100000000000023)
movej(p[0.455852215004375, 0.0618353671007392, 0.416615693849894, -1.192, 0.952, -1.048], a = 0.2, v = 0.2, t = 0.100000000000023)
movej(p[0.455841014324411, 0.0618344676667036, 0.416607978748095, -1.192, 0.952, -1.048], a = 0.2, v = 0.2, t = 0.100000000000023)
movej(p[0.455831235628044, 0.0618347188327972, 0.41659767272156, -1.192, 0.952, -1.048], a = 0.2, v = 0.2, t = 0.100000000000023)
movej(p[0.455821708436271, 0.06183428018072, 0.41658801492749, -1.192, 0.952, -1.048], a = 0.2, v = 0.2, t = 0.100000000000023)
movej(p[0.455812687416245, 0.0618323985117498, 0.416582427861662, -1.192, 0.952, -1.048], a = 0.2, v = 0.2, t = 0.100000000000023)
movej(p[0.455805205969281, 0.0618286096973017, 0.416582378088214, -1.192, 0.952, -1.048], a = 0.2, v = 0.2, t = 0.100000000000023)
movej(p[0.455799188096373, 0.0618235817590998, 0.416585606373843, -1.192, 0.952, -1.048], a = 0.2, v = 0.2, t = 0.100000000000023)
movej(p[0.45579414713023, 0.0618187420234593, 0.416588773186164, -1.192, 0.952, -1.048], a = 0.2, v = 0.2, t = 0.100000000000023)
movej(p[0.455788994531949, 0.0618160182118638, 0.416590021411843, -1.192, 0.952, -1.048], a = 0.2, v = 0.2, t = 0.100000000000023)
movej(p[0.45578317195773, 0.0618150029889193, 0.41658964907618, -1.192, 0.952, -1.048], a = 0.2, v = 0.2, t = 0.100000000000023)
movej(p[0.455777495155232, 0.0618139458612399, 0.416588632880595, -1.192, 0.952, -1.048], a = 0.2, v = 0.2, t = 0.100000000000023)
movej(p[0.455772713133693, 0.0618120341677049, 0.41658601700028, -1.192, 0.952, -1.048], a = 0.2, v = 0.2, t = 0.100000000000023)
movej(p[0.455766867139848, 0.0618082220934451, 0.416580022055592, -1.192, 0.952, -1.048], a = 0.2, v = 0.2, t = 0.100000000000023)
movej(p[0.455759318417112, 0.0618039599336174, 0.41656880839657, -1.192, 0.952, -1.048], a = 0.2, v = 0.2, t = 0.100000000000023)
movej(p[0.455751704196662, 0.0618020989969898, 0.416555391605643, -1.192, 0.952, -1.048], a = 0.2, v = 0.2, t = 0.100000000000023)
movej(p[0.455746157393483, 0.0618027961230652, 0.416544693862716, -1.192, 0.952, -1.048], a = 0.2, v = 0.2, t = 0.100000000000023)
movej(p[0.455742911475574, 0.0618042385706992, 0.416537686336279, -1.192, 0.952, -1.048], a = 0.2, v = 0.2, t = 0.100000000000023)
movej(p[0.45574264502282, 0.0618046469224951, 0.416533033834937, -1.192, 0.952, -1.048], a = 0.2, v = 0.2, t = 0.100000000000023)
movej(p[0.455746069684078, 0.0618054068991961, 0.416531258565471, -1.192, 0.952, -1.048], a = 0.2, v = 0.2, t = 0.100000000000023)
movej(p[0.455753280712591, 0.0618072026969205, 0.416530437188989, -1.192, 0.952, -1.048], a = 0.2, v = 0.2, t = 0.100000000000023)
movej(p[0.455763180649945, 0.0618090339700442, 0.416527647019797, -1.192, 0.952, -1.048], a = 0.2, v = 0.2, t = 0.100000000000023)
movej(p[0.455772717954373, 0.0618099047691539, 0.416519419429982, -1.192, 0.952, -1.048], a = 0.2, v = 0.2, t = 0.100000000000023)
movej(p[0.455779791619753, 0.0618100601629087, 0.416509472007961, -1.192, 0.952, -1.048], a = 0.2, v = 0.2, t = 0.100000000000023)
movej(p[0.455785253849675, 0.0618109816225352, 0.416502552133436, -1.192, 0.952, -1.048], a = 0.2, v = 0.2, t = 0.100000000000023)
movej(p[0.45579153512227, 0.0618123781650452, 0.416501896980322, -1.192, 0.952, -1.048], a = 0.2, v = 0.2, t = 0.100000000000023)
movej(p[0.45580054052659, 0.0618147067019312, 0.416506095664641, -1.192, 0.952, -1.048], a = 0.2, v = 0.2, t = 0.100000000000023)
movej(p[0.455812076176822, 0.0618174262755382, 0.416512482720936, -1.192, 0.952, -1.048], a = 0.2, v = 0.2, t = 0.100000000000023)
movej(p[0.455824799605605, 0.061819018255289, 0.41652098238278, -1.192, 0.952, -1.048], a = 0.2, v = 0.2, t = 0.100000000000023)
movej(p[0.455837642914132, 0.0618188710820679, 0.416527893164583, -1.192, 0.952, -1.048], a = 0.2, v = 0.2, t = 0.100000000000023)
movej(p[0.455849258219634, 0.0618166890572114, 0.416529676489181, -1.192, 0.952, -1.048], a = 0.2, v = 0.2, t = 0.100000000000023)
movej(p[0.4558583434451, 0.0618134072539056, 0.416523777968663, -1.192, 0.952, -1.048], a = 0.2, v = 0.2, t = 0.100000000000023)
movej(p[0.455865281950598, 0.0618105099697232, 0.416515624570671, -1.192, 0.952, -1.048], a = 0.2, v = 0.2, t = 0.100000000000023)
movej(p[0.455871559569288, 0.0618099002272514, 0.416509953329916, -1.192, 0.952, -1.048], a = 0.2, v = 0.2, t = 0.100000000000023)
movej(p[0.455878986175744, 0.0618119859199229, 0.416504047673931, -1.192, 0.952, -1.048], a = 0.2, v = 0.2, t = 0.100000000000023)
movej(p[0.455887110542823, 0.0618147956147619, 0.416495698406688, -1.192, 0.952, -1.048], a = 0.2, v = 0.2, t = 0.100000000000023)
movej(p[0.455895528785051, 0.0618164200425221, 0.416485324298378, -1.192, 0.952, -1.048], a = 0.2, v = 0.2, t = 0.100000000000023)
movej(p[0.455903964329018, 0.0618183115632368, 0.41647661614505, -1.192, 0.952, -1.048], a = 0.2, v = 0.2, t = 0.100000000000023)
movej(p[0.455913151519227, 0.0618212589314924, 0.416471343881548, -1.192, 0.952, -1.048], a = 0.2, v = 0.2, t = 0.100000000000023)
movej(p[0.45592227056721, 0.0618245832657751, 0.416468504061931, -1.192, 0.952, -1.048], a = 0.2, v = 0.2, t = 0.100000000000023)
movej(p[0.455930898411106, 0.0618260217677817, 0.416467580764208, -1.192, 0.952, -1.048], a = 0.2, v = 0.2, t = 0.100000000000023)
movej(p[0.455938356313682, 0.0618246492594477, 0.416466422894165, -1.192, 0.952, -1.048], a = 0.2, v = 0.2, t = 0.100000000000023)
movej(p[0.455943396414436, 0.0618207191142964, 0.416464760044659, -1.192, 0.952, -1.048], a = 0.2, v = 0.2, t = 0.100000000000023)
movej(p[0.455945832997746, 0.0618142451203132, 0.416464728363765, -1.192, 0.952, -1.048], a = 0.2, v = 0.2, t = 0.100000000000023)
movej(p[0.455944253295519, 0.0618063597520372, 0.416468834140917, -1.192, 0.952, -1.048], a = 0.2, v = 0.2, t = 0.100000000000023)
movej(p[0.455938513559335, 0.0617984403474739, 0.416477171282508, -1.192, 0.952, -1.048], a = 0.2, v = 0.2, t = 0.100000000000023)
movej(p[0.455930376489565, 0.0617940431421015, 0.416487181060801, -1.192, 0.952, -1.048], a = 0.2, v = 0.2, t = 0.100000000000023)
movej(p[0.455922082583949, 0.0617935696289496, 0.416494974884248, -1.192, 0.952, -1.048], a = 0.2, v = 0.2, t = 0.100000000000023)
movej(p[0.455913784404503, 0.0617948356220418, 0.416498569883603, -1.192, 0.952, -1.048], a = 0.2, v = 0.2, t = 0.100000000000023)
movej(p[0.455903992991943, 0.0617957576482652, 0.41649775662858, -1.192, 0.952, -1.048], a = 0.2, v = 0.2, t = 0.100000000000023)
movej(p[0.455891676537203, 0.0617963934997538, 0.416493227881126, -1.192, 0.952, -1.048], a = 0.2, v = 0.2, t = 0.100000000000023)
movej(p[0.455878042275188, 0.0617978703567529, 0.416486455957638, -1.192, 0.952, -1.048], a = 0.2, v = 0.2, t = 0.100000000000023)
movej(p[0.455864142368407, 0.0618005333917526, 0.416480020677297, -1.192, 0.952, -1.048], a = 0.2, v = 0.2, t = 0.100000000000023)
movej(p[0.455850135732585, 0.0618035790737515, 0.416476285997109, -1.192, 0.952, -1.048], a = 0.2, v = 0.2, t = 0.100000000000023)
movej(p[0.455835898715486, 0.0618053023234378, 0.416473469777723, -1.192, 0.952, -1.048], a = 0.2, v = 0.2, t = 0.100000000000023)
movej(p[0.455822204292322, 0.061804845093262, 0.416468397714063, -1.192, 0.952, -1.048], a = 0.2, v = 0.2, t = 0.100000000000023)
movej(p[0.455811123186831, 0.0618028220128048, 0.416459568860199, -1.192, 0.952, -1.048], a = 0.2, v = 0.2, t = 0.100000000000023)
movej(p[0.455803309111498, 0.061800741975452, 0.41644889888905, -1.192, 0.952, -1.048], a = 0.2, v = 0.2, t = 0.100000000000023)
movej(p[0.45579901391217, 0.0617999575102079, 0.416438667494668, -1.192, 0.952, -1.048], a = 0.2, v = 0.2, t = 0.100000000000023)
movej(p[0.455798607347792, 0.0618006012682019, 0.416430720832787, -1.192, 0.952, -1.048], a = 0.2, v = 0.2, t = 0.100000000000023)
movej(p[0.455801839881972, 0.0618025210683382, 0.416425925333729, -1.192, 0.952, -1.048], a = 0.2, v = 0.2, t = 0.100000000000023)
movej(p[0.455807706611602, 0.0618048919596518, 0.416424781092136, -1.192, 0.952, -1.048], a = 0.2, v = 0.2, t = 0.100000000000023)
movej(p[0.455814924853498, 0.0618074899638593, 0.416426629591817, -1.192, 0.952, -1.048], a = 0.2, v = 0.2, t = 0.100000000000023)
movej(p[0.455823187752233, 0.0618106787709336, 0.416429172554644, -1.192, 0.952, -1.048], a = 0.2, v = 0.2, t = 0.100000000000023)
movej(p[0.45583334687389, 0.0618152632587549, 0.416431203485361, -1.192, 0.952, -1.048], a = 0.2, v = 0.2, t = 0.100000000000023)
movej(p[0.455845419581459, 0.0618212555653436, 0.416434199959073, -1.192, 0.952, -1.048], a = 0.2, v = 0.2, t = 0.100000000000023)
movej(p[0.455858427419513, 0.0618278869481137, 0.416440752139833, -1.192, 0.952, -1.048], a = 0.2, v = 0.2, t = 0.100000000000023)
movej(p[0.455871110972468, 0.0618354082188522, 0.416450331665235, -1.192, 0.952, -1.048], a = 0.2, v = 0.2, t = 0.100000000000023)
movej(p[0.455882508910698, 0.0618435733140373, 0.416460918012797, -1.192, 0.952, -1.048], a = 0.2, v = 0.2, t = 0.100000000000023)
movej(p[0.45589219191449, 0.0618514697173692, 0.416471048527541, -1.192, 0.952, -1.048], a = 0.2, v = 0.2, t = 0.100000000000023)
movej(p[0.45590021110176, 0.0618595142749657, 0.416478569981363, -1.192, 0.952, -1.048], a = 0.2, v = 0.2, t = 0.100000000000023)
movej(p[0.455906447229467, 0.0618678646979076, 0.416481137800461, -1.192, 0.952, -1.048], a = 0.2, v = 0.2, t = 0.100000000000023)
movej(p[0.455910745475733, 0.0618765408894543, 0.416479291427182, -1.192, 0.952, -1.048], a = 0.2, v = 0.2, t = 0.100000000000023)
movej(p[0.45591350103358, 0.0618845712211172, 0.41647512971992, -1.192, 0.952, -1.048], a = 0.2, v = 0.2, t = 0.100000000000023)
movej(p[0.45591337669162, 0.061888119298772, 0.416475492622156, -1.192, 0.952, -1.048], a = 0.2, v = 0.2, t = 0.100000000000023)
movej(p[0.455910316298042, 0.0618861998936678, 0.416480917885025, -1.192, 0.952, -1.048], a = 0.2, v = 0.2, t = 0.100000000000023)
movej(p[0.455905970084191, 0.0618809146100823, 0.416487052244697, -1.192, 0.952, -1.048], a = 0.2, v = 0.2, t = 0.100000000000023)
movej(p[0.455902979749163, 0.0618723803200267, 0.416487089240137, -1.192, 0.952, -1.048], a = 0.2, v = 0.2, t = 0.100000000000023)
movej(p[0.455902180088642, 0.0618614910913132, 0.416481260165332, -1.192, 0.952, -1.048], a = 0.2, v = 0.2, t = 0.100000000000023)
movej(p[0.455903925025391, 0.061850780530775, 0.41647432861358, -1.192, 0.952, -1.048], a = 0.2, v = 0.2, t = 0.100000000000023)
movej(p[0.455908883747299, 0.0618452316667654, 0.416468603877844, -1.192, 0.952, -1.048], a = 0.2, v = 0.2, t = 0.100000000000023)
movej(p[0.455916604622278, 0.0618457604639194, 0.41646484639303, -1.192, 0.952, -1.048], a = 0.2, v = 0.2, t = 0.100000000000023)
movej(p[0.455924618559628, 0.0618496020271954, 0.41646287828131, -1.192, 0.952, -1.048], a = 0.2, v = 0.2, t = 0.100000000000023)
movej(p[0.455929970149512, 0.0618537777273625, 0.416462300483045, -1.192, 0.952, -1.048], a = 0.2, v = 0.2, t = 0.100000000000023)
movej(p[0.455932065514435, 0.0618570232003251, 0.41646122080296, -1.192, 0.952, -1.048], a = 0.2, v = 0.2, t = 0.100000000000023)
movej(p[0.455931036079442, 0.0618588053228013, 0.416459320531118, -1.192, 0.952, -1.048], a = 0.2, v = 0.2, t = 0.100000000000023)
movej(p[0.455927741093186, 0.0618601996733897, 0.416456888597318, -1.192, 0.952, -1.048], a = 0.2, v = 0.2, t = 0.100000000000023)
movej(p[0.455922915083086, 0.0618616475600026, 0.416455211154661, -1.192, 0.952, -1.048], a = 0.2, v = 0.2, t = 0.100000000000023)
movej(p[0.455917697832914, 0.0618630085119765, 0.416455302326878, -1.192, 0.952, -1.048], a = 0.2, v = 0.2, t = 0.100000000000023)
movej(p[0.45591343330447, 0.0618654025432144, 0.416457336528829, -1.192, 0.952, -1.048], a = 0.2, v = 0.2, t = 0.100000000000023)
movej(p[0.4559103624281, 0.0618695233514871, 0.416460834091909, -1.192, 0.952, -1.048], a = 0.2, v = 0.2, t = 0.100000000000023)
movej(p[0.455906743835284, 0.0618747323356356, 0.416464404606742, -1.192, 0.952, -1.048], a = 0.2, v = 0.2, t = 0.100000000000023)
movej(p[0.455900761924148, 0.0618796234527175, 0.416466461764697, -1.192, 0.952, -1.048], a = 0.2, v = 0.2, t = 0.100000000000023)
movej(p[0.455892574528763, 0.0618832636436638, 0.416466043555804, -1.192, 0.952, -1.048], a = 0.2, v = 0.2, t = 0.100000000000023)
movej(p[0.455883489451514, 0.0618849155668363, 0.41646217945174, -1.192, 0.952, -1.048], a = 0.2, v = 0.2, t = 0.100000000000023)
movej(p[0.455875124274902, 0.0618843733943128, 0.416453705320327, -1.192, 0.952, -1.048], a = 0.2, v = 0.2, t = 0.100000000000023)
movej(p[0.455867858822211, 0.0618824502180484, 0.416439992285788, -1.192, 0.952, -1.048], a = 0.2, v = 0.2, t = 0.100000000000023)
movej(p[0.455860984934087, 0.061880053864655, 0.416422457249733, -1.192, 0.952, -1.048], a = 0.2, v = 0.2, t = 0.100000000000023)
movej(p[0.455852867994294, 0.0618767646693669, 0.41640529708019, -1.192, 0.952, -1.048], a = 0.2, v = 0.2, t = 0.100000000000023)
movej(p[0.455842556762247, 0.0618726716020936, 0.416392538191407, -1.192, 0.952, -1.048], a = 0.2, v = 0.2, t = 0.100000000000023)
movej(p[0.455830790485142, 0.0618685399142193, 0.416384009645083, -1.192, 0.952, -1.048], a = 0.2, v = 0.2, t = 0.100000000000023)
movej(p[0.455818644881097, 0.0618644033084333, 0.416377966850535, -1.192, 0.952, -1.048], a = 0.2, v = 0.2, t = 0.100000000000023)
movej(p[0.455806521786789, 0.0618616269387047, 0.41637248946927, -1.192, 0.952, -1.048], a = 0.2, v = 0.2, t = 0.100000000000023)
movej(p[0.45579448342125, 0.0618610908465014, 0.416367221724942, -1.192, 0.952, -1.048], a = 0.2, v = 0.2, t = 0.100000000000023)
movej(p[0.455783845805378, 0.0618622555727876, 0.416362014856186, -1.192, 0.952, -1.048], a = 0.2, v = 0.2, t = 0.100000000000023)
movej(p[0.455775305586374, 0.061861935034858, 0.416357087013576, -1.192, 0.952, -1.048], a = 0.2, v = 0.2, t = 0.100000000000023)
movej(p[0.455769555679597, 0.0618582190190358, 0.416351972801567, -1.192, 0.952, -1.048], a = 0.2, v = 0.2, t = 0.100000000000023)
movej(p[0.455767943003149, 0.0618532511082633, 0.416346983041329, -1.192, 0.952, -1.048], a = 0.2, v = 0.2, t = 0.100000000000023)
movej(p[0.455770239046836, 0.0618490965262165, 0.416343297630849, -1.192, 0.952, -1.048], a = 0.2, v = 0.2, t = 0.100000000000023)
movej(p[0.455775560447038, 0.0618463713314038, 0.416342049678079, -1.192, 0.952, -1.048], a = 0.2, v = 0.2, t = 0.100000000000023)
movej(p[0.455783457543629, 0.0618440950707128, 0.416344254911558, -1.192, 0.952, -1.048], a = 0.2, v = 0.2, t = 0.100000000000023)
movej(p[0.455793744969643, 0.061841169407611, 0.41634874259564, -1.192, 0.952, -1.048], a = 0.2, v = 0.2, t = 0.100000000000023)
movej(p[0.455806360920109, 0.0618380743744034, 0.416354479072196, -1.192, 0.952, -1.048], a = 0.2, v = 0.2, t = 0.100000000000023)
movej(p[0.45581980111269, 0.0618346941027254, 0.416361234545294, -1.192, 0.952, -1.048], a = 0.2, v = 0.2, t = 0.100000000000023)
movej(p[0.455832737758044, 0.0618316239766587, 0.41636839368148, -1.192, 0.952, -1.048], a = 0.2, v = 0.2, t = 0.100000000000023)
movej(p[0.455845739829224, 0.0618284635985285, 0.416376655463133, -1.192, 0.952, -1.048], a = 0.2, v = 0.2, t = 0.100000000000023)
movej(p[0.455859152423376, 0.0618242603756796, 0.41638517146277, -1.192, 0.952, -1.048], a = 0.2, v = 0.2, t = 0.100000000000023)
movej(p[0.455872963287088, 0.0618199041153272, 0.416391012564488, -1.192, 0.952, -1.048], a = 0.2, v = 0.2, t = 0.100000000000023)
movej(p[0.455885753763389, 0.0618161364670397, 0.416394414281166, -1.192, 0.952, -1.048], a = 0.2, v = 0.2, t = 0.100000000000023)
movej(p[0.455896969311189, 0.0618120203092352, 0.416398905613983, -1.192, 0.952, -1.048], a = 0.2, v = 0.2, t = 0.100000000000023)
movej(p[0.455906755524207, 0.0618078990084267, 0.416410645495389, -1.192, 0.952, -1.048], a = 0.2, v = 0.2, t = 0.100000000000023)
movej(p[0.45591662972112, 0.0618050734059302, 0.416430778479839, -1.192, 0.952, -1.048], a = 0.2, v = 0.2, t = 0.100000000000023)
movej(p[0.455925966393134, 0.0618050896445254, 0.416453954802455, -1.192, 0.952, -1.048], a = 0.2, v = 0.2, t = 0.100000000000023)
movej(p[0.45593353888329, 0.061807012744752, 0.416474864939048, -1.192, 0.952, -1.048], a = 0.2, v = 0.2, t = 0.100000000000023)
movej(p[0.455938892246104, 0.0618083713490455, 0.416492286747076, -1.192, 0.952, -1.048], a = 0.2, v = 0.2, t = 0.100000000000023)
movej(p[0.455942164545942, 0.0618086192266941, 0.416506329493369, -1.192, 0.952, -1.048], a = 0.2, v = 0.2, t = 0.100000000000023)
movej(p[0.455943348954696, 0.0618077076730134, 0.416518149098006, -1.192, 0.952, -1.048], a = 0.2, v = 0.2, t = 0.100000000000023)
movej(p[0.455941757769462, 0.0618060624133322, 0.416529279462112, -1.192, 0.952, -1.048], a = 0.2, v = 0.2, t = 0.100000000000023)
movej(p[0.455937029274451, 0.0618038359005786, 0.41653864807844, -1.192, 0.952, -1.048], a = 0.2, v = 0.2, t = 0.100000000000023)
movej(p[0.455930117715514, 0.0618001455955414, 0.416544450864563, -1.192, 0.952, -1.048], a = 0.2, v = 0.2, t = 0.100000000000023)
movej(p[0.455922427604113, 0.0617952130493811, 0.416545447334836, -1.192, 0.952, -1.048], a = 0.2, v = 0.2, t = 0.100000000000023)
movej(p[0.455914788486786, 0.0617905527218972, 0.416542656514311, -1.192, 0.952, -1.048], a = 0.2, v = 0.2, t = 0.100000000000023)
movej(p[0.455907655709527, 0.0617873279363246, 0.416537300364146, -1.192, 0.952, -1.048], a = 0.2, v = 0.2, t = 0.100000000000023)
movej(p[0.455901844718652, 0.0617843413204918, 0.416529629733277, -1.192, 0.952, -1.048], a = 0.2, v = 0.2, t = 0.100000000000023)
movej(p[0.455896500774943, 0.06178074964831, 0.416518747844904, -1.192, 0.952, -1.048], a = 0.2, v = 0.2, t = 0.100000000000023)
movej(p[0.455890684191935, 0.0617768727330559, 0.416504202073552, -1.192, 0.952, -1.048], a = 0.2, v = 0.2, t = 0.100000000000023)
movej(p[0.455883850754064, 0.0617728363678768, 0.416487642415433, -1.192, 0.952, -1.048], a = 0.2, v = 0.2, t = 0.100000000000023)
movej(p[0.455877091095925, 0.0617688436137515, 0.416469956929341, -1.192, 0.952, -1.048], a = 0.2, v = 0.2, t = 0.100000000000023)
movej(p[0.455872189831441, 0.0617647237150136, 0.41645231457406, -1.192, 0.952, -1.048], a = 0.2, v = 0.2, t = 0.100000000000023)
movej(p[0.455869986259153, 0.061760026182426, 0.41643561694729, -1.192, 0.952, -1.048], a = 0.2, v = 0.2, t = 0.100000000000023)
movej(p[0.455870382090598, 0.0617548379928142, 0.416421804478212, -1.192, 0.952, -1.048], a = 0.2, v = 0.2, t = 0.100000000000023)
movej(p[0.455874247283267, 0.0617504153925306, 0.416411858912247, -1.192, 0.952, -1.048], a = 0.2, v = 0.2, t = 0.100000000000023)
movej(p[0.455882579865886, 0.0617480416862293, 0.416405003867514, -1.192, 0.952, -1.048], a = 0.2, v = 0.2, t = 0.100000000000023)
movej(p[0.455895258377619, 0.0617478886039551, 0.416398959966453, -1.192, 0.952, -1.048], a = 0.2, v = 0.2, t = 0.100000000000023)
movej(p[0.455910515013971, 0.0617507179627351, 0.416392443476975, -1.192, 0.952, -1.048], a = 0.2, v = 0.2, t = 0.100000000000023)
movej(p[0.455927167052828, 0.0617568793085257, 0.416386205281245, -1.192, 0.952, -1.048], a = 0.2, v = 0.2, t = 0.100000000000023)
movej(p[0.455944932634734, 0.0617614419005715, 0.416383251668646, -1.192, 0.952, -1.048], a = 0.2, v = 0.2, t = 0.100000000000023)
movej(p[0.455963339593678, 0.0617608108337731, 0.416385794387488, -1.192, 0.952, -1.048], a = 0.2, v = 0.2, t = 0.100000000000023)
movej(p[0.455982084650688, 0.0617562433915081, 0.416392255088831, -1.192, 0.952, -1.048], a = 0.2, v = 0.2, t = 0.100000000000023)
movej(p[0.45599975082581, 0.0617521131837239, 0.416399968311583, -1.192, 0.952, -1.048], a = 0.2, v = 0.2, t = 0.100000000000023)
movej(p[0.456015153396764, 0.0617507865264865, 0.416407753454458, -1.192, 0.952, -1.048], a = 0.2, v = 0.2, t = 0.100000000000023)
movej(p[0.456027693765079, 0.0617529983618852, 0.416414495595936, -1.192, 0.952, -1.048], a = 0.2, v = 0.2, t = 0.100000000000023)
movej(p[0.456038134175254, 0.0617601963299768, 0.416419017092782, -1.192, 0.952, -1.048], a = 0.2, v = 0.2, t = 0.100000000000023)
movej(p[0.456046741094742, 0.061771336372944, 0.416419830429494, -1.192, 0.952, -1.048], a = 0.2, v = 0.2, t = 0.100000000000023)
movej(p[0.45605199844569, 0.0617837296542019, 0.416416987178948, -1.192, 0.952, -1.048], a = 0.2, v = 0.2, t = 0.100000000000023)
movej(p[0.456052245084047, 0.0617953660203702, 0.416411889480161, -1.192, 0.952, -1.048], a = 0.2, v = 0.2, t = 0.100000000000023)
movej(p[0.456047659281906, 0.0618060894491083, 0.41640588794229, -1.192, 0.952, -1.048], a = 0.2, v = 0.2, t = 0.100000000000023)
movej(p[0.456038924400683, 0.0618155454910987, 0.416398175257549, -1.192, 0.952, -1.048], a = 0.2, v = 0.2, t = 0.100000000000023)
movej(p[0.456027853116104, 0.0618222723384944, 0.416387273015125, -1.192, 0.952, -1.048], a = 0.2, v = 0.2, t = 0.100000000000023)
movej(p[0.456015470890755, 0.0618253393253518, 0.416373405664079, -1.192, 0.952, -1.048], a = 0.2, v = 0.2, t = 0.100000000000023)
movej(p[0.456000388698022, 0.0618240341175686, 0.416359043893018, -1.192, 0.952, -1.048], a = 0.2, v = 0.2, t = 0.100000000000023)
movej(p[0.455981472900899, 0.0618206283267881, 0.416346072966823, -1.192, 0.952, -1.048], a = 0.2, v = 0.2, t = 0.100000000000023)
movej(p[0.455960493243789, 0.0618175353080819, 0.416335951223948, -1.192, 0.952, -1.048], a = 0.2, v = 0.2, t = 0.100000000000023)
movej(p[0.455940903070353, 0.0618165441141084, 0.416328258580888, -1.192, 0.952, -1.048], a = 0.2, v = 0.2, t = 0.100000000000023)
movej(p[0.455924520154234, 0.0618161298865203, 0.416322703400878, -1.192, 0.952, -1.048], a = 0.2, v = 0.2, t = 0.100000000000023)
movej(p[0.455910238857934, 0.0618144511112955, 0.416320982316122, -1.192, 0.952, -1.048], a = 0.2, v = 0.2, t = 0.100000000000023)
movej(p[0.45589671640876, 0.0618119174601793, 0.416322888579054, -1.192, 0.952, -1.048], a = 0.2, v = 0.2, t = 0.100000000000023)
movej(p[0.455884469823869, 0.0618096746043045, 0.416327831718747, -1.192, 0.952, -1.048], a = 0.2, v = 0.2, t = 0.100000000000023)
movej(p[0.455875272713346, 0.0618089396201413, 0.416333868576399, -1.192, 0.952, -1.048], a = 0.2, v = 0.2, t = 0.100000000000023)
movej(p[0.455869222295238, 0.0618094504539571, 0.416341138168171, -1.192, 0.952, -1.048], a = 0.2, v = 0.2, t = 0.100000000000023)
movej(p[0.455866521890334, 0.0618110975263549, 0.416349828190661, -1.192, 0.952, -1.048], a = 0.2, v = 0.2, t = 0.100000000000023)
movej(p[0.455866950097203, 0.061813127365532, 0.416357950091718, -1.192, 0.952, -1.048], a = 0.2, v = 0.2, t = 0.100000000000023)
movej(p[0.45586977139929, 0.0618159198874603, 0.416365797642089, -1.192, 0.952, -1.048], a = 0.2, v = 0.2, t = 0.100000000000023)
movej(p[0.455875515005815, 0.0618199785859424, 0.416373683853899, -1.192, 0.952, -1.048], a = 0.2, v = 0.2, t = 0.100000000000023)
movej(p[0.455883283079232, 0.0618249651772981, 0.416381190132007, -1.192, 0.952, -1.048], a = 0.2, v = 0.2, t = 0.100000000000023)
movej(p[0.455892703792196, 0.0618301398517908, 0.416387426712411, -1.192, 0.952, -1.048], a = 0.2, v = 0.2, t = 0.100000000000023)
movej(p[0.455902057379188, 0.0618363374719369, 0.416391612844744, -1.192, 0.952, -1.048], a = 0.2, v = 0.2, t = 0.100000000000023)
movej(p[0.455909004484901, 0.0618446885651227, 0.416393739893125, -1.192, 0.952, -1.048], a = 0.2, v = 0.2, t = 0.100000000000023)
movej(p[0.455914208677472, 0.0618547123364412, 0.416393664565596, -1.192, 0.952, -1.048], a = 0.2, v = 0.2, t = 0.100000000000023)
movej(p[0.455916964655099, 0.0618605060066223, 0.416396257459376, -1.192, 0.952, -1.048], a = 0.2, v = 0.2, t = 0.100000000000023)
movej(p[0.455918167142893, 0.0618596392217464, 0.416403964809899, -1.192, 0.952, -1.048], a = 0.2, v = 0.2, t = 0.100000000000023)
movej(p[0.455919741409916, 0.0618541240827627, 0.416415452280697, -1.192, 0.952, -1.048], a = 0.2, v = 0.2, t = 0.100000000000023)
movej(p[0.455923470804172, 0.0618477040385146, 0.416426158532531, -1.192, 0.952, -1.048], a = 0.2, v = 0.2, t = 0.100000000000023)
movej(p[0.455929897007756, 0.0618419895843324, 0.41643517262122, -1.192, 0.952, -1.048], a = 0.2, v = 0.2, t = 0.100000000000023)
movej(p[0.455937515336517, 0.0618375792755058, 0.416444829340795, -1.192, 0.952, -1.048], a = 0.2, v = 0.2, t = 0.100000000000023)
movej(p[0.455946625150365, 0.0618367326725818, 0.41645473798193, -1.192, 0.952, -1.048], a = 0.2, v = 0.2, t = 0.100000000000023)
movej(p[0.455957480796545, 0.0618396467415159, 0.416463093729429, -1.192, 0.952, -1.048], a = 0.2, v = 0.2, t = 0.100000000000023)
movej(p[0.455968619788918, 0.0618435886530364, 0.416469432169179, -1.192, 0.952, -1.048], a = 0.2, v = 0.2, t = 0.100000000000023)
movej(p[0.455977736762606, 0.0618466906950842, 0.416473500626617, -1.192, 0.952, -1.048], a = 0.2, v = 0.2, t = 0.100000000000023)
movej(p[0.455982868328238, 0.0618482837340103, 0.416474959636944, -1.192, 0.952, -1.048], a = 0.2, v = 0.2, t = 0.100000000000023)
movej(p[0.455983639731799, 0.0618485050949125, 0.416474514696614, -1.192, 0.952, -1.048], a = 0.2, v = 0.2, t = 0.100000000000023)
movej(p[0.455979639369786, 0.0618476072995183, 0.416475617401104, -1.192, 0.952, -1.048], a = 0.2, v = 0.2, t = 0.100000000000023)
movej(p[0.455970842576204, 0.0618465482114799, 0.41647883881154, -1.192, 0.952, -1.048], a = 0.2, v = 0.2, t = 0.100000000000023)
movej(p[0.45595873856861, 0.061846097860642, 0.416481554509111, -1.192, 0.952, -1.048], a = 0.2, v = 0.2, t = 0.100000000000023)
movej(p[0.455944773220474, 0.061845120531485, 0.416482176552642, -1.192, 0.952, -1.048], a = 0.2, v = 0.2, t = 0.100000000000023)
movej(p[0.45593094987346, 0.0618418085886686, 0.416481743838977, -1.192, 0.952, -1.048], a = 0.2, v = 0.2, t = 0.100000000000023)
movej(p[0.455917794427159, 0.0618356554549274, 0.416481155469387, -1.192, 0.952, -1.048], a = 0.2, v = 0.2, t = 0.100000000000023)
movej(p[0.455905711920103, 0.0618278705207294, 0.416478817976118, -1.192, 0.952, -1.048], a = 0.2, v = 0.2, t = 0.100000000000023)
movej(p[0.455894929032681, 0.0618191258002629, 0.416473883208869, -1.192, 0.952, -1.048], a = 0.2, v = 0.2, t = 0.100000000000023)
movej(p[0.455885208432776, 0.0618094604262749, 0.416467255162161, -1.192, 0.952, -1.048], a = 0.2, v = 0.2, t = 0.100000000000023)
movej(p[0.455876290328401, 0.0617996021986073, 0.416460404608416, -1.192, 0.952, -1.048], a = 0.2, v = 0.2, t = 0.100000000000023)
movej(p[0.455867731037078, 0.0617906681069171, 0.416454563658004, -1.192, 0.952, -1.048], a = 0.2, v = 0.2, t = 0.100000000000023)
movej(p[0.455860524016153, 0.0617834413573215, 0.416450980504691, -1.192, 0.952, -1.048], a = 0.2, v = 0.2, t = 0.100000000000023)
movej(p[0.455856578257102, 0.0617776120331824, 0.416450929646111, -1.192, 0.952, -1.048], a = 0.2, v = 0.2, t = 0.100000000000023)
movej(p[0.45585727996713, 0.0617719654963266, 0.416454943755423, -1.192, 0.952, -1.048], a = 0.2, v = 0.2, t = 0.100000000000023)
movej(p[0.455862184521215, 0.0617658496848707, 0.416462781639989, -1.192, 0.952, -1.048], a = 0.2, v = 0.2, t = 0.100000000000023)
movej(p[0.455868845809654, 0.061755712313646, 0.416475624539583, -1.192, 0.952, -1.048], a = 0.2, v = 0.2, t = 0.100000000000023)
movej(p[0.455877001323709, 0.0617431533248667, 0.416491165300965, -1.192, 0.952, -1.048], a = 0.2, v = 0.2, t = 0.100000000000023)
movej(p[0.455887808539411, 0.0617328962991966, 0.416506117589559, -1.192, 0.952, -1.048], a = 0.2, v = 0.2, t = 0.100000000000023)
movej(p[0.455900920717551, 0.0617283018044369, 0.416515823181778, -1.192, 0.952, -1.048], a = 0.2, v = 0.2, t = 0.100000000000023)
movej(p[0.455915253324891, 0.0617284799562161, 0.416519973010542, -1.192, 0.952, -1.048], a = 0.2, v = 0.2, t = 0.100000000000023)
movej(p[0.455930617076684, 0.0617307144656465, 0.4165223011831, -1.192, 0.952, -1.048], a = 0.2, v = 0.2, t = 0.100000000000023)
movej(p[0.455947984916638, 0.0617349945997147, 0.416523694349519, -1.192, 0.952, -1.048], a = 0.2, v = 0.2, t = 0.100000000000023)
movej(p[0.455967219240299, 0.0617405095416524, 0.416523607012611, -1.192, 0.952, -1.048], a = 0.2, v = 0.2, t = 0.100000000000023)
movej(p[0.455985604152291, 0.0617448462395266, 0.416520694082537, -1.192, 0.952, -1.048], a = 0.2, v = 0.2, t = 0.100000000000023)
movej(p[0.456001310451344, 0.0617473438388533, 0.416519463912773, -1.192, 0.952, -1.048], a = 0.2, v = 0.2, t = 0.100000000000023)
movej(p[0.45601394003076, 0.0617495340578401, 0.416522516284731, -1.192, 0.952, -1.048], a = 0.2, v = 0.2, t = 0.100000000000023)
movej(p[0.456024574079064, 0.0617517692841387, 0.41652811388574, -1.192, 0.952, -1.048], a = 0.2, v = 0.2, t = 0.100000000000023)
movej(p[0.45603394202578, 0.0617523445406438, 0.416534016858743, -1.192, 0.952, -1.048], a = 0.2, v = 0.2, t = 0.100000000000023)
movej(p[0.456041424039303, 0.0617503580725004, 0.416539260715812, -1.192, 0.952, -1.048], a = 0.2, v = 0.2, t = 0.100000000000023)
movej(p[0.456045160417792, 0.0617468443155914, 0.41654350101759, -1.192, 0.952, -1.048], a = 0.2, v = 0.2, t = 0.100000000000023)
movej(p[0.456043340557463, 0.0617433714982939, 0.41654667867355, -1.192, 0.952, -1.048], a = 0.2, v = 0.2, t = 0.100000000000023)
movej(p[0.456035749409495, 0.0617401408798869, 0.416549415707571, -1.192, 0.952, -1.048], a = 0.2, v = 0.2, t = 0.100000000000023)
movej(p[0.456023872860132, 0.061737001392515, 0.416552616576715, -1.192, 0.952, -1.048], a = 0.2, v = 0.2, t = 0.100000000000023)
movej(p[0.45600894422576, 0.0617343659224731, 0.416555236573558, -1.192, 0.952, -1.048], a = 0.2, v = 0.2, t = 0.100000000000023)
movej(p[0.455992627511666, 0.0617322014469001, 0.416555718144602, -1.192, 0.952, -1.048], a = 0.2, v = 0.2, t = 0.100000000000023)
movej(p[0.455975817471768, 0.0617292989124565, 0.416552835330449, -1.192, 0.952, -1.048], a = 0.2, v = 0.2, t = 0.100000000000023)
movej(p[0.455958191930512, 0.0617229528969333, 0.416543909214418, -1.192, 0.952, -1.048], a = 0.2, v = 0.2, t = 0.100000000000023)
movej(p[0.455941231284445, 0.0617138439256954, 0.416530413883782, -1.192, 0.952, -1.048], a = 0.2, v = 0.2, t = 0.100000000000023)
movej(p[0.455924688303346, 0.0617051998587655, 0.41651713072515, -1.192, 0.952, -1.048], a = 0.2, v = 0.2, t = 0.100000000000023)
movej(p[0.455908817576379, 0.0616980174979569, 0.416508095254781, -1.192, 0.952, -1.048], a = 0.2, v = 0.2, t = 0.100000000000023)
movej(p[0.455893481202911, 0.0616914367719044, 0.416501568836816, -1.192, 0.952, -1.048], a = 0.2, v = 0.2, t = 0.100000000000023)
movej(p[0.455880286050119, 0.0616852612772886, 0.416495769881905, -1.192, 0.952, -1.048], a = 0.2, v = 0.2, t = 0.100000000000023)
movej(p[0.455873562084731, 0.0616821405446652, 0.416491135428934, -1.192, 0.952, -1.048], a = 0.2, v = 0.2, t = 0.100000000000023)
movej(p[0.455875429874438, 0.0616820935980722, 0.416488124250987, -1.192, 0.952, -1.048], a = 0.2, v = 0.2, t = 0.100000000000023)
movej(p[0.455884607368301, 0.0616831786869588, 0.416485671777643, -1.192, 0.952, -1.048], a = 0.2, v = 0.2, t = 0.100000000000023)
movej(p[0.455898773344512, 0.0616848484572268, 0.416483531450975, -1.192, 0.952, -1.048], a = 0.2, v = 0.2, t = 0.100000000000023)
movej(p[0.455915653881775, 0.061687528074654, 0.416483587896941, -1.192, 0.952, -1.048], a = 0.2, v = 0.2, t = 0.100000000000023)
movej(p[0.455935720059351, 0.0616917381320407, 0.416487392624958, -1.192, 0.952, -1.048], a = 0.2, v = 0.2, t = 0.100000000000023)
movej(p[0.45595740423423, 0.0616972998261198, 0.416494432659603, -1.192, 0.952, -1.048], a = 0.2, v = 0.2, t = 0.100000000000023)
movej(p[0.455978749887554, 0.0617044118769325, 0.4165008529474, -1.192, 0.952, -1.048], a = 0.2, v = 0.2, t = 0.100000000000023)
movej(p[0.455998121509593, 0.0617127066573472, 0.416504596353396, -1.192, 0.952, -1.048], a = 0.2, v = 0.2, t = 0.100000000000023)
movej(p[0.45601479080013, 0.0617208506584525, 0.416506571138446, -1.192, 0.952, -1.048], a = 0.2, v = 0.2, t = 0.100000000000023)
movej(p[0.456030178098223, 0.0617279473900118, 0.416508209990657, -1.192, 0.952, -1.048], a = 0.2, v = 0.2, t = 0.100000000000023)
movej(p[0.456045971321001, 0.0617332026269474, 0.416509830990668, -1.192, 0.952, -1.048], a = 0.2, v = 0.2, t = 0.100000000000023)
movej(p[0.456062527322629, 0.0617367498179563, 0.416510196131794, -1.192, 0.952, -1.048], a = 0.2, v = 0.2, t = 0.100000000000023)
movej(p[0.456077916724025, 0.0617398227829594, 0.416509153536584, -1.192, 0.952, -1.048], a = 0.2, v = 0.2, t = 0.100000000000023)
movej(p[0.456090029129099, 0.0617439082876647, 0.41650792261066, -1.192, 0.952, -1.048], a = 0.2, v = 0.2, t = 0.100000000000023)
movej(p[0.456098540143179, 0.0617489920614391, 0.416506908877691, -1.192, 0.952, -1.048], a = 0.2, v = 0.2, t = 0.100000000000023)
movej(p[0.456104119548854, 0.0617543143324329, 0.416505946479238, -1.192, 0.952, -1.048], a = 0.2, v = 0.2, t = 0.100000000000023)
movej(p[0.456107783643146, 0.0617593620538158, 0.416504180340269, -1.192, 0.952, -1.048], a = 0.2, v = 0.2, t = 0.100000000000023)
movej(p[0.456110482303548, 0.0617636659349031, 0.416501928908586, -1.192, 0.952, -1.048], a = 0.2, v = 0.2, t = 0.100000000000023)
movej(p[0.456111512687588, 0.0617660651847042, 0.41650177770633, -1.192, 0.952, -1.048], a = 0.2, v = 0.2, t = 0.100000000000023)
movej(p[0.456110249140163, 0.06176509966427, 0.416504753787511, -1.192, 0.952, -1.048], a = 0.2, v = 0.2, t = 0.100000000000023)
movej(p[0.456106612917875, 0.0617610952077916, 0.416509540350869, -1.192, 0.952, -1.048], a = 0.2, v = 0.2, t = 0.100000000000023)
movej(p[0.456101557855789, 0.0617550208549345, 0.416512961085684, -1.192, 0.952, -1.048], a = 0.2, v = 0.2, t = 0.100000000000023)
movej(p[0.456096039777954, 0.0617477790523185, 0.416512009414586, -1.192, 0.952, -1.048], a = 0.2, v = 0.2, t = 0.100000000000023)
movej(p[0.456089306729732, 0.0617405508439017, 0.416505840677055, -1.192, 0.952, -1.048], a = 0.2, v = 0.2, t = 0.100000000000023)
movej(p[0.456080455107506, 0.0617341700103986, 0.41649629242152, -1.192, 0.952, -1.048], a = 0.2, v = 0.2, t = 0.100000000000023)
movej(p[0.45606891071024, 0.0617292394314975, 0.416484531782614, -1.192, 0.952, -1.048], a = 0.2, v = 0.2, t = 0.100000000000023)
movej(p[0.456056200062088, 0.0617258434724993, 0.416470964961651, -1.192, 0.952, -1.048], a = 0.2, v = 0.2, t = 0.100000000000023)
movej(p[0.45604319791834, 0.0617245808545067, 0.416457822556134, -1.192, 0.952, -1.048], a = 0.2, v = 0.2, t = 0.100000000000023)
movej(p[0.456029233584646, 0.0617246320657567, 0.416448456035975, -1.192, 0.952, -1.048], a = 0.2, v = 0.2, t = 0.100000000000023)
movej(p[0.45601275148048, 0.0617222202295729, 0.416445000799448, -1.192, 0.952, -1.048], a = 0.2, v = 0.2, t = 0.100000000000023)
movej(p[0.455993125259327, 0.0617152543281356, 0.416444635377163, -1.192, 0.952, -1.048], a = 0.2, v = 0.2, t = 0.100000000000023)
movej(p[0.455972522313449, 0.0617058957898102, 0.416444600742622, -1.192, 0.952, -1.048], a = 0.2, v = 0.2, t = 0.100000000000023)
movej(p[0.455954548982199, 0.0616978455564888, 0.416444992434156, -1.192, 0.952, -1.048], a = 0.2, v = 0.2, t = 0.100000000000023)
movej(p[0.455942087884483, 0.0616919502974334, 0.416444658508447, -1.192, 0.952, -1.048], a = 0.2, v = 0.2, t = 0.100000000000023)
movej(p[0.455934922128794, 0.0616881136860186, 0.41644336556829, -1.192, 0.952, -1.048], a = 0.2, v = 0.2, t = 0.100000000000023)
movej(p[0.455932350159419, 0.0616877276798263, 0.416443102321725, -1.192, 0.952, -1.048], a = 0.2, v = 0.2, t = 0.100000000000023)
movej(p[0.455934758828001, 0.061691635813209, 0.416445330025952, -1.192, 0.952, -1.048], a = 0.2, v = 0.2, t = 0.100000000000023)
movej(p[0.455941177268709, 0.0616979578607907, 0.416450828781652, -1.192, 0.952, -1.048], a = 0.2, v = 0.2, t = 0.100000000000023)
movej(p[0.455950605321048, 0.0617043929057644, 0.416458626053052, -1.192, 0.952, -1.048], a = 0.2, v = 0.2, t = 0.100000000000023)
movej(p[0.455962337323041, 0.0617098033230993, 0.416467596979509, -1.192, 0.952, -1.048], a = 0.2, v = 0.2, t = 0.100000000000023)
movej(p[0.455977096944257, 0.0617150785790731, 0.416476564001644, -1.192, 0.952, -1.048], a = 0.2, v = 0.2, t = 0.100000000000023)
movej(p[0.455994805176973, 0.0617208917893316, 0.416485703454668, -1.192, 0.952, -1.048], a = 0.2, v = 0.2, t = 0.100000000000023)
movej(p[0.456014177324767, 0.0617265084061634, 0.416496096419413, -1.192, 0.952, -1.048], a = 0.2, v = 0.2, t = 0.100000000000023)
movej(p[0.456034009688522, 0.0617304597303165, 0.416505548353572, -1.192, 0.952, -1.048], a = 0.2, v = 0.2, t = 0.100000000000023)
movej(p[0.456052944073406, 0.0617329354173567, 0.416511942402504, -1.192, 0.952, -1.048], a = 0.2, v = 0.2, t = 0.100000000000023)
movej(p[0.456069823169153, 0.0617354355764425, 0.416513840773991, -1.192, 0.952, -1.048], a = 0.2, v = 0.2, t = 0.100000000000023)
movej(p[0.45608393503457, 0.0617386279972745, 0.416512908492555, -1.192, 0.952, -1.048], a = 0.2, v = 0.2, t = 0.100000000000023)
movej(p[0.456094653554572, 0.061742840090646, 0.416510251932486, -1.192, 0.952, -1.048], a = 0.2, v = 0.2, t = 0.100000000000023)
movej(p[0.456102623808507, 0.0617477538151394, 0.416505829484993, -1.192, 0.952, -1.048], a = 0.2, v = 0.2, t = 0.100000000000023)
movej(p[0.456108427035953, 0.0617524018800386, 0.416500177338684, -1.192, 0.952, -1.048], a = 0.2, v = 0.2, t = 0.100000000000023)
movej(p[0.456112279427362, 0.0617553747725887, 0.416492836009627, -1.192, 0.952, -1.048], a = 0.2, v = 0.2, t = 0.100000000000023)
movej(p[0.456114866859509, 0.0617559625855476, 0.416484950829109, -1.192, 0.952, -1.048], a = 0.2, v = 0.2, t = 0.100000000000023)
movej(p[0.456116986925781, 0.0617544462740859, 0.416477808776144, -1.192, 0.952, -1.048], a = 0.2, v = 0.2, t = 0.100000000000023)
movej(p[0.456119291100653, 0.0617501494448923, 0.4164707846179, -1.192, 0.952, -1.048], a = 0.2, v = 0.2, t = 0.100000000000023)
movej(p[0.456120864146295, 0.0617434765685717, 0.41646246698368, -1.192, 0.952, -1.048], a = 0.2, v = 0.2, t = 0.100000000000023)
movej(p[0.456121206977106, 0.0617355581561613, 0.416452491259499, -1.192, 0.952, -1.048], a = 0.2, v = 0.2, t = 0.100000000000023)
movej(p[0.456119209434162, 0.061724555502408, 0.416440030260279, -1.192, 0.952, -1.048], a = 0.2, v = 0.2, t = 0.100000000000023)
movej(p[0.456115262002052, 0.0617093576267313, 0.416426821368514, -1.192, 0.952, -1.048], a = 0.2, v = 0.2, t = 0.100000000000023)
movej(p[0.456110613359632, 0.0616916750948601, 0.416417189203842, -1.192, 0.952, -1.048], a = 0.2, v = 0.2, t = 0.100000000000023)
movej(p[0.456107685738023, 0.0616759997120429, 0.416413916066928, -1.192, 0.952, -1.048], a = 0.2, v = 0.2, t = 0.100000000000023)
movej(p[0.456107364770833, 0.0616649163166863, 0.416415669601768, -1.192, 0.952, -1.048], a = 0.2, v = 0.2, t = 0.100000000000023)
movej(p[0.456109204671064, 0.0616588184529383, 0.416418834266497, -1.192, 0.952, -1.048], a = 0.2, v = 0.2, t = 0.100000000000023)
movej(p[0.456113514381676, 0.0616582816832686, 0.416421040850681, -1.192, 0.952, -1.048], a = 0.2, v = 0.2, t = 0.100000000000023)
movej(p[0.456119784542172, 0.0616613941032058, 0.4164220450038, -1.192, 0.952, -1.048], a = 0.2, v = 0.2, t = 0.100000000000023)
movej(p[0.456126687576996, 0.0616654437615456, 0.416423597539325, -1.192, 0.952, -1.048], a = 0.2, v = 0.2, t = 0.100000000000023)
movej(p[0.456131247211481, 0.0616686708792056, 0.416427795810037, -1.192, 0.952, -1.048], a = 0.2, v = 0.2, t = 0.100000000000023)
movej(p[0.456131510319588, 0.0616695692165075, 0.416435031039281, -1.192, 0.952, -1.048], a = 0.2, v = 0.2, t = 0.100000000000023)
movej(p[0.456127827133753, 0.0616670084795766, 0.41644390542092, -1.192, 0.952, -1.048], a = 0.2, v = 0.2, t = 0.100000000000023)
movej(p[0.456121472106128, 0.0616610907669445, 0.41645323387369, -1.192, 0.952, -1.048], a = 0.2, v = 0.2, t = 0.100000000000023)
movej(p[0.456113984422075, 0.0616536876847232, 0.416461375744983, -1.192, 0.952, -1.048], a = 0.2, v = 0.2, t = 0.100000000000023)
movej(p[0.456105527243663, 0.0616459532514016, 0.416468030829092, -1.192, 0.952, -1.048], a = 0.2, v = 0.2, t = 0.100000000000023)
movej(p[0.456095597517294, 0.0616392402125997, 0.416473495803226, -1.192, 0.952, -1.048], a = 0.2, v = 0.2, t = 0.100000000000023)
movej(p[0.456084967988365, 0.0616350038546822, 0.416479407911762, -1.192, 0.952, -1.048], a = 0.2, v = 0.2, t = 0.100000000000023)
movej(p[0.456075414668595, 0.0616335150070694, 0.416484400604738, -1.192, 0.952, -1.048], a = 0.2, v = 0.2, t = 0.100000000000023)
movej(p[0.456067705171256, 0.0616341449504449, 0.416485468561724, -1.192, 0.952, -1.048], a = 0.2, v = 0.2, t = 0.100000000000023)
movej(p[0.456060481599529, 0.0616359279007897, 0.416481513556215, -1.192, 0.952, -1.048], a = 0.2, v = 0.2, t = 0.100000000000023)
movej(p[0.456052478883592, 0.0616383294618543, 0.416475744086301, -1.192, 0.952, -1.048], a = 0.2, v = 0.2, t = 0.100000000000023)
movej(p[0.456044587032112, 0.0616392465479816, 0.416471830255154, -1.192, 0.952, -1.048], a = 0.2, v = 0.2, t = 0.100000000000023)
movej(p[0.456038090915295, 0.0616377032953561, 0.416469523830293, -1.192, 0.952, -1.048], a = 0.2, v = 0.2, t = 0.100000000000023)
movej(p[0.456033155005582, 0.0616357849981097, 0.416468204915598, -1.192, 0.952, -1.048], a = 0.2, v = 0.2, t = 0.100000000000023)
movej(p[0.456029317574498, 0.0616362098365121, 0.4164671676408, -1.192, 0.952, -1.048], a = 0.2, v = 0.2, t = 0.100000000000023)
movej(p[0.456026632580648, 0.0616405830367203, 0.416467325495062, -1.192, 0.952, -1.048], a = 0.2, v = 0.2, t = 0.100000000000023)
movej(p[0.456025839563061, 0.061649005309689, 0.416468462396618, -1.192, 0.952, -1.048], a = 0.2, v = 0.2, t = 0.100000000000023)
movej(p[0.456028215951143, 0.061659825578648, 0.416467561077396, -1.192, 0.952, -1.048], a = 0.2, v = 0.2, t = 0.100000000000023)
movej(p[0.456033953107313, 0.0616706329563728, 0.416462674807776, -1.192, 0.952, -1.048], a = 0.2, v = 0.2, t = 0.100000000000023)
movej(p[0.456042217903521, 0.06168002023743, 0.416455222348317, -1.192, 0.952, -1.048], a = 0.2, v = 0.2, t = 0.100000000000023)
movej(p[0.456052704369547, 0.0616878081065655, 0.416446934645945, -1.192, 0.952, -1.048], a = 0.2, v = 0.2, t = 0.100000000000023)
movej(p[0.456065687815711, 0.0616939551728242, 0.416440122030726, -1.192, 0.952, -1.048], a = 0.2, v = 0.2, t = 0.100000000000023)
movej(p[0.456081015230601, 0.0616984609784557, 0.416435536893715, -1.192, 0.952, -1.048], a = 0.2, v = 0.2, t = 0.100000000000023)
movej(p[0.456098233980813, 0.061700411032198, 0.416434522692293, -1.192, 0.952, -1.048], a = 0.2, v = 0.2, t = 0.100000000000023)
movej(p[0.45611723631297, 0.0616994934086343, 0.416437542519046, -1.192, 0.952, -1.048], a = 0.2, v = 0.2, t = 0.100000000000023)
movej(p[0.456137734445123, 0.0616956039547591, 0.416442895261778, -1.192, 0.952, -1.048], a = 0.2, v = 0.2, t = 0.100000000000023)
movej(p[0.456156528669765, 0.0616890338440787, 0.416452094531682, -1.192, 0.952, -1.048], a = 0.2, v = 0.2, t = 0.100000000000023)
movej(p[0.456172098927654, 0.0616808268359583, 0.416464793658462, -1.192, 0.952, -1.048], a = 0.2, v = 0.2, t = 0.100000000000023)
movej(p[0.456186989655217, 0.0616708063529325, 0.416478971827264, -1.192, 0.952, -1.048], a = 0.2, v = 0.2, t = 0.100000000000023)
movej(p[0.456203999233207, 0.0616587505793686, 0.416492573948069, -1.192, 0.952, -1.048], a = 0.2, v = 0.2, t = 0.100000000000023)
movej(p[0.456222703610438, 0.0616466069521204, 0.41650523562097, -1.192, 0.952, -1.048], a = 0.2, v = 0.2, t = 0.100000000000023)
movej(p[0.456240591440359, 0.0616375102194478, 0.416516614164128, -1.192, 0.952, -1.048], a = 0.2, v = 0.2, t = 0.100000000000023)
movej(p[0.45625584026198, 0.0616343061244177, 0.416523034822677, -1.192, 0.952, -1.048], a = 0.2, v = 0.2, t = 0.100000000000023)
movej(p[0.456267491076395, 0.0616363366352242, 0.416521714001594, -1.192, 0.952, -1.048], a = 0.2, v = 0.2, t = 0.100000000000023)
movej(p[0.456275780513369, 0.0616412840548078, 0.416515254435345, -1.192, 0.952, -1.048], a = 0.2, v = 0.2, t = 0.100000000000023)
movej(p[0.456281191275995, 0.0616478831994285, 0.416509462027548, -1.192, 0.952, -1.048], a = 0.2, v = 0.2, t = 0.100000000000023)
movej(p[0.456284979886627, 0.0616560494149356, 0.416507241047862, -1.192, 0.952, -1.048], a = 0.2, v = 0.2, t = 0.100000000000023)
movej(p[0.456289332777524, 0.061665186580793, 0.416507024719567, -1.192, 0.952, -1.048], a = 0.2, v = 0.2, t = 0.100000000000023)
movej(p[0.4562952153857, 0.0616745847175619, 0.416506592029928, -1.192, 0.952, -1.048], a = 0.2, v = 0.2, t = 0.100000000000023)
movej(p[0.45630061043859, 0.0616825565074394, 0.416505290618591, -1.192, 0.952, -1.048], a = 0.2, v = 0.2, t = 0.100000000000023)
movej(p[0.456304439028255, 0.0616885254293011, 0.416504279960892, -1.192, 0.952, -1.048], a = 0.2, v = 0.2, t = 0.100000000000023)
movej(p[0.456304678617943, 0.0616906860155144, 0.416508343295975, -1.192, 0.952, -1.048], a = 0.2, v = 0.2, t = 0.100000000000023)
movej(p[0.456301899205172, 0.0616884758622222, 0.41651848866438, -1.192, 0.952, -1.048], a = 0.2, v = 0.2, t = 0.100000000000023)
movej(p[0.456298132223822, 0.0616830866883456, 0.416531206088272, -1.192, 0.952, -1.048], a = 0.2, v = 0.2, t = 0.100000000000023)
movej(p[0.456295181450032, 0.0616755162503225, 0.416541355929264, -1.192, 0.952, -1.048], a = 0.2, v = 0.2, t = 0.100000000000023)
movej(p[0.456293831737347, 0.0616667609331733, 0.416548075535747, -1.192, 0.952, -1.048], a = 0.2, v = 0.2, t = 0.100000000000023)
movej(p[0.456292713558702, 0.0616576082085383, 0.416556142378393, -1.192, 0.952, -1.048], a = 0.2, v = 0.2, t = 0.100000000000023)
movej(p[0.456290701823395, 0.0616491798779572, 0.416565018731229, -1.192, 0.952, -1.048], a = 0.2, v = 0.2, t = 0.100000000000023)
movej(p[0.456287085628029, 0.0616418300732864, 0.416572475336983, -1.192, 0.952, -1.048], a = 0.2, v = 0.2, t = 0.100000000000023)
movej(p[0.456283560456584, 0.0616360305821892, 0.416578090979004, -1.192, 0.952, -1.048], a = 0.2, v = 0.2, t = 0.100000000000023)
movej(p[0.456281543228164, 0.0616349543390116, 0.416580974949205, -1.192, 0.952, -1.048], a = 0.2, v = 0.2, t = 0.100000000000023)
movej(p[0.4562808264841, 0.0616393681859109, 0.416578354351087, -1.192, 0.952, -1.048], a = 0.2, v = 0.2, t = 0.100000000000023)
movej(p[0.456280585321066, 0.0616465799893227, 0.416569764640386, -1.192, 0.952, -1.048], a = 0.2, v = 0.2, t = 0.100000000000023)
movej(p[0.456280143894306, 0.0616537212266211, 0.416557176158139, -1.192, 0.952, -1.048], a = 0.2, v = 0.2, t = 0.100000000000023)
movej(p[0.456280862249653, 0.0616585716417693, 0.416544822092918, -1.192, 0.952, -1.048], a = 0.2, v = 0.2, t = 0.100000000000023)
movej(p[0.456283338799965, 0.061660266134212, 0.416536235822721, -1.192, 0.952, -1.048], a = 0.2, v = 0.2, t = 0.100000000000023)
movej(p[0.456287213766929, 0.0616590152899209, 0.416531705276551, -1.192, 0.952, -1.048], a = 0.2, v = 0.2, t = 0.100000000000023)
movej(p[0.456291207432878, 0.0616565374002377, 0.416532114756713, -1.192, 0.952, -1.048], a = 0.2, v = 0.2, t = 0.100000000000023)
movej(p[0.456294631712443, 0.0616535647902029, 0.416537211327329, -1.192, 0.952, -1.048], a = 0.2, v = 0.2, t = 0.100000000000023)
movej(p[0.456298395033573, 0.061650754520267, 0.41654628493824, -1.192, 0.952, -1.048], a = 0.2, v = 0.2, t = 0.100000000000023)
movej(p[0.45630354646649, 0.0616486055268996, 0.416556044940412, -1.192, 0.952, -1.048], a = 0.2, v = 0.2, t = 0.100000000000023)
movej(p[0.456309826672154, 0.0616472943847963, 0.416564122691906, -1.192, 0.952, -1.048], a = 0.2, v = 0.2, t = 0.100000000000023)
movej(p[0.456314929782013, 0.0616481959369956, 0.416571348396814, -1.192, 0.952, -1.048], a = 0.2, v = 0.2, t = 0.100000000000023)
movej(p[0.456317082826779, 0.0616515275506868, 0.41658022043009, -1.192, 0.952, -1.048], a = 0.2, v = 0.2, t = 0.100000000000023)
movej(p[0.456316581956326, 0.0616553612307598, 0.416590162121892, -1.192, 0.952, -1.048], a = 0.2, v = 0.2, t = 0.100000000000023)
movej(p[0.456312925432329, 0.0616560608754238, 0.416597474204263, -1.192, 0.952, -1.048], a = 0.2, v = 0.2, t = 0.100000000000023)
movej(p[0.4563057256431, 0.0616529099093287, 0.416600419552582, -1.192, 0.952, -1.048], a = 0.2, v = 0.2, t = 0.100000000000023)
movej(p[0.456296320471489, 0.0616476697840347, 0.41659966374846, -1.192, 0.952, -1.048], a = 0.2, v = 0.2, t = 0.100000000000023)
movej(p[0.456286127354745, 0.0616398078088681, 0.416598075781666, -1.192, 0.952, -1.048], a = 0.2, v = 0.2, t = 0.100000000000023)
movej(p[0.456278027667314, 0.0616292403128329, 0.416597252021354, -1.192, 0.952, -1.048], a = 0.2, v = 0.2, t = 0.100000000000023)
movej(p[0.456274288271368, 0.0616164494466817, 0.416599111967338, -1.192, 0.952, -1.048], a = 0.2, v = 0.2, t = 0.100000000000023)
movej(p[0.45627657145732, 0.0616064995592758, 0.416605676743611, -1.192, 0.952, -1.048], a = 0.2, v = 0.2, t = 0.100000000000023)
movej(p[0.456284250159743, 0.0616026923705909, 0.4166169285977, -1.192, 0.952, -1.048], a = 0.2, v = 0.2, t = 0.100000000000023)
movej(p[0.456295365052981, 0.0616047554967196, 0.416631813253553, -1.192, 0.952, -1.048], a = 0.2, v = 0.2, t = 0.100000000000023)
movej(p[0.456308856829227, 0.061611388466345, 0.416648962686566, -1.192, 0.952, -1.048], a = 0.2, v = 0.2, t = 0.100000000000023)
movej(p[0.456322509438615, 0.0616198191063395, 0.416668063017563, -1.192, 0.952, -1.048], a = 0.2, v = 0.2, t = 0.100000000000023)
movej(p[0.456334663249137, 0.0616286104071507, 0.416688061926179, -1.192, 0.952, -1.048], a = 0.2, v = 0.2, t = 0.100000000000023)
movej(p[0.456344703949122, 0.0616379912982101, 0.416707544763877, -1.192, 0.952, -1.048], a = 0.2, v = 0.2, t = 0.100000000000023)
movej(p[0.456351567936092, 0.0616478745832657, 0.41672488903764, -1.192, 0.952, -1.048], a = 0.2, v = 0.2, t = 0.100000000000023)
movej(p[0.456354783499423, 0.061657191613844, 0.416737497836896, -1.192, 0.952, -1.048], a = 0.2, v = 0.2, t = 0.100000000000023)
movej(p[0.45635558119385, 0.0616645342478363, 0.416744197226021, -1.192, 0.952, -1.048], a = 0.2, v = 0.2, t = 0.100000000000023)
movej(p[0.456355639468679, 0.0616701797584209, 0.416744697209305, -1.192, 0.952, -1.048], a = 0.2, v = 0.2, t = 0.100000000000023)
movej(p[0.456355615742665, 0.0616747869343843, 0.41674060187431, -1.192, 0.952, -1.048], a = 0.2, v = 0.2, t = 0.100000000000023)
movej(p[0.456354707368651, 0.0616787093883981, 0.416733190383896, -1.192, 0.952, -1.048], a = 0.2, v = 0.2, t = 0.100000000000023)
movej(p[0.456352805906371, 0.0616815091796038, 0.416723676994836, -1.192, 0.952, -1.048], a = 0.2, v = 0.2, t = 0.100000000000023)
movej(p[0.456350897725707, 0.0616817936013855, 0.416714361346828, -1.192, 0.952, -1.048], a = 0.2, v = 0.2, t = 0.100000000000023)
movej(p[0.456352162246385, 0.0616749467955159, 0.416708437839351, -1.192, 0.952, -1.048], a = 0.2, v = 0.2, t = 0.100000000000023)
movej(p[0.45635709905234, 0.061660270624676, 0.416705959775098, -1.192, 0.952, -1.048], a = 0.2, v = 0.2, t = 0.100000000000023)
movej(p[0.45636583812089, 0.0616423106875715, 0.416703574593957, -1.192, 0.952, -1.048], a = 0.2, v = 0.2, t = 0.100000000000023)
movej(p[0.456373639779211, 0.061628800399718, 0.416697063247816, -1.192, 0.952, -1.048], a = 0.2, v = 0.2, t = 0.100000000000023)
movej(p[0.456378439916271, 0.0616219521056649, 0.416686435023281, -1.192, 0.952, -1.048], a = 0.2, v = 0.2, t = 0.100000000000023)
movej(p[0.456379238278582, 0.06161871638816, 0.416674451142614, -1.192, 0.952, -1.048], a = 0.2, v = 0.2, t = 0.100000000000023)
movej(p[0.456377078696151, 0.0616152786814909, 0.416665334537183, -1.192, 0.952, -1.048], a = 0.2, v = 0.2, t = 0.100000000000023)
movej(p[0.456373080026338, 0.0616121661204433, 0.416661454323728, -1.192, 0.952, -1.048], a = 0.2, v = 0.2, t = 0.100000000000023)
movej(p[0.456366691062052, 0.0616131088165979, 0.416662651923125, -1.192, 0.952, -1.048], a = 0.2, v = 0.2, t = 0.100000000000023)
movej(p[0.45635785064324, 0.0616166978572413, 0.416668302695946, -1.192, 0.952, -1.048], a = 0.2, v = 0.2, t = 0.100000000000023)
movej(p[0.456347475145365, 0.061620139200182, 0.416674900917269, -1.192, 0.952, -1.048], a = 0.2, v = 0.2, t = 0.100000000000023)
movej(p[0.456335620020171, 0.0616225880970979, 0.416679568775185, -1.192, 0.952, -1.048], a = 0.2, v = 0.2, t = 0.100000000000023)
movej(p[0.456323929502672, 0.0616231657540168, 0.416681298548319, -1.192, 0.952, -1.048], a = 0.2, v = 0.2, t = 0.100000000000023)
movej(p[0.456312599064729, 0.0616218922987723, 0.416682584358086, -1.192, 0.952, -1.048], a = 0.2, v = 0.2, t = 0.100000000000023)
movej(p[0.456302321150567, 0.0616199787871535, 0.41668661715448, -1.192, 0.952, -1.048], a = 0.2, v = 0.2, t = 0.100000000000023)
movej(p[0.456291589971218, 0.0616229294441259, 0.416693544169004, -1.192, 0.952, -1.048], a = 0.2, v = 0.2, t = 0.100000000000023)
movej(p[0.456281417606973, 0.0616327367488241, 0.416698112646345, -1.192, 0.952, -1.048], a = 0.2, v = 0.2, t = 0.100000000000023)
movej(p[0.456272594340844, 0.061647126532675, 0.416697279745057, -1.192, 0.952, -1.048], a = 0.2, v = 0.2, t = 0.100000000000023)
movej(p[0.456264642141699, 0.061664314328836, 0.416691240816934, -1.192, 0.952, -1.048], a = 0.2, v = 0.2, t = 0.100000000000023)
movej(p[0.456255936320805, 0.0616822544999528, 0.416682698325911, -1.192, 0.952, -1.048], a = 0.2, v = 0.2, t = 0.100000000000023)
movej(p[0.456245403332306, 0.061698956610758, 0.416673491993639, -1.192, 0.952, -1.048], a = 0.2, v = 0.2, t = 0.100000000000023)
movej(p[0.456233026804217, 0.0617130626863327, 0.416663865807979, -1.192, 0.952, -1.048], a = 0.2, v = 0.2, t = 0.100000000000023)
movej(p[0.456219957653523, 0.0617236299365454, 0.416654199137969, -1.192, 0.952, -1.048], a = 0.2, v = 0.2, t = 0.100000000000023)
movej(p[0.456206663843115, 0.0617303719357732, 0.416644436692617, -1.192, 0.952, -1.048], a = 0.2, v = 0.2, t = 0.100000000000023)
movej(p[0.456193627503672, 0.0617292510157009, 0.416635288929933, -1.192, 0.952, -1.048], a = 0.2, v = 0.2, t = 0.100000000000023)
movej(p[0.456181837927535, 0.0617191999190508, 0.416629437352399, -1.192, 0.952, -1.048], a = 0.2, v = 0.2, t = 0.100000000000023)
movej(p[0.456172432906769, 0.0617038339618685, 0.416627500529418, -1.192, 0.952, -1.048], a = 0.2, v = 0.2, t = 0.100000000000023)
movej(p[0.456166550505329, 0.061684154596878, 0.416632512173546, -1.192, 0.952, -1.048], a = 0.2, v = 0.2, t = 0.100000000000023)
movej(p[0.456163364746433, 0.0616615021543846, 0.416643497199643, -1.192, 0.952, -1.048], a = 0.2, v = 0.2, t = 0.100000000000023)
movej(p[0.456161731530266, 0.0616397149675793, 0.416656393459025, -1.192, 0.952, -1.048], a = 0.2, v = 0.2, t = 0.100000000000023)
movej(p[0.456161076057993, 0.0616289568389532, 0.416664895024385, -1.192, 0.952, -1.048], a = 0.2, v = 0.2, t = 0.100000000000023)
movej(p[0.456161983364618, 0.0616328821034984, 0.41666866389304, -1.192, 0.952, -1.048], a = 0.2, v = 0.2, t = 0.100000000000023)
movej(p[0.456164502465718, 0.0616471338796855, 0.416671703971684, -1.192, 0.952, -1.048], a = 0.2, v = 0.2, t = 0.100000000000023)
movej(p[0.456168183885194, 0.0616674229894477, 0.416675157243132, -1.192, 0.952, -1.048], a = 0.2, v = 0.2, t = 0.100000000000023)
movej(p[0.456172859861808, 0.0616898442029735, 0.416678364700339, -1.192, 0.952, -1.048], a = 0.2, v = 0.2, t = 0.100000000000023)
movej(p[0.456178407659409, 0.0617122270903245, 0.416680591499975, -1.192, 0.952, -1.048], a = 0.2, v = 0.2, t = 0.100000000000023)
movej(p[0.456184882119032, 0.061732774254472, 0.416683430851499, -1.192, 0.952, -1.048], a = 0.2, v = 0.2, t = 0.100000000000023)
movej(p[0.456191647475263, 0.0617496524981324, 0.416688262980638, -1.192, 0.952, -1.048], a = 0.2, v = 0.2, t = 0.100000000000023)
movej(p[0.456198221964815, 0.0617623293176778, 0.416694222725544, -1.192, 0.952, -1.048], a = 0.2, v = 0.2, t = 0.100000000000023)
movej(p[0.456204680700396, 0.0617709102715702, 0.416697809159984, -1.192, 0.952, -1.048], a = 0.2, v = 0.2, t = 0.100000000000023)
movej(p[0.456211118506058, 0.0617760568735413, 0.416697370019456, -1.192, 0.952, -1.048], a = 0.2, v = 0.2, t = 0.100000000000023)
movej(p[0.456217083950749, 0.0617766496888112, 0.416692499086312, -1.192, 0.952, -1.048], a = 0.2, v = 0.2, t = 0.100000000000023)
movej(p[0.45622274682874, 0.0617734527543277, 0.416682542757884, -1.192, 0.952, -1.048], a = 0.2, v = 0.2, t = 0.100000000000023)
movej(p[0.456229200287558, 0.0617695982813907, 0.416668911913278, -1.192, 0.952, -1.048], a = 0.2, v = 0.2, t = 0.100000000000023)
movej(p[0.456235760828248, 0.0617671580016111, 0.416653983754066, -1.192, 0.952, -1.048], a = 0.2, v = 0.2, t = 0.100000000000023)
movej(p[0.456240520131228, 0.0617642044771363, 0.41664007700936, -1.192, 0.952, -1.048], a = 0.2, v = 0.2, t = 0.100000000000023)
movej(p[0.45624345688719, 0.0617582146478207, 0.416628419747324, -1.192, 0.952, -1.048], a = 0.2, v = 0.2, t = 0.100000000000023)
movej(p[0.45624473015677, 0.0617491284385291, 0.416618885410887, -1.192, 0.952, -1.048], a = 0.2, v = 0.2, t = 0.100000000000023)
movej(p[0.456243455849603, 0.0617384487125486, 0.416611022696202, -1.192, 0.952, -1.048], a = 0.2, v = 0.2, t = 0.100000000000023)
movej(p[0.456237717845155, 0.0617280473103205, 0.416602268068703, -1.192, 0.952, -1.048], a = 0.2, v = 0.2, t = 0.100000000000023)
movej(p[0.456227146634477, 0.0617194468477066, 0.416590373193436, -1.192, 0.952, -1.048], a = 0.2, v = 0.2, t = 0.100000000000023)
movej(p[0.456213247046294, 0.0617133553221316, 0.416575794354472, -1.192, 0.952, -1.048], a = 0.2, v = 0.2, t = 0.100000000000023)
movej(p[0.456197203229833, 0.0617090959402025, 0.41656262375297, -1.192, 0.952, -1.048], a = 0.2, v = 0.2, t = 0.100000000000023)
movej(p[0.456179373683713, 0.0617054461442046, 0.416552488017458, -1.192, 0.952, -1.048], a = 0.2, v = 0.2, t = 0.100000000000023)
movej(p[0.456161622044096, 0.0617021321101338, 0.416543565599509, -1.192, 0.952, -1.048], a = 0.2, v = 0.2, t = 0.100000000000023)
movej(p[0.456145944122266, 0.0616990620700853, 0.416532801703225, -1.192, 0.952, -1.048], a = 0.2, v = 0.2, t = 0.100000000000023)
movej(p[0.456133014694087, 0.0616974844112043, 0.41652028460698, -1.192, 0.952, -1.048], a = 0.2, v = 0.2, t = 0.100000000000023)
movej(p[0.456122300321591, 0.0616978911785974, 0.416509727239206, -1.192, 0.952, -1.048], a = 0.2, v = 0.2, t = 0.100000000000023)
movej(p[0.456112914610403, 0.0616993457751645, 0.416505022742707, -1.192, 0.952, -1.048], a = 0.2, v = 0.2, t = 0.100000000000023)
movej(p[0.456104586081997, 0.0616994647719709, 0.416506590882801, -1.192, 0.952, -1.048], a = 0.2, v = 0.2, t = 0.100000000000023)
movej(p[0.456096232538097, 0.0616978319005959, 0.416510748587744, -1.192, 0.952, -1.048], a = 0.2, v = 0.2, t = 0.100000000000023)
movej(p[0.456086950834769, 0.0616978826824852, 0.416510749311719, -1.192, 0.952, -1.048], a = 0.2, v = 0.2, t = 0.100000000000023)
movej(p[0.456077744492085, 0.0617020553597464, 0.416504727057169, -1.192, 0.952, -1.048], a = 0.2, v = 0.2, t = 0.100000000000023)
movej(p[0.456069779193492, 0.0617092538109652, 0.416496664043318, -1.192, 0.952, -1.048], a = 0.2, v = 0.2, t = 0.100000000000023)
movej(p[0.456064367780812, 0.0617166288786578, 0.416490731581827, -1.192, 0.952, -1.048], a = 0.2, v = 0.2, t = 0.100000000000023)
movej(p[0.456062475434358, 0.0617214279028995, 0.416488458165845, -1.192, 0.952, -1.048], a = 0.2, v = 0.2, t = 0.100000000000023)
movej(p[0.456064096555873, 0.061723268426851, 0.416489338969238, -1.192, 0.952, -1.048], a = 0.2, v = 0.2, t = 0.100000000000023)
movej(p[0.456068480409011, 0.0617236508554414, 0.416493446586679, -1.192, 0.952, -1.048], a = 0.2, v = 0.2, t = 0.100000000000023)
movej(p[0.456074081881345, 0.0617240246238155, 0.416498957472623, -1.192, 0.952, -1.048], a = 0.2, v = 0.2, t = 0.100000000000023)
movej(p[0.456080459079173, 0.0617242873650355, 0.416501893775897, -1.192, 0.952, -1.048], a = 0.2, v = 0.2, t = 0.100000000000023)
movej(p[0.456086834362155, 0.0617249751999653, 0.416501208281181, -1.192, 0.952, -1.048], a = 0.2, v = 0.2, t = 0.100000000000023)
movej(p[0.456092994018489, 0.0617268038808034, 0.416497308740921, -1.192, 0.952, -1.048], a = 0.2, v = 0.2, t = 0.100000000000023)
movej(p[0.456099344680729, 0.0617297698354807, 0.416492043450333, -1.192, 0.952, -1.048], a = 0.2, v = 0.2, t = 0.100000000000023)
movej(p[0.456105022230048, 0.061733057931484, 0.41648636741656, -1.192, 0.952, -1.048], a = 0.2, v = 0.2, t = 0.100000000000023)
movej(p[0.456110276462777, 0.0617364391526636, 0.416479542047429, -1.192, 0.952, -1.048], a = 0.2, v = 0.2, t = 0.100000000000023)
movej(p[0.456116313911013, 0.0617410842025072, 0.416472233758454, -1.192, 0.952, -1.048], a = 0.2, v = 0.2, t = 0.100000000000023)
movej(p[0.456123373500295, 0.0617482049235872, 0.416464255132541, -1.192, 0.952, -1.048], a = 0.2, v = 0.2, t = 0.100000000000023)
movej(p[0.45612999038671, 0.0617585736120129, 0.416456419322212, -1.192, 0.952, -1.048], a = 0.2, v = 0.2, t = 0.100000000000023)
movej(p[0.456134811956849, 0.0617717921547767, 0.416450274136243, -1.192, 0.952, -1.048], a = 0.2, v = 0.2, t = 0.100000000000023)
movej(p[0.456138304453104, 0.0617848363677107, 0.416447393284313, -1.192, 0.952, -1.048], a = 0.2, v = 0.2, t = 0.100000000000023)
movej(p[0.456141133713355, 0.0617950739584516, 0.416447360250121, -1.192, 0.952, -1.048], a = 0.2, v = 0.2, t = 0.100000000000023)
movej(p[0.456142993889496, 0.0618027249939682, 0.416449024730896, -1.192, 0.952, -1.048], a = 0.2, v = 0.2, t = 0.100000000000023)
movej(p[0.456143666658705, 0.0618084829398993, 0.4164523574939, -1.192, 0.952, -1.048], a = 0.2, v = 0.2, t = 0.100000000000023)
movej(p[0.456143741049884, 0.0618120281801849, 0.41645770967946, -1.192, 0.952, -1.048], a = 0.2, v = 0.2, t = 0.100000000000023)
movej(p[0.456144290880361, 0.0618115770826154, 0.416464338302728, -1.192, 0.952, -1.048], a = 0.2, v = 0.2, t = 0.100000000000023)
movej(p[0.456145814450691, 0.061807921803065, 0.416471760942074, -1.192, 0.952, -1.048], a = 0.2, v = 0.2, t = 0.100000000000023)
movej(p[0.456147531159571, 0.0618029661658673, 0.416480373312688, -1.192, 0.952, -1.048], a = 0.2, v = 0.2, t = 0.100000000000023)
movej(p[0.456148614020149, 0.0617987128566962, 0.416491113602631, -1.192, 0.952, -1.048], a = 0.2, v = 0.2, t = 0.100000000000023)
movej(p[0.456150095567635, 0.0617960829470874, 0.416502478649815, -1.192, 0.952, -1.048], a = 0.2, v = 0.2, t = 0.100000000000023)
movej(p[0.456152573803594, 0.0617948860500783, 0.41651282104751, -1.192, 0.952, -1.048], a = 0.2, v = 0.2, t = 0.100000000000023)
movej(p[0.456154968234882, 0.0617950424161094, 0.416522545538318, -1.192, 0.952, -1.048], a = 0.2, v = 0.2, t = 0.100000000000023)
movej(p[0.456155851527244, 0.0617967254644839, 0.41653255593675, -1.192, 0.952, -1.048], a = 0.2, v = 0.2, t = 0.100000000000023)
movej(p[0.456154065480684, 0.0618009924021639, 0.416544291902561, -1.192, 0.952, -1.048], a = 0.2, v = 0.2, t = 0.100000000000023)
movej(p[0.456149811698377, 0.0618077691911161, 0.416557428341104, -1.192, 0.952, -1.048], a = 0.2, v = 0.2, t = 0.100000000000023)
movej(p[0.456144340021757, 0.0618157752414962, 0.416571987591575, -1.192, 0.952, -1.048], a = 0.2, v = 0.2, t = 0.100000000000023)
movej(p[0.456138734817331, 0.0618248447860267, 0.416586782051563, -1.192, 0.952, -1.048], a = 0.2, v = 0.2, t = 0.100000000000023)
movej(p[0.456133626286305, 0.0618352391216225, 0.416599761181784, -1.192, 0.952, -1.048], a = 0.2, v = 0.2, t = 0.100000000000023)
movej(p[0.456129064472522, 0.0618459777368648, 0.416609776246421, -1.192, 0.952, -1.048], a = 0.2, v = 0.2, t = 0.100000000000023)
movej(p[0.456124633407841, 0.0618558452222686, 0.416617487348715, -1.192, 0.952, -1.048], a = 0.2, v = 0.2, t = 0.100000000000023)
movej(p[0.456120130181831, 0.0618645491927071, 0.416625852403354, -1.192, 0.952, -1.048], a = 0.2, v = 0.2, t = 0.100000000000023)
movej(p[0.456115115539472, 0.0618718617591504, 0.416636887854638, -1.192, 0.952, -1.048], a = 0.2, v = 0.2, t = 0.100000000000023)
movej(p[0.456108991361153, 0.0618777443784126, 0.416650936940605, -1.192, 0.952, -1.048], a = 0.2, v = 0.2, t = 0.100000000000023)
movej(p[0.456101352076248, 0.0618825317730817, 0.416665286775846, -1.192, 0.952, -1.048], a = 0.2, v = 0.2, t = 0.100000000000023)
movej(p[0.45609505831443, 0.0618873537397729, 0.416675482436511, -1.192, 0.952, -1.048], a = 0.2, v = 0.2, t = 0.100000000000023)
movej(p[0.456092035618643, 0.0618919194358434, 0.41667994913502, -1.192, 0.952, -1.048], a = 0.2, v = 0.2, t = 0.100000000000023)
movej(p[0.456091322881835, 0.0618952904572056, 0.416681188916137, -1.192, 0.952, -1.048], a = 0.2, v = 0.2, t = 0.100000000000023)
movej(p[0.456088660372183, 0.0618979998003568, 0.416682097418223, -1.192, 0.952, -1.048], a = 0.2, v = 0.2, t = 0.100000000000023)
movej(p[0.456081730425407, 0.0619011418122628, 0.416681816528806, -1.192, 0.952, -1.048], a = 0.2, v = 0.2, t = 0.100000000000023)
movej(p[0.456071695559072, 0.0619048504466374, 0.416678706311818, -1.192, 0.952, -1.048], a = 0.2, v = 0.2, t = 0.100000000000023)
movej(p[0.456060350692675, 0.0619082476539087, 0.416672881806156, -1.192, 0.952, -1.048], a = 0.2, v = 0.2, t = 0.100000000000023)
movej(p[0.456049225164982, 0.0619109683591253, 0.416665903711096, -1.192, 0.952, -1.048], a = 0.2, v = 0.2, t = 0.100000000000023)
movej(p[0.456038371499172, 0.061913781876764, 0.416660243541667, -1.192, 0.952, -1.048], a = 0.2, v = 0.2, t = 0.100000000000023)
movej(p[0.456028199881439, 0.0619168732288107, 0.416657109648046, -1.192, 0.952, -1.048], a = 0.2, v = 0.2, t = 0.100000000000023)
movej(p[0.456019213225867, 0.0619194645627279, 0.416654474521454, -1.192, 0.952, -1.048], a = 0.2, v = 0.2, t = 0.100000000000023)
movej(p[0.456011155272982, 0.0619209137646439, 0.416651094124567, -1.192, 0.952, -1.048], a = 0.2, v = 0.2, t = 0.100000000000023)
movej(p[0.456003789146419, 0.0619204723051642, 0.416647934774795, -1.192, 0.952, -1.048], a = 0.2, v = 0.2, t = 0.100000000000023)
movej(p[0.455996979439181, 0.0619198069870581, 0.41664696758032, -1.192, 0.952, -1.048], a = 0.2, v = 0.2, t = 0.100000000000023)
movej(p[0.455991322043231, 0.0619205554493275, 0.416648510252126, -1.192, 0.952, -1.048], a = 0.2, v = 0.2, t = 0.100000000000023)
movej(p[0.45598767296771, 0.06192233092614, 0.416651095320777, -1.192, 0.952, -1.048], a = 0.2, v = 0.2, t = 0.100000000000023)
movej(p[0.455985281706647, 0.0619239120829632, 0.416653272325055, -1.192, 0.952, -1.048], a = 0.2, v = 0.2, t = 0.100000000000023)
movej(p[0.455983321825081, 0.0619250454866084, 0.416654761831827, -1.192, 0.952, -1.048], a = 0.2, v = 0.2, t = 0.100000000000023)
movej(p[0.45598225626164, 0.0619270250120474, 0.416655908583583, -1.192, 0.952, -1.048], a = 0.2, v = 0.2, t = 0.100000000000023)
movej(p[0.455984484935559, 0.0619301328818971, 0.416657177454561, -1.192, 0.952, -1.048], a = 0.2, v = 0.2, t = 0.100000000000023)
movej(p[0.455991466194065, 0.0619351430851673, 0.416658485123811, -1.192, 0.952, -1.048], a = 0.2, v = 0.2, t = 0.100000000000023)
movej(p[0.45600214260968, 0.0619420934600922, 0.416660310029837, -1.192, 0.952, -1.048], a = 0.2, v = 0.2, t = 0.100000000000023)
movej(p[0.456014493211461, 0.0619501922852026, 0.416663558774286, -1.192, 0.952, -1.048], a = 0.2, v = 0.2, t = 0.100000000000023)
movej(p[0.456026583074183, 0.061957946726453, 0.416669406896142, -1.192, 0.952, -1.048], a = 0.2, v = 0.2, t = 0.100000000000023)
movej(p[0.456038002688105, 0.0619644234946622, 0.416677122659062, -1.192, 0.952, -1.048], a = 0.2, v = 0.2, t = 0.100000000000023)
movej(p[0.456050202778486, 0.0619688545803655, 0.416683270099764, -1.192, 0.952, -1.048], a = 0.2, v = 0.2, t = 0.100000000000023)
movej(p[0.456064543822098, 0.0619705816968294, 0.41668483091168, -1.192, 0.952, -1.048], a = 0.2, v = 0.2, t = 0.100000000000023)
movej(p[0.456081211704924, 0.0619703999744706, 0.416681775144491, -1.192, 0.952, -1.048], a = 0.2, v = 0.2, t = 0.100000000000023)
movej(p[0.456099205772648, 0.0619706180467827, 0.416677126041546, -1.192, 0.952, -1.048], a = 0.2, v = 0.2, t = 0.100000000000023)
movej(p[0.456117309674432, 0.0619712736855568, 0.41667211877932, -1.192, 0.952, -1.048], a = 0.2, v = 0.2, t = 0.100000000000023)
movej(p[0.456134351507442, 0.0619728644078374, 0.416665690785677, -1.192, 0.952, -1.048], a = 0.2, v = 0.2, t = 0.100000000000023)
movej(p[0.456148762415877, 0.0619752518893805, 0.416657729136416, -1.192, 0.952, -1.048], a = 0.2, v = 0.2, t = 0.100000000000023)
movej(p[0.456160016293039, 0.0619781286861809, 0.416648308824372, -1.192, 0.952, -1.048], a = 0.2, v = 0.2, t = 0.100000000000023)
movej(p[0.456167441880963, 0.0619810951809056, 0.416638280780643, -1.192, 0.952, -1.048], a = 0.2, v = 0.2, t = 0.100000000000023)
movej(p[0.456170434831144, 0.0619840708546793, 0.41662909721272, -1.192, 0.952, -1.048], a = 0.2, v = 0.2, t = 0.100000000000023)
movej(p[0.4561702816334, 0.061987318217836, 0.416621302401113, -1.192, 0.952, -1.048], a = 0.2, v = 0.2, t = 0.100000000000023)
movej(p[0.456168535069641, 0.0619895446749391, 0.416614235365964, -1.192, 0.952, -1.048], a = 0.2, v = 0.2, t = 0.100000000000023)
movej(p[0.456166731412861, 0.0619903114287156, 0.416606375507641, -1.192, 0.952, -1.048], a = 0.2, v = 0.2, t = 0.100000000000023)
movej(p[0.45616572664077, 0.0619894135712262, 0.416597091271001, -1.192, 0.952, -1.048], a = 0.2, v = 0.2, t = 0.100000000000023)
movej(p[0.456165621452077, 0.0619872150455128, 0.416587371382112, -1.192, 0.952, -1.048], a = 0.2, v = 0.2, t = 0.100000000000023)
movej(p[0.456165207109564, 0.0619827115756861, 0.416577294283829, -1.192, 0.952, -1.048], a = 0.2, v = 0.2, t = 0.100000000000023)
movej(p[0.456162310770292, 0.0619760540596449, 0.41656745607881, -1.192, 0.952, -1.048], a = 0.2, v = 0.2, t = 0.100000000000023)
movej(p[0.456155267186553, 0.061968770063407, 0.416561022776711, -1.192, 0.952, -1.048], a = 0.2, v = 0.2, t = 0.100000000000023)
movej(p[0.456144583152035, 0.0619620157812893, 0.416558970865039, -1.192, 0.952, -1.048], a = 0.2, v = 0.2, t = 0.100000000000023)
movej(p[0.456131146741648, 0.061956560563464, 0.4165575858057, -1.192, 0.952, -1.048], a = 0.2, v = 0.2, t = 0.100000000000023)
movej(p[0.456115930965174, 0.0619524431430046, 0.416550971291653, -1.192, 0.952, -1.048], a = 0.2, v = 0.2, t = 0.100000000000023)
movej(p[0.456099814017407, 0.0619491025377416, 0.416537454957234, -1.192, 0.952, -1.048], a = 0.2, v = 0.2, t = 0.100000000000023)
movej(p[0.456084250038242, 0.0619452135873835, 0.416520204413744, -1.192, 0.952, -1.048], a = 0.2, v = 0.2, t = 0.100000000000023)
movej(p[0.456070832178495, 0.0619393245666367, 0.416505524517817, -1.192, 0.952, -1.048], a = 0.2, v = 0.2, t = 0.100000000000023)
movej(p[0.456059057953952, 0.0619310896981303, 0.416495881991898, -1.192, 0.952, -1.048], a = 0.2, v = 0.2, t = 0.100000000000023)
movej(p[0.456047151806013, 0.061920688296523, 0.416489138497636, -1.192, 0.952, -1.048], a = 0.2, v = 0.2, t = 0.100000000000023)
movej(p[0.456033836536661, 0.0619090604096199, 0.416483483883834, -1.192, 0.952, -1.048], a = 0.2, v = 0.2, t = 0.100000000000023)
movej(p[0.456018811529989, 0.0618978335532845, 0.416478851876889, -1.192, 0.952, -1.048], a = 0.2, v = 0.2, t = 0.100000000000023)
movej(p[0.456002328812823, 0.0618886119095718, 0.416475329260522, -1.192, 0.952, -1.048], a = 0.2, v = 0.2, t = 0.100000000000023)
movej(p[0.45598399420864, 0.0618813122449694, 0.416471937000488, -1.192, 0.952, -1.048], a = 0.2, v = 0.2, t = 0.100000000000023)
movej(p[0.455964437141892, 0.0618749289285396, 0.416466518773697, -1.192, 0.952, -1.048], a = 0.2, v = 0.2, t = 0.100000000000023)
movej(p[0.455944696976721, 0.0618680217237306, 0.416458408187729, -1.192, 0.952, -1.048], a = 0.2, v = 0.2, t = 0.100000000000023)
movej(p[0.455926100986594, 0.0618594895826512, 0.416447765269717, -1.192, 0.952, -1.048], a = 0.2, v = 0.2, t = 0.100000000000023)
movej(p[0.45590985096707, 0.0618504124195413, 0.416435865952916, -1.192, 0.952, -1.048], a = 0.2, v = 0.2, t = 0.100000000000023)
movej(p[0.455896691715944, 0.0618421654336972, 0.416423148037667, -1.192, 0.952, -1.048], a = 0.2, v = 0.2, t = 0.100000000000023)
movej(p[0.455887248720769, 0.0618359292432926, 0.416409459431735, -1.192, 0.952, -1.048], a = 0.2, v = 0.2, t = 0.100000000000023)
movej(p[0.455880630630142, 0.0618315101460295, 0.416394652713637, -1.192, 0.952, -1.048], a = 0.2, v = 0.2, t = 0.100000000000023)
movej(p[0.455874667882475, 0.0618292816567456, 0.416380105295145, -1.192, 0.952, -1.048], a = 0.2, v = 0.2, t = 0.100000000000023)
movej(p[0.455867863976953, 0.0618289809165044, 0.416367565683191, -1.192, 0.952, -1.048], a = 0.2, v = 0.2, t = 0.100000000000023)
movej(p[0.455860115508406, 0.0618291925010892, 0.416358577854024, -1.192, 0.952, -1.048], a = 0.2, v = 0.2, t = 0.100000000000023)
movej(p[0.455852571486487, 0.0618289827549853, 0.416353856621044, -1.192, 0.952, -1.048], a = 0.2, v = 0.2, t = 0.100000000000023)
movej(p[0.455845744124504, 0.0618274663802154, 0.416354743303012, -1.192, 0.952, -1.048], a = 0.2, v = 0.2, t = 0.100000000000023)
movej(p[0.455840824423264, 0.0618252891845537, 0.41636012571676, -1.192, 0.952, -1.048], a = 0.2, v = 0.2, t = 0.100000000000023)
movej(p[0.45583927830732, 0.0618229654535691, 0.416368294428886, -1.192, 0.952, -1.048], a = 0.2, v = 0.2, t = 0.100000000000023)
movej(p[0.455841964794806, 0.0618215822832596, 0.416377938185358, -1.192, 0.952, -1.048], a = 0.2, v = 0.2, t = 0.100000000000023)
movej(p[0.455848225494968, 0.0618210090375226, 0.416388388868053, -1.192, 0.952, -1.048], a = 0.2, v = 0.2, t = 0.100000000000023)
movej(p[0.455904327825914, 0.0618317536946866, 0.416468413546615, -1.192, 0.952, -1.048], a = 0.2, v = 0.2, t = 0.100000000000023)
movej(p[0.45622066897879, 0.0618996272366206, 0.416935204193268, -1.192, 0.952, -1.048], a = 0.2, v = 0.2, t = 0.100000000000023)
movej(p[0.456714522981924, 0.0620064535788881, 0.417666747378481, -1.192, 0.952, -1.048], a = 0.2, v = 0.2, t = 0.100000000000023)
movej(p[0.457283154870551, 0.0621298106234843, 0.418510214812843, -1.192, 0.952, -1.048], a = 0.2, v = 0.2, t = 0.100000000000023)
movej(p[0.457854767712569, 0.0622540116091648, 0.419358748826854, -1.192, 0.952, -1.048], a = 0.2, v = 0.2, t = 0.100000000000023)
movej(p[0.458383084940686, 0.0623689324964406, 0.420143423312322, -1.192, 0.952, -1.048], a = 0.2, v = 0.2, t = 0.100000000000023)
movej(p[0.458841854734986, 0.0624688120817747, 0.420825088452048, -1.192, 0.952, -1.048], a = 0.2, v = 0.2, t = 0.100000000000023)
movej(p[0.459219741092493, 0.062551146690218, 0.421386783453087, -1.192, 0.952, -1.048], a = 0.2, v = 0.2, t = 0.100000000000023)
movej(p[0.459515873195808, 0.0626157188435119, 0.421827120406126, -1.192, 0.952, -1.048], a = 0.2, v = 0.2, t = 0.100000000000023)
movej(p[0.459736156504497, 0.0626637932940184, 0.42215480844136, -1.192, 0.952, -1.048], a = 0.2, v = 0.2, t = 0.100000000000023)
movej(p[0.45989037760558, 0.0626974861001245, 0.422384339615904, -1.192, 0.952, -1.048], a = 0.2, v = 0.2, t = 0.100000000000023)
movej(p[0.459990048406395, 0.0627193693626092, 0.422533414134333, -1.192, 0.952, -1.048], a = 0.2, v = 0.2, t = 0.100000000000023)
movej(p[0.460046813377139, 0.0627323547826825, 0.422621469251492, -1.192, 0.952, -1.048], a = 0.2, v = 0.2, t = 0.100000000000023)
movej(p[0.460071398008875, 0.0627393772684241, 0.422664339661223, -1.192, 0.952, -1.048], a = 0.2, v = 0.2, t = 0.100000000000023)
movej(p[0.460074077519158, 0.062742499046793, 0.422674532986365, -1.192, 0.952, -1.048], a = 0.2, v = 0.2, t = 0.100000000000023)
movej(p[0.460063853598134, 0.0627410801109075, 0.422661571832641, -1.192, 0.952, -1.048], a = 0.2, v = 0.2, t = 0.100000000000023)
movej(p[0.460045480282987, 0.0627350895007715, 0.422633250629211, -1.192, 0.952, -1.048], a = 0.2, v = 0.2, t = 0.100000000000023)
movej(p[0.460020954891984, 0.0627259333050007, 0.422596834483889, -1.192, 0.952, -1.048], a = 0.2, v = 0.2, t = 0.100000000000023)
movej(p[0.459991762494298, 0.0627156572101192, 0.422556604857663, -1.192, 0.952, -1.048], a = 0.2, v = 0.2, t = 0.100000000000023)
movej(p[0.459959317589407, 0.062706034671479, 0.422517099328888, -1.192, 0.952, -1.048], a = 0.2, v = 0.2, t = 0.100000000000023)
movej(p[0.459925379874667, 0.0626985383701554, 0.422481026936818, -1.192, 0.952, -1.048], a = 0.2, v = 0.2, t = 0.100000000000023)
movej(p[0.45989211694053, 0.0626922020817191, 0.422449180836531, -1.192, 0.952, -1.048], a = 0.2, v = 0.2, t = 0.100000000000023)
movej(p[0.459861111150235, 0.0626865455398265, 0.42242124466301, -1.192, 0.952, -1.048], a = 0.2, v = 0.2, t = 0.100000000000023)
movej(p[0.459833232024248, 0.0626813368981287, 0.422397434727209, -1.192, 0.952, -1.048], a = 0.2, v = 0.2, t = 0.100000000000023)
movej(p[0.45980857242715, 0.0626768814661996, 0.422377656143758, -1.192, 0.952, -1.048], a = 0.2, v = 0.2, t = 0.100000000000023)
movej(p[0.459787444868523, 0.0626727649470612, 0.422361483475499, -1.192, 0.952, -1.048], a = 0.2, v = 0.2, t = 0.100000000000023)
movej(p[0.459771042163096, 0.0626684135783698, 0.422348352042173, -1.192, 0.952, -1.048], a = 0.2, v = 0.2, t = 0.100000000000023)
movej(p[0.459760469885489, 0.0626653085255566, 0.422337619897736, -1.192, 0.952, -1.048], a = 0.2, v = 0.2, t = 0.100000000000023)
movej(p[0.459756818650833, 0.0626638808731252, 0.422329984312426, -1.192, 0.952, -1.048], a = 0.2, v = 0.2, t = 0.100000000000023)
movej(p[0.459760073785868, 0.0626652382504308, 0.422325417180969, -1.192, 0.952, -1.048], a = 0.2, v = 0.2, t = 0.100000000000023)
movej(p[0.459770143364374, 0.0626705639254342, 0.422324420586526, -1.192, 0.952, -1.048], a = 0.2, v = 0.2, t = 0.100000000000023)
movej(p[0.459786690727773, 0.0626800803188816, 0.422327469729074, -1.192, 0.952, -1.048], a = 0.2, v = 0.2, t = 0.100000000000023)
movej(p[0.459807602743382, 0.0626910940398218, 0.422334038076144, -1.192, 0.952, -1.048], a = 0.2, v = 0.2, t = 0.100000000000023)
movej(p[0.459829614006026, 0.0626993188512292, 0.422344281903805, -1.192, 0.952, -1.048], a = 0.2, v = 0.2, t = 0.100000000000023)
movej(p[0.459850164197542, 0.0627031704168326, 0.42235512374175, -1.192, 0.952, -1.048], a = 0.2, v = 0.2, t = 0.100000000000023)
movej(p[0.45986850029856, 0.06270282033939, 0.422364744838947, -1.192, 0.952, -1.048], a = 0.2, v = 0.2, t = 0.100000000000023)
movej(p[0.459884138163329, 0.0626992033907259, 0.422372193940155, -1.192, 0.952, -1.048], a = 0.2, v = 0.2, t = 0.100000000000023)
movej(p[0.459896396825661, 0.0626934332774444, 0.422375832496125, -1.192, 0.952, -1.048], a = 0.2, v = 0.2, t = 0.100000000000023)
movej(p[0.459904790899069, 0.0626873604941302, 0.422375407754505, -1.192, 0.952, -1.048], a = 0.2, v = 0.2, t = 0.100000000000023)
movej(p[0.459907105385578, 0.0626827687308746, 0.422371702584144, -1.192, 0.952, -1.048], a = 0.2, v = 0.2, t = 0.100000000000023)
movej(p[0.459901755518175, 0.0626812225538314, 0.422366690959526, -1.192, 0.952, -1.048], a = 0.2, v = 0.2, t = 0.100000000000023)
movej(p[0.459890132774795, 0.0626829466506517, 0.42235988297697, -1.192, 0.952, -1.048], a = 0.2, v = 0.2, t = 0.100000000000023)
movej(p[0.459875235555592, 0.0626856259348807, 0.422349114415783, -1.192, 0.952, -1.048], a = 0.2, v = 0.2, t = 0.100000000000023)
movej(p[0.459858595931195, 0.0626883125565892, 0.422334880667833, -1.192, 0.952, -1.048], a = 0.2, v = 0.2, t = 0.100000000000023)
movej(p[0.459840371659865, 0.0626917463311194, 0.422319173756361, -1.192, 0.952, -1.048], a = 0.2, v = 0.2, t = 0.100000000000023)
movej(p[0.459821478850114, 0.0626962622887702, 0.422304032341196, -1.192, 0.952, -1.048], a = 0.2, v = 0.2, t = 0.100000000000023)
movej(p[0.45980383777797, 0.0627007151188759, 0.422291759604799, -1.192, 0.952, -1.048], a = 0.2, v = 0.2, t = 0.100000000000023)
movej(p[0.459788905229387, 0.0627040681967535, 0.422284748986526, -1.192, 0.952, -1.048], a = 0.2, v = 0.2, t = 0.100000000000023)
movej(p[0.459778131269434, 0.0627064055242366, 0.422284238108691, -1.192, 0.952, -1.048], a = 0.2, v = 0.2, t = 0.100000000000023)
movej(p[0.459773330565863, 0.0627082856841487, 0.422288497390077, -1.192, 0.952, -1.048], a = 0.2, v = 0.2, t = 0.100000000000023)
movej(p[0.459775021542807, 0.0627100294438794, 0.422296037587354, -1.192, 0.952, -1.048], a = 0.2, v = 0.2, t = 0.100000000000023)
movej(p[0.45978502296301, 0.0627122307599798, 0.422303980114116, -1.192, 0.952, -1.048], a = 0.2, v = 0.2, t = 0.100000000000023)
movej(p[0.459802481346527, 0.0627124749270838, 0.422311738844966, -1.192, 0.952, -1.048], a = 0.2, v = 0.2, t = 0.100000000000023)
movej(p[0.459825711154734, 0.0627089871755029, 0.422319129662821, -1.192, 0.952, -1.048], a = 0.2, v = 0.2, t = 0.100000000000023)
movej(p[0.459851597382033, 0.0627017564222539, 0.422326374926147, -1.192, 0.952, -1.048], a = 0.2, v = 0.2, t = 0.100000000000023)
movej(p[0.459877444874552, 0.0626920964832304, 0.422334633909894, -1.192, 0.952, -1.048], a = 0.2, v = 0.2, t = 0.100000000000023)
movej(p[0.459902165537711, 0.062681130189677, 0.422342723446204, -1.192, 0.952, -1.048], a = 0.2, v = 0.2, t = 0.100000000000023)
movej(p[0.459925594762533, 0.0626702371012721, 0.422348678926977, -1.192, 0.952, -1.048], a = 0.2, v = 0.2, t = 0.100000000000023)
movej(p[0.459948403433291, 0.0626619352508378, 0.422351835032743, -1.192, 0.952, -1.048], a = 0.2, v = 0.2, t = 0.100000000000023)
movej(p[0.459969975080476, 0.0626570924609619, 0.422351041495141, -1.192, 0.952, -1.048], a = 0.2, v = 0.2, t = 0.100000000000023)
movej(p[0.45998803975108, 0.0626551532748324, 0.422346945784688, -1.192, 0.952, -1.048], a = 0.2, v = 0.2, t = 0.100000000000023)
movej(p[0.46000113971307, 0.0626550783987999, 0.422338720566487, -1.192, 0.952, -1.048], a = 0.2, v = 0.2, t = 0.100000000000023)
movej(p[0.460008981813232, 0.0626567006655201, 0.422328252534545, -1.192, 0.952, -1.048], a = 0.2, v = 0.2, t = 0.100000000000023)
movej(p[0.460011630741198, 0.0626585661356913, 0.422316801058846, -1.192, 0.952, -1.048], a = 0.2, v = 0.2, t = 0.100000000000023)
movej(p[0.460008312806835, 0.0626590853443535, 0.422304166906562, -1.192, 0.952, -1.048], a = 0.2, v = 0.2, t = 0.100000000000023)
movej(p[0.459999234548596, 0.0626575062654955, 0.422287976975979, -1.192, 0.952, -1.048], a = 0.2, v = 0.2, t = 0.100000000000023)
movej(p[0.459985948056676, 0.0626547033701575, 0.422268548203084, -1.192, 0.952, -1.048], a = 0.2, v = 0.2, t = 0.100000000000023)
movej(p[0.459971060187623, 0.0626506208605396, 0.422246804102659, -1.192, 0.952, -1.048], a = 0.2, v = 0.2, t = 0.100000000000023)
movej(p[0.459957047148962, 0.0626456326426326, 0.422222435238763, -1.192, 0.952, -1.048], a = 0.2, v = 0.2, t = 0.100000000000023)
movej(p[0.459944308804563, 0.0626414415708371, 0.422197294794272, -1.192, 0.952, -1.048], a = 0.2, v = 0.2, t = 0.100000000000023)
movej(p[0.459932552157677, 0.0626394681249622, 0.422174438720433, -1.192, 0.952, -1.048], a = 0.2, v = 0.2, t = 0.100000000000023)
movej(p[0.459922986990166, 0.0626403514666634, 0.422157749091589, -1.192, 0.952, -1.048], a = 0.2, v = 0.2, t = 0.100000000000023)
movej(p[0.45991726521143, 0.0626433816709727, 0.422147903124753, -1.192, 0.952, -1.048], a = 0.2, v = 0.2, t = 0.100000000000023)
movej(p[0.459917213457401, 0.0626478475959354, 0.422142820555447, -1.192, 0.952, -1.048], a = 0.2, v = 0.2, t = 0.100000000000023)
movej(p[0.459922759655879, 0.0626522491688462, 0.422141959598219, -1.192, 0.952, -1.048], a = 0.2, v = 0.2, t = 0.100000000000023)
movej(p[0.459933641504062, 0.0626569590176266, 0.422144602610628, -1.192, 0.952, -1.048], a = 0.2, v = 0.2, t = 0.100000000000023)
movej(p[0.459948404288242, 0.0626622106934655, 0.42214870640133, -1.192, 0.952, -1.048], a = 0.2, v = 0.2, t = 0.100000000000023)
movej(p[0.459965454445958, 0.0626677072952112, 0.422152637196049, -1.192, 0.952, -1.048], a = 0.2, v = 0.2, t = 0.100000000000023)
movej(p[0.459981987915539, 0.0626735461957737, 0.422156818609784, -1.192, 0.952, -1.048], a = 0.2, v = 0.2, t = 0.100000000000023)
movej(p[0.459996616162584, 0.0626788419967299, 0.422162421705236, -1.192, 0.952, -1.048], a = 0.2, v = 0.2, t = 0.100000000000023)
movej(p[0.46000887766259, 0.062683684946021, 0.422169097769852, -1.192, 0.952, -1.048], a = 0.2, v = 0.2, t = 0.100000000000023)
movej(p[0.46001889876338, 0.0626878005779063, 0.422174262297918, -1.192, 0.952, -1.048], a = 0.2, v = 0.2, t = 0.100000000000023)
movej(p[0.460027598574917, 0.062691481591372, 0.422177241524508, -1.192, 0.952, -1.048], a = 0.2, v = 0.2, t = 0.100000000000023)
movej(p[0.460036054390603, 0.0626956497930818, 0.422179428665472, -1.192, 0.952, -1.048], a = 0.2, v = 0.2, t = 0.100000000000023)
movej(p[0.460045061614635, 0.0626988297068453, 0.422178922088045, -1.192, 0.952, -1.048], a = 0.2, v = 0.2, t = 0.100000000000023)
movej(p[0.46005331796597, 0.0627000937560566, 0.422174489412529, -1.192, 0.952, -1.048], a = 0.2, v = 0.2, t = 0.100000000000023)
movej(p[0.46005865006592, 0.0626978874292698, 0.422166554475275, -1.192, 0.952, -1.048], a = 0.2, v = 0.2, t = 0.100000000000023)
movej(p[0.460058895361793, 0.0626926658059496, 0.422158708099243, -1.192, 0.952, -1.048], a = 0.2, v = 0.2, t = 0.100000000000023)
movej(p[0.46005227634151, 0.0626868358634083, 0.422150416243211, -1.192, 0.952, -1.048], a = 0.2, v = 0.2, t = 0.100000000000023)
movej(p[0.460040124645635, 0.0626824402360903, 0.422138863648055, -1.192, 0.952, -1.048], a = 0.2, v = 0.2, t = 0.100000000000023)
movej(p[0.460024338300337, 0.0626792712927931, 0.422122737725895, -1.192, 0.952, -1.048], a = 0.2, v = 0.2, t = 0.100000000000023)
movej(p[0.460006277597882, 0.0626766802751457, 0.422104414837084, -1.192, 0.952, -1.048], a = 0.2, v = 0.2, t = 0.100000000000023)
movej(p[0.45998671271485, 0.0626746855778413, 0.422087674681301, -1.192, 0.952, -1.048], a = 0.2, v = 0.2, t = 0.100000000000023)
movej(p[0.459965747636544, 0.0626729084483117, 0.422074788744306, -1.192, 0.952, -1.048], a = 0.2, v = 0.2, t = 0.100000000000023)
movej(p[0.459944966989816, 0.0626716060096996, 0.422065700577647, -1.192, 0.952, -1.048], a = 0.2, v = 0.2, t = 0.100000000000023)
movej(p[0.4599253369209, 0.0626701767185813, 0.422058719834329, -1.192, 0.952, -1.048], a = 0.2, v = 0.2, t = 0.100000000000023)
movej(p[0.459907581096028, 0.0626685165759538, 0.422052485314736, -1.192, 0.952, -1.048], a = 0.2, v = 0.2, t = 0.100000000000023)
movej(p[0.459891949353006, 0.0626659710407315, 0.422046899284345, -1.192, 0.952, -1.048], a = 0.2, v = 0.2, t = 0.100000000000023)
movej(p[0.459879091727357, 0.0626626761914525, 0.422042755346616, -1.192, 0.952, -1.048], a = 0.2, v = 0.2, t = 0.100000000000023)
movej(p[0.459872015315595, 0.0626592290971599, 0.422041875981209, -1.192, 0.952, -1.048], a = 0.2, v = 0.2, t = 0.100000000000023)
movej(p[0.459873204148157, 0.062655039799495, 0.422045477756218, -1.192, 0.952, -1.048], a = 0.2, v = 0.2, t = 0.100000000000023)
movej(p[0.459882133659682, 0.0626503977586726, 0.422053191335798, -1.192, 0.952, -1.048], a = 0.2, v = 0.2, t = 0.100000000000023)
movej(p[0.45989681830637, 0.0626462995171034, 0.42206317578539, -1.192, 0.952, -1.048], a = 0.2, v = 0.2, t = 0.100000000000023)
movej(p[0.459916092865806, 0.06264350612906, 0.422073739666817, -1.192, 0.952, -1.048], a = 0.2, v = 0.2, t = 0.100000000000023)
movej(p[0.459938787579455, 0.0626412798195376, 0.422082438062489, -1.192, 0.952, -1.048], a = 0.2, v = 0.2, t = 0.100000000000023)
movej(p[0.45996301325397, 0.0626384273908155, 0.422088708295157, -1.192, 0.952, -1.048], a = 0.2, v = 0.2, t = 0.100000000000023)
movej(p[0.459987028549432, 0.0626346655864347, 0.422093320823819, -1.192, 0.952, -1.048], a = 0.2, v = 0.2, t = 0.100000000000023)
movej(p[0.460009127297445, 0.0626302919920661, 0.4220952523415, -1.192, 0.952, -1.048], a = 0.2, v = 0.2, t = 0.100000000000023)
movej(p[0.460027430786639, 0.0626259003505208, 0.422094031896967, -1.192, 0.952, -1.048], a = 0.2, v = 0.2, t = 0.100000000000023)
movej(p[0.460040022566325, 0.0626224894133392, 0.422089527952709, -1.192, 0.952, -1.048], a = 0.2, v = 0.2, t = 0.100000000000023)
movej(p[0.460045819727451, 0.0626210078251963, 0.422083319945101, -1.192, 0.952, -1.048], a = 0.2, v = 0.2, t = 0.100000000000023)
movej(p[0.460045061150411, 0.0626210652810646, 0.422074641809431, -1.192, 0.952, -1.048], a = 0.2, v = 0.2, t = 0.100000000000023)
movej(p[0.46003843404706, 0.0626225649836651, 0.422063164954536, -1.192, 0.952, -1.048], a = 0.2, v = 0.2, t = 0.100000000000023)
movej(p[0.460027307959516, 0.0626258010232466, 0.422050385517546, -1.192, 0.952, -1.048], a = 0.2, v = 0.2, t = 0.100000000000023)
movej(p[0.460012801844303, 0.0626302709334577, 0.422038141544124, -1.192, 0.952, -1.048], a = 0.2, v = 0.2, t = 0.100000000000023)
movej(p[0.459995282754039, 0.062635840310671, 0.42202611639403, -1.192, 0.952, -1.048], a = 0.2, v = 0.2, t = 0.100000000000023)
movej(p[0.45997432942708, 0.0626418056368399, 0.422014161413351, -1.192, 0.952, -1.048], a = 0.2, v = 0.2, t = 0.100000000000023)
movej(p[0.459950616744855, 0.062647704257083, 0.422001867325263, -1.192, 0.952, -1.048], a = 0.2, v = 0.2, t = 0.100000000000023)
movej(p[0.459925979783053, 0.0626524605409554, 0.421990119074037, -1.192, 0.952, -1.048], a = 0.2, v = 0.2, t = 0.100000000000023)
movej(p[0.459903724722863, 0.0626546712365907, 0.421979146957617, -1.192, 0.952, -1.048], a = 0.2, v = 0.2, t = 0.100000000000023)
movej(p[0.459885952617432, 0.0626550479251017, 0.421971084412899, -1.192, 0.952, -1.048], a = 0.2, v = 0.2, t = 0.100000000000023)
movej(p[0.459872936955026, 0.0626538266326047, 0.421967211999855, -1.192, 0.952, -1.048], a = 0.2, v = 0.2, t = 0.100000000000023)
movej(p[0.459863676833941, 0.0626517167606962, 0.421968420032562, -1.192, 0.952, -1.048], a = 0.2, v = 0.2, t = 0.100000000000023)
movej(p[0.459858656878673, 0.0626503712572407, 0.421975477852591, -1.192, 0.952, -1.048], a = 0.2, v = 0.2, t = 0.100000000000023)
movej(p[0.459859421439656, 0.0626488338280441, 0.421986881252126, -1.192, 0.952, -1.048], a = 0.2, v = 0.2, t = 0.100000000000023)
movej(p[0.459867144279436, 0.0626460872038389, 0.42200026632535, -1.192, 0.952, -1.048], a = 0.2, v = 0.2, t = 0.100000000000023)
movej(p[0.459881231021911, 0.0626428224907913, 0.422012906001064, -1.192, 0.952, -1.048], a = 0.2, v = 0.2, t = 0.100000000000023)
movej(p[0.459900144360269, 0.0626402392951464, 0.42202389690414, -1.192, 0.952, -1.048], a = 0.2, v = 0.2, t = 0.100000000000023)
movej(p[0.459921567523123, 0.0626382352931858, 0.422032395770564, -1.192, 0.952, -1.048], a = 0.2, v = 0.2, t = 0.100000000000023)
movej(p[0.459942429074648, 0.0626362073973639, 0.422038711741708, -1.192, 0.952, -1.048], a = 0.2, v = 0.2, t = 0.100000000000023)
movej(p[0.459960863360963, 0.0626346154477984, 0.422044063935149, -1.192, 0.952, -1.048], a = 0.2, v = 0.2, t = 0.100000000000023)
movej(p[0.459975947036743, 0.0626334974053383, 0.422048127608859, -1.192, 0.952, -1.048], a = 0.2, v = 0.2, t = 0.100000000000023)
movej(p[0.459986499996307, 0.0626321889170831, 0.422048817432696, -1.192, 0.952, -1.048], a = 0.2, v = 0.2, t = 0.100000000000023)
movej(p[0.459991100805736, 0.0626299559624394, 0.422045062942562, -1.192, 0.952, -1.048], a = 0.2, v = 0.2, t = 0.100000000000023)
movej(p[0.459989605840217, 0.0626278847709395, 0.422039124324805, -1.192, 0.952, -1.048], a = 0.2, v = 0.2, t = 0.100000000000023)
movej(p[0.45998189349444, 0.0626274345653849, 0.422033326920681, -1.192, 0.952, -1.048], a = 0.2, v = 0.2, t = 0.100000000000023)
movej(p[0.459967823421061, 0.0626292873622669, 0.422028777811997, -1.192, 0.952, -1.048], a = 0.2, v = 0.2, t = 0.100000000000023)
movej(p[0.459947828298825, 0.0626328532818383, 0.422026790526824, -1.192, 0.952, -1.048], a = 0.2, v = 0.2, t = 0.100000000000023)
movej(p[0.459924191606861, 0.0626371809198945, 0.422027188183551, -1.192, 0.952, -1.048], a = 0.2, v = 0.2, t = 0.100000000000023)
movej(p[0.459898415515226, 0.0626424535068273, 0.422028653080487, -1.192, 0.952, -1.048], a = 0.2, v = 0.2, t = 0.100000000000023)
movej(p[0.459871880205753, 0.0626478441974199, 0.422028443533098, -1.192, 0.952, -1.048], a = 0.2, v = 0.2, t = 0.100000000000023)
movej(p[0.459846402283461, 0.062651834454867, 0.422024210037355, -1.192, 0.952, -1.048], a = 0.2, v = 0.2, t = 0.100000000000023)
movej(p[0.459823045387587, 0.0626539627763186, 0.422017526989553, -1.192, 0.952, -1.048], a = 0.2, v = 0.2, t = 0.100000000000023)
movej(p[0.459803058259623, 0.0626557176600884, 0.422012017884478, -1.192, 0.952, -1.048], a = 0.2, v = 0.2, t = 0.100000000000023)
movej(p[0.459788551362308, 0.0626580148097612, 0.422009157705174, -1.192, 0.952, -1.048], a = 0.2, v = 0.2, t = 0.100000000000023)
movej(p[0.459781929593025, 0.0626596515775629, 0.422009105010452, -1.192, 0.952, -1.048], a = 0.2, v = 0.2, t = 0.100000000000023)
movej(p[0.459783370461316, 0.0626590435496164, 0.422011169753192, -1.192, 0.952, -1.048], a = 0.2, v = 0.2, t = 0.100000000000023)
movej(p[0.459791584499369, 0.0626562643631455, 0.42201360170846, -1.192, 0.952, -1.048], a = 0.2, v = 0.2, t = 0.100000000000023)
movej(p[0.459806067523603, 0.0626532501142922, 0.422015402164763, -1.192, 0.952, -1.048], a = 0.2, v = 0.2, t = 0.100000000000023)
movej(p[0.459825038606575, 0.0626521749476265, 0.422017398025862, -1.192, 0.952, -1.048], a = 0.2, v = 0.2, t = 0.100000000000023)
movej(p[0.459846784869746, 0.0626529857684676, 0.422021351533248, -1.192, 0.952, -1.048], a = 0.2, v = 0.2, t = 0.100000000000023)
movej(p[0.459870245983093, 0.0626541062617808, 0.422027574218864, -1.192, 0.952, -1.048], a = 0.2, v = 0.2, t = 0.100000000000023)
movej(p[0.459895193407839, 0.062654329365845, 0.422034002143264, -1.192, 0.952, -1.048], a = 0.2, v = 0.2, t = 0.100000000000023)
movej(p[0.459921603593218, 0.062655062601382, 0.422039594108206, -1.192, 0.952, -1.048], a = 0.2, v = 0.2, t = 0.100000000000023)
movej(p[0.459949013807901, 0.0626573444257941, 0.422044789735055, -1.192, 0.952, -1.048], a = 0.2, v = 0.2, t = 0.100000000000023)
movej(p[0.459975825025443, 0.0626602760821056, 0.422050055175417, -1.192, 0.952, -1.048], a = 0.2, v = 0.2, t = 0.100000000000023)
movej(p[0.459999428784529, 0.0626622613428389, 0.422056099556511, -1.192, 0.952, -1.048], a = 0.2, v = 0.2, t = 0.100000000000023)
movej(p[0.460018236434195, 0.0626622751617111, 0.42206099026373, -1.192, 0.952, -1.048], a = 0.2, v = 0.2, t = 0.100000000000023)
movej(p[0.460031420745289, 0.0626608633642553, 0.422062296811438, -1.192, 0.952, -1.048], a = 0.2, v = 0.2, t = 0.100000000000023)
movej(p[0.460039515657223, 0.0626574208304342, 0.422060132938133, -1.192, 0.952, -1.048], a = 0.2, v = 0.2, t = 0.100000000000023)
movej(p[0.46004186917872, 0.0626515718849067, 0.422056136692173, -1.192, 0.952, -1.048], a = 0.2, v = 0.2, t = 0.100000000000023)
movej(p[0.46003940131684, 0.0626439966916049, 0.422050449756427, -1.192, 0.952, -1.048], a = 0.2, v = 0.2, t = 0.100000000000023)
movej(p[0.460033276964838, 0.0626353415957195, 0.422040777833051, -1.192, 0.952, -1.048], a = 0.2, v = 0.2, t = 0.100000000000023)
movej(p[0.460024037057299, 0.0626267538040456, 0.422029771550717, -1.192, 0.952, -1.048], a = 0.2, v = 0.2, t = 0.100000000000023)
movej(p[0.460011822072026, 0.0626200715901102, 0.422019505980849, -1.192, 0.952, -1.048], a = 0.2, v = 0.2, t = 0.100000000000023)
movej(p[0.459997522670538, 0.0626160389964732, 0.422011224394429, -1.192, 0.952, -1.048], a = 0.2, v = 0.2, t = 0.100000000000023)
movej(p[0.45998306262848, 0.0626132625243185, 0.422003519715652, -1.192, 0.952, -1.048], a = 0.2, v = 0.2, t = 0.100000000000023)
movej(p[0.459969235174674, 0.0626099664662079, 0.421996110682843, -1.192, 0.952, -1.048], a = 0.2, v = 0.2, t = 0.100000000000023)
movej(p[0.459956414947124, 0.0626054465951191, 0.421991484669448, -1.192, 0.952, -1.048], a = 0.2, v = 0.2, t = 0.100000000000023)
movej(p[0.459945716578109, 0.0626008132169519, 0.421990971394496, -1.192, 0.952, -1.048], a = 0.2, v = 0.2, t = 0.100000000000023)
movej(p[0.459937572725529, 0.0625963978653038, 0.421995502350132, -1.192, 0.952, -1.048], a = 0.2, v = 0.2, t = 0.100000000000023)
movej(p[0.459933272206309, 0.0625936108131756, 0.422004259847541, -1.192, 0.952, -1.048], a = 0.2, v = 0.2, t = 0.100000000000023)
movej(p[0.459934600186946, 0.0625937186305957, 0.422017623741877, -1.192, 0.952, -1.048], a = 0.2, v = 0.2, t = 0.100000000000023)
movej(p[0.459942273586523, 0.0625977294591925, 0.422033153200396, -1.192, 0.952, -1.048], a = 0.2, v = 0.2, t = 0.100000000000023)
movej(p[0.459955681280829, 0.0626044200598836, 0.422048951414372, -1.192, 0.952, -1.048], a = 0.2, v = 0.2, t = 0.100000000000023)
movej(p[0.459973296754009, 0.0626116663310201, 0.422063312000337, -1.192, 0.952, -1.048], a = 0.2, v = 0.2, t = 0.100000000000023)
movej(p[0.459993484588887, 0.0626185078968369, 0.42207702593114, -1.192, 0.952, -1.048], a = 0.2, v = 0.2, t = 0.100000000000023)
movej(p[0.460014411181743, 0.0626253273985531, 0.422091442689681, -1.192, 0.952, -1.048], a = 0.2, v = 0.2, t = 0.100000000000023)
movej(p[0.460034375421837, 0.0626315790708672, 0.422106537126561, -1.192, 0.952, -1.048], a = 0.2, v = 0.2, t = 0.100000000000023)
movej(p[0.460053564219349, 0.0626366708851616, 0.422120570462987, -1.192, 0.952, -1.048], a = 0.2, v = 0.2, t = 0.100000000000023)
movej(p[0.460072003394351, 0.0626397455086799, 0.422131519456294, -1.192, 0.952, -1.048], a = 0.2, v = 0.2, t = 0.100000000000023)
movej(p[0.460089471263348, 0.062641964344432, 0.422139065478997, -1.192, 0.952, -1.048], a = 0.2, v = 0.2, t = 0.100000000000023)
movej(p[0.460104087599983, 0.0626434889349976, 0.422144177258529, -1.192, 0.952, -1.048], a = 0.2, v = 0.2, t = 0.100000000000023)
movej(p[0.460112124595725, 0.0626448760011065, 0.422146067231822, -1.192, 0.952, -1.048], a = 0.2, v = 0.2, t = 0.100000000000023)
movej(p[0.460111045683148, 0.062646350429611, 0.422142124109425, -1.192, 0.952, -1.048], a = 0.2, v = 0.2, t = 0.100000000000023)
movej(p[0.460101685081649, 0.062647814579933, 0.422132366311804, -1.192, 0.952, -1.048], a = 0.2, v = 0.2, t = 0.100000000000023)
movej(p[0.460086181990488, 0.0626494337571169, 0.422119374553544, -1.192, 0.952, -1.048], a = 0.2, v = 0.2, t = 0.100000000000023)
movej(p[0.460065578752993, 0.0626508586682399, 0.422105142422325, -1.192, 0.952, -1.048], a = 0.2, v = 0.2, t = 0.100000000000023)
movej(p[0.460040645196939, 0.0626518385831239, 0.422089956626319, -1.192, 0.952, -1.048], a = 0.2, v = 0.2, t = 0.100000000000023)
movej(p[0.460012903448904, 0.0626524657463069, 0.422074752228427, -1.192, 0.952, -1.048], a = 0.2, v = 0.2, t = 0.100000000000023)
movej(p[0.459982487470779, 0.062653156806882, 0.422060187151701, -1.192, 0.952, -1.048], a = 0.2, v = 0.2, t = 0.100000000000023)
movej(p[0.45995082044714, 0.062653926265462, 0.422046370007375, -1.192, 0.952, -1.048], a = 0.2, v = 0.2, t = 0.100000000000023)
movej(p[0.459920259305708, 0.0626549792678268, 0.422032541353595, -1.192, 0.952, -1.048], a = 0.2, v = 0.2, t = 0.100000000000023)
movej(p[0.459892682630009, 0.0626564334699908, 0.422018030153111, -1.192, 0.952, -1.048], a = 0.2, v = 0.2, t = 0.100000000000023)
movej(p[0.459869592678887, 0.0626585030679998, 0.42200536635067, -1.192, 0.952, -1.048], a = 0.2, v = 0.2, t = 0.100000000000023)
