def moving():
set_payload_mass(0)
set_tcp(p[0,0,0,0,0,0])
movej(p[0.308, -0.1042, 0.473, -0.645, 1.47, -0.64], a = 0.2, v = 0.2, t = 0.2)
movej(p[0.308134206545267, -0.104215553987292, 0.472979703776536, -0.644780372978466, 1.47004111436189, -0.639755768074641], a = 0.2, v = 0.2, t = 0.2)
movej(p[0.308268513089449, -0.104231107550867, 0.472959407746141, -0.6445607523709, 1.47008220648141, -0.639511528846847], a = 0.2, v = 0.2, t = 0.2)
movej(p[0.3082776129908, -0.104231068992609, 0.472959425315312, -0.644331922067202, 1.47015332411828, -0.639281942433139], a = 0.2, v = 0.2, t = 0.2)
movej(p[0.308277600278037, -0.104253731997892, 0.473015747318383, -0.644281914267468, 1.47019865859109, -0.639254224491283], a = 0.2, v = 0.2, t = 0.2)
movej(p[0.307697739484813, -0.104341340057604, 0.473495225230653, -0.644723184534891, 1.47421380715597, -0.633587080429554], a = 0.2, v = 0.2, t = 0.2)
movej(p[0.307697739484813, -0.104341340057604, 0.473495225230653, -0.644393368773949, 1.47446660651174, -0.633371065902444], a = 0.2, v = 0.2, t = 0.2)
movej(p[0.307893818191224, -0.104342630144469, 0.473406596022329, -0.644385264719199, 1.4744624165197, -0.633378410893394], a = 0.2, v = 0.2, t = 0.2)
movej(p[0.307893813479104, -0.104330970014274, 0.473383446695306, -0.643304867392932, 1.47302628608035, -0.635308671949949], a = 0.2, v = 0.2, t = 0.2)
movej(p[0.307893761108834, -0.104295633275724, 0.473333019796075, -0.641481817299759, 1.47094991530328, -0.637924739752784], a = 0.2, v = 0.2, t = 0.2)
movej(p[0.308179357944324, -0.104209946185189, 0.47309641364638, -0.640740423999733, 1.46887721790676, -0.642068816597662], a = 0.2, v = 0.2, t = 0.2)
movej(p[0.308841191742179, -0.10434663326997, 0.472968242842874, -0.641358502493865, 1.46868369976625, -0.642687942752343], a = 0.2, v = 0.2, t = 0.2)
movej(p[0.30899443661541, -0.10441252181881, 0.472986873139703, -0.641368571072993, 1.46847874555863, -0.642792301764459], a = 0.2, v = 0.2, t = 0.2)
movej(p[0.309009494085652, -0.104430100086981, 0.47299576904202, -0.642267815228598, 1.46783128651972, -0.644609323947095], a = 0.2, v = 0.2, t = 0.2)
movej(p[0.309010273123041, -0.10441853868231, 0.472981257769754, -0.641400521038473, 1.4671685131232, -0.645864136861736], a = 0.2, v = 0.2, t = 0.2)
movej(p[0.3092674872486, -0.104494684428799, 0.472935318147372, -0.641641243216615, 1.46689024597379, -0.646935495720048], a = 0.2, v = 0.2, t = 0.2)
movej(p[0.309333923832836, -0.104555739949609, 0.472947147502961, -0.640654204789486, 1.46721505402123, -0.64661833585554], a = 0.2, v = 0.2, t = 0.2)
movej(p[0.309333944518483, -0.104565331150606, 0.472957482803419, -0.639727774010622, 1.46823611966398, -0.646241082996585], a = 0.2, v = 0.2, t = 0.2)
movej(p[0.30928246729872, -0.104552648330342, 0.472969355541754, -0.640029355505556, 1.46849581197403, -0.645738574224302], a = 0.2, v = 0.2, t = 0.2)
movej(p[0.308706691116301, -0.104571577585105, 0.473254305749814, -0.642211290169258, 1.47090181749053, -0.639160309128108], a = 0.2, v = 0.2, t = 0.2)
movej(p[0.307053734783701, -0.10459290558214, 0.474046143529323, -0.645252625442649, 1.47680173736132, -0.626092381328753], a = 0.2, v = 0.2, t = 0.2)
movej(p[0.305499959841507, -0.104402277251367, 0.474641982566748, -0.639822281264288, 1.48113090147258, -0.614173263857443], a = 0.2, v = 0.2, t = 0.2)
movej(p[0.303464134392095, -0.104611421580537, 0.475724275927671, -0.635560758113375, 1.48548164476546, -0.607692460070833], a = 0.2, v = 0.2, t = 0.2)
movej(p[0.299233385292898, -0.104436437462473, 0.477620913931633, -0.623095544144093, 1.49801909771298, -0.582010930561532], a = 0.2, v = 0.2, t = 0.2)
movej(p[0.296844154428554, -0.104516155756742, 0.478782549111207, -0.618613785821427, 1.49944999292609, -0.577684643826945], a = 0.2, v = 0.2, t = 0.2)
movej(p[0.296844186704031, -0.104531120751204, 0.478798675111921, -0.61743953143986, 1.50277143709501, -0.57933700599748], a = 0.2, v = 0.2, t = 0.2)
movej(p[0.297701851460286, -0.10485492130342, 0.478496470300139, -0.615028617104422, 1.50068328632512, -0.583970157480879], a = 0.2, v = 0.2, t = 0.2)
movej(p[0.299962387008538, -0.104498071594076, 0.477293226775315, -0.616253967543954, 1.49384443733035, -0.596859495893602], a = 0.2, v = 0.2, t = 0.2)
movej(p[0.302292049252846, -0.104286522200466, 0.476136451714421, -0.628271813711171, 1.48666012808553, -0.613150321315088], a = 0.2, v = 0.2, t = 0.2)
movej(p[0.304359514148953, -0.104143770034855, 0.475127817066701, -0.631805630994871, 1.48053842144237, -0.626270339147933], a = 0.2, v = 0.2, t = 0.2)
movej(p[0.30619928488575, -0.104191160147048, 0.47427319895708, -0.634925985788413, 1.4765097502917, -0.63437406451677], a = 0.2, v = 0.2, t = 0.2)
movej(p[0.306931575837356, -0.104296189124352, 0.473942751675169, -0.639388898539892, 1.47338190236397, -0.638433423131356], a = 0.2, v = 0.2, t = 0.2)
movej(p[0.307513574775689, -0.104263558501903, 0.473667775424817, -0.63931193687722, 1.47334191562482, -0.638503145343682], a = 0.2, v = 0.2, t = 0.2)
movej(p[0.308163850838457, -0.104360128973081, 0.473377811123072, -0.638208782454122, 1.47166403397021, -0.641594330920056], a = 0.2, v = 0.2, t = 0.2)
movej(p[0.308616997092501, -0.104436057077203, 0.473160467143513, -0.640643380569026, 1.47035480981244, -0.643611878478025], a = 0.2, v = 0.2, t = 0.2)
movej(p[0.308835719455235, -0.104415320152686, 0.47305280676082, -0.640510770104185, 1.46948131378732, -0.643582743251058], a = 0.2, v = 0.2, t = 0.2)
movej(p[0.308998639091024, -0.104567461990363, 0.472911292438213, -0.642544463645181, 1.46837886351157, -0.641348465316297], a = 0.2, v = 0.2, t = 0.2)
movej(p[0.308998707309647, -0.10459909254684, 0.472945376939722, -0.641289735082567, 1.46942596686738, -0.638098585583435], a = 0.2, v = 0.2, t = 0.2)
movej(p[0.308704848523517, -0.104492212053234, 0.47310217653762, -0.641478995156306, 1.46975171113915, -0.63740469870598], a = 0.2, v = 0.2, t = 0.2)
movej(p[0.307519233997929, -0.104568730059103, 0.47363354044446, -0.639294441197195, 1.47356740113569, -0.630169875804322], a = 0.2, v = 0.2, t = 0.2)
movej(p[0.305958738780317, -0.104433400493655, 0.474413000407849, -0.634059266063392, 1.47840561220865, -0.617214463869504], a = 0.2, v = 0.2, t = 0.2)
movej(p[0.305140227352747, -0.104462600169705, 0.474789178293769, -0.630017610161017, 1.48199000642138, -0.607376040146503], a = 0.2, v = 0.2, t = 0.2)
movej(p[0.302586227475529, -0.104483609563432, 0.47601217378131, -0.630712819081531, 1.48708159247409, -0.604023375992062], a = 0.2, v = 0.2, t = 0.2)
movej(p[0.300301699532423, -0.104387856899898, 0.477150352591777, -0.621972207562241, 1.49350442678667, -0.587003252285011], a = 0.2, v = 0.2, t = 0.2)
movej(p[0.297738609607032, -0.10453124979475, 0.478325960320597, -0.620890296441835, 1.49840494445417, -0.574077235870072], a = 0.2, v = 0.2, t = 0.2)
movej(p[0.297738609607032, -0.10453124979475, 0.478325960320597, -0.621081759015365, 1.49776256452833, -0.573794425085735], a = 0.2, v = 0.2, t = 0.2)
movej(p[0.298690591770239, -0.104520651227416, 0.477902921881085, -0.619623638955483, 1.49421230941816, -0.582503029834804], a = 0.2, v = 0.2, t = 0.2)
movej(p[0.301790907041881, -0.104425266041542, 0.476459995901438, -0.635478106579309, 1.48665649415967, -0.613094535469337], a = 0.2, v = 0.2, t = 0.2)
movej(p[0.303632867623605, -0.104265777198155, 0.475674574846073, -0.630699191643021, 1.48588949860768, -0.619344886229613], a = 0.2, v = 0.2, t = 0.2)
movej(p[0.305197783472265, -0.104397032344884, 0.474823716583452, -0.629584278506409, 1.48385231943415, -0.624447569300033], a = 0.2, v = 0.2, t = 0.2)
movej(p[0.306316994617691, -0.104376095094975, 0.474312120596837, -0.63140838963395, 1.48003050299817, -0.633389780267717], a = 0.2, v = 0.2, t = 0.2)
movej(p[0.307382452965291, -0.104430470844059, 0.473733879213468, -0.640693782391377, 1.47259046493488, -0.639153829766353], a = 0.2, v = 0.2, t = 0.2)
movej(p[0.30788102645304, -0.104414399726504, 0.473507959124732, -0.645079458887791, 1.46994851130741, -0.642002596218184], a = 0.2, v = 0.2, t = 0.2)
movej(p[0.3082521156129, -0.10440453062477, 0.473338612361357, -0.645079458887791, 1.46994851130741, -0.642002596218184], a = 0.2, v = 0.2, t = 0.2)
movej(p[0.308501340964814, -0.104396564202294, 0.473205806563005, -0.642144716834065, 1.47073572685217, -0.640714932796396], a = 0.2, v = 0.2, t = 0.2)
movej(p[0.308526479195669, -0.10441685347574, 0.473178878608524, -0.641485874349096, 1.47144992235416, -0.641503823566068], a = 0.2, v = 0.2, t = 0.2)
movej(p[0.308577830447633, -0.10441762747063, 0.473154319499143, -0.640763304554113, 1.47301037512903, -0.644302401852765], a = 0.2, v = 0.2, t = 0.2)
movej(p[0.308577830447633, -0.10441762747063, 0.473154319499143, -0.640739349356607, 1.47310416202614, -0.644343581952304], a = 0.2, v = 0.2, t = 0.2)
movej(p[0.307717856803856, -0.104361144758284, 0.47363342276068, -0.639350678275023, 1.47999907862286, -0.63647087987911], a = 0.2, v = 0.2, t = 0.2)
movej(p[0.30507016945799, -0.104161069577187, 0.475089331126768, -0.638736653305389, 1.48518149751642, -0.62412997318973], a = 0.2, v = 0.2, t = 0.2)
movej(p[0.303114749890778, -0.104221403490242, 0.4759978276403, -0.637647316263079, 1.48973734806903, -0.612515997812099], a = 0.2, v = 0.2, t = 0.2)
movej(p[0.300761571620308, -0.104294961882367, 0.477170700527845, -0.623009957590916, 1.4944348723447, -0.594899600260855], a = 0.2, v = 0.2, t = 0.2)
movej(p[0.298325744598279, -0.104306636907219, 0.478387933563277, -0.617914308568608, 1.49559576485628, -0.581937158338336], a = 0.2, v = 0.2, t = 0.2)
movej(p[0.296584728762219, -0.104496776350582, 0.479114422207832, -0.620133065720296, 1.49457213167922, -0.57957402828683], a = 0.2, v = 0.2, t = 0.2)
movej(p[0.296584728762219, -0.104496776350582, 0.479114422207832, -0.623611253577122, 1.4936216357321, -0.583080323192019], a = 0.2, v = 0.2, t = 0.2)
movej(p[0.297683208737439, -0.104519097072037, 0.478610200263214, -0.628466688965912, 1.49097308805647, -0.592735457392588], a = 0.2, v = 0.2, t = 0.2)
movej(p[0.30029287899757, -0.104409347161868, 0.477415283935346, -0.626141484364883, 1.48761166445285, -0.601197750694994], a = 0.2, v = 0.2, t = 0.2)
movej(p[0.303066790326496, -0.104398466511149, 0.476002639793782, -0.633323123942384, 1.48473594812026, -0.616910533050459], a = 0.2, v = 0.2, t = 0.2)
movej(p[0.305478330359441, -0.104419473950007, 0.474746667518204, -0.636696599328319, 1.48089105362889, -0.627053783463804], a = 0.2, v = 0.2, t = 0.2)
movej(p[0.306393704076486, -0.104448134902112, 0.474206778225879, -0.646852856698209, 1.47775770401911, -0.637156826497565], a = 0.2, v = 0.2, t = 0.2)
movej(p[0.307243558082962, -0.104498574100323, 0.473672730639086, -0.648266730432264, 1.47732681585768, -0.638570604779328], a = 0.2, v = 0.2, t = 0.2)
movej(p[0.307802000970013, -0.104495557147066, 0.473388055262743, -0.647470194602071, 1.47462982035676, -0.644524955836743], a = 0.2, v = 0.2, t = 0.2)
movej(p[0.308132593231018, -0.1044600302265, 0.473264155364122, -0.64731705016063, 1.47291642512133, -0.644368836286953], a = 0.2, v = 0.2, t = 0.2)
movej(p[0.308687355866523, -0.104469894593982, 0.472945705332717, -0.646424625628557, 1.47205849150615, -0.645105721901716], a = 0.2, v = 0.2, t = 0.2)
movej(p[0.308687355866523, -0.104469894593982, 0.472945705332717, -0.644096253059543, 1.47278212664947, -0.6427781158207], a = 0.2, v = 0.2, t = 0.2)
movej(p[0.308473733494096, -0.104418168240203, 0.473153343880014, -0.641977465629429, 1.47597838907427, -0.642332897948364], a = 0.2, v = 0.2, t = 0.2)
movej(p[0.307996803028516, -0.104375950996594, 0.473488155596271, -0.640680384041261, 1.47821347394844, -0.638299747102252], a = 0.2, v = 0.2, t = 0.2)
movej(p[0.30739944030792, -0.104330221378896, 0.473883084491273, -0.637056741118425, 1.48161915255046, -0.634183468040974], a = 0.2, v = 0.2, t = 0.2)
movej(p[0.305281710967597, -0.104311988684085, 0.47503766728171, -0.636305829783425, 1.48677965952153, -0.621799708884961], a = 0.2, v = 0.2, t = 0.2)
movej(p[0.303401849408894, -0.104319577797876, 0.476059762138103, -0.636054766179357, 1.49247669000602, -0.61295889822957], a = 0.2, v = 0.2, t = 0.2)
movej(p[0.301177080295733, -0.104373574776782, 0.477133887167786, -0.627081505440798, 1.49541824193738, -0.599851875012855], a = 0.2, v = 0.2, t = 0.2)
movej(p[0.298706115419721, -0.104479699220319, 0.478215246406893, -0.6186828978523, 1.49913077912564, -0.587939275187281], a = 0.2, v = 0.2, t = 0.2)
movej(p[0.297660833613397, -0.104549738416621, 0.478612641948323, -0.617235209453793, 1.5000721470462, -0.582114156464453], a = 0.2, v = 0.2, t = 0.2)
movej(p[0.297660833613397, -0.104549738416621, 0.478612641948323, -0.617713916162899, 1.4984547103067, -0.581398006690674], a = 0.2, v = 0.2, t = 0.2)
movej(p[0.300810601424289, -0.104463049513356, 0.477213661401095, -0.623854210891575, 1.48866910107228, -0.599985519566159], a = 0.2, v = 0.2, t = 0.2)
movej(p[0.302764695325793, -0.104482487527885, 0.476079160701363, -0.637151327596289, 1.48241429629192, -0.614506805365785], a = 0.2, v = 0.2, t = 0.2)
movej(p[0.304728692978458, -0.104482310490603, 0.474951519699543, -0.642161432187411, 1.4789054944132, -0.624366676401445], a = 0.2, v = 0.2, t = 0.2)
movej(p[0.30608436625474, -0.104502599896732, 0.474188777214838, -0.644998848233737, 1.47666563638559, -0.633144807370672], a = 0.2, v = 0.2, t = 0.2)
movej(p[0.306957254161015, -0.104520829792872, 0.4736184074541, -0.642628047541865, 1.47716072215981, -0.635943160731845], a = 0.2, v = 0.2, t = 0.2)
movej(p[0.308072201215745, -0.104464079594294, 0.473268567519113, -0.645849160641953, 1.47446682118039, -0.64308773826761], a = 0.2, v = 0.2, t = 0.2)
movej(p[0.308367097149639, -0.104469572893683, 0.473077204194951, -0.646976056345747, 1.47146317151841, -0.643533438471849], a = 0.2, v = 0.2, t = 0.2)
movej(p[0.308491661203468, -0.104440238951192, 0.473032144164861, -0.645264194587274, 1.47056550639447, -0.645080267694184], a = 0.2, v = 0.2, t = 0.2)
movej(p[0.308563760421859, -0.104439933451141, 0.473032283366755, -0.645565911529721, 1.4700894617592, -0.645096067389175], a = 0.2, v = 0.2, t = 0.2)
movej(p[0.308563645384091, -0.104431075726653, 0.473072427201689, -0.645029765008242, 1.47153941007606, -0.644916337232934], a = 0.2, v = 0.2, t = 0.2)
movej(p[0.308554378361594, -0.104378989128006, 0.473407139747817, -0.648085208719523, 1.473141196767, -0.642151804106418], a = 0.2, v = 0.2, t = 0.2)
movej(p[0.307391684521779, -0.104355677072095, 0.474123187792927, -0.642415099735076, 1.48385845160681, -0.634927633061305], a = 0.2, v = 0.2, t = 0.2)
movej(p[0.305572341178066, -0.104365570968976, 0.474985860337113, -0.637321814019701, 1.48954935675066, -0.624131283293937], a = 0.2, v = 0.2, t = 0.2)
movej(p[0.303862373883285, -0.104377079664563, 0.475865096466208, -0.632399363438758, 1.49617037290508, -0.609273388673089], a = 0.2, v = 0.2, t = 0.2)
movej(p[0.301654355909482, -0.104413741753188, 0.476874783689371, -0.630220708463643, 1.4991894410371, -0.601148634141995], a = 0.2, v = 0.2, t = 0.2)
movej(p[0.29927045287117, -0.104448504392089, 0.477871578815194, -0.626370028724461, 1.49912927925389, -0.589834112347718], a = 0.2, v = 0.2, t = 0.2)
movej(p[0.298966867087348, -0.104482097765807, 0.477936236738944, -0.627161411519045, 1.49607508750694, -0.588380415655125], a = 0.2, v = 0.2, t = 0.2)
movej(p[0.298966867087348, -0.104482097765807, 0.477936236738944, -0.621674382620877, 1.49428315965934, -0.591225225114816], a = 0.2, v = 0.2, t = 0.2)
movej(p[0.300835212207538, -0.104472582575398, 0.477021955062974, -0.61494622338303, 1.49099361612777, -0.597436711450469], a = 0.2, v = 0.2, t = 0.2)
movej(p[0.302742928714803, -0.104469874461485, 0.47593047268839, -0.629590567715386, 1.4829821968659, -0.612174111080222], a = 0.2, v = 0.2, t = 0.2)
movej(p[0.304611419838761, -0.104465236160387, 0.474847681325359, -0.638206199641523, 1.47734665668852, -0.624806012682107], a = 0.2, v = 0.2, t = 0.2)
movej(p[0.306692226093476, -0.104451551313361, 0.473790186311043, -0.646267448543534, 1.47376691234505, -0.635539060248157], a = 0.2, v = 0.2, t = 0.2)
movej(p[0.307274577439614, -0.104441111595105, 0.473381382822881, -0.648798401737957, 1.47245932149404, -0.63929697330202], a = 0.2, v = 0.2, t = 0.2)
movej(p[0.307753696933385, -0.104437364817085, 0.47321036749508, -0.654749542375982, 1.46892451295682, -0.64401437345339], a = 0.2, v = 0.2, t = 0.2)
movej(p[0.308153421612543, -0.104434206088119, 0.473089306422461, -0.655522599373521, 1.46862946754439, -0.644912190590976], a = 0.2, v = 0.2, t = 0.2)
movej(p[0.308496079765234, -0.10443235595643, 0.473057049680425, -0.653673908573179, 1.46856423169192, -0.646743040380919], a = 0.2, v = 0.2, t = 0.2)
movej(p[0.308809476367782, -0.104431028026946, 0.473057654754954, -0.652806831308593, 1.46921334286235, -0.647699420771996], a = 0.2, v = 0.2, t = 0.2)
movej(p[0.308814224681282, -0.104428122811735, 0.473078076636442, -0.651188083176537, 1.46972075373109, -0.646077118867287], a = 0.2, v = 0.2, t = 0.2)
movej(p[0.308809348551735, -0.10442808957636, 0.473117407823254, -0.651145397382697, 1.46934257242679, -0.645742982665346], a = 0.2, v = 0.2, t = 0.2)
movej(p[0.308548719432629, -0.104435925606272, 0.473355405194898, -0.650720031792887, 1.46950405186927, -0.645252205361967], a = 0.2, v = 0.2, t = 0.2)
movej(p[0.307470666052537, -0.104434424137466, 0.474150634240685, -0.646901814103609, 1.48051235109894, -0.634440029552904], a = 0.2, v = 0.2, t = 0.2)
movej(p[0.306555207479705, -0.104453449715108, 0.47478733452247, -0.647058196800839, 1.48823442274316, -0.627286316163836], a = 0.2, v = 0.2, t = 0.2)
movej(p[0.304639546592614, -0.104462634634434, 0.475656996929916, -0.640716872812166, 1.49512481243156, -0.613465791800197], a = 0.2, v = 0.2, t = 0.2)
movej(p[0.303055697560935, -0.104467267361462, 0.476408800862261, -0.639474248604521, 1.49812303044748, -0.605736974974963], a = 0.2, v = 0.2, t = 0.2)
movej(p[0.302672564919512, -0.104474031541594, 0.476645582438706, -0.637596551863443, 1.49922992356113, -0.602411512565323], a = 0.2, v = 0.2, t = 0.2)
movej(p[0.301220140231672, -0.104472943838549, 0.477217575168601, -0.634717487680816, 1.5003662062681, -0.597185672821855], a = 0.2, v = 0.2, t = 0.2)
movej(p[0.298716770035119, -0.10449643733578, 0.478430933505862, -0.622161687856924, 1.50295920770538, -0.58398420241736], a = 0.2, v = 0.2, t = 0.2)
movej(p[0.298716770035119, -0.10449643733578, 0.478430933505862, -0.619562691219888, 1.49723266227089, -0.585746267028149], a = 0.2, v = 0.2, t = 0.2)
movej(p[0.301712215213508, -0.10445513871308, 0.476572676998532, -0.621845986048585, 1.48837437808921, -0.604302100951317], a = 0.2, v = 0.2, t = 0.2)
movej(p[0.303795970929066, -0.104399990299415, 0.475294991422833, -0.630928924490609, 1.48439355941118, -0.61667134130794], a = 0.2, v = 0.2, t = 0.2)
movej(p[0.305519214888914, -0.104371704362907, 0.474287505442464, -0.640396474850176, 1.48104310328226, -0.627447724606969], a = 0.2, v = 0.2, t = 0.2)
movej(p[0.306648011455349, -0.104355154927959, 0.473689553698751, -0.644066342282809, 1.47737559396491, -0.634896900899789], a = 0.2, v = 0.2, t = 0.2)
movej(p[0.307644731629363, -0.104397004725357, 0.473465775238728, -0.648793222261798, 1.47593277395752, -0.639626164147422], a = 0.2, v = 0.2, t = 0.2)
movej(p[0.3079399232713, -0.104420557719905, 0.473419861940236, -0.651004847149559, 1.47553862990921, -0.641185436632513], a = 0.2, v = 0.2, t = 0.2)
movej(p[0.308151879701835, -0.104426050704391, 0.473300288370096, -0.654012402858529, 1.47389551534815, -0.643662753726648], a = 0.2, v = 0.2, t = 0.2)
movej(p[0.308217378991774, -0.104425773169671, 0.473300414829514, -0.653729164272186, 1.47374650686102, -0.643919292122453], a = 0.2, v = 0.2, t = 0.2)
movej(p[0.30824488490546, -0.104464506719505, 0.473330717747354, -0.653599325384581, 1.47374625681638, -0.644049029684933], a = 0.2, v = 0.2, t = 0.2)
movej(p[0.308798359269075, -0.10449841319757, 0.473317926360967, -0.65307582381086, 1.47400197336744, -0.644487759020947], a = 0.2, v = 0.2, t = 0.2)
movej(p[0.30879839081102, -0.104513038078522, 0.473333685861665, -0.650278418466371, 1.4758771092962, -0.642443842687603], a = 0.2, v = 0.2, t = 0.2)
movej(p[0.308262786762125, -0.104536364225577, 0.473746535354423, -0.650252558809959, 1.4783538805219, -0.637381237403531], a = 0.2, v = 0.2, t = 0.2)
movej(p[0.307098844750505, -0.10457138385239, 0.474460159176423, -0.652778880128439, 1.48547791515573, -0.628380664952729], a = 0.2, v = 0.2, t = 0.2)
movej(p[0.305575638552551, -0.104569604645072, 0.475176045789607, -0.648123337964151, 1.49391136923855, -0.61588479478854], a = 0.2, v = 0.2, t = 0.2)
movej(p[0.304286804400706, -0.104593693860869, 0.47586090888448, -0.644601001395333, 1.49668323486275, -0.608536660444566], a = 0.2, v = 0.2, t = 0.2)
movej(p[0.303880506609327, -0.104596858278528, 0.476071609480544, -0.641912329864541, 1.49771716909393, -0.606064569711839], a = 0.2, v = 0.2, t = 0.2)
movej(p[0.30343186690566, -0.104610824347343, 0.476327486805086, -0.639195694670733, 1.49847291069547, -0.603348259845237], a = 0.2, v = 0.2, t = 0.2)
movej(p[0.301504550475764, -0.104570252713369, 0.477168449147625, -0.634371969136565, 1.50106042781727, -0.594975761824017], a = 0.2, v = 0.2, t = 0.2)
movej(p[0.301244553294327, -0.104571354377906, 0.477167947171309, -0.634762335961814, 1.4996998471827, -0.594386096627354], a = 0.2, v = 0.2, t = 0.2)
movej(p[0.301244594003753, -0.104455865060242, 0.476893402701599, -0.629370003433434, 1.49113456928422, -0.60165636282774], a = 0.2, v = 0.2, t = 0.2)
movej(p[0.304652333416558, -0.104392304014418, 0.475043384445508, -0.636522918833846, 1.48222229645472, -0.622606573625392], a = 0.2, v = 0.2, t = 0.2)
movej(p[0.305887860860164, -0.104296892932817, 0.474205169740552, -0.642487736807186, 1.48042186302897, -0.628598166167515], a = 0.2, v = 0.2, t = 0.2)
movej(p[0.306848476828204, -0.104297938366743, 0.473738429760463, -0.645818743812911, 1.47842942119838, -0.633921393781204], a = 0.2, v = 0.2, t = 0.2)
movej(p[0.307489379468845, -0.104329272128287, 0.473498655803146, -0.64826833948771, 1.47726440718013, -0.636103898791497], a = 0.2, v = 0.2, t = 0.2)
movej(p[0.307796720144583, -0.104360083713571, 0.473391548355929, -0.650333267690238, 1.47660452780131, -0.638209866275699], a = 0.2, v = 0.2, t = 0.2)
movej(p[0.308419592866953, -0.104444911047112, 0.473284569314939, -0.649650487192607, 1.47481589178774, -0.642120561087944], a = 0.2, v = 0.2, t = 0.2)
movej(p[0.308640862760121, -0.104494817867774, 0.473255548053272, -0.649958368388017, 1.47475681095064, -0.642537105997439], a = 0.2, v = 0.2, t = 0.2)
movej(p[0.308684785194233, -0.104492752302593, 0.47323964166392, -0.650394783394299, 1.47475226193999, -0.643070596178325], a = 0.2, v = 0.2, t = 0.2)
movej(p[0.308706387996809, -0.104515430950506, 0.473236287882522, -0.650622092967574, 1.47519739400131, -0.643402467587861], a = 0.2, v = 0.2, t = 0.2)
movej(p[0.308762190186508, -0.104515963870964, 0.47323663662404, -0.651612474082842, 1.47640404334545, -0.642625161842553], a = 0.2, v = 0.2, t = 0.2)
movej(p[0.308797080259987, -0.104541173462399, 0.473245505066533, -0.651705652186641, 1.47637543171887, -0.642718295005933], a = 0.2, v = 0.2, t = 0.2)
movej(p[0.308966561377319, -0.104570801864408, 0.473217670579608, -0.65067682730281, 1.4758704960352, -0.643978155614088], a = 0.2, v = 0.2, t = 0.2)
movej(p[0.308966793320639, -0.104678345756431, 0.47333355788474, -0.65067682730281, 1.4758704960352, -0.643978155614088], a = 0.2, v = 0.2, t = 0.2)
movej(p[0.307918767246457, -0.104773088807162, 0.474015264186731, -0.650542063779846, 1.47997768501846, -0.635064443892907], a = 0.2, v = 0.2, t = 0.2)
movej(p[0.306615616683103, -0.104738321682926, 0.47463117322734, -0.650183115483786, 1.48545453253168, -0.622548897399474], a = 0.2, v = 0.2, t = 0.2)
movej(p[0.305529855951768, -0.104684094567823, 0.47510727093189, -0.650973064844, 1.49098306233893, -0.608982668886341], a = 0.2, v = 0.2, t = 0.2)
movej(p[0.304301992098294, -0.104640109035924, 0.475658459865301, -0.646322569105135, 1.4925707431275, -0.603441018526], a = 0.2, v = 0.2, t = 0.2)
movej(p[0.303413401814112, -0.104726127309496, 0.476199785445215, -0.644829770803569, 1.49431322779979, -0.598596752822181], a = 0.2, v = 0.2, t = 0.2)
movej(p[0.301728465902395, -0.10472246507646, 0.477029612235248, -0.63757488324328, 1.49635656847423, -0.590939726590422], a = 0.2, v = 0.2, t = 0.2)
movej(p[0.301387171737555, -0.104689461144134, 0.477159422417812, -0.636158385174939, 1.49674447750563, -0.589513910735559], a = 0.2, v = 0.2, t = 0.2)
movej(p[0.301387171737555, -0.104689461144134, 0.477159422417812, -0.635288859651138, 1.49649901796824, -0.590345288622154], a = 0.2, v = 0.2, t = 0.2)
movej(p[0.30194055742144, -0.104630701696643, 0.476782011670479, -0.631764678757191, 1.4940867213488, -0.597545313015989], a = 0.2, v = 0.2, t = 0.2)
movej(p[0.303641579968792, -0.104443678512856, 0.475696094540986, -0.634780491919497, 1.48726378640985, -0.615193335740664], a = 0.2, v = 0.2, t = 0.2)
movej(p[0.305803723520406, -0.104391025763405, 0.474534217120521, -0.638355687191662, 1.48171172210701, -0.628556902691782], a = 0.2, v = 0.2, t = 0.2)
movej(p[0.306548361776655, -0.104229317691675, 0.474008304136399, -0.642364662285319, 1.47947779884237, -0.631780254178565], a = 0.2, v = 0.2, t = 0.2)
movej(p[0.306868072924711, -0.10421060984624, 0.473859677327484, -0.64407679253937, 1.47873666076868, -0.631943748782306], a = 0.2, v = 0.2, t = 0.2)
movej(p[0.306868072924711, -0.10421060984624, 0.473859677327484, -0.644691979388527, 1.4783286293089, -0.63239159312112], a = 0.2, v = 0.2, t = 0.2)
movej(p[0.30411491797212, -0.103823318139382, 0.474265796473579, -0.64223215953709, 1.47688600558331, -0.634599082407075], a = 0.2, v = 0.2, t = 0.2)
movej(p[0.304115901132462, -0.104413276356654, 0.475051325820752, -0.635091673187888, 1.47635532811109, -0.633745022631723], a = 0.2, v = 0.2, t = 0.2)
movej(p[0.304633595520269, -0.104411082773074, 0.475052325332826, -0.635257970113402, 1.47572100087041, -0.633465317229129], a = 0.2, v = 0.2, t = 0.2)
movej(p[0.305457769441064, -0.104288342682799, 0.474438521823125, -0.643058962402089, 1.47620218430332, -0.634200862727376], a = 0.2, v = 0.2, t = 0.2)
movej(p[0.306448985424238, -0.104170540643236, 0.473762911962202, -0.646504360993767, 1.47520311251246, -0.637230272825774], a = 0.2, v = 0.2, t = 0.2)
movej(p[0.307129956764174, -0.104188225383211, 0.473457825115293, -0.649237984901391, 1.47436403992409, -0.639968100037029], a = 0.2, v = 0.2, t = 0.2)
movej(p[0.307657150030125, -0.104250655023536, 0.473290513040581, -0.649725438014563, 1.47389702373083, -0.641587723545201], a = 0.2, v = 0.2, t = 0.2)
movej(p[0.308571569537607, -0.104360602842347, 0.473008888234365, -0.650681565909014, 1.47215219407476, -0.646094292699109], a = 0.2, v = 0.2, t = 0.2)
movej(p[0.308741764937119, -0.104392511097469, 0.47297866375356, -0.650715229427745, 1.47262002811267, -0.646483857329144], a = 0.2, v = 0.2, t = 0.2)
movej(p[0.308911193782313, -0.104430056207137, 0.472943482634245, -0.650895908818167, 1.47316373879037, -0.646401427626638], a = 0.2, v = 0.2, t = 0.2)
movej(p[0.308911346797419, -0.104501003885429, 0.473019934537631, -0.649293770790877, 1.47466799902715, -0.645550918878128], a = 0.2, v = 0.2, t = 0.2)
movej(p[0.308707147607127, -0.104672125376681, 0.473445716390128, -0.646624910036149, 1.47703720541717, -0.64404286434154], a = 0.2, v = 0.2, t = 0.2)
movej(p[0.308262587653794, -0.10477794970871, 0.473861906861719, -0.644320315788074, 1.48073124860902, -0.638674099850289], a = 0.2, v = 0.2, t = 0.2)
movej(p[0.307112139366721, -0.104793531282079, 0.47448440175595, -0.643325043824122, 1.48668148710233, -0.627583521043312], a = 0.2, v = 0.2, t = 0.2)
movej(p[0.305381299109721, -0.104708640243974, 0.475241542836856, -0.643240233516741, 1.49253643945237, -0.613538407934985], a = 0.2, v = 0.2, t = 0.2)
movej(p[0.303938543245979, -0.104618316154899, 0.475841075560377, -0.639008233719652, 1.49487428288535, -0.606276532422011], a = 0.2, v = 0.2, t = 0.2)
movej(p[0.302207967592918, -0.104527057896244, 0.476550782492327, -0.634067084084694, 1.49625735280619, -0.60133100218797], a = 0.2, v = 0.2, t = 0.2)
movej(p[0.301130188694691, -0.104758667348087, 0.477352875453494, -0.610570393994307, 1.48639717569955, -0.620316419032168], a = 0.2, v = 0.2, t = 0.2)
movej(p[0.300983642928157, -0.10475992406407, 0.477430310839307, -0.610564628510974, 1.48641799881489, -0.620325844189768], a = 0.2, v = 0.2, t = 0.2)
movej(p[0.300983642928157, -0.10475992406407, 0.477430310839307, -0.610633799500096, 1.48640300413622, -0.620381578425992], a = 0.2, v = 0.2, t = 0.2)
movej(p[0.302196753516273, -0.104586671520908, 0.476585251322296, -0.620957772396849, 1.48676508947839, -0.61857064658273], a = 0.2, v = 0.2, t = 0.2)
movej(p[0.303276229419462, -0.104371526379372, 0.475717262104328, -0.63034886279439, 1.4853052346701, -0.620435865234748], a = 0.2, v = 0.2, t = 0.2)
movej(p[0.304235072148997, -0.104299263612237, 0.475127560084234, -0.63509619556034, 1.48266465959476, -0.624223038707055], a = 0.2, v = 0.2, t = 0.2)
movej(p[0.305559463075514, -0.104273364157855, 0.474409517194135, -0.640575507859254, 1.4785615810421, -0.632188334282119], a = 0.2, v = 0.2, t = 0.2)
movej(p[0.305767889924067, -0.104296327750601, 0.474343587821239, -0.64162888109548, 1.47781978445286, -0.632920925929966], a = 0.2, v = 0.2, t = 0.2)
movej(p[0.306313285878489, -0.104280883227743, 0.474055873849362, -0.644413803041277, 1.47762432641744, -0.63413268831053], a = 0.2, v = 0.2, t = 0.2)
movej(p[0.307036043248406, -0.104333225881977, 0.4737825243098, -0.647839375712398, 1.47776161473627, -0.634892432480179], a = 0.2, v = 0.2, t = 0.2)
movej(p[0.307459276532436, -0.104283451757504, 0.473503038364138, -0.651215085224629, 1.47823164743238, -0.635393844450655], a = 0.2, v = 0.2, t = 0.2)
movej(p[0.308133690927107, -0.104403914152298, 0.473349380543966, -0.652266258152891, 1.47855954804206, -0.636841615161567], a = 0.2, v = 0.2, t = 0.2)
movej(p[0.308671833170962, -0.104503537845262, 0.473238389800303, -0.653392638451009, 1.47858878479225, -0.638246039464692], a = 0.2, v = 0.2, t = 0.2)
movej(p[0.309034553230046, -0.104587298414452, 0.4731548859334, -0.652925006227778, 1.47842142130103, -0.638684955352876], a = 0.2, v = 0.2, t = 0.2)
movej(p[0.309034553230046, -0.104587298414452, 0.4731548859334, -0.652527244502312, 1.47917128573137, -0.638960511071856], a = 0.2, v = 0.2, t = 0.2)
movej(p[0.308442441516686, -0.104730464809384, 0.47367901008116, -0.649199918565509, 1.4812998135486, -0.636488435876079], a = 0.2, v = 0.2, t = 0.2)
movej(p[0.307704040055583, -0.10480896161111, 0.474158665774715, -0.644797362683766, 1.48319859926635, -0.633209385069138], a = 0.2, v = 0.2, t = 0.2)
movej(p[0.307153623584915, -0.104878364064302, 0.474523601739383, -0.641154909513794, 1.48521668307876, -0.630491455523929], a = 0.2, v = 0.2, t = 0.2)
movej(p[0.305454341236953, -0.10464703281594, 0.475084926035521, -0.633917741686086, 1.48750125776969, -0.623577915814924], a = 0.2, v = 0.2, t = 0.2)
movej(p[0.304148384650149, -0.104903987420034, 0.476033395926882, -0.622999937268867, 1.48729525046744, -0.626230772090783], a = 0.2, v = 0.2, t = 0.2)
movej(p[0.301749662303665, -0.104677384805768, 0.476932659608839, -0.613727457040883, 1.48927308149155, -0.618955469448814], a = 0.2, v = 0.2, t = 0.2)
movej(p[0.299673725158586, -0.104293755192924, 0.477496780686116, -0.610278599851078, 1.48985511122879, -0.616407014586691], a = 0.2, v = 0.2, t = 0.2)
movej(p[0.299673505832043, -0.104192061253281, 0.477387197181263, -0.610572458433676, 1.48880435880123, -0.615932283715255], a = 0.2, v = 0.2, t = 0.2)
movej(p[0.301541995181803, -0.104648030200793, 0.476953631582143, -0.615658196215461, 1.48727165007821, -0.620800696582466], a = 0.2, v = 0.2, t = 0.2)
movej(p[0.302700209216696, -0.104525419727669, 0.476217620399309, -0.621970807594365, 1.48570643250395, -0.62320775248054], a = 0.2, v = 0.2, t = 0.2)
movej(p[0.303648222739596, -0.10440942692967, 0.475598808197416, -0.629434073726236, 1.48402571588337, -0.624486351264451], a = 0.2, v = 0.2, t = 0.2)
movej(p[0.304676035128082, -0.104309332425191, 0.474964127620868, -0.637014104299801, 1.48242090249659, -0.62593581241055], a = 0.2, v = 0.2, t = 0.2)
movej(p[0.305846330275669, -0.104237500623771, 0.474297613367578, -0.644540376131746, 1.48105831659131, -0.627987270930486], a = 0.2, v = 0.2, t = 0.2)
movej(p[0.306809406387748, -0.104214540984198, 0.473798847864267, -0.648423873278289, 1.47939821805624, -0.631503372541732], a = 0.2, v = 0.2, t = 0.2)
movej(p[0.307283885671533, -0.10421144590532, 0.473546473064126, -0.650165722989156, 1.47814960354208, -0.634366611465686], a = 0.2, v = 0.2, t = 0.2)
movej(p[0.307827306154712, -0.104246501226954, 0.473305077697794, -0.652046947879294, 1.47700429953945, -0.637581224403653], a = 0.2, v = 0.2, t = 0.2)
movej(p[0.308197802881102, -0.104360726086424, 0.473196970772884, -0.651141268486576, 1.47650894544832, -0.639755786902484], a = 0.2, v = 0.2, t = 0.2)
movej(p[0.30834937150317, -0.104371738684109, 0.473186447679399, -0.652521641210424, 1.4762696383385, -0.641894021091404], a = 0.2, v = 0.2, t = 0.2)
movej(p[0.309262380844955, -0.104571283889086, 0.473003125059451, -0.652276185962959, 1.47723214133988, -0.642309121899128], a = 0.2, v = 0.2, t = 0.2)
movej(p[0.309262622470918, -0.104683317279447, 0.473123850164797, -0.652714164355023, 1.47996174269966, -0.639326144020952], a = 0.2, v = 0.2, t = 0.2)
movej(p[0.30894244820366, -0.10484103051701, 0.473506645388492, -0.65034178245213, 1.48190440674978, -0.636027514177066], a = 0.2, v = 0.2, t = 0.2)
movej(p[0.308183221928288, -0.104893792475598, 0.473942557683008, -0.648367789159193, 1.48496097825998, -0.62891612835922], a = 0.2, v = 0.2, t = 0.2)
movej(p[0.30725029015898, -0.104852894168454, 0.474381969405984, -0.646344929877505, 1.48840912869818, -0.620114273863873], a = 0.2, v = 0.2, t = 0.2)
movej(p[0.305899538416133, -0.104693840803769, 0.474880842562585, -0.645308582271768, 1.48910589985648, -0.617535597564621], a = 0.2, v = 0.2, t = 0.2)
movej(p[0.304790806706717, -0.104612081245787, 0.475333150379469, -0.64249629233267, 1.48933699543353, -0.616119669871289], a = 0.2, v = 0.2, t = 0.2)
movej(p[0.303176877993495, -0.104572769926019, 0.476029614692106, -0.624012340642377, 1.48725219905475, -0.622152807435803], a = 0.2, v = 0.2, t = 0.2)
movej(p[0.301480265427314, -0.104587819028376, 0.476888348949484, -0.616050176015501, 1.49024277173966, -0.617895195602448], a = 0.2, v = 0.2, t = 0.2)
movej(p[0.300867824041825, -0.104631891154447, 0.477262045306228, -0.613406138954511, 1.49097327711213, -0.615472904742791], a = 0.2, v = 0.2, t = 0.2)
movej(p[0.300867824041825, -0.104631891154447, 0.477262045306228, -0.613390434975655, 1.49102939519202, -0.615498136873573], a = 0.2, v = 0.2, t = 0.2)
movej(p[0.302723455246419, -0.104721849391963, 0.476417823843554, -0.620127523012741, 1.48912787642856, -0.622039306709995], a = 0.2, v = 0.2, t = 0.2)
movej(p[0.304222145190974, -0.104639833288616, 0.475578111589932, -0.62813926101473, 1.48517651680587, -0.628230115231122], a = 0.2, v = 0.2, t = 0.2)
movej(p[0.305024697330372, -0.104302080514714, 0.474814361508251, -0.634971685247169, 1.48311684302334, -0.627527121626388], a = 0.2, v = 0.2, t = 0.2)
movej(p[0.305784412238762, -0.104108370991233, 0.474230394138886, -0.644671308392664, 1.47864760143576, -0.629998503926069], a = 0.2, v = 0.2, t = 0.2)
movej(p[0.306401674886879, -0.104092585549277, 0.473907791313322, -0.646819239696342, 1.47717303875007, -0.631227111246382], a = 0.2, v = 0.2, t = 0.2)
movej(p[0.307063877697657, -0.104073085340652, 0.47355648583477, -0.650041640629188, 1.47561495976736, -0.63432484169335], a = 0.2, v = 0.2, t = 0.2)
movej(p[0.307677468739196, -0.104118012786915, 0.473300604478834, -0.652019118039628, 1.47478443169661, -0.636395787761284], a = 0.2, v = 0.2, t = 0.2)
movej(p[0.307951323726, -0.104154643859052, 0.473198668318631, -0.652213121052648, 1.4747250944397, -0.636590544316891], a = 0.2, v = 0.2, t = 0.2)
movej(p[0.308097059898751, -0.104193462172485, 0.473162353080864, -0.653099149497066, 1.47546047727469, -0.636563354150775], a = 0.2, v = 0.2, t = 0.2)
movej(p[0.308551487113436, -0.104382863699868, 0.473152117457856, -0.653188298515909, 1.47723314768446, -0.637433767559441], a = 0.2, v = 0.2, t = 0.2)
movej(p[0.308908332278094, -0.104600514346815, 0.473194033735641, -0.654484556932856, 1.47767803005777, -0.636833508468006], a = 0.2, v = 0.2, t = 0.2)
movej(p[0.309349298773264, -0.104709989787953, 0.473091557504615, -0.654694681679306, 1.47806223444842, -0.636689794078924], a = 0.2, v = 0.2, t = 0.2)
movej(p[0.309349428315295, -0.104770053833909, 0.473156281407482, -0.655158436230262, 1.47935679256663, -0.635819238113102], a = 0.2, v = 0.2, t = 0.2)
movej(p[0.308765871469917, -0.10472692428244, 0.473398565166744, -0.652383813559471, 1.480285945741, -0.63310861495133], a = 0.2, v = 0.2, t = 0.2)
movej(p[0.307424579517446, -0.104892002978429, 0.474215313801494, -0.642164201274905, 1.48184786887182, -0.634964135467459], a = 0.2, v = 0.2, t = 0.2)
movej(p[0.306291215389111, -0.104695573740428, 0.474588000274366, -0.638892562264109, 1.48313666204419, -0.631936125751262], a = 0.2, v = 0.2, t = 0.2)
movej(p[0.305658425613834, -0.10474974146383, 0.474957007073824, -0.635782043983462, 1.4845845085232, -0.62880045249583], a = 0.2, v = 0.2, t = 0.2)
movej(p[0.304289539708717, -0.104630764495055, 0.475561426687729, -0.635580838078079, 1.49009611941777, -0.615597513920503], a = 0.2, v = 0.2, t = 0.2)
movej(p[0.302617823754012, -0.104538852896576, 0.476342699876088, -0.628857057296654, 1.49202362380737, -0.608882060530957], a = 0.2, v = 0.2, t = 0.2)
movej(p[0.301730629625656, -0.104469557359656, 0.476648754801183, -0.618279716126107, 1.48972825145937, -0.619135277703142], a = 0.2, v = 0.2, t = 0.2)
movej(p[0.301730629625656, -0.104469557359656, 0.476648754801183, -0.618942429719896, 1.48953510525855, -0.619792984933543], a = 0.2, v = 0.2, t = 0.2)
movej(p[0.302889515204772, -0.104404729305092, 0.476002503303808, -0.625167665858016, 1.48632700021114, -0.624884258973393], a = 0.2, v = 0.2, t = 0.2)
movej(p[0.30437658865649, -0.104458498867515, 0.475313885127057, -0.632274638298379, 1.48422068442182, -0.627317797782248], a = 0.2, v = 0.2, t = 0.2)
movej(p[0.305347424187699, -0.104377469564147, 0.474760534593184, -0.636939382850874, 1.48127509839983, -0.629159802542072], a = 0.2, v = 0.2, t = 0.2)
movej(p[0.306114879310239, -0.104097660784902, 0.474122209361077, -0.642698296698248, 1.47794471628266, -0.631748654078119], a = 0.2, v = 0.2, t = 0.2)
movej(p[0.306854150876836, -0.104074042251205, 0.473726686054953, -0.648348238503284, 1.47584840640049, -0.634175302537525], a = 0.2, v = 0.2, t = 0.2)
movej(p[0.307142279698339, -0.104141365829484, 0.473653946601923, -0.649644012809153, 1.47651463349973, -0.633012016613041], a = 0.2, v = 0.2, t = 0.2)
movej(p[0.307485039764743, -0.104151191042331, 0.473490936749241, -0.6495272995416, 1.47723271834975, -0.633407998599412], a = 0.2, v = 0.2, t = 0.2)
movej(p[0.307827751034669, -0.104184625832749, 0.473353220482027, -0.649387617034087, 1.4779322639772, -0.633840264959973], a = 0.2, v = 0.2, t = 0.2)
movej(p[0.308231363490607, -0.104288272285071, 0.473213936389852, -0.651639264884345, 1.47700306436447, -0.636666467740084], a = 0.2, v = 0.2, t = 0.2)
movej(p[0.308656874471481, -0.104388577314048, 0.473120001272258, -0.654179262301758, 1.47506766241346, -0.638490729262005], a = 0.2, v = 0.2, t = 0.2)
movej(p[0.308729413705734, -0.104297511564203, 0.473003819781911, -0.652656662891924, 1.47283719176052, -0.643156852668562], a = 0.2, v = 0.2, t = 0.2)
movej(p[0.308986220012916, -0.104380865939243, 0.472925952595284, -0.652484428970129, 1.47351721586798, -0.6434505847544], a = 0.2, v = 0.2, t = 0.2)
movej(p[0.308986777351735, -0.104639284184528, 0.473204419307617, -0.648441343963809, 1.47736959146837, -0.638888822069104], a = 0.2, v = 0.2, t = 0.2)
movej(p[0.308506818046606, -0.10484890182135, 0.473588889347741, -0.65063541530012, 1.48071482616147, -0.631775597924766], a = 0.2, v = 0.2, t = 0.2)
movej(p[0.307153837094886, -0.10473289212203, 0.474197344772523, -0.649956669556857, 1.48575390308371, -0.619656285404685], a = 0.2, v = 0.2, t = 0.2)
movej(p[0.30579469599828, -0.104672774424987, 0.474855990900591, -0.64624396323217, 1.48922168152261, -0.613812687607807], a = 0.2, v = 0.2, t = 0.2)
movej(p[0.304688414679082, -0.104560338924216, 0.47531848017718, -0.64248674992183, 1.49180150716161, -0.606367373560536], a = 0.2, v = 0.2, t = 0.2)
movej(p[0.303414259974415, -0.104524595716024, 0.475934554865543, -0.638080203948337, 1.4930439972548, -0.601943380144288], a = 0.2, v = 0.2, t = 0.2)
movej(p[0.302235482616843, -0.104677135571488, 0.476665342846952, -0.631902399124097, 1.49619189049543, -0.598386141655187], a = 0.2, v = 0.2, t = 0.2)
movej(p[0.300908260458022, -0.104376400143717, 0.476993467645799, -0.626036577028639, 1.50037506701286, -0.598372927686491], a = 0.2, v = 0.2, t = 0.2)
movej(p[0.300908260458022, -0.104376400143717, 0.476993467645799, -0.623684689816543, 1.49920953995007, -0.600560377397945], a = 0.2, v = 0.2, t = 0.2)
movej(p[0.3022851370897, -0.104299521757711, 0.476223037645796, -0.625730368010802, 1.49081350827181, -0.61916095142446], a = 0.2, v = 0.2, t = 0.2)
movej(p[0.303897738611318, -0.104259064903373, 0.475417381543347, -0.629091373045042, 1.4883677675664, -0.621753709697968], a = 0.2, v = 0.2, t = 0.2)
movej(p[0.305338627168454, -0.104097534114822, 0.47455894191806, -0.633981987911875, 1.48463647337451, -0.625294673388423], a = 0.2, v = 0.2, t = 0.2)
movej(p[0.306116496449333, -0.104059199713667, 0.474132522986077, -0.640524210734012, 1.48051784299264, -0.632061050373545], a = 0.2, v = 0.2, t = 0.2)
movej(p[0.306912471466865, -0.104018801837283, 0.47369870578604, -0.647863993942011, 1.47522770447176, -0.637090039478182], a = 0.2, v = 0.2, t = 0.2)
movej(p[0.307383645278125, -0.104011676376045, 0.473492096910662, -0.649730713341, 1.47522656988804, -0.637644233561982], a = 0.2, v = 0.2, t = 0.2)
movej(p[0.307896736900713, -0.104101449474413, 0.473281975736957, -0.650519734657401, 1.47539584790848, -0.638742492043987], a = 0.2, v = 0.2, t = 0.2)
movej(p[0.308111115997677, -0.104131666902756, 0.473204937241324, -0.649344649899734, 1.47480582991348, -0.639812456021545], a = 0.2, v = 0.2, t = 0.2)
movej(p[0.308514849184394, -0.104252295229191, 0.473092185608056, -0.647708877635799, 1.4749906608415, -0.641489468999826], a = 0.2, v = 0.2, t = 0.2)
movej(p[0.308674697907834, -0.104348353950373, 0.473071481316247, -0.648554519499369, 1.47535145186062, -0.642799586265787], a = 0.2, v = 0.2, t = 0.2)
movej(p[0.309072166035225, -0.104470264369883, 0.4729952059118, -0.649304151540597, 1.4757447936043, -0.642119185472318], a = 0.2, v = 0.2, t = 0.2)
movej(p[0.309072263741899, -0.104515567489483, 0.473044023713962, -0.650374901761342, 1.47657793624687, -0.640886934616441], a = 0.2, v = 0.2, t = 0.2)
movej(p[0.308828158867788, -0.104757185669066, 0.473316469682422, -0.64769790413313, 1.47777024413425, -0.636485420728071], a = 0.2, v = 0.2, t = 0.2)
movej(p[0.307266731134014, -0.104708414330842, 0.474095550550349, -0.651053398456083, 1.48384519414068, -0.62575276839179], a = 0.2, v = 0.2, t = 0.2)
movej(p[0.305803971391141, -0.104640316113692, 0.47479755353998, -0.644951002251991, 1.48787621546992, -0.613520918371933], a = 0.2, v = 0.2, t = 0.2)
movej(p[0.304175427163828, -0.104530197157957, 0.475553754151773, -0.639515908141501, 1.49210516874489, -0.601502883996016], a = 0.2, v = 0.2, t = 0.2)
movej(p[0.302764453976576, -0.104443140824296, 0.476221404958426, -0.635881386342044, 1.49340035667851, -0.597160328969829], a = 0.2, v = 0.2, t = 0.2)
movej(p[0.301674004250689, -0.10454539362139, 0.476828014273223, -0.63043551732807, 1.49760040199499, -0.593802551192205], a = 0.2, v = 0.2, t = 0.2)
movej(p[0.301674004250689, -0.10454539362139, 0.476828014273223, -0.628167852990135, 1.49871765420593, -0.596240494059381], a = 0.2, v = 0.2, t = 0.2)
movej(p[0.302029159795289, -0.10466766446832, 0.476707014318138, -0.624734598404703, 1.49678498288073, -0.600014336193269], a = 0.2, v = 0.2, t = 0.2)
movej(p[0.303126429602281, -0.104451684157176, 0.475995835461687, -0.630400586848363, 1.49208806626019, -0.609621703442045], a = 0.2, v = 0.2, t = 0.2)
movej(p[0.304056272090625, -0.104117015522007, 0.475296362787808, -0.633364607746418, 1.48656854088284, -0.618309812417029], a = 0.2, v = 0.2, t = 0.2)
movej(p[0.305558604159759, -0.104060982392914, 0.474491876092769, -0.635405364095853, 1.48283241853306, -0.627304489043274], a = 0.2, v = 0.2, t = 0.2)
movej(p[0.306353603856203, -0.103961929121778, 0.474020133130838, -0.637785732841269, 1.48065497256825, -0.631928808707526], a = 0.2, v = 0.2, t = 0.2)
movej(p[0.306813761602754, -0.103939976675359, 0.47378924305226, -0.641605440011418, 1.47867749895316, -0.635116797151284], a = 0.2, v = 0.2, t = 0.2)
movej(p[0.307407908917705, -0.104038396517759, 0.473569707604648, -0.644507283488753, 1.47660241259404, -0.635678667548661], a = 0.2, v = 0.2, t = 0.2)
movej(p[0.307888012834988, -0.104169550861844, 0.47339205539769, -0.648282553794131, 1.47501342335608, -0.639131107700876], a = 0.2, v = 0.2, t = 0.2)
movej(p[0.30859823067004, -0.104391998959344, 0.473201663668108, -0.646143946827352, 1.47389620226017, -0.641069881998516], a = 0.2, v = 0.2, t = 0.2)
movej(p[0.308783983796642, -0.104408221010751, 0.473055405570877, -0.645809535884569, 1.47650429616497, -0.642615372032764], a = 0.2, v = 0.2, t = 0.2)
movej(p[0.308978631584875, -0.104505146838017, 0.473089079337297, -0.646925484149932, 1.4770894327607, -0.641600973154622], a = 0.2, v = 0.2, t = 0.2)
movej(p[0.308978631584875, -0.104505146838017, 0.473089079337297, -0.648403936318369, 1.4774115271014, -0.640176741812668], a = 0.2, v = 0.2, t = 0.2)
movej(p[0.308808653569898, -0.104623599635659, 0.473233110129683, -0.648312192055147, 1.47986581732869, -0.634470174942162], a = 0.2, v = 0.2, t = 0.2)
movej(p[0.307973279650529, -0.104697945051519, 0.473688845155744, -0.647200162248089, 1.479786805215, -0.632868380231084], a = 0.2, v = 0.2, t = 0.2)
movej(p[0.307153854502894, -0.104770132963382, 0.474166468577285, -0.649263879170564, 1.48473017019622, -0.622684589155704], a = 0.2, v = 0.2, t = 0.2)
movej(p[0.305625841387965, -0.104636881089842, 0.47485635016046, -0.643784445386717, 1.48650382134471, -0.616777169100504], a = 0.2, v = 0.2, t = 0.2)
movej(p[0.304070418552493, -0.104581436773457, 0.475618282776031, -0.635280699747067, 1.49222758609378, -0.606141341262002], a = 0.2, v = 0.2, t = 0.2)
movej(p[0.302285690073342, -0.104494772203061, 0.476468719162804, -0.63319398067316, 1.49403420592028, -0.601043060011531], a = 0.2, v = 0.2, t = 0.2)
movej(p[0.299753489714119, -0.104536983561588, 0.477790412966967, -0.625763979969897, 1.50017648557032, -0.583247263261747], a = 0.2, v = 0.2, t = 0.2)
movej(p[0.299753489714119, -0.104536983561588, 0.477790412966967, -0.625506348171418, 1.50105335666672, -0.583631114811529], a = 0.2, v = 0.2, t = 0.2)
movej(p[0.30094908818163, -0.104645418793389, 0.477207173432136, -0.620450577359768, 1.4970445007214, -0.596742424843295], a = 0.2, v = 0.2, t = 0.2)
movej(p[0.302148630917605, -0.104387709133722, 0.476470804111832, -0.625159289954333, 1.49385308849082, -0.606088222805094], a = 0.2, v = 0.2, t = 0.2)
movej(p[0.303244593039393, -0.104223742899607, 0.475825956136201, -0.627150122096457, 1.49103364376617, -0.613571244549373], a = 0.2, v = 0.2, t = 0.2)
movej(p[0.30414479025747, -0.104005975398676, 0.475250936637309, -0.625856152966787, 1.48819326239743, -0.621283239502024], a = 0.2, v = 0.2, t = 0.2)
movej(p[0.304690827213093, -0.103946156472455, 0.474948193645385, -0.627700138628413, 1.48666180547389, -0.625472355587822], a = 0.2, v = 0.2, t = 0.2)
movej(p[0.305974352372985, -0.103993781618675, 0.474321755843707, -0.635130806065787, 1.48155428280656, -0.632835294198995], a = 0.2, v = 0.2, t = 0.2)
movej(p[0.306617264370055, -0.103958347800843, 0.473982410490743, -0.639900494159282, 1.47883854751204, -0.6366206006726], a = 0.2, v = 0.2, t = 0.2)
movej(p[0.307125846239718, -0.103994554113916, 0.473763345512383, -0.639590455770234, 1.47867738910618, -0.636903044804312], a = 0.2, v = 0.2, t = 0.2)
movej(p[0.307362703141978, -0.104086349309876, 0.473677685137354, -0.639253979532274, 1.47932293088352, -0.636979520371078], a = 0.2, v = 0.2, t = 0.2)
movej(p[0.30736281330493, -0.104088034761443, 0.473676120810936, -0.639135451813922, 1.47936080083408, -0.636866210823518], a = 0.2, v = 0.2, t = 0.2)
movej(p[0.307966104530536, -0.104185502203501, 0.473431802872902, -0.639120261505958, 1.47941899201833, -0.636891711686839], a = 0.2, v = 0.2, t = 0.2)
movej(p[0.308661487586217, -0.104429799305661, 0.473203702386825, -0.642728881863992, 1.47868451906898, -0.639647832698968], a = 0.2, v = 0.2, t = 0.2)
movej(p[0.308661511352705, -0.104440818983402, 0.473215576987351, -0.6445075298, 1.47688633703274, -0.638624329505592], a = 0.2, v = 0.2, t = 0.2)
movej(p[0.308176897415564, -0.104542897410104, 0.473495896834544, -0.649124062373136, 1.47899564833347, -0.634373186396868], a = 0.2, v = 0.2, t = 0.2)
movej(p[0.307054472555583, -0.104637134662394, 0.474123651168641, -0.647757260905585, 1.48334820583444, -0.623217477773121], a = 0.2, v = 0.2, t = 0.2)
movej(p[0.306048051217855, -0.104597155915375, 0.474611060576379, -0.643259127906189, 1.48596153487357, -0.615605870561624], a = 0.2, v = 0.2, t = 0.2)
movej(p[0.304704832296754, -0.104543779530143, 0.47527310509263, -0.637799306503977, 1.48910472842128, -0.608024130927537], a = 0.2, v = 0.2, t = 0.2)
movej(p[0.302780991347256, -0.104392489583726, 0.476194570145222, -0.634994973102195, 1.49299154340542, -0.598123855783526], a = 0.2, v = 0.2, t = 0.2)
movej(p[0.30066053534546, -0.104404791418873, 0.477274573931928, -0.620721848273823, 1.50110410040177, -0.586185478403491], a = 0.2, v = 0.2, t = 0.2)
movej(p[0.300026248948167, -0.104526584662805, 0.477634851522045, -0.619913287039964, 1.5020736050355, -0.585976713298133], a = 0.2, v = 0.2, t = 0.2)
movej(p[0.300026248948167, -0.104526584662805, 0.477634851522045, -0.619223823308648, 1.50234450929994, -0.586707692111976], a = 0.2, v = 0.2, t = 0.2)
movej(p[0.301740968976033, -0.104502112645724, 0.476751674095695, -0.615868656040021, 1.49948876757825, -0.597252060397269], a = 0.2, v = 0.2, t = 0.2)
movej(p[0.302831522925359, -0.104288470149833, 0.476105597020139, -0.62023169228204, 1.49530254580317, -0.608941114401509], a = 0.2, v = 0.2, t = 0.2)
movej(p[0.303834773965271, -0.104050952057167, 0.47551172854432, -0.623249982638521, 1.49112552244183, -0.615527884035677], a = 0.2, v = 0.2, t = 0.2)
movej(p[0.304755580427244, -0.103958072984536, 0.474998942714313, -0.631092102611395, 1.48552907353859, -0.626108857314609], a = 0.2, v = 0.2, t = 0.2)
movej(p[0.305789269412345, -0.104006671877865, 0.474495566513399, -0.633587336174858, 1.48455722885646, -0.628763319002808], a = 0.2, v = 0.2, t = 0.2)
movej(p[0.306769238276913, -0.10406866622, 0.474031708543735, -0.640177930665915, 1.47925346777752, -0.632795813553912], a = 0.2, v = 0.2, t = 0.2)
movej(p[0.306980721343068, -0.104102432548449, 0.473960386542972, -0.644455765165513, 1.47713526835495, -0.636109573933653], a = 0.2, v = 0.2, t = 0.2)
movej(p[0.307156019508339, -0.104100884493468, 0.473855333143319, -0.645576292205954, 1.47679361580228, -0.637230293382465], a = 0.2, v = 0.2, t = 0.2)
movej(p[0.307265108971685, -0.104100865519716, 0.473809566248877, -0.644897666693323, 1.47648246534198, -0.63785437513634], a = 0.2, v = 0.2, t = 0.2)
movej(p[0.307748869273058, -0.104183199422021, 0.473599176825791, -0.644345280036498, 1.47863303675034, -0.638795368258684], a = 0.2, v = 0.2, t = 0.2)
movej(p[0.308563364254187, -0.104378373827495, 0.473257760983799, -0.644554970778973, 1.47887765492178, -0.638292148253072], a = 0.2, v = 0.2, t = 0.2)
movej(p[0.308832465359374, -0.104425593270977, 0.473155148804481, -0.645231571826755, 1.47881696617877, -0.637603395617034], a = 0.2, v = 0.2, t = 0.2)
movej(p[0.308832465359374, -0.104425593270977, 0.473155148804481, -0.644498972970799, 1.47878577936563, -0.636278027236476], a = 0.2, v = 0.2, t = 0.2)
movej(p[0.30856390024965, -0.104419716217219, 0.473278057030724, -0.645139679302353, 1.47781530415694, -0.635394837649198], a = 0.2, v = 0.2, t = 0.2)
movej(p[0.307800197819455, -0.104488705982932, 0.473685412674283, -0.648963029758658, 1.47881342223924, -0.630903442279909], a = 0.2, v = 0.2, t = 0.2)
movej(p[0.30691469363517, -0.10440790930138, 0.474126830362947, -0.648020386970045, 1.48182996788962, -0.623519507440108], a = 0.2, v = 0.2, t = 0.2)
movej(p[0.305816330898451, -0.104333706343936, 0.474663646476428, -0.638265855071477, 1.48731885095006, -0.613511294764333], a = 0.2, v = 0.2, t = 0.2)
movej(p[0.304295124427561, -0.104285087089247, 0.475432273785985, -0.635548710472897, 1.49113638842552, -0.605976657178816], a = 0.2, v = 0.2, t = 0.2)
movej(p[0.3038872532864, -0.1042948165515, 0.475643569999325, -0.633815230900047, 1.49218784162008, -0.602857887776067], a = 0.2, v = 0.2, t = 0.2)
movej(p[0.302738146649781, -0.104326332106595, 0.476227673772182, -0.629158795672637, 1.49480685318879, -0.599159862559018], a = 0.2, v = 0.2, t = 0.2)
movej(p[0.302137606248523, -0.104390037651294, 0.476540425191094, -0.625179228161227, 1.4980436595643, -0.596857137569954], a = 0.2, v = 0.2, t = 0.2)
movej(p[0.302137606248523, -0.104390037651294, 0.476540425191094, -0.620726708873354, 1.49644894006253, -0.601080690120027], a = 0.2, v = 0.2, t = 0.2)
movej(p[0.303418124796601, -0.104322167938259, 0.475871104901486, -0.624759784698203, 1.49352380461694, -0.609506988676928], a = 0.2, v = 0.2, t = 0.2)
movej(p[0.30421132667998, -0.104248078670895, 0.475453006476871, -0.628564889668624, 1.49049034308162, -0.613878157680009], a = 0.2, v = 0.2, t = 0.2)
movej(p[0.305399259483802, -0.10415770799249, 0.474829991224981, -0.63239649020118, 1.48778564537222, -0.621528280281765], a = 0.2, v = 0.2, t = 0.2)
movej(p[0.306091921279525, -0.104122636260362, 0.47446592651871, -0.633046737070893, 1.48479725063074, -0.628808399548477], a = 0.2, v = 0.2, t = 0.2)
movej(p[0.307300977317607, -0.104231850061948, 0.473854652404814, -0.638570115459615, 1.48180499701544, -0.638241887608648], a = 0.2, v = 0.2, t = 0.2)
movej(p[0.307824578072604, -0.104285947906267, 0.473613360501497, -0.641035688323934, 1.479415641421, -0.639453463798724], a = 0.2, v = 0.2, t = 0.2)
movej(p[0.308093611623033, -0.104335840464921, 0.473499809405797, -0.642535332867092, 1.47964515581347, -0.639364123467638], a = 0.2, v = 0.2, t = 0.2)
movej(p[0.308429312016524, -0.104349750580276, 0.473324837338025, -0.646498043762307, 1.47552228576195, -0.64099546133627], a = 0.2, v = 0.2, t = 0.2)
movej(p[0.30863441153457, -0.104326175121436, 0.473222703330769, -0.646498043762307, 1.47552228576195, -0.64099546133627], a = 0.2, v = 0.2, t = 0.2)
movej(p[0.309057446216783, -0.104513352088507, 0.473048155656358, -0.644055034310365, 1.47827872954394, -0.640065378472468], a = 0.2, v = 0.2, t = 0.2)
movej(p[0.30905754377675, -0.104558587185405, 0.473096900158517, -0.641514943486567, 1.47952686143899, -0.636969488143768], a = 0.2, v = 0.2, t = 0.2)
movej(p[0.307614573627334, -0.104404090054441, 0.473770174422408, -0.63759859135012, 1.48354338724962, -0.627391953559278], a = 0.2, v = 0.2, t = 0.2)
movej(p[0.306091198760991, -0.104414294874312, 0.474547927865504, -0.636607349568962, 1.4879366974804, -0.6177848483589], a = 0.2, v = 0.2, t = 0.2)
movej(p[0.30437956132507, -0.104236507266225, 0.475410611349966, -0.630007960422962, 1.49083535876537, -0.610843938110843], a = 0.2, v = 0.2, t = 0.2)
movej(p[0.302530388545556, -0.104255979971356, 0.476361180203473, -0.614057038329429, 1.50165236439605, -0.599513913758075], a = 0.2, v = 0.2, t = 0.2)
movej(p[0.300958517781764, -0.104332487209982, 0.477178456768888, -0.61148108113656, 1.50477443218633, -0.590856092737431], a = 0.2, v = 0.2, t = 0.2)
movej(p[0.299059148250168, -0.104417338324123, 0.478166953972157, -0.608952992625089, 1.50658640799882, -0.581905535946405], a = 0.2, v = 0.2, t = 0.2)
movej(p[0.299059148250168, -0.104417338324123, 0.478166953972157, -0.608952992625089, 1.50658640799882, -0.581905535946405], a = 0.2, v = 0.2, t = 0.2)
movej(p[0.300133721678671, -0.104401161227843, 0.477633294550512, -0.606816641343137, 1.50604333503818, -0.587233686765175], a = 0.2, v = 0.2, t = 0.2)
movej(p[0.301313001322539, -0.104296795074606, 0.477007049823894, -0.6085574703988, 1.50184933473273, -0.598386896762199], a = 0.2, v = 0.2, t = 0.2)
movej(p[0.303143337074528, -0.104297425072326, 0.476067876922829, -0.617548292817184, 1.49589500322015, -0.609658535370446], a = 0.2, v = 0.2, t = 0.2)
movej(p[0.303982573580005, -0.104224422611557, 0.475634489534231, -0.626644097446329, 1.4909772621503, -0.617954409148967], a = 0.2, v = 0.2, t = 0.2)
movej(p[0.304626079996375, -0.104309267767268, 0.47530303247571, -0.627926348938261, 1.49020705647705, -0.6189199458679], a = 0.2, v = 0.2, t = 0.2)
movej(p[0.305092138618079, -0.104189380256339, 0.475063969710189, -0.631980446335066, 1.48812976920409, -0.622261770523978], a = 0.2, v = 0.2, t = 0.2)
movej(p[0.30620517182762, -0.104241086829121, 0.474493157863089, -0.635359293030088, 1.48476402779786, -0.629819834517305], a = 0.2, v = 0.2, t = 0.2)
movej(p[0.307321554149646, -0.104351711953535, 0.473922642190284, -0.639353309281294, 1.48181058626123, -0.635562298745153], a = 0.2, v = 0.2, t = 0.2)
movej(p[0.307778417865566, -0.104280719913541, 0.473684607349696, -0.640985962921754, 1.47975804250492, -0.636007507223747], a = 0.2, v = 0.2, t = 0.2)
movej(p[0.308031430896649, -0.104386751401021, 0.473549414081502, -0.643212431745373, 1.47879086107886, -0.637223761504553], a = 0.2, v = 0.2, t = 0.2)
movej(p[0.308319673866362, -0.104369175595038, 0.473438408174204, -0.644176978766093, 1.47769939350951, -0.636332391486361], a = 0.2, v = 0.2, t = 0.2)
movej(p[0.308373869168331, -0.104410859910339, 0.473377242684731, -0.644930424253048, 1.47665411827303, -0.635394977344012], a = 0.2, v = 0.2, t = 0.2)
movej(p[0.30847690853694, -0.104397347537586, 0.473327775177221, -0.64694910751099, 1.47449798758135, -0.635580907053788], a = 0.2, v = 0.2, t = 0.2)
movej(p[0.30847690853694, -0.104397347537586, 0.473327775177221, -0.648257393856775, 1.47517679401862, -0.634394841250048], a = 0.2, v = 0.2, t = 0.2)
movej(p[0.308118209257218, -0.104479122754453, 0.473504856375076, -0.644433932785455, 1.48049303664666, -0.633198806882725], a = 0.2, v = 0.2, t = 0.2)
movej(p[0.306195262537686, -0.104324019850339, 0.474524537473741, -0.628474925318904, 1.4901226486534, -0.618810234633443], a = 0.2, v = 0.2, t = 0.2)
movej(p[0.303837222800503, -0.104282003975497, 0.475734550702648, -0.627690792620607, 1.49527791445998, -0.607340042644837], a = 0.2, v = 0.2, t = 0.2)
movej(p[0.301822640252193, -0.104319672556823, 0.476780979498134, -0.618372831773264, 1.49990811790869, -0.593425344830668], a = 0.2, v = 0.2, t = 0.2)
movej(p[0.300076671712998, -0.104389881891192, 0.477685895101663, -0.611220370075625, 1.50497750116006, -0.582517858601076], a = 0.2, v = 0.2, t = 0.2)
movej(p[0.299327006004063, -0.104479636635858, 0.478068086363543, -0.610084486192291, 1.50637776081066, -0.578540482782794], a = 0.2, v = 0.2, t = 0.2)
movej(p[0.299327006004063, -0.104479636635858, 0.478068086363543, -0.610293467955898, 1.50568445969025, -0.578231592773073], a = 0.2, v = 0.2, t = 0.2)
movej(p[0.301235377525929, -0.104367730487832, 0.477122822935411, -0.616072918991175, 1.4983788212687, -0.591328483034083], a = 0.2, v = 0.2, t = 0.2)
movej(p[0.302530779305187, -0.104341270176313, 0.476449560451523, -0.619815535706864, 1.49455225394126, -0.599909460089524], a = 0.2, v = 0.2, t = 0.2)
movej(p[0.303998228930507, -0.104285016058188, 0.475687094897323, -0.635446695470094, 1.48892979414415, -0.614611632161063], a = 0.2, v = 0.2, t = 0.2)
movej(p[0.304601237688422, -0.104259103369837, 0.475370098808292, -0.64077592462392, 1.48442800520475, -0.618159254972154], a = 0.2, v = 0.2, t = 0.2)
movej(p[0.304618848999968, -0.104260019183416, 0.475366348742811, -0.64077592462392, 1.48442800520475, -0.618159254972154], a = 0.2, v = 0.2, t = 0.2)
movej(p[0.30463656031043, -0.104260934573278, 0.475362598870397, -0.639926344638417, 1.48487993813814, -0.618016525744893], a = 0.2, v = 0.2, t = 0.2)
movej(p[0.304654271620892, -0.104261849963139, 0.475358848997984, -0.639073795251518, 1.48533140988167, -0.617873973325681], a = 0.2, v = 0.2, t = 0.2)
movej(p[0.304671983078061, -0.104262833375703, 0.475355172425574, -0.638223237677746, 1.48578461529256, -0.617732539225019], a = 0.2, v = 0.2, t = 0.2)
movej(p[0.304689594831521, -0.104263822488207, 0.475351354337506, -0.637372848950825, 1.4862360326741, -0.617590696132877], a = 0.2, v = 0.2, t = 0.2)
movej(p[0.304707306141984, -0.104264737878069, 0.475347604465093, -0.636520843037837, 1.4866865941543, -0.617450385019294], a = 0.2, v = 0.2, t = 0.2)
movej(p[0.304725017452446, -0.10426565326793, 0.475343854592679, -0.635669916527035, 1.48713766757449, -0.617309132020583], a = 0.2, v = 0.2, t = 0.2)
movej(p[0.304742628763992, -0.104266569081509, 0.475340104527198, -0.63481736788861, 1.48758896220024, -0.61716682102097], a = 0.2, v = 0.2, t = 0.2)
movej(p[0.304760340221161, -0.104267552494073, 0.475336427954788, -0.633964114648775, 1.48804062111413, -0.617028102998828], a = 0.2, v = 0.2, t = 0.2)
movej(p[0.304778051531623, -0.104268467883935, 0.475332678082374, -0.633112381428972, 1.4884911765297, -0.616887735105326], a = 0.2, v = 0.2, t = 0.2)
movej(p[0.304795762842085, -0.104269383273796, 0.475328928209961, -0.632260379836075, 1.48894155909322, -0.616747661705238], a = 0.2, v = 0.2, t = 0.2)
movej(p[0.304813374153631, -0.104270299087375, 0.47532517814448, -0.631406762946659, 1.48939108641211, -0.616609122796146], a = 0.2, v = 0.2, t = 0.2)
movej(p[0.304831085464093, -0.104271214477236, 0.475321428272066, -0.630552869769738, 1.48984151514585, -0.616468287168304], a = 0.2, v = 0.2, t = 0.2)
movej(p[0.304848796774555, -0.104272129867098, 0.475317678399653, -0.629699619625806, 1.49029298983619, -0.616329806782022], a = 0.2, v = 0.2, t = 0.2)
movej(p[0.304866408674722, -0.104273187002304, 0.475313933611589, -0.628845198596087, 1.49074199751671, -0.616192153403902], a = 0.2, v = 0.2, t = 0.2)
movej(p[0.304884119985185, -0.104274102392166, 0.475310183739175, -0.627991856566189, 1.4911915132133, -0.616053553132648], a = 0.2, v = 0.2, t = 0.2)
movej(p[0.304901831295647, -0.104275017782028, 0.475306433866762, -0.62713824697284, 1.49164085507867, -0.615915246940021], a = 0.2, v = 0.2, t = 0.2)
movej(p[0.304919542606109, -0.104275933171889, 0.475302683994348, -0.626281220306657, 1.49209134301326, -0.615777838608305], a = 0.2, v = 0.2, t = 0.2)
movej(p[0.304937153917655, -0.104276848985468, 0.475298933928867, -0.625427075216445, 1.49254033629295, -0.615640121574213], a = 0.2, v = 0.2, t = 0.2)
movej(p[0.304954865228117, -0.104277764375329, 0.475295184056453, -0.624571317350119, 1.49298847520076, -0.615503942366994], a = 0.2, v = 0.2, t = 0.2)
movej(p[0.305244964014687, -0.104428627084127, 0.475006989682593, -0.624381584429135, 1.49289258093062, -0.615679334424411], a = 0.2, v = 0.2, t = 0.2)
movej(p[0.306007903600004, -0.104483454470528, 0.474541349384877, -0.627785950477832, 1.48994718721909, -0.617781680248469], a = 0.2, v = 0.2, t = 0.2)
movej(p[0.306756458075322, -0.10444253222179, 0.474168550274041, -0.631719727584737, 1.4882235597198, -0.621411408329628], a = 0.2, v = 0.2, t = 0.2)
movej(p[0.307203191330451, -0.104455490918239, 0.4739232975657, -0.637288978681689, 1.48313320704599, -0.625892682749017], a = 0.2, v = 0.2, t = 0.2)
movej(p[0.308094930742038, -0.104495994875171, 0.473427035476382, -0.644751079921563, 1.47790449963172, -0.631081347413275], a = 0.2, v = 0.2, t = 0.2)
movej(p[0.308299663040714, -0.104454280461532, 0.473319907125449, -0.645439367098297, 1.47554751770564, -0.629985032189578], a = 0.2, v = 0.2, t = 0.2)
movej(p[0.308456058502747, -0.104405933430051, 0.473268825974303, -0.638854583365312, 1.47753386169458, -0.623370085043076], a = 0.2, v = 0.2, t = 0.2)
movej(p[0.308701994486557, -0.104509221105174, 0.473063887549319, -0.626326151015211, 1.48390538693149, -0.622264085403983], a = 0.2, v = 0.2, t = 0.2)
movej(p[0.308786450732163, -0.104489000435186, 0.473042647090674, -0.621852537987054, 1.48596790080824, -0.621086779272534], a = 0.2, v = 0.2, t = 0.2)
movej(p[0.308785968161404, -0.104408958008666, 0.47311692775493, -0.621852537987054, 1.48596790080824, -0.621086779272534], a = 0.2, v = 0.2, t = 0.2)
movej(p[0.308038142046831, -0.104332183038095, 0.473579303615303, -0.625937211808505, 1.48505635886592, -0.621798777151303], a = 0.2, v = 0.2, t = 0.2)
movej(p[0.307434158732784, -0.104319008791022, 0.473900923741487, -0.628563226823047, 1.48638952457793, -0.619389320611042], a = 0.2, v = 0.2, t = 0.2)
movej(p[0.306844698867412, -0.104306979817914, 0.474212993590915, -0.631211428364216, 1.48774979875278, -0.616959959340447], a = 0.2, v = 0.2, t = 0.2)
movej(p[0.304913335602657, -0.104209647401188, 0.475316188057094, -0.63508016338785, 1.49065127250121, -0.611330036535196], a = 0.2, v = 0.2, t = 0.2)
movej(p[0.3028711488052, -0.104256115320214, 0.476383974218643, -0.624256968667943, 1.49927125091442, -0.603674562858604], a = 0.2, v = 0.2, t = 0.2)
movej(p[0.301840719615953, -0.104436537854841, 0.47678927218921, -0.624358111466647, 1.5000856544096, -0.601682952573633], a = 0.2, v = 0.2, t = 0.2)
movej(p[0.301840719615953, -0.104436537854841, 0.47678927218921, -0.626088202989668, 1.49402689034116, -0.599016571959466], a = 0.2, v = 0.2, t = 0.2)
movej(p[0.302643708882798, -0.104319323945565, 0.476490300891586, -0.62916619667014, 1.49175158796996, -0.603374522997742], a = 0.2, v = 0.2, t = 0.2)
movej(p[0.303156888086365, -0.104294728470312, 0.476242794270212, -0.628095316198281, 1.4902242261767, -0.604275921768903], a = 0.2, v = 0.2, t = 0.2)
movej(p[0.30405387290526, -0.104397652464167, 0.475652852115284, -0.630726318747589, 1.48852859460187, -0.608824844268072], a = 0.2, v = 0.2, t = 0.2)
movej(p[0.305682973860549, -0.104432962087706, 0.474754886860967, -0.641653213095865, 1.48124179748043, -0.621688499376043], a = 0.2, v = 0.2, t = 0.2)
movej(p[0.306093490164416, -0.104440401336164, 0.474506097468423, -0.649683186377916, 1.47766425166504, -0.628858933427807], a = 0.2, v = 0.2, t = 0.2)
movej(p[0.306622953460475, -0.104454500047613, 0.474196456168753, -0.652412787200201, 1.47684040213179, -0.631602114702141], a = 0.2, v = 0.2, t = 0.2)
movej(p[0.307237105823105, -0.104517460454363, 0.473793006837786, -0.650038053815418, 1.47826396462751, -0.635284443164981], a = 0.2, v = 0.2, t = 0.2)
movej(p[0.307712219852503, -0.104459240508843, 0.47360884007365, -0.648765365437622, 1.4773641088239, -0.63699110978276], a = 0.2, v = 0.2, t = 0.2)
movej(p[0.308362118836734, -0.104445237173477, 0.473219715945774, -0.647858197997063, 1.47572565675841, -0.637610490769501], a = 0.2, v = 0.2, t = 0.2)
movej(p[0.308367169965823, -0.104484957109661, 0.473176842845065, -0.648414839883212, 1.47543135255913, -0.638074936166075], a = 0.2, v = 0.2, t = 0.2)
movej(p[0.308457227911202, -0.104465528983939, 0.473156492798257, -0.645633102973294, 1.47553311886, -0.637020209118312], a = 0.2, v = 0.2, t = 0.2)
movej(p[0.30850932309191, -0.104463335568954, 0.473154467686494, -0.644453946161498, 1.47734853896204, -0.637838393109371], a = 0.2, v = 0.2, t = 0.2)
movej(p[0.30850866508105, -0.104354193469056, 0.473255753317516, -0.642536533805511, 1.47811684046294, -0.636164314552132], a = 0.2, v = 0.2, t = 0.2)
movej(p[0.308289298183827, -0.104229927775976, 0.473534403657416, -0.639321828524355, 1.48005457207006, -0.633685101270027], a = 0.2, v = 0.2, t = 0.2)
movej(p[0.308085614120604, -0.104263213364994, 0.473598055852609, -0.638079733218437, 1.48048875865526, -0.632371359468527], a = 0.2, v = 0.2, t = 0.2)
movej(p[0.306311630059892, -0.104270408264522, 0.474527944472691, -0.637856650459357, 1.48606803845614, -0.623536907849582], a = 0.2, v = 0.2, t = 0.2)
movej(p[0.304328360069738, -0.10431146664709, 0.475523688724683, -0.627399038085369, 1.49344579618469, -0.609556082232452], a = 0.2, v = 0.2, t = 0.2)
movej(p[0.302790354070079, -0.104288277309068, 0.476399582781983, -0.624100800370478, 1.49745469017254, -0.601952379269966], a = 0.2, v = 0.2, t = 0.2)
movej(p[0.302178575896235, -0.104345031051475, 0.476664783439469, -0.620121119992334, 1.49857368136533, -0.597951192486979], a = 0.2, v = 0.2, t = 0.2)
movej(p[0.302178575896235, -0.104345031051475, 0.476664783439469, -0.620247698382259, 1.49823056701596, -0.597771511704273], a = 0.2, v = 0.2, t = 0.2)
movej(p[0.302197747714237, -0.1043829055258, 0.476607223595923, -0.624017129398182, 1.49373427258051, -0.59880901853233], a = 0.2, v = 0.2, t = 0.2)
movej(p[0.303472729202649, -0.104410186194925, 0.475906913215236, -0.625550406676379, 1.48636797980975, -0.60739541528639], a = 0.2, v = 0.2, t = 0.2)
movej(p[0.304284142855456, -0.10444421059323, 0.47540932154091, -0.6285340878105, 1.48450885374225, -0.612044144350649], a = 0.2, v = 0.2, t = 0.2)
movej(p[0.305365257456019, -0.104467918288206, 0.474786521183132, -0.631309631997023, 1.48282294648391, -0.616927323820861], a = 0.2, v = 0.2, t = 0.2)
movej(p[0.306103986778172, -0.10446423522133, 0.474404831644882, -0.635510403351537, 1.48129381227655, -0.621820981114825], a = 0.2, v = 0.2, t = 0.2)
movej(p[0.306666444205788, -0.104503798293859, 0.473998914836396, -0.645480272528536, 1.47777356402431, -0.631405121350495], a = 0.2, v = 0.2, t = 0.2)
movej(p[0.307106211354399, -0.104498076006308, 0.473746864761157, -0.651405401755168, 1.47449327092296, -0.63623708184413], a = 0.2, v = 0.2, t = 0.2)
movej(p[0.307457977225439, -0.104504720420912, 0.473522122923205, -0.650530573346669, 1.47403793752972, -0.637029594842442], a = 0.2, v = 0.2, t = 0.2)
movej(p[0.308209047106132, -0.10447962875161, 0.473176101330747, -0.647947549161723, 1.47444512152117, -0.639265188297547], a = 0.2, v = 0.2, t = 0.2)
movej(p[0.308543902175166, -0.104454450777207, 0.472990610866444, -0.645610697926259, 1.47533535279025, -0.639189693543264], a = 0.2, v = 0.2, t = 0.2)
movej(p[0.308583201749129, -0.104454284256375, 0.472990686742095, -0.645539376569794, 1.4753330430124, -0.639260627420453], a = 0.2, v = 0.2, t = 0.2)
movej(p[0.308582503849314, -0.104347045249952, 0.473116809374629, -0.6419645384269, 1.47700813565703, -0.635964460421419], a = 0.2, v = 0.2, t = 0.2)
movej(p[0.307858341094428, -0.104292954883922, 0.473596285648014, -0.642713479823919, 1.47927467941822, -0.632164159806101], a = 0.2, v = 0.2, t = 0.2)
movej(p[0.307132728281541, -0.104273422870038, 0.47402213928039, -0.640992780415363, 1.48234966025978, -0.628205121760777], a = 0.2, v = 0.2, t = 0.2)
movej(p[0.306120377770707, -0.104258692539734, 0.474631832507008, -0.630079101660333, 1.49138293720157, -0.620319949680949], a = 0.2, v = 0.2, t = 0.2)
movej(p[0.304098330082451, -0.104275584736065, 0.475718157085631, -0.624672210773226, 1.49905395906432, -0.609400918254291], a = 0.2, v = 0.2, t = 0.2)
movej(p[0.301675160353166, -0.10441090320033, 0.476762778699568, -0.614058841582788, 1.50393330295994, -0.594009471323867], a = 0.2, v = 0.2, t = 0.2)
movej(p[0.299332630694432, -0.104491391701661, 0.477873946719765, -0.610984378571777, 1.50777709410293, -0.582097683323216], a = 0.2, v = 0.2, t = 0.2)
movej(p[0.297598909623641, -0.104481237693357, 0.478733360755495, -0.605621817821237, 1.50768786847511, -0.573262646902057], a = 0.2, v = 0.2, t = 0.2)
movej(p[0.297598909623641, -0.104481237693357, 0.478733360755495, -0.607455802086205, 1.5016664871513, -0.57056824248058], a = 0.2, v = 0.2, t = 0.2)
movej(p[0.299872694047828, -0.104405646753981, 0.477655984548123, -0.603512057594264, 1.49763947071825, -0.578288384947578], a = 0.2, v = 0.2, t = 0.2)
movej(p[0.301326220765192, -0.104391048488, 0.476944930982956, -0.613729095063476, 1.4915419019808, -0.593658634193963], a = 0.2, v = 0.2, t = 0.2)
movej(p[0.302492263883469, -0.104417560494435, 0.476262195888036, -0.621249591630492, 1.48778597373128, -0.604691867311035], a = 0.2, v = 0.2, t = 0.2)
movej(p[0.303241602634866, -0.104399527678728, 0.47589598455122, -0.624119532079247, 1.48696038875992, -0.607566048355049], a = 0.2, v = 0.2, t = 0.2)
movej(p[0.304072289231273, -0.104446506747879, 0.475337355510074, -0.627812534646377, 1.48600735934259, -0.611354821660877], a = 0.2, v = 0.2, t = 0.2)
movej(p[0.305051283250608, -0.104421949777014, 0.474877693954918, -0.630824221353794, 1.48480116224861, -0.615165145553677], a = 0.2, v = 0.2, t = 0.2)
movej(p[0.305355856925594, -0.104435333781551, 0.474663436131425, -0.635338411408166, 1.48290171939617, -0.623485638986548], a = 0.2, v = 0.2, t = 0.2)
movej(p[0.30591524381264, -0.104398502431831, 0.474437151040712, -0.635338411408166, 1.48290171939617, -0.623485638986548], a = 0.2, v = 0.2, t = 0.2)
movej(p[0.306414389420524, -0.104390955880468, 0.474244383092929, -0.632564728222527, 1.48473345628606, -0.626578026949519], a = 0.2, v = 0.2, t = 0.2)
movej(p[0.306773165908365, -0.104385640750209, 0.47403972982234, -0.633065359606549, 1.48384298418503, -0.628826062673215], a = 0.2, v = 0.2, t = 0.2)
movej(p[0.3072396470063, -0.104367677221837, 0.473805534632557, -0.633560415452289, 1.48325876525679, -0.62898415556726], a = 0.2, v = 0.2, t = 0.2)
movej(p[0.3072396470063, -0.104367677221837, 0.473805534632557, -0.634702632130582, 1.48368986014065, -0.628306156045376], a = 0.2, v = 0.2, t = 0.2)
movej(p[0.306975340495294, -0.104373665141054, 0.473975950192479, -0.634650461610308, 1.48388517740559, -0.628391964529924], a = 0.2, v = 0.2, t = 0.2)
movej(p[0.30688026748256, -0.104386892729401, 0.473990468221138, -0.634167990062374, 1.48402585946524, -0.627922607422521], a = 0.2, v = 0.2, t = 0.2)
movej(p[0.306785194469826, -0.104400120317749, 0.474004986249798, -0.633689973360057, 1.48416798792791, -0.627446245387439], a = 0.2, v = 0.2, t = 0.2)
movej(p[0.305822513162139, -0.104381194245206, 0.474569906203073, -0.630165479239036, 1.48687425763878, -0.621005477387758], a = 0.2, v = 0.2, t = 0.2)
movej(p[0.305822319877213, -0.104350663822282, 0.474603013844442, -0.630813540281936, 1.48736727302864, -0.620437417421677], a = 0.2, v = 0.2, t = 0.2)
movej(p[0.305823319866372, -0.104350659585111, 0.47460301577512, -0.631404223346593, 1.48719440159286, -0.621026299391448], a = 0.2, v = 0.2, t = 0.2)
movej(p[0.306492578728326, -0.104369040701533, 0.474254059201526, -0.632281898079174, 1.4837048123908, -0.624123726090924], a = 0.2, v = 0.2, t = 0.2)
movej(p[0.307861538113511, -0.104346844418018, 0.473560730659842, -0.637710189263419, 1.48034093361411, -0.632607797974641], a = 0.2, v = 0.2, t = 0.2)
movej(p[0.308645158098659, -0.104357114015107, 0.473111160037745, -0.63795021643399, 1.47834022435794, -0.637327375269432], a = 0.2, v = 0.2, t = 0.2)
movej(p[0.308645158098659, -0.104357114015107, 0.473111160037745, -0.63795021643399, 1.47834022435794, -0.637327375269432], a = 0.2, v = 0.2, t = 0.2)
movej(p[0.308480798155309, -0.10427076986216, 0.473417946863202, -0.639276146630608, 1.48055485937936, -0.633729282646451], a = 0.2, v = 0.2, t = 0.2)
movej(p[0.306307191180227, -0.104259441386433, 0.474575784141715, -0.631696758256449, 1.48836798082744, -0.620241918567481], a = 0.2, v = 0.2, t = 0.2)
movej(p[0.304458596644386, -0.104216587955836, 0.475711612295769, -0.625616164138768, 1.49344563361592, -0.607490831392421], a = 0.2, v = 0.2, t = 0.2)
movej(p[0.302679491295463, -0.104237244404916, 0.476630246623749, -0.621619732366151, 1.49770731182469, -0.597301634488744], a = 0.2, v = 0.2, t = 0.2)
movej(p[0.299183327617555, -0.104362424571189, 0.478109616510983, -0.606308309358189, 1.5050242764243, -0.577801953431804], a = 0.2, v = 0.2, t = 0.2)
movej(p[0.296544112342145, -0.10440785416486, 0.479341907682768, -0.599887842891121, 1.50879684420281, -0.56589072100271], a = 0.2, v = 0.2, t = 0.2)
movej(p[0.296544112342145, -0.10440785416486, 0.479341907682768, -0.602887778284167, 1.49908975972716, -0.561521956566951], a = 0.2, v = 0.2, t = 0.2)
movej(p[0.29739610013298, -0.104381977092237, 0.478933657169749, -0.608409340396456, 1.49353941881159, -0.572268691476692], a = 0.2, v = 0.2, t = 0.2)
movej(p[0.299881764733894, -0.104349953071712, 0.477704376142534, -0.611326933806383, 1.48888535821158, -0.585099878297606], a = 0.2, v = 0.2, t = 0.2)
movej(p[0.30126485618247, -0.104391188712291, 0.476822959148811, -0.613074039496008, 1.48941202129819, -0.593251758218862], a = 0.2, v = 0.2, t = 0.2)
movej(p[0.302567915763291, -0.104403684994303, 0.476153502173519, -0.62078238670404, 1.48821669392422, -0.601774137991074], a = 0.2, v = 0.2, t = 0.2)
movej(p[0.303603346893817, -0.104398965601268, 0.475614881749411, -0.632196256229986, 1.48492426738922, -0.6132159916806], a = 0.2, v = 0.2, t = 0.2)
movej(p[0.304978046036936, -0.104398014535004, 0.474895823343312, -0.634346544379173, 1.48247501532308, -0.617919031829805], a = 0.2, v = 0.2, t = 0.2)
movej(p[0.306312213455641, -0.104370129209657, 0.474237448254556, -0.636415817314346, 1.48011588072564, -0.624144291448821], a = 0.2, v = 0.2, t = 0.2)
movej(p[0.306748074257544, -0.104392867686761, 0.47394753453804, -0.64047627446517, 1.4807433410975, -0.630896654400141], a = 0.2, v = 0.2, t = 0.2)
movej(p[0.307504294318699, -0.104368368786125, 0.473628646951305, -0.639618158373867, 1.48039570038055, -0.632037424118012], a = 0.2, v = 0.2, t = 0.2)
movej(p[0.307798191644968, -0.104373411332201, 0.473487362860407, -0.638034313034657, 1.48373256124774, -0.634204416198529], a = 0.2, v = 0.2, t = 0.2)
movej(p[0.308009222694832, -0.104360512679574, 0.473392362066969, -0.632338145878918, 1.48651415419097, -0.633680849230487], a = 0.2, v = 0.2, t = 0.2)
movej(p[0.308652085194046, -0.104298404232421, 0.473227293481535, -0.625082855165913, 1.48905910441484, -0.634130585072211], a = 0.2, v = 0.2, t = 0.2)
movej(p[0.308652085194046, -0.104298404232421, 0.473227293481535, -0.625082855165913, 1.48905910441484, -0.634130585072211], a = 0.2, v = 0.2, t = 0.2)
movej(p[0.308358153399046, -0.104258126586588, 0.473516282773956, -0.628958545986666, 1.48728834973568, -0.631227674002528], a = 0.2, v = 0.2, t = 0.2)
movej(p[0.3072735195552, -0.104233478626416, 0.474198762196975, -0.636587581076071, 1.4852643255872, -0.624169796148621], a = 0.2, v = 0.2, t = 0.2)
movej(p[0.305909717037667, -0.104212873669574, 0.475027707369423, -0.640688859843787, 1.48736028634635, -0.62040700794403], a = 0.2, v = 0.2, t = 0.2)
movej(p[0.305000504459306, -0.104217872168795, 0.475558039899403, -0.631227093386151, 1.49656065506708, -0.613695363001067], a = 0.2, v = 0.2, t = 0.2)
movej(p[0.302721868334226, -0.104234090077388, 0.476687250016662, -0.620320207513573, 1.5018543500315, -0.597490733056449], a = 0.2, v = 0.2, t = 0.2)
movej(p[0.300346093228649, -0.104292601826841, 0.477721744034478, -0.619943660972449, 1.5055351541561, -0.588053508318681], a = 0.2, v = 0.2, t = 0.2)
movej(p[0.297685787421055, -0.104390258041544, 0.478804655925545, -0.608104250881043, 1.50582663159882, -0.573581547115759], a = 0.2, v = 0.2, t = 0.2)
movej(p[0.297685787421055, -0.104390258041544, 0.478804655925545, -0.608896002315941, 1.50321874522821, -0.572417359936915], a = 0.2, v = 0.2, t = 0.2)
movej(p[0.298891457757441, -0.1043406861179, 0.478303634614277, -0.603352239655767, 1.49850471285768, -0.578825063521409], a = 0.2, v = 0.2, t = 0.2)
movej(p[0.301430568554225, -0.104321174747394, 0.477078187349774, -0.607324071899762, 1.49295412819754, -0.592092283034694], a = 0.2, v = 0.2, t = 0.2)
movej(p[0.302431657576106, -0.104353926716222, 0.476436239985259, -0.619196943641941, 1.4871856761485, -0.6020502272291], a = 0.2, v = 0.2, t = 0.2)
movej(p[0.303831876531281, -0.104352180231826, 0.475705317494594, -0.630114584340832, 1.48333513636843, -0.612457063264278], a = 0.2, v = 0.2, t = 0.2)
movej(p[0.305073615899848, -0.104369860808113, 0.4749019771198, -0.634470345688428, 1.48167297445197, -0.617746214755459], a = 0.2, v = 0.2, t = 0.2)
movej(p[0.306495776396412, -0.104360898284937, 0.474185619914776, -0.630838559006872, 1.48318044812013, -0.621632728332617], a = 0.2, v = 0.2, t = 0.2)
movej(p[0.307616233669953, -0.104330338170548, 0.473732610425274, -0.623787408761461, 1.48968506588485, -0.629455954284911], a = 0.2, v = 0.2, t = 0.2)
movej(p[0.308139063394473, -0.104317594140052, 0.473485000351075, -0.621426320268541, 1.4917093597254, -0.631593187631713], a = 0.2, v = 0.2, t = 0.2)
movej(p[0.30842220670631, -0.104293286927582, 0.473410810767008, -0.619506606623897, 1.49232292186783, -0.629783252349967], a = 0.2, v = 0.2, t = 0.2)
movej(p[0.308607360936356, -0.104282782036763, 0.473360707190639, -0.617950536972249, 1.49435997999333, -0.631708347135098], a = 0.2, v = 0.2, t = 0.2)
movej(p[0.30876603588958, -0.104271293988044, 0.473349358888744, -0.613842446470021, 1.49489589824189, -0.632174419125899], a = 0.2, v = 0.2, t = 0.2)
movej(p[0.308868381875959, -0.104245498249803, 0.473373092598118, -0.613842446470021, 1.49489589824189, -0.632174419125899], a = 0.2, v = 0.2, t = 0.2)
movej(p[0.308868219640817, -0.104233180945971, 0.473430089595461, -0.621792619831932, 1.49097216807625, -0.631333395966632], a = 0.2, v = 0.2, t = 0.2)
movej(p[0.307650650948368, -0.104243153598504, 0.474102262263284, -0.628769184291134, 1.49456243775659, -0.624879991925402], a = 0.2, v = 0.2, t = 0.2)
movej(p[0.306520862937499, -0.104235552600991, 0.474746365752899, -0.625951035173865, 1.49698721524419, -0.618012585407255], a = 0.2, v = 0.2, t = 0.2)
movej(p[0.305116873586936, -0.104245495444162, 0.475479921458606, -0.62732179469645, 1.4993553793695, -0.612672727669703], a = 0.2, v = 0.2, t = 0.2)
movej(p[0.304834283125656, -0.104255005321369, 0.475597855564906, -0.628314528560786, 1.49833874616411, -0.608723459875415], a = 0.2, v = 0.2, t = 0.2)
movej(p[0.303753319565977, -0.104270577994472, 0.47617683629386, -0.630842564412704, 1.49925281570159, -0.605155616880215], a = 0.2, v = 0.2, t = 0.2)
movej(p[0.301420003444027, -0.10429273744349, 0.477308418338551, -0.616414108120257, 1.50387515070707, -0.588188805101843], a = 0.2, v = 0.2, t = 0.2)
movej(p[0.298056188683664, -0.104351744293312, 0.478773352637294, -0.603802613819153, 1.50712749458125, -0.575532471911497], a = 0.2, v = 0.2, t = 0.2)
movej(p[0.298056188683664, -0.104351744293312, 0.478773352637294, -0.604513445106862, 1.50344557472188, -0.574289448986455], a = 0.2, v = 0.2, t = 0.2)
movej(p[0.299658441591641, -0.104337122030361, 0.477945925451189, -0.601655861696065, 1.49913456886281, -0.581910042997104], a = 0.2, v = 0.2, t = 0.2)
movej(p[0.302228478647867, -0.104352922975411, 0.476525572653551, -0.619889247890716, 1.49050607194235, -0.601070191832002], a = 0.2, v = 0.2, t = 0.2)
movej(p[0.302892758170823, -0.1043912269578, 0.475950634143521, -0.621048038389543, 1.48791915969164, -0.607075780216688], a = 0.2, v = 0.2, t = 0.2)
movej(p[0.303880612429767, -0.104414472977292, 0.475253960478407, -0.625659278282789, 1.48650239207233, -0.611892447150518], a = 0.2, v = 0.2, t = 0.2)
movej(p[0.304702252541149, -0.104438137921008, 0.474719986511058, -0.633579773989367, 1.48388962649652, -0.620525053459972], a = 0.2, v = 0.2, t = 0.2)
movej(p[0.305685350079026, -0.104430260895976, 0.474243337003036, -0.629972209231198, 1.48801858476616, -0.624840251217762], a = 0.2, v = 0.2, t = 0.2)
movej(p[0.30679457069578, -0.104386163224851, 0.473883131188579, -0.617520166305899, 1.49383294568096, -0.627167931060224], a = 0.2, v = 0.2, t = 0.2)
movej(p[0.307015332096108, -0.104388308619322, 0.473753686136886, -0.610779433854902, 1.50166583121827, -0.627490871445961], a = 0.2, v = 0.2, t = 0.2)
movej(p[0.30731195901515, -0.10438251109239, 0.473676890045961, -0.60849985686604, 1.50284694431735, -0.628411748819217], a = 0.2, v = 0.2, t = 0.2)
movej(p[0.307651782738266, -0.104363510567159, 0.473624811093898, -0.604837293875315, 1.50521266017718, -0.628508314483418], a = 0.2, v = 0.2, t = 0.2)
movej(p[0.308044069671402, -0.104337100155924, 0.473575820051151, -0.602631952106524, 1.50407702367227, -0.630577424639782], a = 0.2, v = 0.2, t = 0.2)
movej(p[0.308650517220264, -0.104306721788085, 0.473487927131945, -0.602259528925158, 1.50366910106825, -0.630890367774246], a = 0.2, v = 0.2, t = 0.2)
movej(p[0.308650517220264, -0.104306721788085, 0.473487927131945, -0.602690829223855, 1.5032648616591, -0.631799944461103], a = 0.2, v = 0.2, t = 0.2)
movej(p[0.308640858228167, -0.104291557831154, 0.473536943642243, -0.60341338171584, 1.50067857860256, -0.630623055182691], a = 0.2, v = 0.2, t = 0.2)
movej(p[0.308237550162152, -0.104277195314901, 0.473714517238294, -0.626969883308649, 1.48485825276361, -0.63041171474554], a = 0.2, v = 0.2, t = 0.2)
movej(p[0.307906552271095, -0.104285590890541, 0.473833582306325, -0.632792968015429, 1.48281415880482, -0.628863909439614], a = 0.2, v = 0.2, t = 0.2)
movej(p[0.307123038858115, -0.104283853155572, 0.474350269215351, -0.637041907723345, 1.48499444933217, -0.624973288486913], a = 0.2, v = 0.2, t = 0.2)
movej(p[0.305661323057237, -0.104283506507821, 0.475178209471227, -0.629067866217672, 1.491340665068, -0.615740997038952], a = 0.2, v = 0.2, t = 0.2)
movej(p[0.303211988722233, -0.104319587360904, 0.476245535708799, -0.622471892520941, 1.49932687689792, -0.602042493091162], a = 0.2, v = 0.2, t = 0.2)
movej(p[0.301116011568045, -0.104355567020661, 0.47718141643475, -0.617702761538928, 1.50218027575339, -0.593432301656069], a = 0.2, v = 0.2, t = 0.2)
movej(p[0.299901878618819, -0.104358992803822, 0.477613545889442, -0.61056579704731, 1.50403205867185, -0.586259560668452], a = 0.2, v = 0.2, t = 0.2)
movej(p[0.299901878618819, -0.104358992803822, 0.477613545889442, -0.609187465862147, 1.49862503586625, -0.586834445477629], a = 0.2, v = 0.2, t = 0.2)
movej(p[0.301880630741314, -0.104325132463564, 0.476694623360021, -0.617410446548798, 1.48837835319456, -0.60145019812037], a = 0.2, v = 0.2, t = 0.2)
movej(p[0.302976474787919, -0.104351094935449, 0.475854421416692, -0.618634746285889, 1.48591708369449, -0.607596840431258], a = 0.2, v = 0.2, t = 0.2)
movej(p[0.303897267618473, -0.104352389323886, 0.475296397781207, -0.624886422297988, 1.48288298943296, -0.615957248215442], a = 0.2, v = 0.2, t = 0.2)
movej(p[0.304953581147191, -0.104362334850183, 0.474747400672332, -0.629903216649722, 1.48136087720611, -0.620946619585022], a = 0.2, v = 0.2, t = 0.2)
movej(p[0.305667901621719, -0.104374441373424, 0.474197628336028, -0.636701784521192, 1.47894629916756, -0.627455343100071], a = 0.2, v = 0.2, t = 0.2)
movej(p[0.306763547602109, -0.104358102431597, 0.473781539409674, -0.640605673449397, 1.47622374494814, -0.630731732601851], a = 0.2, v = 0.2, t = 0.2)
movej(p[0.307315586228678, -0.104358632243474, 0.473506818725931, -0.643645850425882, 1.47482333668483, -0.633822878540035], a = 0.2, v = 0.2, t = 0.2)
movej(p[0.307557564034466, -0.104364189761461, 0.473376483981908, -0.647181513328551, 1.47343876243123, -0.637141342645205], a = 0.2, v = 0.2, t = 0.2)
movej(p[0.307961206982606, -0.104368099925656, 0.473209700946102, -0.651242051199493, 1.47212296321673, -0.64000584719697], a = 0.2, v = 0.2, t = 0.2)
movej(p[0.308278355831968, -0.104369108007382, 0.47308480190239, -0.652756704626359, 1.47139550479907, -0.641333325732974], a = 0.2, v = 0.2, t = 0.2)
movej(p[0.308548062970441, -0.104366313865342, 0.473076486721895, -0.651838267101481, 1.4708797622753, -0.642242380298231], a = 0.2, v = 0.2, t = 0.2)
movej(p[0.309074598153908, -0.104350316775741, 0.472974316453735, -0.653275554656098, 1.47049839988427, -0.643733697817726], a = 0.2, v = 0.2, t = 0.2)
movej(p[0.309127356241049, -0.104357551135112, 0.472960403212357, -0.653940033741348, 1.47085273339279, -0.643134863217655], a = 0.2, v = 0.2, t = 0.2)
movej(p[0.309127297582607, -0.104350093476814, 0.472974418200473, -0.650706720305179, 1.47448110603461, -0.641850500799825], a = 0.2, v = 0.2, t = 0.2)
movej(p[0.308837011834829, -0.104322309106444, 0.473318791375097, -0.643769084656091, 1.47846213277441, -0.635836888723931], a = 0.2, v = 0.2, t = 0.2)
movej(p[0.307501821261236, -0.104304984733346, 0.474200705825757, -0.631823497501518, 1.48962421403871, -0.624222239370048], a = 0.2, v = 0.2, t = 0.2)
movej(p[0.306204020970881, -0.10431770347226, 0.474946616202435, -0.630793444019479, 1.49367603304169, -0.617348769987231], a = 0.2, v = 0.2, t = 0.2)
movej(p[0.304740098097496, -0.104325436270202, 0.475744143609246, -0.620310364766493, 1.50096449485107, -0.606135677333363], a = 0.2, v = 0.2, t = 0.2)
movej(p[0.302951885498401, -0.104344299750196, 0.476507161282411, -0.622649844125609, 1.50374205517779, -0.599943712401412], a = 0.2, v = 0.2, t = 0.2)
movej(p[0.30099113182481, -0.104343811302397, 0.477455195091364, -0.61290205697746, 1.5064898415037, -0.588606299586372], a = 0.2, v = 0.2, t = 0.2)
movej(p[0.30082623361243, -0.104344510011944, 0.477454876722539, -0.613230015311115, 1.50538370686898, -0.588114463307355], a = 0.2, v = 0.2, t = 0.2)
movej(p[0.300826340857236, -0.104340279129493, 0.477390044260514, -0.610815091833236, 1.49875464447719, -0.590854959390894], a = 0.2, v = 0.2, t = 0.2)
movej(p[0.30269276813721, -0.104333897120139, 0.4765436637264, -0.621195766176908, 1.48794730437605, -0.603512248055421], a = 0.2, v = 0.2, t = 0.2)
movej(p[0.303468149976973, -0.104316159231792, 0.47579336124081, -0.622184302110989, 1.48618760899359, -0.608113664976329], a = 0.2, v = 0.2, t = 0.2)
movej(p[0.304271875894377, -0.104334018411153, 0.47525389684958, -0.63010288905623, 1.48312576055822, -0.61785236133538], a = 0.2, v = 0.2, t = 0.2)
movej(p[0.305078119506412, -0.104315254026806, 0.474728496092125, -0.631858085457982, 1.48105403881332, -0.619937253028604], a = 0.2, v = 0.2, t = 0.2)
movej(p[0.305877352572706, -0.104328179568508, 0.474278066601403, -0.637457338527668, 1.47852959680823, -0.626503277182341], a = 0.2, v = 0.2, t = 0.2)
movej(p[0.306872318677574, -0.104335301732935, 0.473747092039923, -0.643712004006041, 1.47541202484776, -0.633713985101005], a = 0.2, v = 0.2, t = 0.2)
movej(p[0.307115137225025, -0.104319217173837, 0.473548162881748, -0.642952908566255, 1.47485484526522, -0.63478353338665], a = 0.2, v = 0.2, t = 0.2)
movej(p[0.307561905410994, -0.104311043421665, 0.473342029968845, -0.644136223342789, 1.47495011809919, -0.636314584980412], a = 0.2, v = 0.2, t = 0.2)
movej(p[0.307828980321028, -0.104335544677281, 0.473254910964584, -0.644362021004297, 1.47512391682301, -0.636724029193933], a = 0.2, v = 0.2, t = 0.2)
movej(p[0.307967743973723, -0.104313405618387, 0.473225928715499, -0.644263483890392, 1.47505934247809, -0.636844306402433], a = 0.2, v = 0.2, t = 0.2)
movej(p[0.308291068948866, -0.104324447907618, 0.47308365641216, -0.643836176832473, 1.47429557754004, -0.638294027700389], a = 0.2, v = 0.2, t = 0.2)
movej(p[0.308568965936255, -0.104323270397715, 0.473084192947616, -0.645412692932324, 1.47190916695754, -0.638441447066395], a = 0.2, v = 0.2, t = 0.2)
movej(p[0.308568457589613, -0.104324845067579, 0.473350945477123, -0.646201567618232, 1.47231944591602, -0.637728085559286], a = 0.2, v = 0.2, t = 0.2)
movej(p[0.307743247423339, -0.104344981344851, 0.474069108335962, -0.63349341297611, 1.48475499302614, -0.627693852735025], a = 0.2, v = 0.2, t = 0.2)
movej(p[0.306513722275837, -0.104365133082809, 0.474740999219305, -0.633440983413727, 1.48975603686855, -0.620266034781312], a = 0.2, v = 0.2, t = 0.2)
movej(p[0.305288753309507, -0.104386205111853, 0.475541222032725, -0.629965322524847, 1.49746717522018, -0.610381369224155], a = 0.2, v = 0.2, t = 0.2)
movej(p[0.304392372097802, -0.104372768165072, 0.475963125459784, -0.625719252042025, 1.50092010064624, -0.603682599248783], a = 0.2, v = 0.2, t = 0.2)
movej(p[0.302607676147008, -0.104366496081026, 0.476610580696987, -0.618234391039349, 1.50575856355485, -0.594221656807309], a = 0.2, v = 0.2, t = 0.2)
movej(p[0.300647770690421, -0.104380600308105, 0.477565671018381, -0.611589754037286, 1.50881267386939, -0.584360898843624], a = 0.2, v = 0.2, t = 0.2)
movej(p[0.300647770690421, -0.104380600308105, 0.477565671018381, -0.612262560704703, 1.50656448042445, -0.583361326431807], a = 0.2, v = 0.2, t = 0.2)
movej(p[0.300888208716628, -0.104334854707599, 0.477291543683757, -0.607438175156798, 1.49810466333004, -0.591241156250651], a = 0.2, v = 0.2, t = 0.2)
movej(p[0.302626821351039, -0.104314339784143, 0.476265628509202, -0.614487876543011, 1.48786292049589, -0.604538777312641], a = 0.2, v = 0.2, t = 0.2)
movej(p[0.303951369085142, -0.104312934300814, 0.475416532840447, -0.626497357801667, 1.48437521445233, -0.616543666119153], a = 0.2, v = 0.2, t = 0.2)
movej(p[0.305065924209742, -0.104312335467361, 0.474667791012026, -0.632892214980581, 1.48034668045405, -0.621153815960782], a = 0.2, v = 0.2, t = 0.2)
movej(p[0.305778228216029, -0.104288250564354, 0.474202495267284, -0.640210032372291, 1.4794720513328, -0.626915817247468], a = 0.2, v = 0.2, t = 0.2)
movej(p[0.306545791757355, -0.104289619042633, 0.473710739568493, -0.644019611184279, 1.47832609793478, -0.630732622443526], a = 0.2, v = 0.2, t = 0.2)
movej(p[0.307024694561029, -0.104275764678751, 0.473526185047457, -0.642991029232162, 1.47767419970559, -0.634189220900629], a = 0.2, v = 0.2, t = 0.2)
movej(p[0.308022889399093, -0.104312185136315, 0.473303622167503, -0.646402649859354, 1.47641456940331, -0.63811172603583], a = 0.2, v = 0.2, t = 0.2)
movej(p[0.308263862278979, -0.104293569348809, 0.473174576386421, -0.646578994439538, 1.47514048784764, -0.639603695843464], a = 0.2, v = 0.2, t = 0.2)
movej(p[0.308483163190781, -0.104304383991637, 0.473095479334749, -0.647849777166619, 1.47447501141086, -0.640710109250275], a = 0.2, v = 0.2, t = 0.2)
movej(p[0.308584376887598, -0.104309146524818, 0.473047610181275, -0.648583318436925, 1.47371246720269, -0.641093799041807], a = 0.2, v = 0.2, t = 0.2)
movej(p[0.308671275945548, -0.104308778314633, 0.473047777957206, -0.648439298581522, 1.47427654590941, -0.641338623101622], a = 0.2, v = 0.2, t = 0.2)
movej(p[0.308671153642905, -0.104323661974415, 0.473143788746774, -0.647327629026336, 1.47554590740557, -0.640921258975876], a = 0.2, v = 0.2, t = 0.2)
movej(p[0.308341699170448, -0.104363870219803, 0.473828144237423, -0.635602560638697, 1.48204708313544, -0.630644646458429], a = 0.2, v = 0.2, t = 0.2)
movej(p[0.30669722385456, -0.104412379635689, 0.474948492264603, -0.627349436777348, 1.49404151500343, -0.616300724067248], a = 0.2, v = 0.2, t = 0.2)
movej(p[0.304815272461996, -0.104423756207307, 0.475818236151988, -0.62437550696367, 1.49968881496315, -0.604842247773555], a = 0.2, v = 0.2, t = 0.2)
movej(p[0.303117408245601, -0.104417089856794, 0.476500672018906, -0.621065718396367, 1.50292204059996, -0.595755485650371], a = 0.2, v = 0.2, t = 0.2)
movej(p[0.301285472718237, -0.104422879604636, 0.477453808715503, -0.616405494119717, 1.50427204180524, -0.588069559050682], a = 0.2, v = 0.2, t = 0.2)
movej(p[0.301285472718237, -0.104422879604636, 0.477453808715503, -0.616587390653822, 1.50365583755947, -0.587796619015591], a = 0.2, v = 0.2, t = 0.2)
movej(p[0.301305864264877, -0.104410023945608, 0.477274702107985, -0.616905187056093, 1.49918183699998, -0.590016583371985], a = 0.2, v = 0.2, t = 0.2)
movej(p[0.302559937088295, -0.104389404517374, 0.47652543349611, -0.621353428549633, 1.4925169547495, -0.601692432494075], a = 0.2, v = 0.2, t = 0.2)
movej(p[0.303518547681207, -0.104343208350932, 0.475802401515238, -0.627763912077686, 1.48390464929412, -0.611580721421407], a = 0.2, v = 0.2, t = 0.2)
movej(p[0.304323423328605, -0.104325741599345, 0.475263248128145, -0.628234333647768, 1.48222735404524, -0.615762316910273], a = 0.2, v = 0.2, t = 0.2)
movej(p[0.305374002374731, -0.104342244181633, 0.474850060189528, -0.630681140992229, 1.48166384246363, -0.62066941056391], a = 0.2, v = 0.2, t = 0.2)
movej(p[0.306144054670857, -0.104296989000182, 0.474210024854735, -0.637552940707704, 1.47946728241612, -0.627889154314826], a = 0.2, v = 0.2, t = 0.2)
movej(p[0.306432679615506, -0.104269868161933, 0.473932023359308, -0.63794773762008, 1.47869420454565, -0.629818882048563], a = 0.2, v = 0.2, t = 0.2)
movej(p[0.306868201004134, -0.104270255581125, 0.473768854918874, -0.63724536980425, 1.47875596420757, -0.63165854763624], a = 0.2, v = 0.2, t = 0.2)
movej(p[0.3073624128595, -0.104287937190023, 0.47354531802545, -0.639347170509988, 1.47928777939733, -0.634902529331107], a = 0.2, v = 0.2, t = 0.2)
movej(p[0.308034390987811, -0.104327143775512, 0.473335692910717, -0.642355273439401, 1.47837392027866, -0.637904045238659], a = 0.2, v = 0.2, t = 0.2)
movej(p[0.308412976283852, -0.10432391155502, 0.473182955173494, -0.646233853906677, 1.47613325073506, -0.640897020732593], a = 0.2, v = 0.2, t = 0.2)
movej(p[0.308471398675181, -0.104324206418813, 0.473172332685708, -0.647784321594852, 1.47603343289037, -0.640367694890338], a = 0.2, v = 0.2, t = 0.2)
movej(p[0.308477898604717, -0.1043241788772, 0.473172345235116, -0.647784321594852, 1.47603343289037, -0.640367694890338], a = 0.2, v = 0.2, t = 0.2)
movej(p[0.308477445730719, -0.104360949532187, 0.473487608892769, -0.641543716049065, 1.47798379421195, -0.634163567596996], a = 0.2, v = 0.2, t = 0.2)
movej(p[0.307494345277614, -0.104408537800843, 0.474208306607343, -0.632131322989547, 1.48595329169215, -0.627129428934154], a = 0.2, v = 0.2, t = 0.2)
movej(p[0.306366461014821, -0.104470582376528, 0.475003327424914, -0.632196149402125, 1.49118826714498, -0.616831192226232], a = 0.2, v = 0.2, t = 0.2)
movej(p[0.304787364855756, -0.104462842881488, 0.475752415050391, -0.632997380868679, 1.49593407467992, -0.607506259231459], a = 0.2, v = 0.2, t = 0.2)
movej(p[0.302814772889945, -0.104443929016044, 0.476524392706876, -0.62370275368185, 1.50383624465949, -0.596734045149446], a = 0.2, v = 0.2, t = 0.2)
movej(p[0.301103428095794, -0.104437489592376, 0.47745616746472, -0.612218810191654, 1.50737111802548, -0.584173750208956], a = 0.2, v = 0.2, t = 0.2)
movej(p[0.300379540223435, -0.104428729997162, 0.477737368687589, -0.612969802572677, 1.50259811018461, -0.582727543085774], a = 0.2, v = 0.2, t = 0.2)
movej(p[0.300379540223435, -0.104428729997162, 0.477737368687589, -0.610848947037753, 1.50102194570311, -0.586119397635903], a = 0.2, v = 0.2, t = 0.2)
movej(p[0.301255213862274, -0.104454388733233, 0.477397889251532, -0.608934339724728, 1.49866055657543, -0.5912226540408], a = 0.2, v = 0.2, t = 0.2)
movej(p[0.302744265578601, -0.104430218469191, 0.476497693831394, -0.615624596609248, 1.49120158585037, -0.60585514882518], a = 0.2, v = 0.2, t = 0.2)
movej(p[0.303896714807888, -0.104352340963826, 0.475530823018888, -0.623609287456533, 1.48841809182389, -0.614997098503316], a = 0.2, v = 0.2, t = 0.2)
movej(p[0.304872283713225, -0.104335567714995, 0.474997642131136, -0.62585578991449, 1.48849894471465, -0.618030914954445], a = 0.2, v = 0.2, t = 0.2)
movej(p[0.305532873893464, -0.104319859547729, 0.474609396568054, -0.627762804131808, 1.486938555325, -0.622329212699255], a = 0.2, v = 0.2, t = 0.2)
movej(p[0.306730276543411, -0.104336670341439, 0.473978302699351, -0.636771520664291, 1.4811711215713, -0.629687443187649], a = 0.2, v = 0.2, t = 0.2)
movej(p[0.307046534551263, -0.104316525146828, 0.473802230857186, -0.637238034595253, 1.48026826152713, -0.631938574425081], a = 0.2, v = 0.2, t = 0.2)
movej(p[0.30765421188037, -0.104325173744872, 0.47352559442531, -0.638834903664582, 1.47978633989518, -0.633532251295046], a = 0.2, v = 0.2, t = 0.2)
movej(p[0.307858205510642, -0.104301759338405, 0.473271471434657, -0.643412750124286, 1.4801761138543, -0.634067039595325], a = 0.2, v = 0.2, t = 0.2)
movej(p[0.308215433269875, -0.104304953285376, 0.473214313611607, -0.645655803441827, 1.47884433965491, -0.635815128745874], a = 0.2, v = 0.2, t = 0.2)
movej(p[0.308684333865514, -0.104337621381563, 0.473236537852883, -0.643932163325184, 1.47777395710467, -0.634657240253758], a = 0.2, v = 0.2, t = 0.2)
