def moving():
set_payload_mass(0)
set_tcp(p[0,0,0,0,0,0])
movej(p[-0.4799, -0.2418, 0.3761, -0.903, -1.749, 1.539], a = 0.2, v = 0.2, t = 0.2)
movej(p[-0.479918924986304, -0.241817984885299, 0.376318203944381, -0.903, -1.749, 1.539], a = 0.2, v = 0.2, t = 0.2)
movej(p[-0.479937849972607, -0.241835969770597, 0.376536407888761, -0.903, -1.749, 1.539], a = 0.2, v = 0.2, t = 0.2)
movej(p[-0.479956774958911, -0.241853954655896, 0.376754611833142, -0.903, -1.749, 1.539], a = 0.2, v = 0.2, t = 0.2)
movej(p[-0.479975699945214, -0.241871939541195, 0.376972815777522, -0.903, -1.749, 1.539], a = 0.2, v = 0.2, t = 0.2)
movej(p[-0.479994624931518, -0.241889924426493, 0.377191019721902, -0.903, -1.749, 1.539], a = 0.2, v = 0.2, t = 0.2)
movej(p[-0.480013549917821, -0.241907909311792, 0.377409223666283, -0.903, -1.749, 1.539], a = 0.2, v = 0.2, t = 0.2)
movej(p[-0.480032474904125, -0.24192589419709, 0.377627427610663, -0.903, -1.749, 1.539], a = 0.2, v = 0.2, t = 0.2)
movej(p[-0.480051399890429, -0.241943879082389, 0.377845631555044, -0.903, -1.749, 1.539], a = 0.2, v = 0.2, t = 0.2)
movej(p[-0.480070324876732, -0.241961863967688, 0.378063835499424, -0.903, -1.749, 1.539], a = 0.2, v = 0.2, t = 0.2)
movej(p[-0.480089249863036, -0.241979848852986, 0.378282039443805, -0.903, -1.749, 1.539], a = 0.2, v = 0.2, t = 0.2)
movej(p[-0.48003957568411, -0.241932642244963, 0.377709299173266, -0.903, -1.749, 1.539], a = 0.2, v = 0.2, t = 0.2)
movej(p[-0.480011876385975, -0.241906318912844, 0.377389927945582, -0.903, -1.749, 1.539], a = 0.2, v = 0.2, t = 0.2)
movej(p[-0.479987633634925, -0.241883280423412, 0.377110410496169, -0.903, -1.749, 1.539], a = 0.2, v = 0.2, t = 0.2)
movej(p[-0.479979093930361, -0.241875164929715, 0.37701194822044, -0.903, -1.749, 1.539], a = 0.2, v = 0.2, t = 0.2)
movej(p[-0.479976435047988, -0.241872638127648, 0.376981291467924, -0.903, -1.749, 1.539], a = 0.2, v = 0.2, t = 0.2)
movej(p[-0.479973854368038, -0.241870185643289, 0.376951536384599, -0.903, -1.749, 1.539], a = 0.2, v = 0.2, t = 0.2)
movej(p[-0.479964298031979, -0.241861104019391, 0.376841352409379, -0.903, -1.749, 1.539], a = 0.2, v = 0.2, t = 0.2)
movej(p[-0.479973181827202, -0.241869546511002, 0.376943782029551, -0.903, -1.749, 1.539], a = 0.2, v = 0.2, t = 0.2)
movej(p[-0.480031583396506, -0.241925046975221, 0.377617148581879, -0.903, -1.749, 1.539], a = 0.2, v = 0.2, t = 0.2)
movej(p[-0.480108612782907, -0.241998249917449, 0.378505292735659, -0.903, -1.749, 1.539], a = 0.2, v = 0.2, t = 0.2)
movej(p[-0.480192445780086, -0.242077918500259, 0.379471882109113, -0.903, -1.749, 1.539], a = 0.2, v = 0.2, t = 0.2)
movej(p[-0.48030469753769, -0.242184594138101, 0.380766138066814, -0.903, -1.749, 1.539], a = 0.2, v = 0.2, t = 0.2)
movej(p[-0.480397946106568, -0.242273210572936, 0.381841288410943, -0.903, -1.749, 1.539], a = 0.2, v = 0.2, t = 0.2)
movej(p[-0.480417856443398, -0.242292131861353, 0.382070853387139, -0.903, -1.749, 1.539], a = 0.2, v = 0.2, t = 0.2)
movej(p[-0.480321823868271, -0.242200869716119, 0.380963603619787, -0.903, -1.749, 1.539], a = 0.2, v = 0.2, t = 0.2)
movej(p[-0.480190021504981, -0.242075614651316, 0.379443930364171, -0.903, -1.749, 1.539], a = 0.2, v = 0.2, t = 0.2)
movej(p[-0.48009359791774, -0.241983980917542, 0.378332172250861, -0.903, -1.749, 1.539], a = 0.2, v = 0.2, t = 0.2)
movej(p[-0.480021933217539, -0.241915876170073, 0.377505882603628, -0.903, -1.749, 1.539], a = 0.2, v = 0.2, t = 0.2)
movej(p[-0.479997580983098, -0.24189273363585, 0.377225102817347, -0.903, -1.749, 1.539], a = 0.2, v = 0.2, t = 0.2)
movej(p[-0.479986773408275, -0.241882462928625, 0.37710049213506, -0.903, -1.749, 1.539], a = 0.2, v = 0.2, t = 0.2)
movej(p[-0.479973870008522, -0.241870200506831, 0.376951716718437, -0.903, -1.749, 1.539], a = 0.2, v = 0.2, t = 0.2)
movej(p[-0.479972446724428, -0.241868847924548, 0.376935306339149, -0.903, -1.749, 1.539], a = 0.2, v = 0.2, t = 0.2)
movej(p[-0.479996392306272, -0.24189160400669, 0.377211397445634, -0.903, -1.749, 1.539], a = 0.2, v = 0.2, t = 0.2)
movej(p[-0.480066821408193, -0.241958534534376, 0.378023440719638, -0.903, -1.749, 1.539], a = 0.2, v = 0.2, t = 0.2)
movej(p[-0.480155534236552, -0.242042840542156, 0.379046294250652, -0.903, -1.749, 1.539], a = 0.2, v = 0.2, t = 0.2)
movej(p[-0.480260325483026, -0.242142426270669, 0.380254530967469, -0.903, -1.749, 1.539], a = 0.2, v = 0.2, t = 0.2)
movej(p[-0.480359001300042, -0.242236200354429, 0.381392257153499, -0.903, -1.749, 1.539], a = 0.2, v = 0.2, t = 0.2)
movej(p[-0.480412225868961, -0.242286780986388, 0.38200593320534, -0.903, -1.749, 1.539], a = 0.2, v = 0.2, t = 0.2)
movej(p[-0.480367650487998, -0.242244419892916, 0.381491981766096, -0.903, -1.749, 1.539], a = 0.2, v = 0.2, t = 0.2)
movej(p[-0.480247687971511, -0.242130416529081, 0.380108821226098, -0.903, -1.749, 1.539], a = 0.2, v = 0.2, t = 0.2)
movej(p[-0.480129915122862, -0.242018494061066, 0.378750907423465, -0.903, -1.749, 1.539], a = 0.2, v = 0.2, t = 0.2)
movej(p[-0.480040451551245, -0.241933474603291, 0.377719397868212, -0.903, -1.749, 1.539], a = 0.2, v = 0.2, t = 0.2)
movej(p[-0.480006746307043, -0.241901443671209, 0.377330778446609, -0.903, -1.749, 1.539], a = 0.2, v = 0.2, t = 0.2)
movej(p[-0.47998919768338, -0.241884766777569, 0.377128443880002, -0.903, -1.749, 1.539], a = 0.2, v = 0.2, t = 0.2)
movej(p[-0.479978890604062, -0.241874971703675, 0.377009603880542, -0.903, -1.749, 1.539], a = 0.2, v = 0.2, t = 0.2)
movej(p[-0.479970554225798, -0.241867049436018, 0.376913485944711, -0.903, -1.749, 1.539], a = 0.2, v = 0.2, t = 0.2)
movej(p[-0.479977655005783, -0.241873797483891, 0.376995357507313, -0.903, -1.749, 1.539], a = 0.2, v = 0.2, t = 0.2)
movej(p[-0.480027892242152, -0.241921539179411, 0.377574589796032, -0.903, -1.749, 1.539], a = 0.2, v = 0.2, t = 0.2)
movej(p[-0.480103138613315, -0.2419930476779, 0.378442175892243, -0.903, -1.749, 1.539], a = 0.2, v = 0.2, t = 0.2)
movej(p[-0.480216500845322, -0.242100778627193, 0.379749235552466, -0.903, -1.749, 1.539], a = 0.2, v = 0.2, t = 0.2)
movej(p[-0.480316021248503, -0.242195355342197, 0.380896699765766, -0.903, -1.749, 1.539], a = 0.2, v = 0.2, t = 0.2)
movej(p[-0.480387654667735, -0.242263430362583, 0.381722628745322, -0.903, -1.749, 1.539], a = 0.2, v = 0.2, t = 0.2)
movej(p[-0.480414931672787, -0.24228935237908, 0.382037130959371, -0.903, -1.749, 1.539], a = 0.2, v = 0.2, t = 0.2)
movej(p[-0.480350805686139, -0.242228411858647, 0.381297762222214, -0.903, -1.749, 1.539], a = 0.2, v = 0.2, t = 0.2)
movej(p[-0.480212966095814, -0.242097419466798, 0.379708480105003, -0.903, -1.749, 1.539], a = 0.2, v = 0.2, t = 0.2)
movej(p[-0.480091986947832, -0.241982449972761, 0.378313597865513, -0.903, -1.749, 1.539], a = 0.2, v = 0.2, t = 0.2)
movej(p[-0.4800366509135, -0.241929862762689, 0.377675576745498, -0.903, -1.749, 1.539], a = 0.2, v = 0.2, t = 0.2)
movej(p[-0.480004650482113, -0.241899451956639, 0.377306613712273, -0.903, -1.749, 1.539], a = 0.2, v = 0.2, t = 0.2)
movej(p[-0.479985287562243, -0.241881050892176, 0.377083360420419, -0.903, -1.749, 1.539], a = 0.2, v = 0.2, t = 0.2)
movej(p[-0.47997444870645, -0.241870750457869, 0.376958389070455, -0.903, -1.749, 1.539], a = 0.2, v = 0.2, t = 0.2)
movej(p[-0.479972665691212, -0.24186905601413, 0.376937831012886, -0.903, -1.749, 1.539], a = 0.2, v = 0.2, t = 0.2)
movej(p[-0.479994405964734, -0.241889716336911, 0.377188495048166, -0.903, -1.749, 1.539], a = 0.2, v = 0.2, t = 0.2)
movej(p[-0.480064444054542, -0.241956275276058, 0.377996029976212, -0.903, -1.749, 1.539], a = 0.2, v = 0.2, t = 0.2)
movej(p[-0.480177321431528, -0.242063545455562, 0.379297499287447, -0.903, -1.749, 1.539], a = 0.2, v = 0.2, t = 0.2)
movej(p[-0.480286867385305, -0.242167649700712, 0.380560557491117, -0.903, -1.749, 1.539], a = 0.2, v = 0.2, t = 0.2)
movej(p[-0.480357703139825, -0.242234966680479, 0.381377289444918, -0.903, -1.749, 1.539], a = 0.2, v = 0.2, t = 0.2)
movej(p[-0.480423549579774, -0.242297542190484, 0.382136494904291, -0.903, -1.749, 1.539], a = 0.2, v = 0.2, t = 0.2)
movej(p[-0.480402638251932, -0.242277669635407, 0.381895388562443, -0.903, -1.749, 1.539], a = 0.2, v = 0.2, t = 0.2)
movej(p[-0.480261873890997, -0.242143897761285, 0.380272384017464, -0.903, -1.749, 1.539], a = 0.2, v = 0.2, t = 0.2)
movej(p[-0.480118638333502, -0.242007777447595, 0.378620886726029, -0.903, -1.749, 1.539], a = 0.2, v = 0.2, t = 0.2)
movej(p[-0.480047458488322, -0.241940133469914, 0.377800187427785, -0.903, -1.749, 1.539], a = 0.2, v = 0.2, t = 0.2)
movej(p[-0.480011673059676, -0.241906125686803, 0.377387583605683, -0.903, -1.749, 1.539], a = 0.2, v = 0.2, t = 0.2)
movej(p[-0.479984130166386, -0.2418799509901, 0.377070015716382, -0.903, -1.749, 1.539], a = 0.2, v = 0.2, t = 0.2)
movej(p[-0.479976779138648, -0.241872965125563, 0.376985258812367, -0.903, -1.749, 1.539], a = 0.2, v = 0.2, t = 0.2)
movej(p[-0.479974933561471, -0.241871211227658, 0.376963979419444, -0.903, -1.749, 1.539], a = 0.2, v = 0.2, t = 0.2)
movej(p[-0.479992591668527, -0.241887992166089, 0.377167576322919, -0.903, -1.749, 1.539], a = 0.2, v = 0.2, t = 0.2)
movej(p[-0.48005047710184, -0.241943002133436, 0.377834991858582, -0.903, -1.749, 1.539], a = 0.2, v = 0.2, t = 0.2)
movej(p[-0.480153438411623, -0.242040848827586, 0.379022129516315, -0.903, -1.749, 1.539], a = 0.2, v = 0.2, t = 0.2)
movej(p[-0.480252880612381, -0.242135351224882, 0.380168692060424, -0.903, -1.749, 1.539], a = 0.2, v = 0.2, t = 0.2)
movej(p[-0.480332287352434, -0.242210813425429, 0.38108424695763, -0.903, -1.749, 1.539], a = 0.2, v = 0.2, t = 0.2)
movej(p[-0.480408456512184, -0.24228319887287, 0.381962472750302, -0.903, -1.749, 1.539], a = 0.2, v = 0.2, t = 0.2)
movej(p[-0.480412053823631, -0.242286617487431, 0.382003949533118, -0.903, -1.749, 1.539], a = 0.2, v = 0.2, t = 0.2)
movej(p[-0.480297674960128, -0.242177920407936, 0.380685168173404, -0.903, -1.749, 1.539], a = 0.2, v = 0.2, t = 0.2)
movej(p[-0.480150810810218, -0.242038351752602, 0.378991833431476, -0.903, -1.749, 1.539], a = 0.2, v = 0.2, t = 0.2)
movej(p[-0.480064397133088, -0.241956230685433, 0.377995488974697, -0.903, -1.749, 1.539], a = 0.2, v = 0.2, t = 0.2)
movej(p[-0.480015942911957, -0.241910183433652, 0.377436814743548, -0.903, -1.749, 1.539], a = 0.2, v = 0.2, t = 0.2)
movej(p[-0.479983207377798, -0.241879074041148, 0.377059376019921, -0.903, -1.749, 1.539], a = 0.2, v = 0.2, t = 0.2)
movej(p[-0.479976763498164, -0.241872950262021, 0.376985078478528, -0.903, -1.749, 1.539], a = 0.2, v = 0.2, t = 0.2)
movej(p[-0.479976294283627, -0.241872504355774, 0.376979668463379, -0.903, -1.749, 1.539], a = 0.2, v = 0.2, t = 0.2)
movej(p[-0.479986648284398, -0.241882344020293, 0.377099049464354, -0.903, -1.749, 1.539], a = 0.2, v = 0.2, t = 0.2)
movej(p[-0.480046097766167, -0.241938840341797, 0.37778449838385, -0.903, -1.749, 1.539], a = 0.2, v = 0.2, t = 0.2)
movej(p[-0.480147385544102, -0.242035096636999, 0.378952340320881, -0.903, -1.749, 1.539], a = 0.2, v = 0.2, t = 0.2)
movej(p[-0.480240602832011, -0.242123683344751, 0.380027129997334, -0.903, -1.749, 1.539], a = 0.2, v = 0.2, t = 0.2)
movej(p[-0.48032065083193, -0.242199754950501, 0.380950078581912, -0.903, -1.749, 1.539], a = 0.2, v = 0.2, t = 0.2)
movej(p[-0.480399338109693, -0.242274533428135, 0.381857338122555, -0.903, -1.749, 1.539], a = 0.2, v = 0.2, t = 0.2)
movej(p[-0.48041882615344, -0.242293053400931, 0.382082034085115, -0.903, -1.749, 1.539], a = 0.2, v = 0.2, t = 0.2)
movej(p[-0.480306730800682, -0.242186526398505, 0.380789581465797, -0.903, -1.749, 1.539], a = 0.2, v = 0.2, t = 0.2)
movej(p[-0.480179354694519, -0.242065477715966, 0.37932094268643, -0.903, -1.749, 1.539], a = 0.2, v = 0.2, t = 0.2)
movej(p[-0.480083916457805, -0.241974780385311, 0.378220545604934, -0.903, -1.749, 1.539], a = 0.2, v = 0.2, t = 0.2)
movej(p[-0.480023950840046, -0.241917793566935, 0.377529145668773, -0.903, -1.749, 1.539], a = 0.2, v = 0.2, t = 0.2)
movej(p[-0.479984646302376, -0.241880441486972, 0.377075966733047, -0.903, -1.749, 1.539], a = 0.2, v = 0.2, t = 0.2)
movej(p[-0.479976700936225, -0.241872890807855, 0.376984357143175, -0.903, -1.749, 1.539], a = 0.2, v = 0.2, t = 0.2)
movej(p[-0.479973103624779, -0.241869472193294, 0.376942880360359, -0.903, -1.749, 1.539], a = 0.2, v = 0.2, t = 0.2)
movej(p[-0.479967566893249, -0.241864210499579, 0.37687904218159, -0.903, -1.749, 1.539], a = 0.2, v = 0.2, t = 0.2)
movej(p[-0.479987586713471, -0.241883235832787, 0.377109869494654, -0.903, -1.749, 1.539], a = 0.2, v = 0.2, t = 0.2)
movej(p[-0.48007299939959, -0.241964405633296, 0.378094672585779, -0.903, -1.749, 1.539], a = 0.2, v = 0.2, t = 0.2)
movej(p[-0.480169313503439, -0.242055935322279, 0.379205168362221, -0.903, -1.749, 1.539], a = 0.2, v = 0.2, t = 0.2)
movej(p[-0.48025222371203, -0.242134726956136, 0.380161118039214, -0.903, -1.749, 1.539], a = 0.2, v = 0.2, t = 0.2)
movej(p[-0.480355310145689, -0.242232692558618, 0.381349698367653, -0.903, -1.749, 1.539], a = 0.2, v = 0.2, t = 0.2)
movej(p[-0.480427803791571, -0.242301585073791, 0.382185545708317, -0.903, -1.749, 1.539], a = 0.2, v = 0.2, t = 0.2)
movej(p[-0.480388733861169, -0.242264455946952, 0.381735071780166, -0.903, -1.749, 1.539], a = 0.2, v = 0.2, t = 0.2)
movej(p[-0.480262343105533, -0.242144343667532, 0.380277794032614, -0.903, -1.749, 1.539], a = 0.2, v = 0.2, t = 0.2)
movej(p[-0.480144632818822, -0.242032480653682, 0.378920601565335, -0.903, -1.749, 1.539], a = 0.2, v = 0.2, t = 0.2)
movej(p[-0.480059157570765, -0.241951251399007, 0.377935077138856, -0.903, -1.749, 1.539], a = 0.2, v = 0.2, t = 0.2)
movej(p[-0.480001866475864, -0.24189680624624, 0.37727451428905, -0.903, -1.749, 1.539], a = 0.2, v = 0.2, t = 0.2)
movej(p[-0.479985225000304, -0.24188099143801, 0.377082639085066, -0.903, -1.749, 1.539], a = 0.2, v = 0.2, t = 0.2)
movej(p[-0.479977873972567, -0.241874005573473, 0.37699788218105, -0.903, -1.749, 1.539], a = 0.2, v = 0.2, t = 0.2)
movej(p[-0.479966378216423, -0.241863080870419, 0.376865336809877, -0.903, -1.749, 1.539], a = 0.2, v = 0.2, t = 0.2)
movej(p[-0.479966300014001, -0.241863006552711, 0.376864435140685, -0.903, -1.749, 1.539], a = 0.2, v = 0.2, t = 0.2)
movej(p[-0.479986507520037, -0.241882210248419, 0.377097426459809, -0.903, -1.749, 1.539], a = 0.2, v = 0.2, t = 0.2)
movej(p[-0.480054527987338, -0.241946851790703, 0.37788169832271, -0.903, -1.749, 1.539], a = 0.2, v = 0.2, t = 0.2)
movej(p[-0.480127397004849, -0.242016101030873, 0.378721873675494, -0.903, -1.749, 1.539], a = 0.2, v = 0.2, t = 0.2)
movej(p[-0.480225353359576, -0.242109191391721, 0.379851304504961, -0.903, -1.749, 1.539], a = 0.2, v = 0.2, t = 0.2)
movej(p[-0.480311829598644, -0.242191371913056, 0.380848370297093, -0.903, -1.749, 1.539], a = 0.2, v = 0.2, t = 0.2)
movej(p[-0.480353167399306, -0.242230656253423, 0.381324992631802, -0.903, -1.749, 1.539], a = 0.2, v = 0.2, t = 0.2)
movej(p[-0.480301632002719, -0.242181680883953, 0.380730792634501, -0.903, -1.749, 1.539], a = 0.2, v = 0.2, t = 0.2)
movej(p[-0.480184062480368, -0.242069951641978, 0.379375223171767, -0.903, -1.749, 1.539], a = 0.2, v = 0.2, t = 0.2)
movej(p[-0.480089343705943, -0.241979938034236, 0.378283121446835, -0.903, -1.749, 1.539], a = 0.2, v = 0.2, t = 0.2)
movej(p[-0.480016349564556, -0.241910569885733, 0.377441503423344, -0.903, -1.749, 1.539], a = 0.2, v = 0.2, t = 0.2)
movej(p[-0.479993186006939, -0.241888556980669, 0.377174429008776, -0.903, -1.749, 1.539], a = 0.2, v = 0.2, t = 0.2)
movej(p[-0.479980626697847, -0.241876621556789, 0.377029620936596, -0.903, -1.749, 1.539], a = 0.2, v = 0.2, t = 0.2)
movej(p[-0.479967613814703, -0.241864255090203, 0.376879583183105, -0.903, -1.749, 1.539], a = 0.2, v = 0.2, t = 0.2)
movej(p[-0.47996615924964, -0.241862872780837, 0.37686281213614, -0.903, -1.749, 1.539], a = 0.2, v = 0.2, t = 0.2)
movej(p[-0.479966268733032, -0.241862976825628, 0.376864074473008, -0.903, -1.749, 1.539], a = 0.2, v = 0.2, t = 0.2)
movej(p[-0.479985131157397, -0.241880902256761, 0.377081557082036, -0.903, -1.749, 1.539], a = 0.2, v = 0.2, t = 0.2)
movej(p[-0.480042954028773, -0.241935852769942, 0.377748251282345, -0.903, -1.749, 1.539], a = 0.2, v = 0.2, t = 0.2)
movej(p[-0.48012946154881, -0.24201806301836, 0.378745677742154, -0.903, -1.749, 1.539], a = 0.2, v = 0.2, t = 0.2)
movej(p[-0.480212637645638, -0.242097107332425, 0.379704693094398, -0.903, -1.749, 1.539], a = 0.2, v = 0.2, t = 0.2)
movej(p[-0.480275887765152, -0.24215721549453, 0.380433963136608, -0.903, -1.749, 1.539], a = 0.2, v = 0.2, t = 0.2)
movej(p[-0.480346645317249, -0.242224458156589, 0.381249793421218, -0.903, -1.749, 1.539], a = 0.2, v = 0.2, t = 0.2)
movej(p[-0.480347630667776, -0.242225394559708, 0.381261154453033, -0.903, -1.749, 1.539], a = 0.2, v = 0.2, t = 0.2)
movej(p[-0.480244184502972, -0.24212708709577, 0.380068426446312, -0.903, -1.749, 1.539], a = 0.2, v = 0.2, t = 0.2)
movej(p[-0.480126286530446, -0.242015045719422, 0.378709069972973, -0.903, -1.749, 1.539], a = 0.2, v = 0.2, t = 0.2)
movej(p[-0.48005343315342, -0.241945811342793, 0.377869074954027, -0.903, -1.749, 1.539], a = 0.2, v = 0.2, t = 0.2)
movej(p[-0.480011782543068, -0.241906229731594, 0.377388845942552, -0.903, -1.749, 1.539], a = 0.2, v = 0.2, t = 0.2)
movej(p[-0.479980751821723, -0.241876740465121, 0.377031063607303, -0.903, -1.749, 1.539], a = 0.2, v = 0.2, t = 0.2)
movej(p[-0.479971320609541, -0.241867777749555, 0.376922322302789, -0.903, -1.749, 1.539], a = 0.2, v = 0.2, t = 0.2)
movej(p[-0.479966722307084, -0.241863407868334, 0.37686930415432, -0.903, -1.749, 1.539], a = 0.2, v = 0.2, t = 0.2)
movej(p[-0.479964689044092, -0.24186147560793, 0.376845860755337, -0.903, -1.749, 1.539], a = 0.2, v = 0.2, t = 0.2)
movej(p[-0.479954084795568, -0.241851398126746, 0.376723594412949, -0.903, -1.749, 1.539], a = 0.2, v = 0.2, t = 0.2)
movej(p[-0.479954272481383, -0.241851576489245, 0.376725758419009, -0.903, -1.749, 1.539], a = 0.2, v = 0.2, t = 0.2)
movej(p[-0.479978593434856, -0.241874689296385, 0.377006177537613, -0.903, -1.749, 1.539], a = 0.2, v = 0.2, t = 0.2)
movej(p[-0.480031990049104, -0.241925433427302, 0.377621837261675, -0.903, -1.749, 1.539], a = 0.2, v = 0.2, t = 0.2)
movej(p[-0.480098118017775, -0.241988276481056, 0.378384288730139, -0.903, -1.749, 1.539], a = 0.2, v = 0.2, t = 0.2)
movej(p[-0.480180762338129, -0.242066815434707, 0.379337172731879, -0.903, -1.749, 1.539], a = 0.2, v = 0.2, t = 0.2)
movej(p[-0.480250174808554, -0.242132779832191, 0.380137494306392, -0.903, -1.749, 1.539], a = 0.2, v = 0.2, t = 0.2)
movej(p[-0.480308310489621, -0.242188027616203, 0.380807795183469, -0.903, -1.749, 1.539], a = 0.2, v = 0.2, t = 0.2)
movej(p[-0.480346895565002, -0.242224695973254, 0.381252678762631, -0.903, -1.749, 1.539], a = 0.2, v = 0.2, t = 0.2)
movej(p[-0.480271899441592, -0.24215342529143, 0.380387978007834, -0.903, -1.749, 1.539], a = 0.2, v = 0.2, t = 0.2)
movej(p[-0.480154955538624, -0.242042290591118, 0.379039621898633, -0.903, -1.749, 1.539], a = 0.2, v = 0.2, t = 0.2)
movej(p[-0.480052760612584, -0.241945172210506, 0.377861320598979, -0.903, -1.749, 1.539], a = 0.2, v = 0.2, t = 0.2)
movej(p[-0.48000928006554, -0.241903851564943, 0.377359992528419, -0.903, -1.749, 1.539], a = 0.2, v = 0.2, t = 0.2)
movej(p[-0.479984912190613, -0.241880694167179, 0.377079032408299, -0.903, -1.749, 1.539], a = 0.2, v = 0.2, t = 0.2)
movej(p[-0.479967082038228, -0.24186374972979, 0.376873451832602, -0.903, -1.749, 1.539], a = 0.2, v = 0.2, t = 0.2)
movej(p[-0.479962389892864, -0.241859290667319, 0.376819351681102, -0.903, -1.749, 1.539], a = 0.2, v = 0.2, t = 0.2)
movej(p[-0.479959746650975, -0.241856778728794, 0.376788875262424, -0.903, -1.749, 1.539], a = 0.2, v = 0.2, t = 0.2)
movej(p[-0.479959856134367, -0.241856882773585, 0.376790137599293, -0.903, -1.749, 1.539], a = 0.2, v = 0.2, t = 0.2)
movej(p[-0.479952536387598, -0.241849926636131, 0.376705741362954, -0.903, -1.749, 1.539], a = 0.2, v = 0.2, t = 0.2)
movej(p[-0.479965502349289, -0.241862248512091, 0.37685523811493, -0.903, -1.749, 1.539], a = 0.2, v = 0.2, t = 0.2)
movej(p[-0.480026891251141, -0.24192058791275, 0.377563048430379, -0.903, -1.749, 1.539], a = 0.2, v = 0.2, t = 0.2)
movej(p[-0.480093832525008, -0.241984203870666, 0.378334877258436, -0.903, -1.749, 1.539], a = 0.2, v = 0.2, t = 0.2)
movej(p[-0.480172535443256, -0.242058997211842, 0.379242317132917, -0.903, -1.749, 1.539], a = 0.2, v = 0.2, t = 0.2)
movej(p[-0.480260810338047, -0.242142887040458, 0.380260121316457, -0.903, -1.749, 1.539], a = 0.2, v = 0.2, t = 0.2)
movej(p[-0.480327782892884, -0.242206532725457, 0.381032310812191, -0.903, -1.749, 1.539], a = 0.2, v = 0.2, t = 0.2)
movej(p[-0.480332334273887, -0.242210858016053, 0.381084787959145, -0.903, -1.749, 1.539], a = 0.2, v = 0.2, t = 0.2)
movej(p[-0.48023802215206, -0.242121230860392, 0.379997374914009, -0.903, -1.749, 1.539], a = 0.2, v = 0.2, t = 0.2)
movej(p[-0.480136937700424, -0.24202516779123, 0.378831877316876, -0.903, -1.749, 1.539], a = 0.2, v = 0.2, t = 0.2)
movej(p[-0.480057280712619, -0.241949467774019, 0.377913437078256, -0.903, -1.749, 1.539], a = 0.2, v = 0.2, t = 0.2)
movej(p[-0.480002413892823, -0.241897326470195, 0.377280825973391, -0.903, -1.749, 1.539], a = 0.2, v = 0.2, t = 0.2)
movej(p[-0.479981314879167, -0.241877275552618, 0.377037555625483, -0.903, -1.749, 1.539], a = 0.2, v = 0.2, t = 0.2)
movej(p[-0.479971132923726, -0.241867599387056, 0.376920158296729, -0.903, -1.749, 1.539], a = 0.2, v = 0.2, t = 0.2)
movej(p[-0.479956884442303, -0.241854058700687, 0.37675587417001, -0.903, -1.749, 1.539], a = 0.2, v = 0.2, t = 0.2)
movej(p[-0.479957525702169, -0.241854668105891, 0.376763267857381, -0.903, -1.749, 1.539], a = 0.2, v = 0.2, t = 0.2)
movej(p[-0.479956383946797, -0.241853583067357, 0.376750103487183, -0.903, -1.749, 1.539], a = 0.2, v = 0.2, t = 0.2)
movej(p[-0.479960372270357, -0.241857373270457, 0.376796088615958, -0.903, -1.749, 1.539], a = 0.2, v = 0.2, t = 0.2)
movej(p[-0.480001037530183, -0.241896018478536, 0.377264956595618, -0.903, -1.749, 1.539], a = 0.2, v = 0.2, t = 0.2)
movej(p[-0.480079458919708, -0.241970544275964, 0.37816915046101, -0.903, -1.749, 1.539], a = 0.2, v = 0.2, t = 0.2)
movej(p[-0.480156347541749, -0.242043613446318, 0.379055671610245, -0.903, -1.749, 1.539], a = 0.2, v = 0.2, t = 0.2)
movej(p[-0.480214717830083, -0.242099084183454, 0.379728677494896, -0.903, -1.749, 1.539], a = 0.2, v = 0.2, t = 0.2)
movej(p[-0.480301287912059, -0.242181353886039, 0.380726825290058, -0.903, -1.749, 1.539], a = 0.2, v = 0.2, t = 0.2)
movej(p[-0.480377285026479, -0.242253575834523, 0.381603067410508, -0.903, -1.749, 1.539], a = 0.2, v = 0.2, t = 0.2)
movej(p[-0.480337511274273, -0.242215777848313, 0.381144478459633, -0.903, -1.749, 1.539], a = 0.2, v = 0.2, t = 0.2)
movej(p[-0.480208195748027, -0.242092886086619, 0.379653478284312, -0.903, -1.749, 1.539], a = 0.2, v = 0.2, t = 0.2)
movej(p[-0.48011629226082, -0.242005547916359, 0.378593836650279, -0.903, -1.749, 1.539], a = 0.2, v = 0.2, t = 0.2)
movej(p[-0.480041171013534, -0.241934158326203, 0.377727693224775, -0.903, -1.749, 1.539], a = 0.2, v = 0.2, t = 0.2)
movej(p[-0.479987039296512, -0.241882715608832, 0.377103557810312, -0.903, -1.749, 1.539], a = 0.2, v = 0.2, t = 0.2)
movej(p[-0.479973713603677, -0.241870051871415, 0.376949913380054, -0.903, -1.749, 1.539], a = 0.2, v = 0.2, t = 0.2)
movej(p[-0.47996633129497, -0.241863036279795, 0.376864795808362, -0.903, -1.749, 1.539], a = 0.2, v = 0.2, t = 0.2)
movej(p[-0.479962405533348, -0.241859305530861, 0.376819532014941, -0.903, -1.749, 1.539], a = 0.2, v = 0.2, t = 0.2)
movej(p[-0.47995333405231, -0.241850684676751, 0.376714938388709, -0.903, -1.749, 1.539], a = 0.2, v = 0.2, t = 0.2)
movej(p[-0.479954272481383, -0.241851576489245, 0.376725758419009, -0.903, -1.749, 1.539], a = 0.2, v = 0.2, t = 0.2)
movej(p[-0.479960059460666, -0.241857075999625, 0.376792481939191, -0.903, -1.749, 1.539], a = 0.2, v = 0.2, t = 0.2)
movej(p[-0.479999160672037, -0.241894234853548, 0.377243316535018, -0.903, -1.749, 1.539], a = 0.2, v = 0.2, t = 0.2)
movej(p[-0.480073546816549, -0.241964925857251, 0.378100984270121, -0.903, -1.749, 1.539], a = 0.2, v = 0.2, t = 0.2)
movej(p[-0.480152875354179, -0.242040313740089, 0.379015637498135, -0.903, -1.749, 1.539], a = 0.2, v = 0.2, t = 0.2)
movej(p[-0.480219910470953, -0.242104018879255, 0.379788548329222, -0.903, -1.749, 1.539], a = 0.2, v = 0.2, t = 0.2)
movej(p[-0.480277905387659, -0.242159132891393, 0.380457226201753, -0.903, -1.749, 1.539], a = 0.2, v = 0.2, t = 0.2)
movej(p[-0.480335431089828, -0.242213800997284, 0.381120494059135, -0.903, -1.749, 1.539], a = 0.2, v = 0.2, t = 0.2)
movej(p[-0.480303571422803, -0.242183523963108, 0.380753154030454, -0.903, -1.749, 1.539], a = 0.2, v = 0.2, t = 0.2)
movej(p[-0.48017880727756, -0.242064957492011, 0.379314631002088, -0.903, -1.749, 1.539], a = 0.2, v = 0.2, t = 0.2)
movej(p[-0.48008946882982, -0.241980056942568, 0.378284564117542, -0.903, -1.749, 1.539], a = 0.2, v = 0.2, t = 0.2)
movej(p[-0.480025483607532, -0.241919250194009, 0.377546818384929, -0.903, -1.749, 1.539], a = 0.2, v = 0.2, t = 0.2)
movej(p[-0.479994374683765, -0.241889686609828, 0.377188134380489, -0.903, -1.749, 1.539], a = 0.2, v = 0.2, t = 0.2)
movej(p[-0.479964767246515, -0.241861549925638, 0.376846762424529, -0.903, -1.749, 1.539], a = 0.2, v = 0.2, t = 0.2)
movej(p[-0.479959277436439, -0.241856332822547, 0.376783465247274, -0.903, -1.749, 1.539], a = 0.2, v = 0.2, t = 0.2)
movej(p[-0.479957697747499, -0.241854831604848, 0.376765251529603, -0.903, -1.749, 1.539], a = 0.2, v = 0.2, t = 0.2)
movej(p[-0.479947202982367, -0.241844858168456, 0.376644247524083, -0.903, -1.749, 1.539], a = 0.2, v = 0.2, t = 0.2)
movej(p[-0.479948000647079, -0.241845616209076, 0.376653444549838, -0.903, -1.749, 1.539], a = 0.2, v = 0.2, t = 0.2)
movej(p[-0.479950065191039, -0.241847578196563, 0.376677248616497, -0.903, -1.749, 1.539], a = 0.2, v = 0.2, t = 0.2)
movej(p[-0.47999074609135, -0.241886238268184, 0.377146296929996, -0.903, -1.749, 1.539], a = 0.2, v = 0.2, t = 0.2)
movej(p[-0.480048803569994, -0.241941411734489, 0.377815696137881, -0.903, -1.749, 1.539], a = 0.2, v = 0.2, t = 0.2)
movej(p[-0.480127944421809, -0.242016621254828, 0.378728185359836, -0.903, -1.749, 1.539], a = 0.2, v = 0.2, t = 0.2)
movej(p[-0.480208211388511, -0.242092900950161, 0.37965365861815, -0.903, -1.749, 1.539], a = 0.2, v = 0.2, t = 0.2)
movej(p[-0.480260998023862, -0.242143065402957, 0.380262285322517, -0.903, -1.749, 1.539], a = 0.2, v = 0.2, t = 0.2)
movej(p[-0.480315067178946, -0.242194448666161, 0.380885699401628, -0.903, -1.749, 1.539], a = 0.2, v = 0.2, t = 0.2)
movej(p[-0.480322402566199, -0.242201419667157, 0.380970275971805, -0.903, -1.749, 1.539], a = 0.2, v = 0.2, t = 0.2)
movej(p[-0.480208868288862, -0.242093525218907, 0.37966123263936, -0.903, -1.749, 1.539], a = 0.2, v = 0.2, t = 0.2)
movej(p[-0.480096757295619, -0.241986983352939, 0.378368599686204, -0.903, -1.749, 1.539], a = 0.2, v = 0.2, t = 0.2)
movej(p[-0.480034539448085, -0.241927856184578, 0.377651231677323, -0.903, -1.749, 1.539], a = 0.2, v = 0.2, t = 0.2)
movej(p[-0.479996736396932, -0.241891931004605, 0.377215364790077, -0.903, -1.749, 1.539], a = 0.2, v = 0.2, t = 0.2)
movej(p[-0.479977858332082, -0.241873990709931, 0.376997701847212, -0.903, -1.749, 1.539], a = 0.2, v = 0.2, t = 0.2)
movej(p[-0.479957541342654, -0.241854682969433, 0.37676344819122, -0.903, -1.749, 1.539], a = 0.2, v = 0.2, t = 0.2)
movej(p[-0.479955789608384, -0.241853018252777, 0.376743250801327, -0.903, -1.749, 1.539], a = 0.2, v = 0.2, t = 0.2)
movej(p[-0.479956086777591, -0.241853300660067, 0.376746677144255, -0.903, -1.749, 1.539], a = 0.2, v = 0.2, t = 0.2)
movej(p[-0.479950049550555, -0.241847563333021, 0.376677068282659, -0.903, -1.749, 1.539], a = 0.2, v = 0.2, t = 0.2)
movej(p[-0.479993983671651, -0.241889315021289, 0.377183626034531, -0.903, -1.749, 1.539], a = 0.2, v = 0.2, t = 0.2)
movej(p[-0.480070668967392, -0.241962190965602, 0.378067802843868, -0.903, -1.749, 1.539], a = 0.2, v = 0.2, t = 0.2)
movej(p[-0.480151702317838, -0.242039198974472, 0.379002112460261, -0.903, -1.749, 1.539], a = 0.2, v = 0.2, t = 0.2)
movej(p[-0.48021914408721, -0.242103290565718, 0.379779711971144, -0.903, -1.749, 1.539], a = 0.2, v = 0.2, t = 0.2)
movej(p[-0.480305244954649, -0.242185114362056, 0.380772449751156, -0.903, -1.749, 1.539], a = 0.2, v = 0.2, t = 0.2)
movej(p[-0.48036755664509, -0.242244330711667, 0.381490899763066, -0.903, -1.749, 1.539], a = 0.2, v = 0.2, t = 0.2)
movej(p[-0.480309952740498, -0.242189588288068, 0.380826730236493, -0.903, -1.749, 1.539], a = 0.2, v = 0.2, t = 0.2)
movej(p[-0.48019074096727, -0.242076298374228, 0.379452225720735, -0.903, -1.749, 1.539], a = 0.2, v = 0.2, t = 0.2)
movej(p[-0.480091455171357, -0.241981944612348, 0.37830746651501, -0.903, -1.749, 1.539], a = 0.2, v = 0.2, t = 0.2)
movej(p[-0.480025530528986, -0.241919294784634, 0.377547359386444, -0.903, -1.749, 1.539], a = 0.2, v = 0.2, t = 0.2)
movej(p[-0.479979422380537, -0.241875477064088, 0.377015735231045, -0.903, -1.749, 1.539], a = 0.2, v = 0.2, t = 0.2)
movej(p[-0.479967957905363, -0.241864582088118, 0.376883550527548, -0.903, -1.749, 1.539], a = 0.2, v = 0.2, t = 0.2)
movej(p[-0.479962765264493, -0.241859647392317, 0.376823679693222, -0.903, -1.749, 1.539], a = 0.2, v = 0.2, t = 0.2)
movej(p[-0.479955852170322, -0.241853077706943, 0.37674397213668, -0.903, -1.749, 1.539], a = 0.2, v = 0.2, t = 0.2)
movej(p[-0.479948501142585, -0.241846091842406, 0.376659215232664, -0.903, -1.749, 1.539], a = 0.2, v = 0.2, t = 0.2)
movej(p[-0.479950565686545, -0.241848053829893, 0.376683019299324, -0.903, -1.749, 1.539], a = 0.2, v = 0.2, t = 0.2)
movej(p[-0.479987571072987, -0.241883220969245, 0.377109689160815, -0.903, -1.749, 1.539], a = 0.2, v = 0.2, t = 0.2)
movej(p[-0.480055356933019, -0.241947639558406, 0.377891256016142, -0.903, -1.749, 1.539], a = 0.2, v = 0.2, t = 0.2)
movej(p[-0.480142349308078, -0.242030310576613, 0.378894272824939, -0.903, -1.749, 1.539], a = 0.2, v = 0.2, t = 0.2)
movej(p[-0.480230905731591, -0.242114467948978, 0.379915323017569, -0.903, -1.749, 1.539], a = 0.2, v = 0.2, t = 0.2)
movej(p[-0.48029362407463, -0.24217407075067, 0.380638461709276, -0.903, -1.749, 1.539], a = 0.2, v = 0.2, t = 0.2)
movej(p[-0.480345706888176, -0.242223566344095, 0.381238973390918, -0.903, -1.749, 1.539], a = 0.2, v = 0.2, t = 0.2)
movej(p[-0.48033468034657, -0.242213087547289, 0.381111838034895, -0.903, -1.749, 1.539], a = 0.2, v = 0.2, t = 0.2)
movej(p[-0.480207710893006, -0.242092425316831, 0.379647887935324, -0.903, -1.749, 1.539], a = 0.2, v = 0.2, t = 0.2)
movej(p[-0.480082102161597, -0.241973056214489, 0.378199626879688, -0.903, -1.749, 1.539], a = 0.2, v = 0.2, t = 0.2)
movej(p[-0.480021808093663, -0.24191575726174, 0.377504439932922, -0.903, -1.749, 1.539], a = 0.2, v = 0.2, t = 0.2)
movej(p[-0.479988400018668, -0.241884008736949, 0.377119246854247, -0.903, -1.749, 1.539], a = 0.2, v = 0.2, t = 0.2)
movej(p[-0.479967895343425, -0.241864522633952, 0.376882829192195, -0.903, -1.749, 1.539], a = 0.2, v = 0.2, t = 0.2)
movej(p[-0.479956321384859, -0.24185352361319, 0.37674938215183, -0.903, -1.749, 1.539], a = 0.2, v = 0.2, t = 0.2)
movej(p[-0.479954116076537, -0.241851427853829, 0.376723955080625, -0.903, -1.749, 1.539], a = 0.2, v = 0.2, t = 0.2)
movej(p[-0.479954381964775, -0.241851680534036, 0.376727020755877, -0.903, -1.749, 1.539], a = 0.2, v = 0.2, t = 0.2)
movej(p[-0.479945091516953, -0.241842851590344, 0.376619902455908, -0.903, -1.749, 1.539], a = 0.2, v = 0.2, t = 0.2)
movej(p[-0.479959856134367, -0.241856882773585, 0.376790137599293, -0.903, -1.749, 1.539], a = 0.2, v = 0.2, t = 0.2)
movej(p[-0.480020431731023, -0.241914449270082, 0.377488570555149, -0.903, -1.749, 1.539], a = 0.2, v = 0.2, t = 0.2)
movej(p[-0.480080569394111, -0.241971599587415, 0.378181954163531, -0.903, -1.749, 1.539], a = 0.2, v = 0.2, t = 0.2)
movej(p[-0.480157051363553, -0.242044282305688, 0.37906378663297, -0.903, -1.749, 1.539], a = 0.2, v = 0.2, t = 0.2)
movej(p[-0.480241509980115, -0.242124545430162, 0.380037589359957, -0.903, -1.749, 1.539], a = 0.2, v = 0.2, t = 0.2)
movej(p[-0.480307215655703, -0.242186987168293, 0.380795171814785, -0.903, -1.749, 1.539], a = 0.2, v = 0.2, t = 0.2)
movej(p[-0.480343673625185, -0.242221634083691, 0.381215529991935, -0.903, -1.749, 1.539], a = 0.2, v = 0.2, t = 0.2)
movej(p[-0.480286929947243, -0.242167709154878, 0.38056127882647, -0.903, -1.749, 1.539], a = 0.2, v = 0.2, t = 0.2)
movej(p[-0.480181982295923, -0.24206797479095, 0.379351238771269, -0.903, -1.749, 1.539], a = 0.2, v = 0.2, t = 0.2)
movej(p[-0.480074328840777, -0.241965669034329, 0.378110000962037, -0.903, -1.749, 1.539], a = 0.2, v = 0.2, t = 0.2)
movej(p[-0.480009921325406, -0.241904460970148, 0.37736738621579, -0.903, -1.749, 1.539], a = 0.2, v = 0.2, t = 0.2)
movej(p[-0.479984771426252, -0.241880560395305, 0.377077409403754, -0.903, -1.749, 1.539], a = 0.2, v = 0.2, t = 0.2)
movej(p[-0.479968990177343, -0.241865563081861, 0.376895452560878, -0.903, -1.749, 1.539], a = 0.2, v = 0.2, t = 0.2)
movej(p[-0.479952082813546, -0.241849495593425, 0.376700511681642, -0.903, -1.749, 1.539], a = 0.2, v = 0.2, t = 0.2)
movej(p[-0.479951691801432, -0.241849124004886, 0.376696003335684, -0.903, -1.749, 1.539], a = 0.2, v = 0.2, t = 0.2)
movej(p[-0.479953005602135, -0.241850372542378, 0.376711151378104, -0.903, -1.749, 1.539], a = 0.2, v = 0.2, t = 0.2)
movej(p[-0.479950315438792, -0.241847816013228, 0.376680133957911, -0.903, -1.749, 1.539], a = 0.2, v = 0.2, t = 0.2)
movej(p[-0.479986992375058, -0.241882671018207, 0.377103016808797, -0.903, -1.749, 1.539], a = 0.2, v = 0.2, t = 0.2)
movej(p[-0.480057953253454, -0.241950106906306, 0.377921191433305, -0.903, -1.749, 1.539], a = 0.2, v = 0.2, t = 0.2)
movej(p[-0.480129180020088, -0.242017795474612, 0.378742431733064, -0.903, -1.749, 1.539], a = 0.2, v = 0.2, t = 0.2)
movej(p[-0.480187284420185, -0.242073013531541, 0.379412371942463, -0.903, -1.749, 1.539], a = 0.2, v = 0.2, t = 0.2)
movej(p[-0.480242776859363, -0.242125749377029, 0.380052196400862, -0.903, -1.749, 1.539], a = 0.2, v = 0.2, t = 0.2)
movej(p[-0.480194948257614, -0.24208029666691, 0.379500735523246, -0.903, -1.749, 1.539], a = 0.2, v = 0.2, t = 0.2)
movej(p[-0.480088811929468, -0.241979432673822, 0.378276990096332, -0.903, -1.749, 1.539], a = 0.2, v = 0.2, t = 0.2)
movej(p[-0.480017976174949, -0.241912115694056, 0.377460258142531, -0.903, -1.749, 1.539], a = 0.2, v = 0.2, t = 0.2)
movej(p[-0.479987039296512, -0.241882715608832, 0.377103557810312, -0.903, -1.749, 1.539], a = 0.2, v = 0.2, t = 0.2)
movej(p[-0.479970538585313, -0.241867034572477, 0.376913305610873, -0.903, -1.749, 1.539], a = 0.2, v = 0.2, t = 0.2)
movej(p[-0.47995195768967, -0.241849376685093, 0.376699069010936, -0.903, -1.749, 1.539], a = 0.2, v = 0.2, t = 0.2)
movej(p[-0.479951285148834, -0.241848737552805, 0.376691314655887, -0.903, -1.749, 1.539], a = 0.2, v = 0.2, t = 0.2)
movej(p[-0.479953318411826, -0.241850669813209, 0.37671475805487, -0.903, -1.749, 1.539], a = 0.2, v = 0.2, t = 0.2)
movej(p[-0.479983332501674, -0.24187919294948, 0.377060818690628, -0.903, -1.749, 1.539], a = 0.2, v = 0.2, t = 0.2)
movej(p[-0.48004772437656, -0.24194038615012, 0.377803253103036, -0.903, -1.749, 1.539], a = 0.2, v = 0.2, t = 0.2)
movej(p[-0.480145524326441, -0.242033327875552, 0.37893088059412, -0.903, -1.749, 1.539], a = 0.2, v = 0.2, t = 0.2)
movej(p[-0.480236786553781, -0.242120056640608, 0.379983128540781, -0.903, -1.749, 1.539], a = 0.2, v = 0.2, t = 0.2)
movej(p[-0.480306386710021, -0.24218619940059, 0.380785614121354, -0.903, -1.749, 1.539], a = 0.2, v = 0.2, t = 0.2)
movej(p[-0.480364444188665, -0.242241372866895, 0.381455013329238, -0.903, -1.749, 1.539], a = 0.2, v = 0.2, t = 0.2)
movej(p[-0.480325921675222, -0.24220476396401, 0.381010851085429, -0.903, -1.749, 1.539], a = 0.2, v = 0.2, t = 0.2)
movej(p[-0.4802108546304, -0.242095412888686, 0.379684135036828, -0.903, -1.749, 1.539], a = 0.2, v = 0.2, t = 0.2)
movej(p[-0.480108534580484, -0.241998175599741, 0.378504391066467, -0.903, -1.749, 1.539], a = 0.2, v = 0.2, t = 0.2)
movej(p[-0.480045550349208, -0.241938320117842, 0.377778186699508, -0.903, -1.749, 1.539], a = 0.2, v = 0.2, t = 0.2)
movej(p[-0.48000267978106, -0.241897579150401, 0.377283891648643, -0.903, -1.749, 1.539], a = 0.2, v = 0.2, t = 0.2)
movej(p[-0.47996787970294, -0.24186450777041, 0.376882648858356, -0.903, -1.749, 1.539], a = 0.2, v = 0.2, t = 0.2)
movej(p[-0.479961858116389, -0.241858785306906, 0.376813220330599, -0.903, -1.749, 1.539], a = 0.2, v = 0.2, t = 0.2)
movej(p[-0.479959199234016, -0.241856258504839, 0.376782563578083, -0.903, -1.749, 1.539], a = 0.2, v = 0.2, t = 0.2)
movej(p[-0.479964157267618, -0.241860970247517, 0.376839729404834, -0.903, -1.749, 1.539], a = 0.2, v = 0.2, t = 0.2)
movej(p[-0.480002288768947, -0.241897207561862, 0.377279383302685, -0.903, -1.749, 1.539], a = 0.2, v = 0.2, t = 0.2)
movej(p[-0.480083525445691, -0.241974408796772, 0.378216037258976, -0.903, -1.749, 1.539], a = 0.2, v = 0.2, t = 0.2)
movej(p[-0.480180433887953, -0.242066503300334, 0.379333385721275, -0.903, -1.749, 1.539], a = 0.2, v = 0.2, t = 0.2)
movej(p[-0.480285412820242, -0.242166267391346, 0.380543786444152, -0.903, -1.749, 1.539], a = 0.2, v = 0.2, t = 0.2)
movej(p[-0.480378598827181, -0.242254824372015, 0.381618215452928, -0.903, -1.749, 1.539], a = 0.2, v = 0.2, t = 0.2)
movej(p[-0.480403826928758, -0.242278799264566, 0.381909093934156, -0.903, -1.749, 1.539], a = 0.2, v = 0.2, t = 0.2)
movej(p[-0.4802951724826, -0.242175542241285, 0.380656314759271, -0.903, -1.749, 1.539], a = 0.2, v = 0.2, t = 0.2)
movej(p[-0.480185110392833, -0.242070947499263, 0.379387305538935, -0.903, -1.749, 1.539], a = 0.2, v = 0.2, t = 0.2)
movej(p[-0.480093316389018, -0.241983713373794, 0.378328926241771, -0.903, -1.749, 1.539], a = 0.2, v = 0.2, t = 0.2)
movej(p[-0.480028142489905, -0.241921776996076, 0.377577475137446, -0.903, -1.749, 1.539], a = 0.2, v = 0.2, t = 0.2)
movej(p[-0.479980001078465, -0.241876027015126, 0.377022407583063, -0.903, -1.749, 1.539], a = 0.2, v = 0.2, t = 0.2)
movej(p[-0.479968427119899, -0.241865027994365, 0.376888960542698, -0.903, -1.749, 1.539], a = 0.2, v = 0.2, t = 0.2)
movej(p[-0.479961779913966, -0.241858710989198, 0.376812318661407, -0.903, -1.749, 1.539], a = 0.2, v = 0.2, t = 0.2)
movej(p[-0.479953725064424, -0.24185105626529, 0.376719446734667, -0.903, -1.749, 1.539], a = 0.2, v = 0.2, t = 0.2)
movej(p[-0.479948954716637, -0.241846522885111, 0.376664444913976, -0.903, -1.749, 1.539], a = 0.2, v = 0.2, t = 0.2)
movej(p[-0.479969725280117, -0.241866261668315, 0.37690392825128, -0.903, -1.749, 1.539], a = 0.2, v = 0.2, t = 0.2)
movej(p[-0.480038871862305, -0.241931973385592, 0.377701184150541, -0.903, -1.749, 1.539], a = 0.2, v = 0.2, t = 0.2)
movej(p[-0.480118278602358, -0.242007435586139, 0.378616739047747, -0.903, -1.749, 1.539], a = 0.2, v = 0.2, t = 0.2)
movej(p[-0.480223883154029, -0.242107794218813, 0.379834353124158, -0.903, -1.749, 1.539], a = 0.2, v = 0.2, t = 0.2)
movej(p[-0.480325593225047, -0.242204451829637, 0.381007064074824, -0.903, -1.749, 1.539], a = 0.2, v = 0.2, t = 0.2)
movej(p[-0.480384010434835, -0.242259967157398, 0.38168061096099, -0.903, -1.749, 1.539], a = 0.2, v = 0.2, t = 0.2)
movej(p[-0.480353808659172, -0.242231265658628, 0.381332386319173, -0.903, -1.749, 1.539], a = 0.2, v = 0.2, t = 0.2)
movej(p[-0.480250612742122, -0.242133196011355, 0.380142543653866, -0.903, -1.749, 1.539], a = 0.2, v = 0.2, t = 0.2)
movej(p[-0.480131150721141, -0.24201966828085, 0.378765153796694, -0.903, -1.749, 1.539], a = 0.2, v = 0.2, t = 0.2)
movej(p[-0.480031990049104, -0.241925433427302, 0.377621837261675, -0.903, -1.749, 1.539], a = 0.2, v = 0.2, t = 0.2)
movej(p[-0.4799935300976, -0.241888883978583, 0.377178396353219, -0.903, -1.749, 1.539], a = 0.2, v = 0.2, t = 0.2)
movej(p[-0.479974495627904, -0.241870795048494, 0.376958930071971, -0.903, -1.749, 1.539], a = 0.2, v = 0.2, t = 0.2)
movej(p[-0.479962045802204, -0.241858963669405, 0.376815384336659, -0.903, -1.749, 1.539], a = 0.2, v = 0.2, t = 0.2)
movej(p[-0.479948094489986, -0.241845705390325, 0.376654526552868, -0.903, -1.749, 1.539], a = 0.2, v = 0.2, t = 0.2)
movej(p[-0.4799502059554, -0.241847711968437, 0.376678871621042, -0.903, -1.749, 1.539], a = 0.2, v = 0.2, t = 0.2)
movej(p[-0.479978640356309, -0.24187473388701, 0.377006718539128, -0.903, -1.749, 1.539], a = 0.2, v = 0.2, t = 0.2)
movej(p[-0.480037542421119, -0.241930709984559, 0.377685855774283, -0.903, -1.749, 1.539], a = 0.2, v = 0.2, t = 0.2)
movej(p[-0.480139283773106, -0.242027397322466, 0.378858927392626, -0.903, -1.749, 1.539], a = 0.2, v = 0.2, t = 0.2)
movej(p[-0.480239914650691, -0.242123029348922, 0.380019195308447, -0.903, -1.749, 1.539], a = 0.2, v = 0.2, t = 0.2)
movej(p[-0.480312752387233, -0.242192248862009, 0.380859009993555, -0.903, -1.749, 1.539], a = 0.2, v = 0.2, t = 0.2)
movej(p[-0.480377316307449, -0.242253605561606, 0.381603428078185, -0.903, -1.749, 1.539], a = 0.2, v = 0.2, t = 0.2)
movej(p[-0.480340295280522, -0.242218423558712, 0.381176577882855, -0.903, -1.749, 1.539], a = 0.2, v = 0.2, t = 0.2)
movej(p[-0.480229107075868, -0.242112758641697, 0.37989458462616, -0.903, -1.749, 1.539], a = 0.2, v = 0.2, t = 0.2)
movej(p[-0.48010088638354, -0.241990907327914, 0.378416207819523, -0.903, -1.749, 1.539], a = 0.2, v = 0.2, t = 0.2)
movej(p[-0.480039466200718, -0.241932538200172, 0.377708036836397, -0.903, -1.749, 1.539], a = 0.2, v = 0.2, t = 0.2)
movej(p[-0.479998316085871, -0.241893432222303, 0.377233578507749, -0.903, -1.749, 1.539], a = 0.2, v = 0.2, t = 0.2)
movej(p[-0.479975746866668, -0.241871984131819, 0.376973356779037, -0.903, -1.749, 1.539], a = 0.2, v = 0.2, t = 0.2)
movej(p[-0.479954976303188, -0.241852245348615, 0.376733873441733, -0.903, -1.749, 1.539], a = 0.2, v = 0.2, t = 0.2)
movej(p[-0.479952145375484, -0.241849555047591, 0.376701233016996, -0.903, -1.749, 1.539], a = 0.2, v = 0.2, t = 0.2)
movej(p[-0.479955820889353, -0.24185304797986, 0.376743611469003, -0.903, -1.749, 1.539], a = 0.2, v = 0.2, t = 0.2)
movej(p[-0.479984458616561, -0.241880263124473, 0.377073802726987, -0.903, -1.749, 1.539], a = 0.2, v = 0.2, t = 0.2)
movej(p[-0.480072436342146, -0.241963870545799, 0.378088180567599, -0.903, -1.749, 1.539], a = 0.2, v = 0.2, t = 0.2)
movej(p[-0.480165419022787, -0.242052234300428, 0.379160265236477, -0.903, -1.749, 1.539], a = 0.2, v = 0.2, t = 0.2)
movej(p[-0.480247062352129, -0.242129821987419, 0.380101607872564, -0.903, -1.749, 1.539], a = 0.2, v = 0.2, t = 0.2)
movej(p[-0.480313643894852, -0.242193096083878, 0.380869289022339, -0.903, -1.749, 1.539], a = 0.2, v = 0.2, t = 0.2)
movej(p[-0.480371435485258, -0.242248016869976, 0.381535622554972, -0.903, -1.749, 1.539], a = 0.2, v = 0.2, t = 0.2)
movej(p[-0.480303133489235, -0.242183107783944, 0.380748104682981, -0.903, -1.749, 1.539], a = 0.2, v = 0.2, t = 0.2)
movej(p[-0.48017430281801, -0.242060676792039, 0.379262694856649, -0.903, -1.749, 1.539], a = 0.2, v = 0.2, t = 0.2)
movej(p[-0.480079067907595, -0.241970172687425, 0.378164642115051, -0.903, -1.749, 1.539], a = 0.2, v = 0.2, t = 0.2)
movej(p[-0.480016599812308, -0.241910807702398, 0.377444388764758, -0.903, -1.749, 1.539], a = 0.2, v = 0.2, t = 0.2)
movej(p[-0.479980830024146, -0.241876814782829, 0.377031965276495, -0.903, -1.749, 1.539], a = 0.2, v = 0.2, t = 0.2)
movej(p[-0.479956696756488, -0.241853880338188, 0.37675371016395, -0.903, -1.749, 1.539], a = 0.2, v = 0.2, t = 0.2)
movej(p[-0.47995247382566, -0.241849867181964, 0.3767050200276, -0.903, -1.749, 1.539], a = 0.2, v = 0.2, t = 0.2)
movej(p[-0.479951206946412, -0.241848663235097, 0.376690412986696, -0.903, -1.749, 1.539], a = 0.2, v = 0.2, t = 0.2)
movej(p[-0.479948579345007, -0.241846166160114, 0.376660116901856, -0.903, -1.749, 1.539], a = 0.2, v = 0.2, t = 0.2)
movej(p[-0.480008654446158, -0.241903257023281, 0.377352779174885, -0.903, -1.749, 1.539], a = 0.2, v = 0.2, t = 0.2)
movej(p[-0.480101261755169, -0.241991264052911, 0.378420535831643, -0.903, -1.749, 1.539], a = 0.2, v = 0.2, t = 0.2)
movej(p[-0.48018434400909, -0.242070219185726, 0.379378469180857, -0.903, -1.749, 1.539], a = 0.2, v = 0.2, t = 0.2)
movej(p[-0.480261514159852, -0.242143555899828, 0.380268236339182, -0.903, -1.749, 1.539], a = 0.2, v = 0.2, t = 0.2)
movej(p[-0.480342750836597, -0.242220757134738, 0.381204890295473, -0.903, -1.749, 1.539], a = 0.2, v = 0.2, t = 0.2)
movej(p[-0.480393817018647, -0.242269286597962, 0.381793680277624, -0.903, -1.749, 1.539], a = 0.2, v = 0.2, t = 0.2)
movej(p[-0.480336651047623, -0.242214960353526, 0.381134560098524, -0.903, -1.749, 1.539], a = 0.2, v = 0.2, t = 0.2)
movej(p[-0.480223695468214, -0.242107615856314, 0.379832189118098, -0.903, -1.749, 1.539], a = 0.2, v = 0.2, t = 0.2)
movej(p[-0.480117997073636, -0.24200716804239, 0.378613493038657, -0.903, -1.749, 1.539], a = 0.2, v = 0.2, t = 0.2)
movej(p[-0.480037010644644, -0.241930204624145, 0.377679724423779, -0.903, -1.749, 1.539], a = 0.2, v = 0.2, t = 0.2)
movej(p[-0.479983645311365, -0.241879490220312, 0.377064425367394, -0.903, -1.749, 1.539], a = 0.2, v = 0.2, t = 0.2)
movej(p[-0.479968083029239, -0.24186470099645, 0.376884993198255, -0.903, -1.749, 1.539], a = 0.2, v = 0.2, t = 0.2)
movej(p[-0.479960137663089, -0.241857150317333, 0.376793383608383, -0.903, -1.749, 1.539], a = 0.2, v = 0.2, t = 0.2)
movej(p[-0.479949048559544, -0.241846612066361, 0.376665526917006, -0.903, -1.749, 1.539], a = 0.2, v = 0.2, t = 0.2)
movej(p[-0.479948422940162, -0.241846017524698, 0.376658313563473, -0.903, -1.749, 1.539], a = 0.2, v = 0.2, t = 0.2)
movej(p[-0.479956602913581, -0.241853791156939, 0.37675262816092, -0.903, -1.749, 1.539], a = 0.2, v = 0.2, t = 0.2)
movej(p[-0.480017897972526, -0.241912041376348, 0.377459356473339, -0.903, -1.749, 1.539], a = 0.2, v = 0.2, t = 0.2)
movej(p[-0.480085214618022, -0.241976014059261, 0.378235513313516, -0.903, -1.749, 1.539], a = 0.2, v = 0.2, t = 0.2)
movej(p[-0.480184156323276, -0.242070040823228, 0.379376305174797, -0.903, -1.749, 1.539], a = 0.2, v = 0.2, t = 0.2)
movej(p[-0.480277764623298, -0.242158999119519, 0.380455603197208, -0.903, -1.749, 1.539], a = 0.2, v = 0.2, t = 0.2)
movej(p[-0.480336322597447, -0.242214648219154, 0.381130773087919, -0.903, -1.749, 1.539], a = 0.2, v = 0.2, t = 0.2)
movej(p[-0.48038712289126, -0.24226292500217, 0.381716497394818, -0.903, -1.749, 1.539], a = 0.2, v = 0.2, t = 0.2)
movej(p[-0.480313065196924, -0.24219254613284, 0.380862616670321, -0.903, -1.749, 1.539], a = 0.2, v = 0.2, t = 0.2)
movej(p[-0.480181168990727, -0.242067201886788, 0.379341861411676, -0.903, -1.749, 1.539], a = 0.2, v = 0.2, t = 0.2)
movej(p[-0.480064365852119, -0.24195620095835, 0.37799512830702, -0.903, -1.749, 1.539], a = 0.2, v = 0.2, t = 0.2)
movej(p[-0.480012470724388, -0.241906883727424, 0.377396780631438, -0.903, -1.749, 1.539], a = 0.2, v = 0.2, t = 0.2)
movej(p[-0.4799845211785, -0.24188032257864, 0.377074524062341, -0.903, -1.749, 1.539], a = 0.2, v = 0.2, t = 0.2)
movej(p[-0.479960528675202, -0.241857521905872, 0.376797891954341, -0.903, -1.749, 1.539], a = 0.2, v = 0.2, t = 0.2)
movej(p[-0.479954084795568, -0.241851398126746, 0.376723594412949, -0.903, -1.749, 1.539], a = 0.2, v = 0.2, t = 0.2)
movej(p[-0.47995453836962, -0.241851829169451, 0.37672882409426, -0.903, -1.749, 1.539], a = 0.2, v = 0.2, t = 0.2)
movej(p[-0.479973791806099, -0.241870126189123, 0.376950815049246, -0.903, -1.749, 1.539], a = 0.2, v = 0.2, t = 0.2)
movej(p[-0.4800293624477, -0.241922936352318, 0.377591541176836, -0.903, -1.749, 1.539], a = 0.2, v = 0.2, t = 0.2)
movej(p[-0.48012286126433, -0.242011790603818, 0.378669576862378, -0.903, -1.749, 1.539], a = 0.2, v = 0.2, t = 0.2)
movej(p[-0.480227417903537, -0.242111153379208, 0.379875108571621, -0.903, -1.749, 1.539], a = 0.2, v = 0.2, t = 0.2)
movej(p[-0.480307591027332, -0.242187343893291, 0.380799499826905, -0.903, -1.749, 1.539], a = 0.2, v = 0.2, t = 0.2)
movej(p[-0.480385246033115, -0.242261141377182, 0.381694857334219, -0.903, -1.749, 1.539], a = 0.2, v = 0.2, t = 0.2)
movej(p[-0.480395396707587, -0.24227078781566, 0.381811893995295, -0.903, -1.749, 1.539], a = 0.2, v = 0.2, t = 0.2)
movej(p[-0.480276059810482, -0.242157378993488, 0.38043594680883, -0.903, -1.749, 1.539], a = 0.2, v = 0.2, t = 0.2)
movej(p[-0.480141129350283, -0.242029151220371, 0.378880206785549, -0.903, -1.749, 1.539], a = 0.2, v = 0.2, t = 0.2)
movej(p[-0.480064788145202, -0.241956602273972, 0.377999997320655, -0.903, -1.749, 1.539], a = 0.2, v = 0.2, t = 0.2)
movej(p[-0.480013127624739, -0.241907507996169, 0.377404354652648, -0.903, -1.749, 1.539], a = 0.2, v = 0.2, t = 0.2)
movej(p[-0.479980345169125, -0.241876354013041, 0.377026374927506, -0.903, -1.749, 1.539], a = 0.2, v = 0.2, t = 0.2)
movej(p[-0.47995869873851, -0.241855782871509, 0.376776792895256, -0.903, -1.749, 1.539], a = 0.2, v = 0.2, t = 0.2)
movej(p[-0.47995508578658, -0.241852349393406, 0.376735135778602, -0.903, -1.749, 1.539], a = 0.2, v = 0.2, t = 0.2)
movej(p[-0.479955930372745, -0.241853152024651, 0.376744873805872, -0.903, -1.749, 1.539], a = 0.2, v = 0.2, t = 0.2)
movej(p[-0.479966300014001, -0.241863006552711, 0.376864435140685, -0.903, -1.749, 1.539], a = 0.2, v = 0.2, t = 0.2)
movej(p[-0.480042375330844, -0.241935302818904, 0.377741578930327, -0.903, -1.749, 1.539], a = 0.2, v = 0.2, t = 0.2)
movej(p[-0.480127725455025, -0.242016413165246, 0.378725660686099, -0.903, -1.749, 1.539], a = 0.2, v = 0.2, t = 0.2)
movej(p[-0.480211292563967, -0.24209582906785, 0.379689184384301, -0.903, -1.749, 1.539], a = 0.2, v = 0.2, t = 0.2)
movej(p[-0.48028203447558, -0.242163056866367, 0.380504834335073, -0.903, -1.749, 1.539], a = 0.2, v = 0.2, t = 0.2)
movej(p[-0.480363974974129, -0.242240926960648, 0.381449603314089, -0.903, -1.749, 1.539], a = 0.2, v = 0.2, t = 0.2)
movej(p[-0.480387263655621, -0.242263058774044, 0.381718120399363, -0.903, -1.749, 1.539], a = 0.2, v = 0.2, t = 0.2)
movej(p[-0.480300849978491, -0.242180937706875, 0.380721775942585, -0.903, -1.749, 1.539], a = 0.2, v = 0.2, t = 0.2)
movej(p[-0.480204926886756, -0.242089779606431, 0.379615788512101, -0.903, -1.749, 1.539], a = 0.2, v = 0.2, t = 0.2)
movej(p[-0.480113586456993, -0.242002976523668, 0.378562638896248, -0.903, -1.749, 1.539], a = 0.2, v = 0.2, t = 0.2)
movej(p[-0.48004442423432, -0.241937249942849, 0.377765202663148, -0.903, -1.749, 1.539], a = 0.2, v = 0.2, t = 0.2)
movej(p[-0.479987086217966, -0.241882760199457, 0.377104098811827, -0.903, -1.749, 1.539], a = 0.2, v = 0.2, t = 0.2)
movej(p[-0.47996963143721, -0.241866172487066, 0.37690284624825, -0.903, -1.749, 1.539], a = 0.2, v = 0.2, t = 0.2)
movej(p[-0.479962733983524, -0.241859617665234, 0.376823319025546, -0.903, -1.749, 1.539], a = 0.2, v = 0.2, t = 0.2)
movej(p[-0.47995522655094, -0.241852483165281, 0.376736758783147, -0.903, -1.749, 1.539], a = 0.2, v = 0.2, t = 0.2)
movej(p[-0.479955382955786, -0.241852631800696, 0.37673856212153, -0.903, -1.749, 1.539], a = 0.2, v = 0.2, t = 0.2)
movej(p[-0.480004509717752, -0.241899318184765, 0.377304990707728, -0.903, -1.749, 1.539], a = 0.2, v = 0.2, t = 0.2)
movej(p[-0.480076862599273, -0.241968076928064, 0.378139215043847, -0.903, -1.749, 1.539], a = 0.2, v = 0.2, t = 0.2)
movej(p[-0.480148730625773, -0.242036374901574, 0.378967849030978, -0.903, -1.749, 1.539], a = 0.2, v = 0.2, t = 0.2)
movej(p[-0.480244638077024, -0.242127518138475, 0.380073656127623, -0.903, -1.749, 1.539], a = 0.2, v = 0.2, t = 0.2)
movej(p[-0.480333820119919, -0.242212270052502, 0.381101919673786, -0.903, -1.749, 1.539], a = 0.2, v = 0.2, t = 0.2)
movej(p[-0.480382665353164, -0.242258688892823, 0.381665102250894, -0.903, -1.749, 1.539], a = 0.2, v = 0.2, t = 0.2)
movej(p[-0.480317116082422, -0.242196395790107, 0.380909323134449, -0.903, -1.749, 1.539], a = 0.2, v = 0.2, t = 0.2)
movej(p[-0.480206490935211, -0.242091265960588, 0.379633821895934, -0.903, -1.749, 1.539], a = 0.2, v = 0.2, t = 0.2)
movej(p[-0.480102387870056, -0.241992334227904, 0.378433519868003, -0.903, -1.749, 1.539], a = 0.2, v = 0.2, t = 0.2)
movej(p[-0.480020056359394, -0.241914092545085, 0.377484242543029, -0.903, -1.749, 1.539], a = 0.2, v = 0.2, t = 0.2)
movej(p[-0.47998641367713, -0.241882121067169, 0.377096344456779, -0.903, -1.749, 1.539], a = 0.2, v = 0.2, t = 0.2)
movej(p[-0.479969678358663, -0.24186621707769, 0.376903387249765, -0.903, -1.749, 1.539], a = 0.2, v = 0.2, t = 0.2)
movej(p[-0.479962421173833, -0.241859320394402, 0.376819712348779, -0.903, -1.749, 1.539], a = 0.2, v = 0.2, t = 0.2)
movej(p[-0.47994900163809, -0.241846567475736, 0.376664985915491, -0.903, -1.749, 1.539], a = 0.2, v = 0.2, t = 0.2)
movej(p[-0.479955038865126, -0.241852304802782, 0.376734594777087, -0.903, -1.749, 1.539], a = 0.2, v = 0.2, t = 0.2)
movej(p[-0.480008341636467, -0.241902959752449, 0.377349172498119, -0.903, -1.749, 1.539], a = 0.2, v = 0.2, t = 0.2)
movej(p[-0.480068807749731, -0.241960422204155, 0.378046343117106, -0.903, -1.749, 1.539], a = 0.2, v = 0.2, t = 0.2)
movej(p[-0.480160758158391, -0.24204780496504, 0.379106525752654, -0.903, -1.749, 1.539], a = 0.2, v = 0.2, t = 0.2)
movej(p[-0.480264251244648, -0.242146157019603, 0.38029979476089, -0.903, -1.749, 1.539], a = 0.2, v = 0.2, t = 0.2)
movej(p[-0.480348303208611, -0.242226033691995, 0.381268908808081, -0.903, -1.749, 1.539], a = 0.2, v = 0.2, t = 0.2)
movej(p[-0.480380475685327, -0.242256607997003, 0.381639855513528, -0.903, -1.749, 1.539], a = 0.2, v = 0.2, t = 0.2)
movej(p[-0.480316052529472, -0.24219538506928, 0.380897060433442, -0.903, -1.749, 1.539], a = 0.2, v = 0.2, t = 0.2)
movej(p[-0.480202252363898, -0.242087237940823, 0.379584951425746, -0.903, -1.749, 1.539], a = 0.2, v = 0.2, t = 0.2)
movej(p[-0.480094473784875, -0.24198481327587, 0.378342270945807, -0.903, -1.749, 1.539], a = 0.2, v = 0.2, t = 0.2)
movej(p[-0.480016943902969, -0.241911134700312, 0.377448356109201, -0.903, -1.749, 1.539], a = 0.2, v = 0.2, t = 0.2)
movej(p[-0.479986742127306, -0.241882433201542, 0.377100131467384, -0.903, -1.749, 1.539], a = 0.2, v = 0.2, t = 0.2)
movej(p[-0.47997031961853, -0.241866826482895, 0.376910780937136, -0.903, -1.749, 1.539], a = 0.2, v = 0.2, t = 0.2)
movej(p[-0.479953021242619, -0.241850387405919, 0.376711331711942, -0.903, -1.749, 1.539], a = 0.2, v = 0.2, t = 0.2)
movej(p[-0.479949971348132, -0.241847489015313, 0.376676166613468, -0.903, -1.749, 1.539], a = 0.2, v = 0.2, t = 0.2)
movej(p[-0.479950518765091, -0.241848009239268, 0.376682478297809, -0.903, -1.749, 1.539], a = 0.2, v = 0.2, t = 0.2)
movej(p[-0.479976294283627, -0.241872504355774, 0.376979668463379, -0.903, -1.749, 1.539], a = 0.2, v = 0.2, t = 0.2)
movej(p[-0.480022934208551, -0.241916827436733, 0.377517423969282, -0.903, -1.749, 1.539], a = 0.2, v = 0.2, t = 0.2)
movej(p[-0.480123158433537, -0.242012073011108, 0.378673003205306, -0.903, -1.749, 1.539], a = 0.2, v = 0.2, t = 0.2)
movej(p[-0.480215030639774, -0.242099381454285, 0.379732284171663, -0.903, -1.749, 1.539], a = 0.2, v = 0.2, t = 0.2)
movej(p[-0.480273150680356, -0.242154614374756, 0.380402404714901, -0.903, -1.749, 1.539], a = 0.2, v = 0.2, t = 0.2)
movej(p[-0.480346848643548, -0.24222465138263, 0.381252137761116, -0.903, -1.749, 1.539], a = 0.2, v = 0.2, t = 0.2)
movej(p[-0.480428507613375, -0.242302253933162, 0.382193660731042, -0.903, -1.749, 1.539], a = 0.2, v = 0.2, t = 0.2)
movej(p[-0.480468906984964, -0.242340646461035, 0.382659463035451, -0.903, -1.749, 1.539], a = 0.2, v = 0.2, t = 0.2)
movej(p[-0.48033863738916, -0.242216848023306, 0.381157462495992, -0.903, -1.749, 1.539], a = 0.2, v = 0.2, t = 0.2)
movej(p[-0.480210541820709, -0.242095115617855, 0.379680528360062, -0.903, -1.749, 1.539], a = 0.2, v = 0.2, t = 0.2)
movej(p[-0.480117168127955, -0.242006380274687, 0.378603935345226, -0.903, -1.749, 1.539], a = 0.2, v = 0.2, t = 0.2)
movej(p[-0.480035133786498, -0.241928420999157, 0.37765808436318, -0.903, -1.749, 1.539], a = 0.2, v = 0.2, t = 0.2)
movej(p[-0.479989666897916, -0.241885212683816, 0.377133853895152, -0.903, -1.749, 1.539], a = 0.2, v = 0.2, t = 0.2)
movej(p[-0.479969850403993, -0.241866380576648, 0.376905370921986, -0.903, -1.749, 1.539], a = 0.2, v = 0.2, t = 0.2)
movej(p[-0.479960184584542, -0.241857194907958, 0.376793924609898, -0.903, -1.749, 1.539], a = 0.2, v = 0.2, t = 0.2)
movej(p[-0.4799467650488, -0.241844441989292, 0.37663919817661, -0.903, -1.749, 1.539], a = 0.2, v = 0.2, t = 0.2)
movej(p[-0.479947812961264, -0.241845437846577, 0.376651280543778, -0.903, -1.749, 1.539], a = 0.2, v = 0.2, t = 0.2)
movej(p[-0.479946749408315, -0.24184442712575, 0.376639017842771, -0.903, -1.749, 1.539], a = 0.2, v = 0.2, t = 0.2)
movej(p[-0.479947468870604, -0.241845110848662, 0.376647313199335, -0.903, -1.749, 1.539], a = 0.2, v = 0.2, t = 0.2)
movej(p[-0.479965736956557, -0.241862471465215, 0.376857943122505, -0.903, -1.749, 1.539], a = 0.2, v = 0.2, t = 0.2)
movej(p[-0.480043626569608, -0.241936491902229, 0.377756005637393, -0.903, -1.749, 1.539], a = 0.2, v = 0.2, t = 0.2)
movej(p[-0.480137704084167, -0.242025896104767, 0.378840713674954, -0.903, -1.749, 1.539], a = 0.2, v = 0.2, t = 0.2)
movej(p[-0.480205302258385, -0.242090136331429, 0.379620116524221, -0.903, -1.749, 1.539], a = 0.2, v = 0.2, t = 0.2)
movej(p[-0.480296642688148, -0.242176939414193, 0.380673266140074, -0.903, -1.749, 1.539], a = 0.2, v = 0.2, t = 0.2)
movej(p[-0.480371670092527, -0.2422482398231, 0.381538327562547, -0.903, -1.749, 1.539], a = 0.2, v = 0.2, t = 0.2)
movej(p[-0.480339560177749, -0.242217724972258, 0.381168102192454, -0.903, -1.749, 1.539], a = 0.2, v = 0.2, t = 0.2)
movej(p[-0.480208305231418, -0.24209299013141, 0.37965474062118, -0.903, -1.749, 1.539], a = 0.2, v = 0.2, t = 0.2)
movej(p[-0.480114305919282, -0.24200366024658, 0.378570934252811, -0.903, -1.749, 1.539], a = 0.2, v = 0.2, t = 0.2)
movej(p[-0.480047693095591, -0.241940356423037, 0.377802892435359, -0.903, -1.749, 1.539], a = 0.2, v = 0.2, t = 0.2)
movej(p[-0.479997189970984, -0.24189236204731, 0.377220594471389, -0.903, -1.749, 1.539], a = 0.2, v = 0.2, t = 0.2)
movej(p[-0.479966018485279, -0.241862739008963, 0.376861189131595, -0.903, -1.749, 1.539], a = 0.2, v = 0.2, t = 0.2)
movej(p[-0.479957025206664, -0.241854192472561, 0.376757497174555, -0.903, -1.749, 1.539], a = 0.2, v = 0.2, t = 0.2)
movej(p[-0.479957572623623, -0.241854712696516, 0.376763808858896, -0.903, -1.749, 1.539], a = 0.2, v = 0.2, t = 0.2)
movej(p[-0.479983254299251, -0.241879118631772, 0.377059917021436, -0.903, -1.749, 1.539], a = 0.2, v = 0.2, t = 0.2)
movej(p[-0.480076862599273, -0.241968076928064, 0.378139215043847, -0.903, -1.749, 1.539], a = 0.2, v = 0.2, t = 0.2)
movej(p[-0.480192054767973, -0.24207754691172, 0.379467373763154, -0.903, -1.749, 1.539], a = 0.2, v = 0.2, t = 0.2)
movej(p[-0.480290652382566, -0.242171246677772, 0.380604198279993, -0.903, -1.749, 1.539], a = 0.2, v = 0.2, t = 0.2)
movej(p[-0.48036029946026, -0.242237434028379, 0.381407224862081, -0.903, -1.749, 1.539], a = 0.2, v = 0.2, t = 0.2)
movej(p[-0.480426787160075, -0.242300618943589, 0.382173824008826, -0.903, -1.749, 1.539], a = 0.2, v = 0.2, t = 0.2)
movej(p[-0.480350289550149, -0.242227921361775, 0.381291811205549, -0.903, -1.749, 1.539], a = 0.2, v = 0.2, t = 0.2)
movej(p[-0.480217924129416, -0.242102131209475, 0.379765645931754, -0.903, -1.749, 1.539], a = 0.2, v = 0.2, t = 0.2)
movej(p[-0.480131322766471, -0.242019831779807, 0.378767137468915, -0.903, -1.749, 1.539], a = 0.2, v = 0.2, t = 0.2)
movej(p[-0.480070794091269, -0.241962309873935, 0.378069245514574, -0.903, -1.749, 1.539], a = 0.2, v = 0.2, t = 0.2)
movej(p[-0.480036916801737, -0.241930115442896, 0.377678642420749, -0.903, -1.749, 1.539], a = 0.2, v = 0.2, t = 0.2)
movej(p[-0.480018007455918, -0.241912145421139, 0.377460618810207, -0.903, -1.749, 1.539], a = 0.2, v = 0.2, t = 0.2)
movej(p[-0.48003369486192, -0.241927053553333, 0.377641493650053, -0.903, -1.749, 1.539], a = 0.2, v = 0.2, t = 0.2)
movej(p[-0.480142099060325, -0.242030072759948, 0.378891387483525, -0.903, -1.749, 1.539], a = 0.2, v = 0.2, t = 0.2)
movej(p[-0.480260106516243, -0.242142218181087, 0.380252006293733, -0.903, -1.749, 1.539], a = 0.2, v = 0.2, t = 0.2)
movej(p[-0.480369777593896, -0.24224644133457, 0.381516507168109, -0.903, -1.749, 1.539], a = 0.2, v = 0.2, t = 0.2)
movej(p[-0.48047009566179, -0.242341776090194, 0.382673168407164, -0.903, -1.749, 1.539], a = 0.2, v = 0.2, t = 0.2)
movej(p[-0.480602914656575, -0.242467997285199, 0.384204563362271, -0.903, -1.749, 1.539], a = 0.2, v = 0.2, t = 0.2)
movej(p[-0.480732355306698, -0.242591007955225, 0.385697006208298, -0.903, -1.749, 1.539], a = 0.2, v = 0.2, t = 0.2)
movej(p[-0.480761165079236, -0.242618386598795, 0.386029181138504, -0.903, -1.749, 1.539], a = 0.2, v = 0.2, t = 0.2)
movej(p[-0.480568990445589, -0.242435758263536, 0.383813419266931, -0.903, -1.749, 1.539], a = 0.2, v = 0.2, t = 0.2)
movej(p[-0.480405766348842, -0.24228064234372, 0.381931455330109, -0.903, -1.749, 1.539], a = 0.2, v = 0.2, t = 0.2)
movej(p[-0.480290542899174, -0.242171142632981, 0.380602935943125, -0.903, -1.749, 1.539], a = 0.2, v = 0.2, t = 0.2)
movej(p[-0.480210291572956, -0.24209487780119, 0.379677643018648, -0.903, -1.749, 1.539], a = 0.2, v = 0.2, t = 0.2)
movej(p[-0.480141598564819, -0.242029597126618, 0.378885616800699, -0.903, -1.749, 1.539], a = 0.2, v = 0.2, t = 0.2)
movej(p[-0.480076111856015, -0.241967363478068, 0.378130559019607, -0.903, -1.749, 1.539], a = 0.2, v = 0.2, t = 0.2)
movej(p[-0.480038793659883, -0.241931899067884, 0.377700282481349, -0.903, -1.749, 1.539], a = 0.2, v = 0.2, t = 0.2)
movej(p[-0.480007981905322, -0.241902617890993, 0.377345024819837, -0.903, -1.749, 1.539], a = 0.2, v = 0.2, t = 0.2)
movej(p[-0.47998761799444, -0.24188326555987, 0.37711023016233, -0.903, -1.749, 1.539], a = 0.2, v = 0.2, t = 0.2)
movej(p[-0.479969021458312, -0.241865592808945, 0.376895813228555, -0.903, -1.749, 1.539], a = 0.2, v = 0.2, t = 0.2)
movej(p[-0.479979782111681, -0.241875818925544, 0.377019882909326, -0.903, -1.749, 1.539], a = 0.2, v = 0.2, t = 0.2)
movej(p[-0.48006450661648, -0.241956334730224, 0.377996751311565, -0.903, -1.749, 1.539], a = 0.2, v = 0.2, t = 0.2)
movej(p[-0.480146916329566, -0.242034650730752, 0.378946930305731, -0.903, -1.749, 1.539], a = 0.2, v = 0.2, t = 0.2)
movej(p[-0.480257557117261, -0.242139795423811, 0.380222611878085, -0.903, -1.749, 1.539], a = 0.2, v = 0.2, t = 0.2)
movej(p[-0.480339090963212, -0.242217279066011, 0.381162692177304, -0.903, -1.749, 1.539], a = 0.2, v = 0.2, t = 0.2)
movej(p[-0.480327610847554, -0.2422063692265, 0.381030327139969, -0.903, -1.749, 1.539], a = 0.2, v = 0.2, t = 0.2)
movej(p[-0.480183874794554, -0.242069773279479, 0.379373059165707, -0.903, -1.749, 1.539], a = 0.2, v = 0.2, t = 0.2)
movej(p[-0.48008252445468, -0.241973457530112, 0.378204495893323, -0.903, -1.749, 1.539], a = 0.2, v = 0.2, t = 0.2)
movej(p[-0.480018163860763, -0.241912294056555, 0.377462422148591, -0.903, -1.749, 1.539], a = 0.2, v = 0.2, t = 0.2)
movej(p[-0.47997950058296, -0.241875551381796, 0.377016636900236, -0.903, -1.749, 1.539], a = 0.2, v = 0.2, t = 0.2)
movej(p[-0.479962561938194, -0.241859454166276, 0.376821335353324, -0.903, -1.749, 1.539], a = 0.2, v = 0.2, t = 0.2)
movej(p[-0.479956915723272, -0.24185408842777, 0.376756234837687, -0.903, -1.749, 1.539], a = 0.2, v = 0.2, t = 0.2)
movej(p[-0.479959074110139, -0.241856139596507, 0.376781120907376, -0.903, -1.749, 1.539], a = 0.2, v = 0.2, t = 0.2)
movej(p[-0.479987852601708, -0.241883488512994, 0.377112935169905, -0.903, -1.749, 1.539], a = 0.2, v = 0.2, t = 0.2)
movej(p[-0.480082321128381, -0.241973264304071, 0.378202151553424, -0.903, -1.749, 1.539], a = 0.2, v = 0.2, t = 0.2)
movej(p[-0.480171487530791, -0.242058001354557, 0.379230234765749, -0.903, -1.749, 1.539], a = 0.2, v = 0.2, t = 0.2)
movej(p[-0.480252818050443, -0.242135291770716, 0.38016797072507, -0.903, -1.749, 1.539], a = 0.2, v = 0.2, t = 0.2)
movej(p[-0.480332130947588, -0.242210664790013, 0.381082443619247, -0.903, -1.749, 1.539], a = 0.2, v = 0.2, t = 0.2)
movej(p[-0.480369808874865, -0.242246471061653, 0.381516867835786, -0.903, -1.749, 1.539], a = 0.2, v = 0.2, t = 0.2)
movej(p[-0.480272243532252, -0.242153752289345, 0.380391945352277, -0.903, -1.749, 1.539], a = 0.2, v = 0.2, t = 0.2)
movej(p[-0.480131041237749, -0.242019564236059, 0.378763891459825, -0.903, -1.749, 1.539], a = 0.2, v = 0.2, t = 0.2)
movej(p[-0.480053448793904, -0.241945826206335, 0.377869255287865, -0.903, -1.749, 1.539], a = 0.2, v = 0.2, t = 0.2)
movej(p[-0.480004165627092, -0.24189899118685, 0.377301023363284, -0.903, -1.749, 1.539], a = 0.2, v = 0.2, t = 0.2)
movej(p[-0.479980548495424, -0.241876547239081, 0.377028719267405, -0.903, -1.749, 1.539], a = 0.2, v = 0.2, t = 0.2)
movej(p[-0.479957791590406, -0.241854920786098, 0.376766333532633, -0.903, -1.749, 1.539], a = 0.2, v = 0.2, t = 0.2)
movej(p[-0.479954913741249, -0.241852185894449, 0.37673315210638, -0.903, -1.749, 1.539], a = 0.2, v = 0.2, t = 0.2)
movej(p[-0.479960403551326, -0.24185740299754, 0.376796449283634, -0.903, -1.749, 1.539], a = 0.2, v = 0.2, t = 0.2)
movej(p[-0.479996908442262, -0.241892094503562, 0.377217348462299, -0.903, -1.749, 1.539], a = 0.2, v = 0.2, t = 0.2)
movej(p[-0.480076737475397, -0.241967958019731, 0.37813777237314, -0.903, -1.749, 1.539], a = 0.2, v = 0.2, t = 0.2)
movej(p[-0.480168797367449, -0.242055444825407, 0.379199217345556, -0.903, -1.749, 1.539], a = 0.2, v = 0.2, t = 0.2)
movej(p[-0.480242573533064, -0.242125556150988, 0.380049852060963, -0.903, -1.749, 1.539], a = 0.2, v = 0.2, t = 0.2)
movej(p[-0.480298394422417, -0.242178604130848, 0.380693463529967, -0.903, -1.749, 1.539], a = 0.2, v = 0.2, t = 0.2)
movej(p[-0.480313393647099, -0.242192858267213, 0.380866403680926, -0.903, -1.749, 1.539], a = 0.2, v = 0.2, t = 0.2)
movej(p[-0.480212559443216, -0.242097033014717, 0.379703791425206, -0.903, -1.749, 1.539], a = 0.2, v = 0.2, t = 0.2)
movej(p[-0.480111349867703, -0.242000851037223, 0.378536851157367, -0.903, -1.749, 1.539], a = 0.2, v = 0.2, t = 0.2)
movej(p[-0.48002726662277, -0.241920944637748, 0.377567376442499, -0.903, -1.749, 1.539], a = 0.2, v = 0.2, t = 0.2)
movej(p[-0.479994452886188, -0.241889760927536, 0.377189036049681, -0.903, -1.749, 1.539], a = 0.2, v = 0.2, t = 0.2)
movej(p[-0.479976794779133, -0.241872979989104, 0.376985439146205, -0.903, -1.749, 1.539], a = 0.2, v = 0.2, t = 0.2)
movej(p[-0.479961467104275, -0.241858413718367, 0.376808711984641, -0.903, -1.749, 1.539], a = 0.2, v = 0.2, t = 0.2)
movej(p[-0.479952254858876, -0.241849659092382, 0.376702495353864, -0.903, -1.749, 1.539], a = 0.2, v = 0.2, t = 0.2)
movej(p[-0.479951472834649, -0.241848915915304, 0.376693478661947, -0.903, -1.749, 1.539], a = 0.2, v = 0.2, t = 0.2)
movej(p[-0.479951394632226, -0.241848841597596, 0.376692576992756, -0.903, -1.749, 1.539], a = 0.2, v = 0.2, t = 0.2)
movej(p[-0.479941775734229, -0.241839700519531, 0.376581671682182, -0.903, -1.749, 1.539], a = 0.2, v = 0.2, t = 0.2)
movej(p[-0.479958542333665, -0.241855634236093, 0.376774989556873, -0.903, -1.749, 1.539], a = 0.2, v = 0.2, t = 0.2)
movej(p[-0.480011094361747, -0.241905575735765, 0.377380911253665, -0.903, -1.749, 1.539], a = 0.2, v = 0.2, t = 0.2)
movej(p[-0.480077378735264, -0.241968567424935, 0.378145166060512, -0.903, -1.749, 1.539], a = 0.2, v = 0.2, t = 0.2)
movej(p[-0.480149434447578, -0.242037043760944, 0.378975964053702, -0.903, -1.749, 1.539], a = 0.2, v = 0.2, t = 0.2)
movej(p[-0.480243027107116, -0.242125987193694, 0.380055081742275, -0.903, -1.749, 1.539], a = 0.2, v = 0.2, t = 0.2)
movej(p[-0.480331755575959, -0.242210308065015, 0.381078115607127, -0.903, -1.749, 1.539], a = 0.2, v = 0.2, t = 0.2)
movej(p[-0.480374125648601, -0.242250573399126, 0.381566639975165, -0.903, -1.749, 1.539], a = 0.2, v = 0.2, t = 0.2)
movej(p[-0.48027839024268, -0.242159593661182, 0.380462816550741, -0.903, -1.749, 1.539], a = 0.2, v = 0.2, t = 0.2)
movej(p[-0.480167264599963, -0.242053988198333, 0.3791815446294, -0.903, -1.749, 1.539], a = 0.2, v = 0.2, t = 0.2)
movej(p[-0.480075298550819, -0.241966590573907, 0.378121181660014, -0.903, -1.749, 1.539], a = 0.2, v = 0.2, t = 0.2)
movej(p[-0.480005886080393, -0.241900626176423, 0.377320860085501, -0.903, -1.749, 1.539], a = 0.2, v = 0.2, t = 0.2)
movej(p[-0.479977952174989, -0.24187407989118, 0.376998783850242, -0.903, -1.749, 1.539], a = 0.2, v = 0.2, t = 0.2)
movej(p[-0.47996598720431, -0.24186270928188, 0.376860828463918, -0.903, -1.749, 1.539], a = 0.2, v = 0.2, t = 0.2)
movej(p[-0.479960231505996, -0.241857239498583, 0.376794465611413, -0.903, -1.749, 1.539], a = 0.2, v = 0.2, t = 0.2)
movej(p[-0.479948235254347, -0.241845839162199, 0.376656149557413, -0.903, -1.749, 1.539], a = 0.2, v = 0.2, t = 0.2)
movej(p[-0.47994968981941, -0.241847221471565, 0.376672920604378, -0.903, -1.749, 1.539], a = 0.2, v = 0.2, t = 0.2)
movej(p[-0.479949814943287, -0.241847340379898, 0.376674363275084, -0.903, -1.749, 1.539], a = 0.2, v = 0.2, t = 0.2)
movej(p[-0.47996980348254, -0.241866335986023, 0.376904829920471, -0.903, -1.749, 1.539], a = 0.2, v = 0.2, t = 0.2)
movej(p[-0.480022605758375, -0.24191651530236, 0.377513636958677, -0.903, -1.749, 1.539], a = 0.2, v = 0.2, t = 0.2)
movej(p[-0.480104687021285, -0.241994519168515, 0.378460028942238, -0.903, -1.749, 1.539], a = 0.2, v = 0.2, t = 0.2)
movej(p[-0.48018695597001, -0.242072701397169, 0.379408584931859, -0.903, -1.749, 1.539], a = 0.2, v = 0.2, t = 0.2)
movej(p[-0.480249001772213, -0.242131665066573, 0.380123969268517, -0.903, -1.749, 1.539], a = 0.2, v = 0.2, t = 0.2)
movej(p[-0.480311485507984, -0.242191044915142, 0.38084440295265, -0.903, -1.749, 1.539], a = 0.2, v = 0.2, t = 0.2)
movej(p[-0.480336166192602, -0.242214499583738, 0.381128969749536, -0.903, -1.749, 1.539], a = 0.2, v = 0.2, t = 0.2)
movej(p[-0.480239007502587, -0.242122167263511, 0.380008735945824, -0.903, -1.749, 1.539], a = 0.2, v = 0.2, t = 0.2)
movej(p[-0.480109582492949, -0.241999171457026, 0.378516473433635, -0.903, -1.749, 1.539], a = 0.2, v = 0.2, t = 0.2)
movej(p[-0.4800420155997, -0.241934960957448, 0.377737431252045, -0.903, -1.749, 1.539], a = 0.2, v = 0.2, t = 0.2)
movej(p[-0.480005260461011, -0.24190003163476, 0.377313646731968, -0.903, -1.749, 1.539], a = 0.2, v = 0.2, t = 0.2)
movej(p[-0.479978546513402, -0.24187464470576, 0.377005636536098, -0.903, -1.749, 1.539], a = 0.2, v = 0.2, t = 0.2)
movej(p[-0.479960184584542, -0.241857194907958, 0.376793924609898, -0.903, -1.749, 1.539], a = 0.2, v = 0.2, t = 0.2)
movej(p[-0.479956102418075, -0.241853315523608, 0.376746857478093, -0.903, -1.749, 1.539], a = 0.2, v = 0.2, t = 0.2)
movej(p[-0.479953865828785, -0.241851190037164, 0.376721069739212, -0.903, -1.749, 1.539], a = 0.2, v = 0.2, t = 0.2)
movej(p[-0.479943762075766, -0.24184158818931, 0.37660457407965, -0.903, -1.749, 1.539], a = 0.2, v = 0.2, t = 0.2)
movej(p[-0.479946999656068, -0.241844664942415, 0.376641903184185, -0.903, -1.749, 1.539], a = 0.2, v = 0.2, t = 0.2)
movej(p[-0.479980501573971, -0.241876502648456, 0.37702817826589, -0.903, -1.749, 1.539], a = 0.2, v = 0.2, t = 0.2)
movej(p[-0.480045472146785, -0.241938245800134, 0.377777285030316, -0.903, -1.749, 1.539], a = 0.2, v = 0.2, t = 0.2)
movej(p[-0.48010260683684, -0.241992542317486, 0.37843604454174, -0.903, -1.749, 1.539], a = 0.2, v = 0.2, t = 0.2)
movej(p[-0.480186345991112, -0.242072121719047, 0.379401551912164, -0.903, -1.749, 1.539], a = 0.2, v = 0.2, t = 0.2)
movej(p[-0.480256603047704, -0.242138888747776, 0.380211611513946, -0.903, -1.749, 1.539], a = 0.2, v = 0.2, t = 0.2)
movej(p[-0.480303946794432, -0.242183880688105, 0.380757482042574, -0.903, -1.749, 1.539], a = 0.2, v = 0.2, t = 0.2)
movej(p[-0.480330738944463, -0.242209341934813, 0.381066393907635, -0.903, -1.749, 1.539], a = 0.2, v = 0.2, t = 0.2)
movej(p[-0.480233814861717, -0.24211723256771, 0.379948865111498, -0.903, -1.749, 1.539], a = 0.2, v = 0.2, t = 0.2)
movej(p[-0.480126036282694, -0.242014807902757, 0.378706184631559, -0.903, -1.749, 1.539], a = 0.2, v = 0.2, t = 0.2)
movej(p[-0.480034226638395, -0.241927558913746, 0.377647625000556, -0.903, -1.749, 1.539], a = 0.2, v = 0.2, t = 0.2)
movej(p[-0.479997049206623, -0.241892228275436, 0.377218971466844, -0.903, -1.749, 1.539], a = 0.2, v = 0.2, t = 0.2)
movej(p[-0.479975262011647, -0.241871523362031, 0.376967766430049, -0.903, -1.749, 1.539], a = 0.2, v = 0.2, t = 0.2)
movej(p[-0.479960935327801, -0.241857908357953, 0.376802580634138, -0.903, -1.749, 1.539], a = 0.2, v = 0.2, t = 0.2)
movej(p[-0.479949486493111, -0.241847028245525, 0.376670576264479, -0.903, -1.749, 1.539], a = 0.2, v = 0.2, t = 0.2)
movej(p[-0.479950784653329, -0.241848261919475, 0.376685543973061, -0.903, -1.749, 1.539], a = 0.2, v = 0.2, t = 0.2)
movej(p[-0.479989870224215, -0.241885405909856, 0.37713619823505, -0.903, -1.749, 1.539], a = 0.2, v = 0.2, t = 0.2)
movej(p[-0.4800510245188, -0.241943522357391, 0.377841303542924, -0.903, -1.749, 1.539], a = 0.2, v = 0.2, t = 0.2)
movej(p[-0.480138798918085, -0.242026936552677, 0.378853337043637, -0.903, -1.749, 1.539], a = 0.2, v = 0.2, t = 0.2)
movej(p[-0.480227433544021, -0.242111168242749, 0.379875288905459, -0.903, -1.749, 1.539], a = 0.2, v = 0.2, t = 0.2)
movej(p[-0.480298222377087, -0.242178440631891, 0.380691479857745, -0.903, -1.749, 1.539], a = 0.2, v = 0.2, t = 0.2)
movej(p[-0.480328893367287, -0.242207588036908, 0.381045114514712, -0.903, -1.749, 1.539], a = 0.2, v = 0.2, t = 0.2)
movej(p[-0.480247328240367, -0.242130074667625, 0.380104673547816, -0.903, -1.749, 1.539], a = 0.2, v = 0.2, t = 0.2)
movej(p[-0.480131541733255, -0.242020039869389, 0.378769662142652, -0.903, -1.749, 1.539], a = 0.2, v = 0.2, t = 0.2)
movej(p[-0.480038105478563, -0.241931245072055, 0.377692347792463, -0.903, -1.749, 1.539], a = 0.2, v = 0.2, t = 0.2)
movej(p[-0.479995047224601, -0.241890325742115, 0.377195888735537, -0.903, -1.749, 1.539], a = 0.2, v = 0.2, t = 0.2)
movej(p[-0.479974182818213, -0.241870497777662, 0.376955323395204, -0.903, -1.749, 1.539], a = 0.2, v = 0.2, t = 0.2)
movej(p[-0.479963469086297, -0.241860316251687, 0.376831794715947, -0.903, -1.749, 1.539], a = 0.2, v = 0.2, t = 0.2)
movej(p[-0.479948767030822, -0.241846344522613, 0.376662280907916, -0.903, -1.749, 1.539], a = 0.2, v = 0.2, t = 0.2)
movej(p[-0.479948000647079, -0.241845616209076, 0.376653444549838, -0.903, -1.749, 1.539], a = 0.2, v = 0.2, t = 0.2)
movej(p[-0.479957682107015, -0.241854816741307, 0.376765071195765, -0.903, -1.749, 1.539], a = 0.2, v = 0.2, t = 0.2)
movej(p[-0.480002366971369, -0.24189728187957, 0.377280284971876, -0.903, -1.749, 1.539], a = 0.2, v = 0.2, t = 0.2)
movej(p[-0.480085464865775, -0.241976251875927, 0.378238398654929, -0.903, -1.749, 1.539], a = 0.2, v = 0.2, t = 0.2)
movej(p[-0.480179167008705, -0.242065299353467, 0.37931877868037, -0.903, -1.749, 1.539], a = 0.2, v = 0.2, t = 0.2)
movej(p[-0.480257025340787, -0.242139290063398, 0.380216480527581, -0.903, -1.749, 1.539], a = 0.2, v = 0.2, t = 0.2)
movej(p[-0.480310734764726, -0.242190331465146, 0.38083574692841, -0.903, -1.749, 1.539], a = 0.2, v = 0.2, t = 0.2)
movej(p[-0.480336525923746, -0.242214841445194, 0.381133117427818, -0.903, -1.749, 1.539], a = 0.2, v = 0.2, t = 0.2)
movej(p[-0.480239664402938, -0.242122791532256, 0.380016309967034, -0.903, -1.749, 1.539], a = 0.2, v = 0.2, t = 0.2)
movej(p[-0.480109785819248, -0.241999364683067, 0.378518817773533, -0.903, -1.749, 1.539], a = 0.2, v = 0.2, t = 0.2)
movej(p[-0.480030707529371, -0.241924214616893, 0.377607049886932, -0.903, -1.749, 1.539], a = 0.2, v = 0.2, t = 0.2)
movej(p[-0.479991340429763, -0.241886803082764, 0.377153149615853, -0.903, -1.749, 1.539], a = 0.2, v = 0.2, t = 0.2)
movej(p[-0.479969756561086, -0.241866291395398, 0.376904288918956, -0.903, -1.749, 1.539], a = 0.2, v = 0.2, t = 0.2)
movej(p[-0.479949846224256, -0.241847370106981, 0.376674723942761, -0.903, -1.749, 1.539], a = 0.2, v = 0.2, t = 0.2)
movej(p[-0.479948610625976, -0.241846195887197, 0.376660477569533, -0.903, -1.749, 1.539], a = 0.2, v = 0.2, t = 0.2)
movej(p[-0.479948235254347, -0.241845839162199, 0.376656149557413, -0.903, -1.749, 1.539], a = 0.2, v = 0.2, t = 0.2)
movej(p[-0.479946217631841, -0.241843921765337, 0.376632886492268, -0.903, -1.749, 1.539], a = 0.2, v = 0.2, t = 0.2)
movej(p[-0.47994016476432, -0.241838169574749, 0.376563097296834, -0.903, -1.749, 1.539], a = 0.2, v = 0.2, t = 0.2)
movej(p[-0.47997290029848, -0.241869278967254, 0.376940536020461, -0.903, -1.749, 1.539], a = 0.2, v = 0.2, t = 0.2)
movej(p[-0.480039169031512, -0.241932255792882, 0.377704610493469, -0.903, -1.749, 1.539], a = 0.2, v = 0.2, t = 0.2)
movej(p[-0.480095334011525, -0.241985630770657, 0.378352189306916, -0.903, -1.749, 1.539], a = 0.2, v = 0.2, t = 0.2)
movej(p[-0.480166310530406, -0.242053081522297, 0.379170544265262, -0.903, -1.749, 1.539], a = 0.2, v = 0.2, t = 0.2)
movej(p[-0.480242292004342, -0.24212528860724, 0.380046606051874, -0.903, -1.749, 1.539], a = 0.2, v = 0.2, t = 0.2)
movej(p[-0.480298316219994, -0.242178529813141, 0.380692561860775, -0.903, -1.749, 1.539], a = 0.2, v = 0.2, t = 0.2)
movej(p[-0.480284771560376, -0.242165657986142, 0.38053639275678, -0.903, -1.749, 1.539], a = 0.2, v = 0.2, t = 0.2)
movej(p[-0.480190443798064, -0.242076015966938, 0.379448799377806, -0.903, -1.749, 1.539], a = 0.2, v = 0.2, t = 0.2)
movej(p[-0.480091392609419, -0.241981885158181, 0.378306745179656, -0.903, -1.749, 1.539], a = 0.2, v = 0.2, t = 0.2)
movej(p[-0.480013628120244, -0.2419079836295, 0.377410125335475, -0.903, -1.749, 1.539], a = 0.2, v = 0.2, t = 0.2)
movej(p[-0.479983926840087, -0.24187975776406, 0.377067671376484, -0.903, -1.749, 1.539], a = 0.2, v = 0.2, t = 0.2)
movej(p[-0.479966112328186, -0.241862828190213, 0.376862271134625, -0.903, -1.749, 1.539], a = 0.2, v = 0.2, t = 0.2)
movej(p[-0.479957384937808, -0.241854534334017, 0.376761644852836, -0.903, -1.749, 1.539], a = 0.2, v = 0.2, t = 0.2)
movej(p[-0.479942401353611, -0.241840295061194, 0.376588885035715, -0.903, -1.749, 1.539], a = 0.2, v = 0.2, t = 0.2)
movej(p[-0.479941556767445, -0.241839492429949, 0.376579147008445, -0.903, -1.749, 1.539], a = 0.2, v = 0.2, t = 0.2)
movej(p[-0.479943011332508, -0.241840874739315, 0.37659591805541, -0.903, -1.749, 1.539], a = 0.2, v = 0.2, t = 0.2)
movej(p[-0.479944559740478, -0.24184234622993, 0.376613771105405, -0.903, -1.749, 1.539], a = 0.2, v = 0.2, t = 0.2)
movej(p[-0.480002585938153, -0.241897489969152, 0.377282809645613, -0.903, -1.749, 1.539], a = 0.2, v = 0.2, t = 0.2)
movej(p[-0.480069308245237, -0.241960897837486, 0.378052113799933, -0.903, -1.749, 1.539], a = 0.2, v = 0.2, t = 0.2)
movej(p[-0.480138970963415, -0.242027100051634, 0.378855320715859, -0.903, -1.749, 1.539], a = 0.2, v = 0.2, t = 0.2)
movej(p[-0.480194353919201, -0.242079731852331, 0.379493882837389, -0.903, -1.749, 1.539], a = 0.2, v = 0.2, t = 0.2)
movej(p[-0.480262562072317, -0.242144551757114, 0.38028031870635, -0.903, -1.749, 1.539], a = 0.2, v = 0.2, t = 0.2)
movej(p[-0.480311579350892, -0.242191134096391, 0.38084548495568, -0.903, -1.749, 1.539], a = 0.2, v = 0.2, t = 0.2)
movej(p[-0.480228778625692, -0.242112446507324, 0.379890797615556, -0.903, -1.749, 1.539], a = 0.2, v = 0.2, t = 0.2)
movej(p[-0.480126005001725, -0.242014778175674, 0.378705823963883, -0.903, -1.749, 1.539], a = 0.2, v = 0.2, t = 0.2)
movej(p[-0.48005222883611, -0.241944666850092, 0.377855189248475, -0.903, -1.749, 1.539], a = 0.2, v = 0.2, t = 0.2)
movej(p[-0.480003946660309, -0.241898783097268, 0.377298498689548, -0.903, -1.749, 1.539], a = 0.2, v = 0.2, t = 0.2)
movej(p[-0.479966002844794, -0.241862724145422, 0.376861008797757, -0.903, -1.749, 1.539], a = 0.2, v = 0.2, t = 0.2)
movej(p[-0.479956258822921, -0.241853464159024, 0.376748660816477, -0.903, -1.749, 1.539], a = 0.2, v = 0.2, t = 0.2)
movej(p[-0.479951910768216, -0.241849332094468, 0.376698528009421, -0.903, -1.749, 1.539], a = 0.2, v = 0.2, t = 0.2)
movej(p[-0.479946123788933, -0.241843832584087, 0.376631804489238, -0.903, -1.749, 1.539], a = 0.2, v = 0.2, t = 0.2)
movej(p[-0.47996182683542, -0.241858755579823, 0.376812859662922, -0.903, -1.749, 1.539], a = 0.2, v = 0.2, t = 0.2)
movej(p[-0.480030957777124, -0.241924452433558, 0.377609935228345, -0.903, -1.749, 1.539], a = 0.2, v = 0.2, t = 0.2)
movej(p[-0.480102168903273, -0.241992126138322, 0.378430995194266, -0.903, -1.749, 1.539], a = 0.2, v = 0.2, t = 0.2)
movej(p[-0.480165997720715, -0.242052784251466, 0.379166937588495, -0.903, -1.749, 1.539], a = 0.2, v = 0.2, t = 0.2)
movej(p[-0.480251926542824, -0.242134444548847, 0.380157691696285, -0.903, -1.749, 1.539], a = 0.2, v = 0.2, t = 0.2)
movej(p[-0.480328643119534, -0.242207350220243, 0.381042229173299, -0.903, -1.749, 1.539], a = 0.2, v = 0.2, t = 0.2)
movej(p[-0.48034695812694, -0.242224755427421, 0.381253400097984, -0.903, -1.749, 1.539], a = 0.2, v = 0.2, t = 0.2)
movej(p[-0.480227324060629, -0.242111064197958, 0.379874026568591, -0.903, -1.749, 1.539], a = 0.2, v = 0.2, t = 0.2)
movej(p[-0.480129336424933, -0.242017944110028, 0.378744235071447, -0.903, -1.749, 1.539], a = 0.2, v = 0.2, t = 0.2)
movej(p[-0.480049006896293, -0.241941604960529, 0.377818040477779, -0.903, -1.749, 1.539], a = 0.2, v = 0.2, t = 0.2)
movej(p[-0.479988525142544, -0.241884127645281, 0.377120689524953, -0.903, -1.749, 1.539], a = 0.2, v = 0.2, t = 0.2)
movej(p[-0.479965736956557, -0.241862471465215, 0.376857943122505, -0.903, -1.749, 1.539], a = 0.2, v = 0.2, t = 0.2)
movej(p[-0.47995488246028, -0.241852156167366, 0.376732791438703, -0.903, -1.749, 1.539], a = 0.2, v = 0.2, t = 0.2)
movej(p[-0.479950237236369, -0.24184774169552, 0.376679232288719, -0.903, -1.749, 1.539], a = 0.2, v = 0.2, t = 0.2)
movej(p[-0.479937474600978, -0.2418356130456, 0.376532079876641, -0.903, -1.749, 1.539], a = 0.2, v = 0.2, t = 0.2)
movej(p[-0.479937787410669, -0.241835910316431, 0.376535686553408, -0.903, -1.749, 1.539], a = 0.2, v = 0.2, t = 0.2)
movej(p[-0.479951629239494, -0.24184906455072, 0.376695282000331, -0.903, -1.749, 1.539], a = 0.2, v = 0.2, t = 0.2)
movej(p[-0.479997674826005, -0.241892822817099, 0.377226184820377, -0.903, -1.749, 1.539], a = 0.2, v = 0.2, t = 0.2)
movej(p[-0.48006694653207, -0.241958653442709, 0.378024883390345, -0.903, -1.749, 1.539], a = 0.2, v = 0.2, t = 0.2)
movej(p[-0.480155393472191, -0.242042706770282, 0.379044671246107, -0.903, -1.749, 1.539], a = 0.2, v = 0.2, t = 0.2)
movej(p[-0.480236598867966, -0.242119878278109, 0.379980964534721, -0.903, -1.749, 1.539], a = 0.2, v = 0.2, t = 0.2)
movej(p[-0.480298941839376, -0.242179124354803, 0.380699775214308, -0.903, -1.749, 1.539], a = 0.2, v = 0.2, t = 0.2)
movej(p[-0.48035545091005, -0.242232826330493, 0.381351321372198, -0.903, -1.749, 1.539], a = 0.2, v = 0.2, t = 0.2)
movej(p[-0.480289713953493, -0.242170354865278, 0.380593378249693, -0.903, -1.749, 1.539], a = 0.2, v = 0.2, t = 0.2)
movej(p[-0.480153547895014, -0.242040952872377, 0.379023391853184, -0.903, -1.749, 1.539], a = 0.2, v = 0.2, t = 0.2)
movej(p[-0.480045159337094, -0.241937948529303, 0.37777367835355, -0.903, -1.749, 1.539], a = 0.2, v = 0.2, t = 0.2)
movej(p[-0.47999628282288, -0.241891499961899, 0.377210135108766, -0.903, -1.749, 1.539], a = 0.2, v = 0.2, t = 0.2)
movej(p[-0.479971477014386, -0.241867926384971, 0.376924125641173, -0.903, -1.749, 1.539], a = 0.2, v = 0.2, t = 0.2)
movej(p[-0.479948454221131, -0.241846047251781, 0.376658674231149, -0.903, -1.749, 1.539], a = 0.2, v = 0.2, t = 0.2)
movej(p[-0.479944278211757, -0.241842078686182, 0.376610525096315, -0.903, -1.749, 1.539], a = 0.2, v = 0.2, t = 0.2)
movej(p[-0.479946311474748, -0.241844010946586, 0.376633968495298, -0.903, -1.749, 1.539], a = 0.2, v = 0.2, t = 0.2)
movej(p[-0.479992794994826, -0.24188818539213, 0.377169920662818, -0.903, -1.749, 1.539], a = 0.2, v = 0.2, t = 0.2)
movej(p[-0.480056936621959, -0.241949140776104, 0.377909469733813, -0.903, -1.749, 1.539], a = 0.2, v = 0.2, t = 0.2)
movej(p[-0.48014503947142, -0.242032867105763, 0.378925290245132, -0.903, -1.749, 1.539], a = 0.2, v = 0.2, t = 0.2)
movej(p[-0.480237099363472, -0.242120353911439, 0.379986735217548, -0.903, -1.749, 1.539], a = 0.2, v = 0.2, t = 0.2)
movej(p[-0.480302898881967, -0.24218288483082, 0.380745399675406, -0.903, -1.749, 1.539], a = 0.2, v = 0.2, t = 0.2)
movej(p[-0.480360455865105, -0.242237582663795, 0.381409028200464, -0.903, -1.749, 1.539], a = 0.2, v = 0.2, t = 0.2)
movej(p[-0.480314707447801, -0.242194106804705, 0.380881551723346, -0.903, -1.749, 1.539], a = 0.2, v = 0.2, t = 0.2)
movej(p[-0.480192696027839, -0.242078156316924, 0.379474767450526, -0.903, -1.749, 1.539], a = 0.2, v = 0.2, t = 0.2)
movej(p[-0.480070575124485, -0.241962101784353, 0.378066720840838, -0.903, -1.749, 1.539], a = 0.2, v = 0.2, t = 0.2)
movej(p[-0.480012658410202, -0.241907062089922, 0.377398944637498, -0.903, -1.749, 1.539], a = 0.2, v = 0.2, t = 0.2)
movej(p[-0.479978390108557, -0.241874496070344, 0.377003833197715, -0.903, -1.749, 1.539], a = 0.2, v = 0.2, t = 0.2)
movej(p[-0.479958339007366, -0.241855441010053, 0.376772645216975, -0.903, -1.749, 1.539], a = 0.2, v = 0.2, t = 0.2)
movej(p[-0.479944106166427, -0.241841915187225, 0.376608541424093, -0.903, -1.749, 1.539], a = 0.2, v = 0.2, t = 0.2)
movej(p[-0.479943511828014, -0.241841350372645, 0.376601688738237, -0.903, -1.749, 1.539], a = 0.2, v = 0.2, t = 0.2)
movej(p[-0.479963062433699, -0.241859929799607, 0.376827106036151, -0.903, -1.749, 1.539], a = 0.2, v = 0.2, t = 0.2)
movej(p[-0.480024310571191, -0.241918135428391, 0.377533293347055, -0.903, -1.749, 1.539], a = 0.2, v = 0.2, t = 0.2)
movej(p[-0.480118794738348, -0.24200792608301, 0.378622690064412, -0.903, -1.749, 1.539], a = 0.2, v = 0.2, t = 0.2)
movej(p[-0.480212590724185, -0.2420970627418, 0.379704152092883, -0.903, -1.749, 1.539], a = 0.2, v = 0.2, t = 0.2)
movej(p[-0.480290918270803, -0.242171499357978, 0.380607263955245, -0.903, -1.749, 1.539], a = 0.2, v = 0.2, t = 0.2)
movej(p[-0.480353026634945, -0.242230522481549, 0.381323369627257, -0.903, -1.749, 1.539], a = 0.2, v = 0.2, t = 0.2)
movej(p[-0.480352979713491, -0.242230477890925, 0.381322828625742, -0.903, -1.749, 1.539], a = 0.2, v = 0.2, t = 0.2)
movej(p[-0.480235832484224, -0.242119149964572, 0.379972128176643, -0.903, -1.749, 1.539], a = 0.2, v = 0.2, t = 0.2)
movej(p[-0.480109128918897, -0.241998740414321, 0.378511243752324, -0.903, -1.749, 1.539], a = 0.2, v = 0.2, t = 0.2)
movej(p[-0.480034602010024, -0.241927915638744, 0.377651953012676, -0.903, -1.749, 1.539], a = 0.2, v = 0.2, t = 0.2)
movej(p[-0.479987571072987, -0.241883220969245, 0.377109689160815, -0.903, -1.749, 1.539], a = 0.2, v = 0.2, t = 0.2)
movej(p[-0.479965877720918, -0.241862605237089, 0.37685956612705, -0.903, -1.749, 1.539], a = 0.2, v = 0.2, t = 0.2)
movej(p[-0.479944137447396, -0.241841944914308, 0.37660890209177, -0.903, -1.749, 1.539], a = 0.2, v = 0.2, t = 0.2)
movej(p[-0.479941290879208, -0.241839239749742, 0.376576081333194, -0.903, -1.749, 1.539], a = 0.2, v = 0.2, t = 0.2)
movej(p[-0.47994071218128, -0.241838689798704, 0.376569408981176, -0.903, -1.749, 1.539], a = 0.2, v = 0.2, t = 0.2)
movej(p[-0.479933236029665, -0.241831585025834, 0.376483209406453, -0.903, -1.749, 1.539], a = 0.2, v = 0.2, t = 0.2)
movej(p[-0.479966909992898, -0.241863586230833, 0.37687146816038, -0.903, -1.749, 1.539], a = 0.2, v = 0.2, t = 0.2)
movej(p[-0.48003682295883, -0.241930026261647, 0.377677560417719, -0.903, -1.749, 1.539], a = 0.2, v = 0.2, t = 0.2)
movej(p[-0.480110286314753, -0.241999840316397, 0.37852458845636, -0.903, -1.749, 1.539], a = 0.2, v = 0.2, t = 0.2)
movej(p[-0.480175710461619, -0.24206201451078, 0.379278924902099, -0.903, -1.749, 1.539], a = 0.2, v = 0.2, t = 0.2)
movej(p[-0.480263391017998, -0.242145339524817, 0.380289876399782, -0.903, -1.749, 1.539], a = 0.2, v = 0.2, t = 0.2)
movej(p[-0.480334164210579, -0.242212597050417, 0.38110588701823, -0.903, -1.749, 1.539], a = 0.2, v = 0.2, t = 0.2)
movej(p[-0.480318508085546, -0.242197718645306, 0.38092537284606, -0.903, -1.749, 1.539], a = 0.2, v = 0.2, t = 0.2)
movej(p[-0.480232751308768, -0.242116221846883, 0.379936602410492, -0.903, -1.749, 1.539], a = 0.2, v = 0.2, t = 0.2)
movej(p[-0.48013761024126, -0.242025806923518, 0.378839631671924, -0.903, -1.749, 1.539], a = 0.2, v = 0.2, t = 0.2)
movej(p[-0.480054559268307, -0.241946881517786, 0.377882058990387, -0.903, -1.749, 1.539], a = 0.2, v = 0.2, t = 0.2)
movej(p[-0.479990433281659, -0.241885940997353, 0.37714269025323, -0.903, -1.749, 1.539], a = 0.2, v = 0.2, t = 0.2)
movej(p[-0.479970131932715, -0.241866648120396, 0.376908616931076, -0.903, -1.749, 1.539], a = 0.2, v = 0.2, t = 0.2)
movej(p[-0.479957338016354, -0.241854489743392, 0.376761103851321, -0.903, -1.749, 1.539], a = 0.2, v = 0.2, t = 0.2)
movej(p[-0.479947234263336, -0.241844887895539, 0.37664460819176, -0.903, -1.749, 1.539], a = 0.2, v = 0.2, t = 0.2)
movej(p[-0.479937224353225, -0.241835375228935, 0.376529194535228, -0.903, -1.749, 1.539], a = 0.2, v = 0.2, t = 0.2)
movej(p[-0.479937396398555, -0.241835538727892, 0.376531178207449, -0.903, -1.749, 1.539], a = 0.2, v = 0.2, t = 0.2)
movej(p[-0.479964438796339, -0.241861237791265, 0.376842975413924, -0.903, -1.749, 1.539], a = 0.2, v = 0.2, t = 0.2)
movej(p[-0.480015598821297, -0.241909856435737, 0.377432847399104, -0.903, -1.749, 1.539], a = 0.2, v = 0.2, t = 0.2)
movej(p[-0.480092956657874, -0.241983371512338, 0.378324778563489, -0.903, -1.749, 1.539], a = 0.2, v = 0.2, t = 0.2)
movej(p[-0.480178228579632, -0.242064407540973, 0.37930795865007, -0.903, -1.749, 1.539], a = 0.2, v = 0.2, t = 0.2)
movej(p[-0.480248360512347, -0.242131055661369, 0.380116575581146, -0.903, -1.749, 1.539], a = 0.2, v = 0.2, t = 0.2)
movej(p[-0.480302429667431, -0.242182438924573, 0.380739989660256, -0.903, -1.749, 1.539], a = 0.2, v = 0.2, t = 0.2)
movej(p[-0.480321198248889, -0.242200275174456, 0.380956390266253, -0.903, -1.749, 1.539], a = 0.2, v = 0.2, t = 0.2)
movej(p[-0.480234362278676, -0.242117752791664, 0.37995517679584, -0.903, -1.749, 1.539], a = 0.2, v = 0.2, t = 0.2)
movej(p[-0.480106125945864, -0.241995886614339, 0.378476619655364, -0.903, -1.749, 1.539], a = 0.2, v = 0.2, t = 0.2)
movej(p[-0.480036744756407, -0.241929951943939, 0.377676658748528, -0.903, -1.749, 1.539], a = 0.2, v = 0.2, t = 0.2)
movej(p[-0.479993186006939, -0.241888556980669, 0.377174429008776, -0.903, -1.749, 1.539], a = 0.2, v = 0.2, t = 0.2)
movej(p[-0.479967989186332, -0.241864611815201, 0.376883911195225, -0.903, -1.749, 1.539], a = 0.2, v = 0.2, t = 0.2)
movej(p[-0.479943793356736, -0.241841617916394, 0.376604934747327, -0.903, -1.749, 1.539], a = 0.2, v = 0.2, t = 0.2)
movej(p[-0.479940086561898, -0.241838095257042, 0.376562195627642, -0.903, -1.749, 1.539], a = 0.2, v = 0.2, t = 0.2)
movej(p[-0.479939554785423, -0.241837589896628, 0.376556064277139, -0.903, -1.749, 1.539], a = 0.2, v = 0.2, t = 0.2)
movej(p[-0.479933454996449, -0.241831793115416, 0.37648573408019, -0.903, -1.749, 1.539], a = 0.2, v = 0.2, t = 0.2)
movej(p[-0.479972759534119, -0.24186914519538, 0.376938913015916, -0.903, -1.749, 1.539], a = 0.2, v = 0.2, t = 0.2)
movej(p[-0.480052291398048, -0.241944726304258, 0.377855910583829, -0.903, -1.749, 1.539], a = 0.2, v = 0.2, t = 0.2)
movej(p[-0.480139612223282, -0.242027709456839, 0.378862714403231, -0.903, -1.749, 1.539], a = 0.2, v = 0.2, t = 0.2)
movej(p[-0.480227245858206, -0.242110989880251, 0.379873124899399, -0.903, -1.749, 1.539], a = 0.2, v = 0.2, t = 0.2)
movej(p[-0.48032099492259, -0.242200081948416, 0.380954045926355, -0.903, -1.749, 1.539], a = 0.2, v = 0.2, t = 0.2)
movej(p[-0.480387607746281, -0.242263385771959, 0.381722087743807, -0.903, -1.749, 1.539], a = 0.2, v = 0.2, t = 0.2)
movej(p[-0.480340889618935, -0.242218988373292, 0.381183430568712, -0.903, -1.749, 1.539], a = 0.2, v = 0.2, t = 0.2)
movej(p[-0.480199984493639, -0.242085082727296, 0.379558803019188, -0.903, -1.749, 1.539], a = 0.2, v = 0.2, t = 0.2)
movej(p[-0.480086606621147, -0.241977336914461, 0.378251563025127, -0.903, -1.749, 1.539], a = 0.2, v = 0.2, t = 0.2)
movej(p[-0.48001828898464, -0.241912412964887, 0.377463864819297, -0.903, -1.749, 1.539], a = 0.2, v = 0.2, t = 0.2)
movej(p[-0.47996529902299, -0.241862055286051, 0.376852893775032, -0.903, -1.749, 1.539], a = 0.2, v = 0.2, t = 0.2)
movej(p[-0.479953646862001, -0.241850981947582, 0.376718545065475, -0.903, -1.749, 1.539], a = 0.2, v = 0.2, t = 0.2)
movej(p[-0.479946374036686, -0.241844070400752, 0.376634689830651, -0.903, -1.749, 1.539], a = 0.2, v = 0.2, t = 0.2)
movej(p[-0.479939601706877, -0.241837634487253, 0.376556605278654, -0.903, -1.749, 1.539], a = 0.2, v = 0.2, t = 0.2)
movej(p[-0.479931656340726, -0.241830083808136, 0.376464995688782, -0.903, -1.749, 1.539], a = 0.2, v = 0.2, t = 0.2)
movej(p[-0.479960028179697, -0.241857046272542, 0.376792121271514, -0.903, -1.749, 1.539], a = 0.2, v = 0.2, t = 0.2)
movej(p[-0.480034867898261, -0.24192816831895, 0.377655018687928, -0.903, -1.749, 1.539], a = 0.2, v = 0.2, t = 0.2)
movej(p[-0.480106923610576, -0.241996644654959, 0.378485816681119, -0.903, -1.749, 1.539], a = 0.2, v = 0.2, t = 0.2)
movej(p[-0.480204645358034, -0.242089512062683, 0.379612542503011, -0.903, -1.749, 1.539], a = 0.2, v = 0.2, t = 0.2)
movej(p[-0.480299802066027, -0.24217994184959, 0.380709693575417, -0.903, -1.749, 1.539], a = 0.2, v = 0.2, t = 0.2)
movej(p[-0.480354794009699, -0.242232202061747, 0.381343747350988, -0.903, -1.749, 1.539], a = 0.2, v = 0.2, t = 0.2)
movej(p[-0.480353151758821, -0.242230641389882, 0.381324812297964, -0.903, -1.749, 1.539], a = 0.2, v = 0.2, t = 0.2)
movej(p[-0.480255461292332, -0.242137803709241, 0.380198447143748, -0.903, -1.749, 1.539], a = 0.2, v = 0.2, t = 0.2)
movej(p[-0.480133856524968, -0.242022239673541, 0.378796351550725, -0.903, -1.749, 1.539], a = 0.2, v = 0.2, t = 0.2)
movej(p[-0.480032944118662, -0.241926340103337, 0.377632837625813, -0.903, -1.749, 1.539], a = 0.2, v = 0.2, t = 0.2)
movej(p[-0.47998919768338, -0.241884766777569, 0.377128443880002, -0.903, -1.749, 1.539], a = 0.2, v = 0.2, t = 0.2)
movej(p[-0.479967457409857, -0.241864106454788, 0.376877779844722, -0.903, -1.749, 1.539], a = 0.2, v = 0.2, t = 0.2)
movej(p[-0.479951175665442, -0.241848633508014, 0.376690052319019, -0.903, -1.749, 1.539], a = 0.2, v = 0.2, t = 0.2)
movej(p[-0.479937662286793, -0.241835791408098, 0.376534243882701, -0.903, -1.749, 1.539], a = 0.2, v = 0.2, t = 0.2)
movej(p[-0.479937693567762, -0.241835821135182, 0.376534604550378, -0.903, -1.749, 1.539], a = 0.2, v = 0.2, t = 0.2)
movej(p[-0.479967566893249, -0.241864210499579, 0.37687904218159, -0.903, -1.749, 1.539], a = 0.2, v = 0.2, t = 0.2)
movej(p[-0.480027704556338, -0.241921360816912, 0.377572425789972, -0.903, -1.749, 1.539], a = 0.2, v = 0.2, t = 0.2)
movej(p[-0.48012616140657, -0.242014926811089, 0.378707627302266, -0.903, -1.749, 1.539], a = 0.2, v = 0.2, t = 0.2)
movej(p[-0.480227324060629, -0.242111064197958, 0.379874026568591, -0.903, -1.749, 1.539], a = 0.2, v = 0.2, t = 0.2)
movej(p[-0.480307262577156, -0.242187031758918, 0.3807957128163, -0.903, -1.749, 1.539], a = 0.2, v = 0.2, t = 0.2)
movej(p[-0.480371153956536, -0.242247749326228, 0.381532376545882, -0.903, -1.749, 1.539], a = 0.2, v = 0.2, t = 0.2)
movej(p[-0.480367603566544, -0.242244375302292, 0.381491440764581, -0.903, -1.749, 1.539], a = 0.2, v = 0.2, t = 0.2)
movej(p[-0.480249736874987, -0.242132363653027, 0.380132444958919, -0.903, -1.749, 1.539], a = 0.2, v = 0.2, t = 0.2)
movej(p[-0.480112006768054, -0.242001475305969, 0.378544425178576, -0.903, -1.749, 1.539], a = 0.2, v = 0.2, t = 0.2)
movej(p[-0.480041827913885, -0.241934782594949, 0.377735267245985, -0.903, -1.749, 1.539], a = 0.2, v = 0.2, t = 0.2)
movej(p[-0.479994765695879, -0.241890058198367, 0.377192642726447, -0.903, -1.749, 1.539], a = 0.2, v = 0.2, t = 0.2)
movej(p[-0.479967050757259, -0.241863720002707, 0.376873091164925, -0.903, -1.749, 1.539], a = 0.2, v = 0.2, t = 0.2)
movej(p[-0.479943793356736, -0.241841617916394, 0.376604934747327, -0.903, -1.749, 1.539], a = 0.2, v = 0.2, t = 0.2)
movej(p[-0.479940618338372, -0.241838600617455, 0.376568326978146, -0.903, -1.749, 1.539], a = 0.2, v = 0.2, t = 0.2)
movej(p[-0.479939601706877, -0.241837634487253, 0.376556605278654, -0.903, -1.749, 1.539], a = 0.2, v = 0.2, t = 0.2)
movej(p[-0.479956305744374, -0.241853508749649, 0.376749201817992, -0.903, -1.749, 1.539], a = 0.2, v = 0.2, t = 0.2)
movej(p[-0.480042844545381, -0.241935748725151, 0.377746988945477, -0.903, -1.749, 1.539], a = 0.2, v = 0.2, t = 0.2)
movej(p[-0.480144617178337, -0.242032465790141, 0.378920421231497, -0.903, -1.749, 1.539], a = 0.2, v = 0.2, t = 0.2)
movej(p[-0.480237099363472, -0.242120353911439, 0.379986735217548, -0.903, -1.749, 1.539], a = 0.2, v = 0.2, t = 0.2)
movej(p[-0.480311954722521, -0.242191490821389, 0.3808498129678, -0.903, -1.749, 1.539], a = 0.2, v = 0.2, t = 0.2)
movej(p[-0.480390172785747, -0.242265823392776, 0.381751662493293, -0.903, -1.749, 1.539], a = 0.2, v = 0.2, t = 0.2)
movej(p[-0.480383275332061, -0.242259268570944, 0.381672135270589, -0.903, -1.749, 1.539], a = 0.2, v = 0.2, t = 0.2)
movej(p[-0.480259559099284, -0.242141697957132, 0.380245694609391, -0.903, -1.749, 1.539], a = 0.2, v = 0.2, t = 0.2)
movej(p[-0.480140472449932, -0.242028526951625, 0.378872632764339, -0.903, -1.749, 1.539], a = 0.2, v = 0.2, t = 0.2)
movej(p[-0.480053620839235, -0.241945989705292, 0.377871238960087, -0.903, -1.749, 1.539], a = 0.2, v = 0.2, t = 0.2)
movej(p[-0.479999770650934, -0.241894814531669, 0.377250349554713, -0.903, -1.749, 1.539], a = 0.2, v = 0.2, t = 0.2)
movej(p[-0.479958995907717, -0.241856065278799, 0.376780219238185, -0.903, -1.749, 1.539], a = 0.2, v = 0.2, t = 0.2)
movej(p[-0.479946389677171, -0.241844085264294, 0.37663487016449, -0.903, -1.749, 1.539], a = 0.2, v = 0.2, t = 0.2)
movej(p[-0.479941337800661, -0.241839284340367, 0.376576622334709, -0.903, -1.749, 1.539], a = 0.2, v = 0.2, t = 0.2)
movej(p[-0.479933501917903, -0.241831837706041, 0.376486275081705, -0.903, -1.749, 1.539], a = 0.2, v = 0.2, t = 0.2)
movej(p[-0.479939257616217, -0.241837307489338, 0.376552637934211, -0.903, -1.749, 1.539], a = 0.2, v = 0.2, t = 0.2)
movej(p[-0.479989932786153, -0.241885465364022, 0.377136919570403, -0.903, -1.749, 1.539], a = 0.2, v = 0.2, t = 0.2)
movej(p[-0.48007509522452, -0.241966397347866, 0.378118837320115, -0.903, -1.749, 1.539], a = 0.2, v = 0.2, t = 0.2)
movej(p[-0.480154955538624, -0.242042290591118, 0.379039621898633, -0.903, -1.749, 1.539], a = 0.2, v = 0.2, t = 0.2)
movej(p[-0.480253099579165, -0.242135559314464, 0.38017121673416, -0.903, -1.749, 1.539], a = 0.2, v = 0.2, t = 0.2)
movej(p[-0.480337980488809, -0.24221622375456, 0.381149888474782, -0.903, -1.749, 1.539], a = 0.2, v = 0.2, t = 0.2)
movej(p[-0.480372029823671, -0.242248581684556, 0.381542475240829, -0.903, -1.749, 1.539], a = 0.2, v = 0.2, t = 0.2)
movej(p[-0.480293186141063, -0.242173654571506, 0.380633412361803, -0.903, -1.749, 1.539], a = 0.2, v = 0.2, t = 0.2)
movej(p[-0.480177227588621, -0.242063456274313, 0.379296417284417, -0.903, -1.749, 1.539], a = 0.2, v = 0.2, t = 0.2)
movej(p[-0.480077926152223, -0.24196908764889, 0.378151477744853, -0.903, -1.749, 1.539], a = 0.2, v = 0.2, t = 0.2)
movej(p[-0.47999923887446, -0.241894309171256, 0.37724421820421, -0.903, -1.749, 1.539], a = 0.2, v = 0.2, t = 0.2)
movej(p[-0.479971430092933, -0.241867881794346, 0.376923584639658, -0.903, -1.749, 1.539], a = 0.2, v = 0.2, t = 0.2)
movej(p[-0.479954116076537, -0.241851427853829, 0.376723955080625, -0.903, -1.749, 1.539], a = 0.2, v = 0.2, t = 0.2)
movej(p[-0.479945498169551, -0.241843238042425, 0.376624591135705, -0.903, -1.749, 1.539], a = 0.2, v = 0.2, t = 0.2)
movej(p[-0.479931499935881, -0.24182993517272, 0.376463192350399, -0.903, -1.749, 1.539], a = 0.2, v = 0.2, t = 0.2)
