def moving():
set_payload_mass(0.606)
set_tcp(p[0.0001,-0.0009,0.0582,0,0,0])
movej(p[0.4763, -0.0211, 0.2251, -1.21, 1.207, -1.216], a = 0.2, v = 0.2, t = 0.2)
movej(p[0.476399503559594, -0.0211997494971276, 0.225200742639686, -1.2082623738881, 1.20525469812697, -1.21424848537015], a = 0.2, v = 0.2, t = 0.2)
movej(p[0.4763, -0.0211, 0.2251, -1.21, 1.207, -1.216], a = 0.2, v = 0.2, t = 0.2)
movej(p[0.476399503559594, -0.0211997494971276, 0.225200742639686, -1.2082623738881, 1.20525469812697, -1.21424848537015], a = 0.2, v = 0.2, t = 0.2)
movej(p[0.4763, -0.0211, 0.2251, -1.21, 1.207, -1.216], a = 0.2, v = 0.2, t = 0.2)
movej(p[0.476399503559594, -0.0211997494971276, 0.225200742639686, -1.2082623738881, 1.20525469812697, -1.21424848537015], a = 0.2, v = 0.2, t = 0.2)
movej(p[0.4763, -0.0211, 0.2251, -1.21, 1.207, -1.216], a = 0.2, v = 0.2, t = 0.2)
movej(p[0.476434040677197, -0.0211261724629763, 0.225096344998174, -1.20995839352301, 1.20661083791721, -1.21652122707806], a = 0.2, v = 0.2, t = 0.2)
movej(p[0.476568181353777, -0.0211523451883882, 0.225092690229889, -1.20991894871437, 1.20622151398768, -1.21704019215533], a = 0.2, v = 0.2, t = 0.2)
movej(p[0.476702221767348, -0.021178617649713, 0.225089035738738, -1.2098774376054, 1.20583200963009, -1.21756111166928], a = 0.2, v = 0.2, t = 0.2)
movej(p[0.476577206848291, -0.0211303795286007, 0.225149299771831, -1.20711053239359, 1.20383379282278, -1.21842450368281], a = 0.2, v = 0.2, t = 0.2)
movej(p[0.475825342770883, -0.0208290144093839, 0.225556219535449, -1.20787641016842, 1.21510026441848, -1.21110405090482], a = 0.2, v = 0.2, t = 0.2)
movej(p[0.475997625284337, -0.0208622003508215, 0.225569689459301, -1.2088375725229, 1.21513210417579, -1.21113360779558], a = 0.2, v = 0.2, t = 0.2)
movej(p[0.476196638440477, -0.0209252137295472, 0.225493772545608, -1.20905113504143, 1.21252369263901, -1.21260932243152], a = 0.2, v = 0.2, t = 0.2)
movej(p[0.47619369679183, -0.0209412445320562, 0.225407946325406, -1.20689220304446, 1.20911631091438, -1.21469545810237], a = 0.2, v = 0.2, t = 0.2)
movej(p[0.476190277316151, -0.0209325241252524, 0.225468894760096, -1.2052238500129, 1.20695489853304, -1.21597734217198], a = 0.2, v = 0.2, t = 0.2)
movej(p[0.476479470059482, -0.0210425747515726, 0.225177824344473, -1.20582015557178, 1.20289483189323, -1.21866029607792], a = 0.2, v = 0.2, t = 0.2)
movej(p[0.477139992861363, -0.0212346691971796, 0.22516804006312, -1.20704240527066, 1.20017901988825, -1.22118310958354], a = 0.2, v = 0.2, t = 0.2)
movej(p[0.477292611546758, -0.0212707432863121, 0.225291180823885, -1.20682812419374, 1.20426044278088, -1.2193563149614], a = 0.2, v = 0.2, t = 0.2)
movej(p[0.477308513073104, -0.0212779484613606, 0.225239653773587, -1.20724737148515, 1.20144511452537, -1.22110717309398], a = 0.2, v = 0.2, t = 0.2)
movej(p[0.477307666430708, -0.0212792517506363, 0.225258158763014, -1.20652357944481, 1.19965123258324, -1.22265860347957], a = 0.2, v = 0.2, t = 0.2)
movej(p[0.47756518952116, -0.0213684724698144, 0.225191511848956, -1.20473393409049, 1.20179892361579, -1.22159477638323], a = 0.2, v = 0.2, t = 0.2)
movej(p[0.477640358077273, -0.0214049360518559, 0.225335475092031, -1.20582249684848, 1.20080705999134, -1.22293700998011], a = 0.2, v = 0.2, t = 0.2)
movej(p[0.477631015732509, -0.0214057422608441, 0.225309857117455, -1.20518005216953, 1.19859478285444, -1.22479153020809], a = 0.2, v = 0.2, t = 0.2)
movej(p[0.477579631553301, -0.021387235579623, 0.225323743401235, -1.20486611590179, 1.20103200633728, -1.22308721159152], a = 0.2, v = 0.2, t = 0.2)
movej(p[0.47700430329539, -0.0212020993676542, 0.225542364371562, -1.2070181059819, 1.20673840519342, -1.21693615217165], a = 0.2, v = 0.2, t = 0.2)
movej(p[0.47535283572173, -0.0206644446234245, 0.226128289980455, -1.21052833812239, 1.21699644410795, -1.2054252255153], a = 0.2, v = 0.2, t = 0.2)
movej(p[0.473801792508762, -0.0201069228573674, 0.226426642660819, -1.2053977220176, 1.22699019739563, -1.19551717803966], a = 0.2, v = 0.2, t = 0.2)
movej(p[0.471766599988129, -0.0195049248517337, 0.227351453633488, -1.20011341777882, 1.23290501610262, -1.19095325402313], a = 0.2, v = 0.2, t = 0.2)
movej(p[0.467541177330599, -0.018050289482431, 0.228599224609113, -1.18752579826671, 1.25442291007855, -1.16928590305443], a = 0.2, v = 0.2, t = 0.2)
movej(p[0.465153754067437, -0.017297123781138, 0.229492044304743, -1.18488318987544, 1.25915369213391, -1.16409415992093], a = 0.2, v = 0.2, t = 0.2)
movej(p[0.464487509755218, -0.0171285533542803, 0.229827140705239, -1.16859764341725, 1.26766105007258, -1.16156641160579], a = 0.2, v = 0.2, t = 0.2)
movej(p[0.46600822008794, -0.0177459495832598, 0.229518323558057, -1.17814157057541, 1.25586716737894, -1.17235883371617], a = 0.2, v = 0.2, t = 0.2)
movej(p[0.468269015515205, -0.0183245040546187, 0.228405113595952, -1.17856018920926, 1.24550158730417, -1.18387340557404], a = 0.2, v = 0.2, t = 0.2)
movej(p[0.470597903449741, -0.0189777573031018, 0.227425445773823, -1.19222216333714, 1.23126466672811, -1.19619287517644], a = 0.2, v = 0.2, t = 0.2)
movej(p[0.472664368863014, -0.0195780308006211, 0.226599900163983, -1.19779564312395, 1.21911084362406, -1.20767394017687], a = 0.2, v = 0.2, t = 0.2)
movej(p[0.474501985420002, -0.0202100680614196, 0.226015889384592, -1.20062506619657, 1.21294036556702, -1.21483910148119], a = 0.2, v = 0.2, t = 0.2)
movej(p[0.475232770889272, -0.020517849608616, 0.225849457274984, -1.20208701998636, 1.21089735375352, -1.21655551949541], a = 0.2, v = 0.2, t = 0.2)
movej(p[0.475814448041368, -0.02068621285722, 0.225628765255987, -1.20537275368228, 1.20821867834584, -1.21763103740618], a = 0.2, v = 0.2, t = 0.2)
movej(p[0.476463368649311, -0.0209595583463834, 0.225485767360402, -1.19304153562982, 1.21347506866221, -1.21477650499785], a = 0.2, v = 0.2, t = 0.2)
movej(p[0.47691547255853, -0.0211667892890026, 0.225380875026605, -1.20422130348521, 1.20332083533159, -1.22256073765419], a = 0.2, v = 0.2, t = 0.2)
movej(p[0.47713413091775, -0.0212268359622612, 0.225288988308448, -1.19970640011924, 1.20662794467725, -1.21827406623221], a = 0.2, v = 0.2, t = 0.2)
movej(p[0.477456154732494, -0.0214363450424492, 0.225258306749544, -1.20284391820807, 1.20385544138427, -1.21952600137], a = 0.2, v = 0.2, t = 0.2)
movej(p[0.477295465696074, -0.0214380198750294, 0.22533694343634, -1.21160842317964, 1.20204331049289, -1.21967968717157], a = 0.2, v = 0.2, t = 0.2)
movej(p[0.477002768171275, -0.0212482400759, 0.225377094112784, -1.21174498123299, 1.20310040898774, -1.2156016232118], a = 0.2, v = 0.2, t = 0.2)
movej(p[0.475817673098718, -0.0209322869638705, 0.225812533787137, -1.2095287941718, 1.21058411760551, -1.2076222846377], a = 0.2, v = 0.2, t = 0.2)
movej(p[0.474259852582077, -0.0202894688344476, 0.226282637329366, -1.20254680418117, 1.21993780560474, -1.20020833230014], a = 0.2, v = 0.2, t = 0.2)
movej(p[0.47344190173173, -0.0200477210756304, 0.226573906633488, -1.19531230244704, 1.22917310515413, -1.18861922704181], a = 0.2, v = 0.2, t = 0.2)
movej(p[0.470890293737463, -0.0192086008002481, 0.227470705684021, -1.1963726080316, 1.23485321398947, -1.18857835085768], a = 0.2, v = 0.2, t = 0.2)
movej(p[0.468608882329528, -0.0183442109547524, 0.22822680070632, -1.18666823773681, 1.24836008959176, -1.17395575632484], a = 0.2, v = 0.2, t = 0.2)
movej(p[0.466047140419586, -0.0176267152357344, 0.229172698850962, -1.18594183241219, 1.2576106254871, -1.16279190361478], a = 0.2, v = 0.2, t = 0.2)
movej(p[0.465151333084634, -0.0173085372346139, 0.229488196978136, -1.18402932810929, 1.26027243414988, -1.15778854520905], a = 0.2, v = 0.2, t = 0.2)
movej(p[0.466998318838462, -0.0179150219867581, 0.228860476617964, -1.1896448398081, 1.24685027399653, -1.17224481677867], a = 0.2, v = 0.2, t = 0.2)
movej(p[0.470096356364424, -0.0188541528916256, 0.227754454406953, -1.1958019495288, 1.23214179585082, -1.1975262503418], a = 0.2, v = 0.2, t = 0.2)
movej(p[0.47193790570373, -0.0192879619902094, 0.227079437809461, -1.19482692129624, 1.22802187699655, -1.20309395230989], a = 0.2, v = 0.2, t = 0.2)
movej(p[0.47350003392148, -0.0199766723705138, 0.226554478045888, -1.19260083851421, 1.22452940478831, -1.20495516827893], a = 0.2, v = 0.2, t = 0.2)
movej(p[0.474618337018888, -0.0203191833625936, 0.226171219891855, -1.1951444055636, 1.21806023606069, -1.21617633126177], a = 0.2, v = 0.2, t = 0.2)
movej(p[0.475682170693691, -0.0207618386985154, 0.225790647328558, -1.20935523393526, 1.20948861101343, -1.21696621763412], a = 0.2, v = 0.2, t = 0.2)
movej(p[0.476180395938447, -0.0209081426162193, 0.22561674948742, -1.21245444403209, 1.20554440837484, -1.21748453273923], a = 0.2, v = 0.2, t = 0.2)
movej(p[0.476551207270245, -0.0210193801249446, 0.225487877213976, -1.20837161332565, 1.20536602018931, -1.21857870151921], a = 0.2, v = 0.2, t = 0.2)
movej(p[0.476800130053297, -0.0211394551842905, 0.225386667539533, -1.20581805064571, 1.20654209193821, -1.21798885356322], a = 0.2, v = 0.2, t = 0.2)
movej(p[0.476825231386029, -0.0211062515090892, 0.225380655963351, -1.20477755629507, 1.20711850709957, -1.2195397591007], a = 0.2, v = 0.2, t = 0.2)
movej(p[0.476885937491426, -0.0211572991950208, 0.22536365765377, -1.21760642997539, 1.20045569247667, -1.22355131802506], a = 0.2, v = 0.2, t = 0.2)
movej(p[0.476876464848069, -0.0211591447915264, 0.225349844877027, -1.19821192858657, 1.21000123953289, -1.22282360470027], a = 0.2, v = 0.2, t = 0.2)
movej(p[0.476017897868371, -0.0207823339349374, 0.225671229786021, -1.20695304181827, 1.21242835897123, -1.21766961046884], a = 0.2, v = 0.2, t = 0.2)
movej(p[0.473374789514388, -0.0196219734509006, 0.226586374204238, -1.20234829140772, 1.22577444104726, -1.20661529432231], a = 0.2, v = 0.2, t = 0.2)
movej(p[0.471420802023082, -0.0190308553650762, 0.227282925761862, -1.20206212586981, 1.23382781736912, -1.19585403907694], a = 0.2, v = 0.2, t = 0.2)
movej(p[0.469069500652126, -0.0182657636384736, 0.228179868420468, -1.18704603348062, 1.24548324105207, -1.18061204936854], a = 0.2, v = 0.2, t = 0.2)
movej(p[0.466636122404055, -0.0174246067755883, 0.22906653142513, -1.18083158114226, 1.25432639217796, -1.16901433501453], a = 0.2, v = 0.2, t = 0.2)
movej(p[0.464895157907097, -0.0170541744150869, 0.22971990527418, -1.17703727071468, 1.25647590015879, -1.15778495337711], a = 0.2, v = 0.2, t = 0.2)
movej(p[0.464695969136701, -0.0170363365567703, 0.229820253141916, -1.18526430597966, 1.25243517859488, -1.16698405653506], a = 0.2, v = 0.2, t = 0.2)
movej(p[0.465992410204255, -0.0174230521908994, 0.229371533600687, -1.19515646472405, 1.24299517844068, -1.1789393813745], a = 0.2, v = 0.2, t = 0.2)
movej(p[0.468600431216737, -0.018178624059266, 0.228434737737019, -1.18809378987303, 1.238476520876, -1.18184509248964], a = 0.2, v = 0.2, t = 0.2)
movej(p[0.471371481671472, -0.019156391988359, 0.227407355055567, -1.19892400654526, 1.22632580170318, -1.19738296547326], a = 0.2, v = 0.2, t = 0.2)
movej(p[0.473780242126915, -0.0200477154252717, 0.226514691289581, -1.19907597041181, 1.221607344012, -1.21007207710989], a = 0.2, v = 0.2, t = 0.2)
movej(p[0.474694272791439, -0.0204443249492739, 0.226143935615612, -1.22065272923295, 1.20961101819253, -1.21794797020342], a = 0.2, v = 0.2, t = 0.2)
movej(p[0.475542628899002, -0.0208523649776814, 0.22579208618762, -1.21484415973461, 1.21152424346915, -1.22333817104437], a = 0.2, v = 0.2, t = 0.2)
movej(p[0.476100501669215, -0.0210487990959888, 0.2255844826245, -1.20553443482708, 1.21356104999018, -1.22153016778045], a = 0.2, v = 0.2, t = 0.2)
movej(p[0.476431108111649, -0.0211099508838327, 0.225471061157993, -1.21240010177071, 1.20614476867824, -1.22167572326532], a = 0.2, v = 0.2, t = 0.2)
movej(p[0.477006938376496, -0.021394728916194, 0.225225250380422, -1.21358369309103, 1.20267632012048, -1.22401144725059], a = 0.2, v = 0.2, t = 0.2)
movej(p[0.476985132642236, -0.0213388563004543, 0.225247614431123, -1.20700636546124, 1.20668446535839, -1.2208625290449], a = 0.2, v = 0.2, t = 0.2)
movej(p[0.476772337771655, -0.021157603614589, 0.225362895422276, -1.20404503040626, 1.21154148916139, -1.2215286279836], a = 0.2, v = 0.2, t = 0.2)
movej(p[0.476296426698167, -0.0208944540849912, 0.225576448285061, -1.2062229512771, 1.21228727444474, -1.21942389420391], a = 0.2, v = 0.2, t = 0.2)
movej(p[0.475700236000252, -0.0205867773877225, 0.225830994845982, -1.19975271313174, 1.21917386250474, -1.21612071929766], a = 0.2, v = 0.2, t = 0.2)
movej(p[0.473585050314091, -0.0197688913947679, 0.226652714643474, -1.19817028060552, 1.2303402870268, -1.20709345353657], a = 0.2, v = 0.2, t = 0.2)
movej(p[0.471707256811136, -0.0190621318077674, 0.227396352604071, -1.19783398768559, 1.23840304660056, -1.19965324692451], a = 0.2, v = 0.2, t = 0.2)
movej(p[0.469484312401419, -0.0183512130547916, 0.228208368945025, -1.18871827739712, 1.24689634645278, -1.18840061258182], a = 0.2, v = 0.2, t = 0.2)
movej(p[0.467014790816845, -0.0176716405684777, 0.229060373639362, -1.18231323006427, 1.25249599206931, -1.17525746791693], a = 0.2, v = 0.2, t = 0.2)
movej(p[0.465543893500583, -0.017311277375503, 0.229545923414525, -1.17602319301416, 1.25974469681581, -1.16631162854118], a = 0.2, v = 0.2, t = 0.2)
movej(p[0.46596980329591, -0.0174435772501256, 0.229394186407111, -1.18105407933624, 1.25500539171159, -1.16789948523706], a = 0.2, v = 0.2, t = 0.2)
movej(p[0.469117313241674, -0.0183593431337713, 0.228326360209797, -1.17571271727502, 1.24310668861777, -1.18322255247218], a = 0.2, v = 0.2, t = 0.2)
movej(p[0.471068900000579, -0.0191632217779308, 0.227519489155705, -1.20251085134645, 1.22806946256433, -1.19610718384771], a = 0.2, v = 0.2, t = 0.2)
movej(p[0.473030556059056, -0.0199481694162674, 0.226704244558477, -1.20753558956837, 1.2181039580147, -1.20365168564942], a = 0.2, v = 0.2, t = 0.2)
movej(p[0.474384486445814, -0.0204941919682135, 0.226166871624121, -1.20931896562799, 1.2149354572403, -1.21366849021449], a = 0.2, v = 0.2, t = 0.2)
movej(p[0.475256051863209, -0.0209037405737075, 0.225766583037049, -1.21055109030867, 1.21121775488852, -1.21678776999828], a = 0.2, v = 0.2, t = 0.2)
movej(p[0.476370695575573, -0.0211094622116819, 0.22547681847373, -1.20855639097961, 1.20973817587913, -1.22249750007083], a = 0.2, v = 0.2, t = 0.2)
movej(p[0.476665152566626, -0.0212464287088939, 0.225342100364102, -1.21489091880909, 1.20410655286143, -1.22304231085194], a = 0.2, v = 0.2, t = 0.2)
movej(p[0.476789804273719, -0.0212736252240975, 0.225289728029042, -1.20819897478007, 1.20469668666485, -1.22111088664367], a = 0.2, v = 0.2, t = 0.2)
movej(p[0.476923464488078, -0.0212571124186777, 0.225282853848752, -1.21108972774041, 1.20441350021101, -1.22253704117573], a = 0.2, v = 0.2, t = 0.2)
movej(p[0.476861983152744, -0.0212229956363363, 0.225313037131679, -1.21374311616205, 1.20583051478688, -1.22311712260688], a = 0.2, v = 0.2, t = 0.2)
movej(p[0.476853796802171, -0.0209560047912605, 0.225521556320988, -1.21010986270807, 1.20670293244289, -1.22256902707009], a = 0.2, v = 0.2, t = 0.2)
movej(p[0.475692768674057, -0.0204410720391108, 0.226023535570053, -1.20479455963137, 1.22110398805881, -1.21767004997553], a = 0.2, v = 0.2, t = 0.2)
movej(p[0.473875151248672, -0.0198454576179742, 0.226652679723859, -1.19336701167429, 1.23549194866871, -1.20766770929044], a = 0.2, v = 0.2, t = 0.2)
movej(p[0.472166927341777, -0.0192404619475608, 0.227295430136302, -1.19131409359367, 1.24290863767047, -1.19957249654972], a = 0.2, v = 0.2, t = 0.2)
movej(p[0.469960737574453, -0.0185610881655002, 0.228048645739435, -1.19237484147308, 1.24850488239895, -1.18934065557426], a = 0.2, v = 0.2, t = 0.2)
movej(p[0.467578657035016, -0.0178879088916261, 0.228790484420591, -1.18848207226913, 1.25353778022696, -1.17618871761416], a = 0.2, v = 0.2, t = 0.2)
movej(p[0.466637780211151, -0.0176919454238883, 0.229041101741673, -1.19114759559955, 1.24834374096943, -1.17141155125369], a = 0.2, v = 0.2, t = 0.2)
movej(p[0.467274951404963, -0.017866055600267, 0.228859468577692, -1.18597529527403, 1.24630742400822, -1.17327384271349], a = 0.2, v = 0.2, t = 0.2)
movej(p[0.46914146175201, -0.0184975894972192, 0.228193121017207, -1.17850145831654, 1.24175104720391, -1.18269773089342], a = 0.2, v = 0.2, t = 0.2)
movej(p[0.471046931192496, -0.0192555637997072, 0.227402308429962, -1.19442474790828, 1.22814196109624, -1.19392121719783], a = 0.2, v = 0.2, t = 0.2)
movej(p[0.472913209036911, -0.0200059097869019, 0.226616365914924, -1.20403506608069, 1.2169598040616, -1.20342688225524], a = 0.2, v = 0.2, t = 0.2)
movej(p[0.474991916451826, -0.0207338486322467, 0.225843502297836, -1.20960041637434, 1.21024685331043, -1.21550976113248], a = 0.2, v = 0.2, t = 0.2)
movej(p[0.475573503457705, -0.0210099344771614, 0.225540359541318, -1.21350646740414, 1.20975901996089, -1.21816100887016], a = 0.2, v = 0.2, t = 0.2)
movej(p[0.476052290843772, -0.0211275394658068, 0.225414870595236, -1.21944389724357, 1.20316164300235, -1.22158652301684], a = 0.2, v = 0.2, t = 0.2)
movej(p[0.476451782407318, -0.021210848237831, 0.225325922750069, -1.22122953456608, 1.20294817934541, -1.22378501568924], a = 0.2, v = 0.2, t = 0.2)
movej(p[0.476794378688198, -0.0212339717316385, 0.225302436107888, -1.2177544449726, 1.20286800677063, -1.22489452577035], a = 0.2, v = 0.2, t = 0.2)
movej(p[0.477253462142635, -0.0212611962987009, 0.225280140933289, -1.22020255192238, 1.19731827494873, -1.22663883048918], a = 0.2, v = 0.2, t = 0.2)
movej(p[0.477107788748692, -0.0212187280020373, 0.225316086114822, -1.21483771886387, 1.20535911449304, -1.22512632727839], a = 0.2, v = 0.2, t = 0.2)
movej(p[0.477112592497805, -0.0211917937908468, 0.225344760009953, -1.21684124897371, 1.20126454679564, -1.22450378119277], a = 0.2, v = 0.2, t = 0.2)
movej(p[0.476847592253501, -0.0210328836848572, 0.225522735004639, -1.21510053365948, 1.20365290110205, -1.22318912026393], a = 0.2, v = 0.2, t = 0.2)
movej(p[0.47577119295802, -0.0204803005954388, 0.226097719409623, -1.20990969065612, 1.21849339757779, -1.21637421823206], a = 0.2, v = 0.2, t = 0.2)
movej(p[0.474856903662013, -0.0200522626484095, 0.226571715421327, -1.20974955956852, 1.22821032443224, -1.21210454953291], a = 0.2, v = 0.2, t = 0.2)
movej(p[0.472942991408634, -0.0194506725879026, 0.227205105495028, -1.20384609542221, 1.23993872117868, -1.20250430550691], a = 0.2, v = 0.2, t = 0.2)
movej(p[0.47136067734612, -0.0189287065166456, 0.227750671254608, -1.20131525927306, 1.24643675253091, -1.19416148454259], a = 0.2, v = 0.2, t = 0.2)
movej(p[0.470977983325798, -0.018768996735259, 0.227926568845664, -1.19856998885153, 1.24969323977368, -1.1922752220354], a = 0.2, v = 0.2, t = 0.2)
movej(p[0.469526770158554, -0.0183667655509958, 0.228337549085607, -1.19768006893488, 1.25083270898571, -1.18534230624423], a = 0.2, v = 0.2, t = 0.2)
movej(p[0.466128407277396, -0.0173537409181587, 0.229365394906359, -1.18176549222945, 1.26358990977584, -1.1664146139394], a = 0.2, v = 0.2, t = 0.2)
movej(p[0.467025751486722, -0.0175364050242723, 0.229229210309844, -1.18284790887199, 1.25216701720389, -1.17166618296284], a = 0.2, v = 0.2, t = 0.2)
movej(p[0.470017663407935, -0.018798321923945, 0.227856787840623, -1.1852796271442, 1.23677771573287, -1.18886006631326], a = 0.2, v = 0.2, t = 0.2)
movej(p[0.472099196284017, -0.0196466352836161, 0.226894943263993, -1.19499615367172, 1.22799558704445, -1.19906608034019], a = 0.2, v = 0.2, t = 0.2)
movej(p[0.473820567127223, -0.0203272029911516, 0.226147208113274, -1.20403805946299, 1.22127687831744, -1.20920663403455], a = 0.2, v = 0.2, t = 0.2)
movej(p[0.474948246733944, -0.0207320459344267, 0.225703989481147, -1.2081062025872, 1.21450139946545, -1.21491960177858], a = 0.2, v = 0.2, t = 0.2)
movej(p[0.475944158193579, -0.0209226425993386, 0.225573174398329, -1.2145377484733, 1.21303985782316, -1.21982570645994], a = 0.2, v = 0.2, t = 0.2)
movej(p[0.476239065025651, -0.0209733039036271, 0.225556917933622, -1.2129202064258, 1.21303854879475, -1.22138939793873], a = 0.2, v = 0.2, t = 0.2)
movej(p[0.476450730327661, -0.0210605854908482, 0.225474254371773, -1.21644622917212, 1.20956095983507, -1.22356738364404], a = 0.2, v = 0.2, t = 0.2)
movej(p[0.476516254143406, -0.0210687564454718, 0.225455047990784, -1.21818299397822, 1.2096876633022, -1.22308207923009], a = 0.2, v = 0.2, t = 0.2)
movej(p[0.476543579461009, -0.0210240072742182, 0.225537383940952, -1.21637839448351, 1.21220015480333, -1.22255078512292], a = 0.2, v = 0.2, t = 0.2)
movej(p[0.477096667443452, -0.0211174319499153, 0.225524645666016, -1.21655614996594, 1.20775148244785, -1.22519590404029], a = 0.2, v = 0.2, t = 0.2)
movej(p[0.477117814038409, -0.0211058037128354, 0.225560635881688, -1.21140240225747, 1.21005198600476, -1.22449437660136], a = 0.2, v = 0.2, t = 0.2)
movej(p[0.476561681285678, -0.020836624343194, 0.225875673241854, -1.21201750334217, 1.217454456218, -1.21975283547013], a = 0.2, v = 0.2, t = 0.2)
movej(p[0.475398948114111, -0.0203658931434446, 0.22641577512976, -1.21526238316224, 1.2260978972105, -1.21269029882344], a = 0.2, v = 0.2, t = 0.2)
movej(p[0.473877252005019, -0.0198642422317947, 0.226930985033018, -1.20973514718741, 1.23947543357237, -1.20347683541626], a = 0.2, v = 0.2, t = 0.2)
movej(p[0.472589657246096, -0.019404329807598, 0.227442151853991, -1.20596618957517, 1.24382141684252, -1.19707445310684], a = 0.2, v = 0.2, t = 0.2)
movej(p[0.472183773979793, -0.0192596693314303, 0.227596472205111, -1.20396037537778, 1.24650507366785, -1.19443851851534], a = 0.2, v = 0.2, t = 0.2)
movej(p[0.471735557800537, -0.0190916916647942, 0.227790975675941, -1.20151615179835, 1.24875364978353, -1.19188122192761], a = 0.2, v = 0.2, t = 0.2)
movej(p[0.469810317911015, -0.0184733524015604, 0.228369352943247, -1.19845559251068, 1.2519224756329, -1.1822159677315], a = 0.2, v = 0.2, t = 0.2)
movej(p[0.467968993073069, -0.0178889427422343, 0.228946198512919, -1.18873701004564, 1.25826036703581, -1.17366525971098], a = 0.2, v = 0.2, t = 0.2)
movej(p[0.469550700042792, -0.0185761989639838, 0.228089471544978, -1.19340194276656, 1.24018367007189, -1.18655548492222], a = 0.2, v = 0.2, t = 0.2)
movej(p[0.472955082144752, -0.0198191419398429, 0.226709409690345, -1.20043841157621, 1.2239206334066, -1.20450215910926], a = 0.2, v = 0.2, t = 0.2)
movej(p[0.474189614512791, -0.0203315368026333, 0.226037385459494, -1.20424216862016, 1.21777954687496, -1.21127932599784], a = 0.2, v = 0.2, t = 0.2)
movej(p[0.475149247870243, -0.0206582884483845, 0.225701279045893, -1.20978946751442, 1.21616243819817, -1.21505156996671], a = 0.2, v = 0.2, t = 0.2)
movej(p[0.475789402353767, -0.0208496505303442, 0.225550241498204, -1.20994735541306, 1.21309926211982, -1.21802193528507], a = 0.2, v = 0.2, t = 0.2)
movej(p[0.476096373984472, -0.0209477582271701, 0.225452954357397, -1.21319838980537, 1.21212022663752, -1.21942918723471], a = 0.2, v = 0.2, t = 0.2)
movej(p[0.47671821100208, -0.0210868774176351, 0.22549651023388, -1.21272170672769, 1.20859222135651, -1.22298377650498], a = 0.2, v = 0.2, t = 0.2)
movej(p[0.476939104556004, -0.0211448576891098, 0.225477519289868, -1.21494847089303, 1.20877688230186, -1.22338259924103], a = 0.2, v = 0.2, t = 0.2)
movej(p[0.476982949054973, -0.0211544062741694, 0.225490670123816, -1.21256941450131, 1.20926395280841, -1.22365368343518], a = 0.2, v = 0.2, t = 0.2)
movej(p[0.47700461558037, -0.0211743419647894, 0.225397020885075, -1.21522172050498, 1.21132373441431, -1.2222671135516], a = 0.2, v = 0.2, t = 0.2)
movej(p[0.477094912825611, -0.0211735119971547, 0.225527828372077, -1.2143914634088, 1.21111968560596, -1.22367192530534], a = 0.2, v = 0.2, t = 0.2)
movej(p[0.477060162592389, -0.0211866050294944, 0.225491714056423, -1.21264751916504, 1.21104857991258, -1.22373338450983], a = 0.2, v = 0.2, t = 0.2)
movej(p[0.477264061571615, -0.02124191857907, 0.225516170701816, -1.21529091029915, 1.21162702464507, -1.22351422680877], a = 0.2, v = 0.2, t = 0.2)
movej(p[0.477286229917673, -0.0212276695051014, 0.225674251814932, -1.21390921431119, 1.21048281983381, -1.22477234635415], a = 0.2, v = 0.2, t = 0.2)
movej(p[0.476216381776293, -0.0208230925790753, 0.226232307901103, -1.21331441426546, 1.2183724488748, -1.21741920645127], a = 0.2, v = 0.2, t = 0.2)
movej(p[0.47491478772196, -0.0203673060540421, 0.226652861882565, -1.21319278588472, 1.22822025171736, -1.20668840778316], a = 0.2, v = 0.2, t = 0.2)
movej(p[0.473830444637719, -0.0199944782138151, 0.226958942667997, -1.21372604965677, 1.23989343408394, -1.19592510107106], a = 0.2, v = 0.2, t = 0.2)
movej(p[0.472604075454075, -0.0195767624693858, 0.227326265131596, -1.21063651937939, 1.24365081876535, -1.18952219545494], a = 0.2, v = 0.2, t = 0.2)
movej(p[0.471715941622354, -0.0192630161638508, 0.227776605861171, -1.20849297879409, 1.24556683522159, -1.18556663284807], a = 0.2, v = 0.2, t = 0.2)
movej(p[0.470032765953727, -0.0186809234776497, 0.22837303080466, -1.20115827477394, 1.2504555430496, -1.17874965915531], a = 0.2, v = 0.2, t = 0.2)
movej(p[0.469692000943815, -0.018565661567684, 0.228443851353445, -1.19974529177697, 1.25120302761034, -1.17741074749399], a = 0.2, v = 0.2, t = 0.2)
movej(p[0.469417704385784, -0.0184721300639832, 0.228503937175965, -1.19860496414264, 1.25224534291016, -1.17606187677224], a = 0.2, v = 0.2, t = 0.2)
movej(p[0.470245061117352, -0.0187848236506518, 0.228130451152687, -1.19453151804488, 1.24554722813804, -1.18491920097057], a = 0.2, v = 0.2, t = 0.2)
movej(p[0.471945282729429, -0.0194030816318986, 0.227216845697113, -1.19856393984281, 1.23129731402701, -1.19860237734992], a = 0.2, v = 0.2, t = 0.2)
movej(p[0.474105415742323, -0.0201745592451033, 0.226341492140584, -1.20149257578554, 1.22130172171335, -1.21065215725746], a = 0.2, v = 0.2, t = 0.2)
movej(p[0.474850219842704, -0.0204215363528327, 0.225850076572746, -1.20584964282884, 1.21606281589901, -1.21439217729509], a = 0.2, v = 0.2, t = 0.2)
movej(p[0.475169765195202, -0.0205117930484151, 0.225730078128592, -1.20849968694406, 1.21820534252416, -1.21251100617655], a = 0.2, v = 0.2, t = 0.2)
movej(p[0.47554939190203, -0.0206405883439317, 0.225574915680443, -1.21225300257328, 1.2143472190909, -1.2149574193721], a = 0.2, v = 0.2, t = 0.2)
movej(p[0.472730907476898, -0.0201084221691581, 0.225345246706233, -1.21051339993625, 1.2131265333505, -1.21690255811687], a = 0.2, v = 0.2, t = 0.2)
movej(p[0.472558436947593, -0.0200105148024548, 0.225570649199712, -1.20832034476592, 1.21348912852307, -1.21580776786502], a = 0.2, v = 0.2, t = 0.2)
movej(p[0.472385966650485, -0.0199126079470385, 0.225795951694768, -1.20612535038241, 1.21385240783089, -1.21471262600228], a = 0.2, v = 0.2, t = 0.2)
movej(p[0.472213496353378, -0.0198147010916223, 0.226021254189823, -1.20392971275944, 1.21421344684944, -1.213620535129], a = 0.2, v = 0.2, t = 0.2)
movej(p[0.472041126087081, -0.0197166939890061, 0.226246656406169, -1.2017347087214, 1.21457564438272, -1.21252854736627], a = 0.2, v = 0.2, t = 0.2)
movej(p[0.471868655789974, -0.0196187871335899, 0.226471958901224, -1.19953905876722, 1.2149377108342, -1.2114374895375], a = 0.2, v = 0.2, t = 0.2)
movej(p[0.471696185260669, -0.0195208797668865, 0.226697361394703, -1.19734148202845, 1.21529836194467, -1.21034819235635], a = 0.2, v = 0.2, t = 0.2)
movej(p[0.471523714963561, -0.0194229729114703, 0.226922663889758, -1.19514241197924, 1.2156622542023, -1.20925899368554], a = 0.2, v = 0.2, t = 0.2)
movej(p[0.471351244697882, -0.0193249655464184, 0.227148065872563, -1.19294483294074, 1.21602393110401, -1.20817071640396], a = 0.2, v = 0.2, t = 0.2)
movej(p[0.471178774400774, -0.0192270586910022, 0.227373368367618, -1.19074533126458, 1.21638419919858, -1.20708419702102], a = 0.2, v = 0.2, t = 0.2)
movej(p[0.471437035632746, -0.0192750903720971, 0.22742231439577, -1.19115356440616, 1.21598476205118, -1.2077489986161], a = 0.2, v = 0.2, t = 0.2)
movej(p[0.472936217411058, -0.0198265937980052, 0.22672870429147, -1.20000780122239, 1.21338031969824, -1.21233916428253], a = 0.2, v = 0.2, t = 0.2)
movej(p[0.47376007495751, -0.0201626705565103, 0.226200127253047, -1.20567221892145, 1.21139609858433, -1.21474603985684], a = 0.2, v = 0.2, t = 0.2)
movej(p[0.474750805978212, -0.0205457977606634, 0.225630477606285, -1.21145650370809, 1.21229311858952, -1.21634413251055], a = 0.2, v = 0.2, t = 0.2)
movej(p[0.475431001585323, -0.0207721561904525, 0.225422611068983, -1.21262538883168, 1.20929934343909, -1.21945663905287], a = 0.2, v = 0.2, t = 0.2)
movej(p[0.475957355890886, -0.020935841465148, 0.225345268933877, -1.21367828227162, 1.20938009567719, -1.22092312202231], a = 0.2, v = 0.2, t = 0.2)
movej(p[0.476870324674139, -0.0212151001986847, 0.225218514641841, -1.21466100824884, 1.20602116952921, -1.22507720612904], a = 0.2, v = 0.2, t = 0.2)
movej(p[0.477040206248852, -0.0212602466237566, 0.225218939937512, -1.21279544172069, 1.20453257311992, -1.2264850132873], a = 0.2, v = 0.2, t = 0.2)
movej(p[0.477209267435043, -0.0213133923510884, 0.225219104223548, -1.21337786030439, 1.20521316464108, -1.22699609093448], a = 0.2, v = 0.2, t = 0.2)
movej(p[0.477349724541762, -0.0213127257774711, 0.22532422861107, -1.21274795741247, 1.20928051048612, -1.22529650680151], a = 0.2, v = 0.2, t = 0.2)
movej(p[0.477004367644809, -0.021144534294232, 0.225750773484082, -1.20891549152944, 1.2106840218461, -1.2248402540578], a = 0.2, v = 0.2, t = 0.2)
movej(p[0.476559843416903, -0.0209339474968501, 0.226125070507277, -1.20715153047294, 1.21689035277694, -1.22041677172702], a = 0.2, v = 0.2, t = 0.2)
movej(p[0.475410569907753, -0.0205114597037937, 0.226585449053569, -1.20467015370579, 1.22648363850292, -1.21250896043613], a = 0.2, v = 0.2, t = 0.2)
movej(p[0.47368197384127, -0.0199195025123952, 0.227073116381252, -1.20528365924128, 1.23846210046991, -1.2003817254659], a = 0.2, v = 0.2, t = 0.2)
movej(p[0.472241176360928, -0.0194334062942927, 0.22744319137012, -1.20117805417079, 1.24314101732835, -1.19380029239572], a = 0.2, v = 0.2, t = 0.2)
movej(p[0.470512798321835, -0.0188692490852322, 0.227891900727553, -1.19932797745893, 1.24675045472086, -1.18646547518824], a = 0.2, v = 0.2, t = 0.2)
movej(p[0.469434881009435, -0.0184820249483168, 0.228631329659511, -1.17429516125758, 1.22660018070876, -1.20169515178864], a = 0.2, v = 0.2, t = 0.2)
movej(p[0.468956160261281, -0.0182910878210469, 0.228939146697242, -1.17052840044008, 1.22810296374078, -1.20052783498884], a = 0.2, v = 0.2, t = 0.2)
movej(p[0.469288486771183, -0.0184289481289959, 0.228688119255896, -1.17322963751994, 1.2270064832134, -1.20131341951287], a = 0.2, v = 0.2, t = 0.2)
movej(p[0.470501192353718, -0.0188890824070401, 0.227957776222618, -1.18484488181127, 1.22886945695432, -1.20076738602082], a = 0.2, v = 0.2, t = 0.2)
movej(p[0.471580545799223, -0.0193333992283407, 0.227181541952577, -1.19412216293469, 1.22698259756103, -1.20273456397306], a = 0.2, v = 0.2, t = 0.2)
movej(p[0.472538725419878, -0.0196907617208792, 0.226705586467802, -1.1997734171205, 1.22465055975137, -1.20551793437967], a = 0.2, v = 0.2, t = 0.2)
movej(p[0.473861822754267, -0.0201722973345577, 0.226169112240564, -1.20402037060652, 1.21655085635114, -1.21308708262439], a = 0.2, v = 0.2, t = 0.2)
movej(p[0.474069931671928, -0.0202356083489136, 0.226137518667622, -1.20468732849663, 1.21508020567216, -1.21389864813489], a = 0.2, v = 0.2, t = 0.2)
movej(p[0.474614848084934, -0.0204249631755551, 0.225919148654881, -1.20826009952152, 1.21539698326717, -1.21459472864181], a = 0.2, v = 0.2, t = 0.2)
movej(p[0.47533662398898, -0.0206551911813119, 0.225758299192016, -1.21130469906099, 1.21580026238194, -1.21596280179907], a = 0.2, v = 0.2, t = 0.2)
movej(p[0.475759664304236, -0.0208130158285462, 0.225521984693108, -1.21489094705272, 1.2158049851175, -1.21633811025782], a = 0.2, v = 0.2, t = 0.2)
movej(p[0.476432842652661, -0.0210107976589344, 0.225482058401272, -1.21673163466976, 1.21700706595312, -1.21741104285847], a = 0.2, v = 0.2, t = 0.2)
movej(p[0.476969911803505, -0.0211630403140501, 0.225496884094326, -1.21644615625542, 1.21584140028647, -1.21988757943431], a = 0.2, v = 0.2, t = 0.2)
movej(p[0.477332021995294, -0.0212842914729766, 0.225400043320569, -1.21681626454874, 1.21333278961296, -1.22227055641503], a = 0.2, v = 0.2, t = 0.2)
movej(p[0.477416499372588, -0.0212962953216707, 0.225482102143019, -1.21671541034331, 1.21495624790015, -1.22170490720212], a = 0.2, v = 0.2, t = 0.2)
movej(p[0.476739689670826, -0.0210256668488164, 0.225959854450476, -1.21260766489827, 1.21949733593509, -1.21835055006144], a = 0.2, v = 0.2, t = 0.2)
movej(p[0.476001673438814, -0.0207496700014347, 0.226360635976401, -1.20955215360822, 1.22386242876414, -1.21460645586417], a = 0.2, v = 0.2, t = 0.2)
movej(p[0.475451474688159, -0.0205468249743716, 0.226672226219787, -1.20384725671021, 1.22472000864743, -1.21373128214949], a = 0.2, v = 0.2, t = 0.2)
movej(p[0.473755174355386, -0.019982193747155, 0.226917004422013, -1.20391262070528, 1.23531804981836, -1.20210847318875], a = 0.2, v = 0.2, t = 0.2)
movej(p[0.472449186233391, -0.0195117375924131, 0.227779680167397, -1.18610741178179, 1.2267027308109, -1.20866036706165], a = 0.2, v = 0.2, t = 0.2)
movej(p[0.470053767835949, -0.0187137341737941, 0.228421048084484, -1.17611048521729, 1.2299382711003, -1.20238044397264], a = 0.2, v = 0.2, t = 0.2)
movej(p[0.467722206472544, -0.0180342852184616, 0.228262657820344, -1.17654333472027, 1.22888105540272, -1.19513245685132], a = 0.2, v = 0.2, t = 0.2)
movej(p[0.467980883162819, -0.0180149655355694, 0.22906577234503, -1.16857407497192, 1.23460611742356, -1.19581234870324], a = 0.2, v = 0.2, t = 0.2)
movej(p[0.469846724380229, -0.0186772796531155, 0.228265978502148, -1.17753051837801, 1.22884446567939, -1.20238164011609], a = 0.2, v = 0.2, t = 0.2)
movej(p[0.47100436323193, -0.0190993860687632, 0.227649614970697, -1.18535807144517, 1.22580520679454, -1.20521987423687], a = 0.2, v = 0.2, t = 0.2)
movej(p[0.471951993997589, -0.0194446819515314, 0.227122472489654, -1.19292928054129, 1.22431479372925, -1.20645087595929], a = 0.2, v = 0.2, t = 0.2)
movej(p[0.472979265790179, -0.0198129901980346, 0.22659493258623, -1.20058142780672, 1.22283886554102, -1.20789281243537], a = 0.2, v = 0.2, t = 0.2)
movej(p[0.474148732401363, -0.0202246911206182, 0.226064044664281, -1.20842809434945, 1.22141598756402, -1.2096881303486], a = 0.2, v = 0.2, t = 0.2)
movej(p[0.475110947085795, -0.0205558527501775, 0.225688166165069, -1.21299566140498, 1.21983304854415, -1.21249321360568], a = 0.2, v = 0.2, t = 0.2)
movej(p[0.475584924859415, -0.0207295469023797, 0.225503751898796, -1.21358804900424, 1.21655405359093, -1.21573695307993], a = 0.2, v = 0.2, t = 0.2)
movej(p[0.476127568194942, -0.0209240469179342, 0.225353703991919, -1.21385062262598, 1.21292326232452, -1.21901275269766], a = 0.2, v = 0.2, t = 0.2)
movej(p[0.476648448398984, -0.0210843174839736, 0.225354732922758, -1.21483805461761, 1.21104201698772, -1.22096397359845], a = 0.2, v = 0.2, t = 0.2)
movej(p[0.476497815542571, -0.0211018192752557, 0.224963366470605, -1.20799092523771, 1.18975158026967, -1.23450777796428], a = 0.2, v = 0.2, t = 0.2)
movej(p[0.477559469616203, -0.0213775917638975, 0.225361047866258, -1.21472141331817, 1.21197861158472, -1.22381704675245], a = 0.2, v = 0.2, t = 0.2)
movej(p[0.477718178381329, -0.0214180667961965, 0.225526325933867, -1.21387761310372, 1.21433595740787, -1.22316086420702], a = 0.2, v = 0.2, t = 0.2)
movej(p[0.47723847504864, -0.0212277313054033, 0.225911644988095, -1.21282035705778, 1.21955032887017, -1.21876767284037], a = 0.2, v = 0.2, t = 0.2)
movej(p[0.476479745643469, -0.0209627332914538, 0.226262833872219, -1.20996571174933, 1.22698086803226, -1.21254063837954], a = 0.2, v = 0.2, t = 0.2)
movej(p[0.475548049160278, -0.0206257955924669, 0.226551852332201, -1.20993472364079, 1.23355696022987, -1.20573760781075], a = 0.2, v = 0.2, t = 0.2)
movej(p[0.474199581906897, -0.0201590563618296, 0.226801838786123, -1.20752178779747, 1.23392696958568, -1.2025054790364], a = 0.2, v = 0.2, t = 0.2)
movej(p[0.473092433828184, -0.0197822535774758, 0.227071645723589, -1.20327812898024, 1.22941245726076, -1.20346395566361], a = 0.2, v = 0.2, t = 0.2)
movej(p[0.47148026967801, -0.0192658691454055, 0.227546669597947, -1.18777195616292, 1.22753270337893, -1.20561845478148], a = 0.2, v = 0.2, t = 0.2)
movej(p[0.4697853311841, -0.0186775725269781, 0.228176936042086, -1.1790531360533, 1.23181058456681, -1.20127499399454], a = 0.2, v = 0.2, t = 0.2)
movej(p[0.468750266757946, -0.0183200218607155, 0.228689212612666, -1.17017114431092, 1.23203644611012, -1.20222497872194], a = 0.2, v = 0.2, t = 0.2)
movej(p[0.46917332350412, -0.0184498211920708, 0.228477355247686, -1.17818974581397, 1.2381670572671, -1.19580001285408], a = 0.2, v = 0.2, t = 0.2)
movej(p[0.471026491182466, -0.0191059121245357, 0.227930104140544, -1.18278307594695, 1.22959344866523, -1.20538113242253], a = 0.2, v = 0.2, t = 0.2)
movej(p[0.472524070787303, -0.0196309543093685, 0.227267155506543, -1.19078336398823, 1.22363402222768, -1.21068325743676], a = 0.2, v = 0.2, t = 0.2)
movej(p[0.473327670193321, -0.0199125867938516, 0.226482049018013, -1.19992111780611, 1.22434960049936, -1.20845181910455], a = 0.2, v = 0.2, t = 0.2)
movej(p[0.474087681059916, -0.0201760320211114, 0.225926451947385, -1.20804557140073, 1.21770061834407, -1.21143273815199], a = 0.2, v = 0.2, t = 0.2)
movej(p[0.474704393961771, -0.0203895062843344, 0.225682671563376, -1.21181594020577, 1.21740640612587, -1.2112925168521], a = 0.2, v = 0.2, t = 0.2)
movej(p[0.475366016336661, -0.0206202182529166, 0.225415583224811, -1.21446273900715, 1.21419420966293, -1.21433785026039], a = 0.2, v = 0.2, t = 0.2)
movej(p[0.475978722192272, -0.0208323213774576, 0.225261987947993, -1.2164470061466, 1.21238387072921, -1.21663737768326], a = 0.2, v = 0.2, t = 0.2)
movej(p[0.476252078438872, -0.0209306901064351, 0.225213724860607, -1.2149980829803, 1.2124332925219, -1.21813394764922], a = 0.2, v = 0.2, t = 0.2)
movej(p[0.476397533930065, -0.0209850873363582, 0.225172040073714, -1.21307644157387, 1.21229519503369, -1.21961216923074], a = 0.2, v = 0.2, t = 0.2)
movej(p[0.476850359991516, -0.021133235259117, 0.225338151605683, -1.21809521396457, 1.21456780401734, -1.21705707044158], a = 0.2, v = 0.2, t = 0.2)
movej(p[0.477205591896672, -0.0212658506025807, 0.225518957341868, -1.21619046507985, 1.21435561049375, -1.21945988367612], a = 0.2, v = 0.2, t = 0.2)
movej(p[0.477972961899899, -0.0215406109177966, 0.225610445413932, -1.21750255176487, 1.2166365817771, -1.21962495827399], a = 0.2, v = 0.2, t = 0.2)
movej(p[0.477645569072764, -0.0214190805037766, 0.225486161886428, -1.21886196364346, 1.21691050619503, -1.21742453454424], a = 0.2, v = 0.2, t = 0.2)
movej(p[0.477062569654318, -0.0212171720433428, 0.225754080067402, -1.21605187140542, 1.21959402782407, -1.21497954889339], a = 0.2, v = 0.2, t = 0.2)
movej(p[0.475721692914805, -0.0207695366040818, 0.22645768897365, -1.20460707040083, 1.21942024455735, -1.21739398452133], a = 0.2, v = 0.2, t = 0.2)
movej(p[0.474590640791391, -0.0203633679389277, 0.22659088810866, -1.20190580744808, 1.22096965033338, -1.21393512331134], a = 0.2, v = 0.2, t = 0.2)
movej(p[0.473958197661881, -0.0201460455099726, 0.22689471323897, -1.19854697943002, 1.22387039519465, -1.21158238213961], a = 0.2, v = 0.2, t = 0.2)
movej(p[0.472591499682293, -0.0196362246740042, 0.22724903873594, -1.19839018089757, 1.23434905535387, -1.20053386827508], a = 0.2, v = 0.2, t = 0.2)
movej(p[0.470922129217061, -0.0190230567289739, 0.227749735341681, -1.1986381919604, 1.24526069111136, -1.18684605497784], a = 0.2, v = 0.2, t = 0.2)
movej(p[0.469465216754495, -0.0185553472971267, 0.227977064670583, -1.17933518240374, 1.22931342012711, -1.20379718826246], a = 0.2, v = 0.2, t = 0.2)
movej(p[0.470036119322222, -0.0187569357489403, 0.227922220124293, -1.18180270601149, 1.23074935590145, -1.20311591884454], a = 0.2, v = 0.2, t = 0.2)
movej(p[0.471194163428433, -0.019159806685253, 0.227410860840868, -1.18745006322684, 1.22534161116519, -1.20790133456491], a = 0.2, v = 0.2, t = 0.2)
movej(p[0.472679380212822, -0.0196804792705805, 0.226950964360933, -1.19508915966838, 1.22332865086032, -1.20977468285047], a = 0.2, v = 0.2, t = 0.2)
movej(p[0.47364969368146, -0.0200066681950044, 0.226495577988539, -1.20215490567746, 1.22211942611431, -1.20949953439984], a = 0.2, v = 0.2, t = 0.2)
movej(p[0.474418001787516, -0.0202445379546813, 0.225841467866617, -1.20979956935788, 1.21510925273689, -1.21414968998277], a = 0.2, v = 0.2, t = 0.2)
movej(p[0.475156632955228, -0.0205030310080393, 0.225539599833447, -1.2125649718102, 1.21360350685225, -1.21484425403086], a = 0.2, v = 0.2, t = 0.2)
movej(p[0.475444083776685, -0.0206039206838429, 0.225533683030274, -1.21394943014005, 1.21529261396182, -1.21322886069328], a = 0.2, v = 0.2, t = 0.2)
movej(p[0.475786427125583, -0.0207249914640009, 0.225422795214634, -1.21349280346997, 1.21583990581093, -1.21407374786707], a = 0.2, v = 0.2, t = 0.2)
movej(p[0.476128670211472, -0.0208461619800717, 0.225311907676128, -1.21303604833032, 1.21638711366473, -1.2149186155578], a = 0.2, v = 0.2, t = 0.2)
movej(p[0.476531032630662, -0.0210195395794245, 0.225348328983991, -1.21075410654886, 1.20939447337107, -1.2232360086256], a = 0.2, v = 0.2, t = 0.2)
movej(p[0.476955634759496, -0.0211601108672681, 0.225319033161363, -1.21817191373917, 1.21329206606402, -1.21785455831979], a = 0.2, v = 0.2, t = 0.2)
movej(p[0.477028865798856, -0.0211741449002339, 0.225076071125659, -1.21856794030527, 1.20581921201139, -1.22332993190291], a = 0.2, v = 0.2, t = 0.2)
movej(p[0.477284637146381, -0.0212895237622561, 0.225173456473549, -1.21729832756734, 1.2033513317386, -1.22719341959134], a = 0.2, v = 0.2, t = 0.2)
movej(p[0.477633191786953, -0.0214633967566028, 0.225555060816256, -1.2078427504672, 1.21804484339455, -1.2212995219784], a = 0.2, v = 0.2, t = 0.2)
movej(p[0.476802964156445, -0.0211741569216888, 0.225975360827486, -1.21379141091093, 1.22004807418589, -1.21410557399736], a = 0.2, v = 0.2, t = 0.2)
movej(p[0.475452155786986, -0.020663852256898, 0.226334720825387, -1.21344226194025, 1.22926616138061, -1.20355226472618], a = 0.2, v = 0.2, t = 0.2)
movej(p[0.474094855845981, -0.0201599485035887, 0.226768899656687, -1.20915921834129, 1.23541794857922, -1.19943567813155], a = 0.2, v = 0.2, t = 0.2)
movej(p[0.472990416371652, -0.0197538215405642, 0.227025162739178, -1.20523070165079, 1.24021375174958, -1.19297842162908], a = 0.2, v = 0.2, t = 0.2)
movej(p[0.471717825144736, -0.0192974136898806, 0.227445280880908, -1.20305120983887, 1.24336311037319, -1.18694345726493], a = 0.2, v = 0.2, t = 0.2)
movej(p[0.470539381147238, -0.0189005681681984, 0.228078225520417, -1.19656096862684, 1.25015752578358, -1.18229353835596], a = 0.2, v = 0.2, t = 0.2)
movej(p[0.46867383651553, -0.0182420049233449, 0.228104527034319, -1.17294331231692, 1.23356923781709, -1.20115029059914], a = 0.2, v = 0.2, t = 0.2)
movej(p[0.469214274943641, -0.0184453969512941, 0.22850322812334, -1.18371134826925, 1.25378841839312, -1.18052254274466], a = 0.2, v = 0.2, t = 0.2)
movej(p[0.47059106584383, -0.018927970612697, 0.227497476479803, -1.18153186262806, 1.2266155425663, -1.20838959701245], a = 0.2, v = 0.2, t = 0.2)
movej(p[0.472202300190067, -0.0194608382932213, 0.226888232606991, -1.19336705234336, 1.22918525902089, -1.20403297093076], a = 0.2, v = 0.2, t = 0.2)
movej(p[0.473642658552498, -0.0199402774978473, 0.226157016868072, -1.19720670547239, 1.22496351066483, -1.20781791197487], a = 0.2, v = 0.2, t = 0.2)
movej(p[0.474419937761403, -0.0202094383592395, 0.225822692606168, -1.20294260810862, 1.21803550611332, -1.21414792498545], a = 0.2, v = 0.2, t = 0.2)
movej(p[0.475215323157539, -0.0204822814295663, 0.225481629106818, -1.20967548720435, 1.21153071571946, -1.21763794323272], a = 0.2, v = 0.2, t = 0.2)
movej(p[0.475686119330356, -0.020621710270535, 0.225327832741557, -1.21443552229645, 1.21672516378774, -1.21210707586064], a = 0.2, v = 0.2, t = 0.2)
movej(p[0.47619807400528, -0.0208345226508159, 0.225237908153024, -1.21240538111049, 1.2102387442983, -1.22011331921999], a = 0.2, v = 0.2, t = 0.2)
movej(p[0.476412056309153, -0.0209107652970295, 0.225203194286522, -1.21370611111675, 1.21183123425578, -1.21904703540432], a = 0.2, v = 0.2, t = 0.2)
movej(p[0.476814658180925, -0.0210788178124862, 0.225185888076818, -1.21283696278042, 1.21083349795848, -1.22139634988224], a = 0.2, v = 0.2, t = 0.2)
movej(p[0.476973607124305, -0.0211639382681625, 0.225283793906183, -1.21132211620937, 1.20927409713661, -1.22368781281145], a = 0.2, v = 0.2, t = 0.2)
movej(p[0.477370091777666, -0.0213081183667077, 0.225257851299677, -1.21427014350917, 1.21253891072938, -1.22161414191026], a = 0.2, v = 0.2, t = 0.2)
movej(p[0.47741527654331, -0.0213442555397004, 0.225352342472185, -1.21808920828269, 1.21127912304801, -1.22176537997364], a = 0.2, v = 0.2, t = 0.2)
movej(p[0.477124454570952, -0.0212958354188094, 0.225715125344281, -1.20955236688127, 1.21720942895457, -1.21970465095791], a = 0.2, v = 0.2, t = 0.2)
movej(p[0.475565030064952, -0.0207164132114931, 0.226244150226263, -1.21464865652284, 1.22467558415077, -1.20852717099838], a = 0.2, v = 0.2, t = 0.2)
movej(p[0.474104264304798, -0.0201763044712225, 0.226704104107261, -1.20812261311702, 1.23401949745311, -1.19859743581705], a = 0.2, v = 0.2, t = 0.2)
movej(p[0.472478154576284, -0.0195673067991574, 0.227174222003382, -1.20252691424817, 1.24283066108825, -1.18833108477097], a = 0.2, v = 0.2, t = 0.2)
movej(p[0.471069251159925, -0.0190372281294986, 0.227596346993574, -1.202485261617, 1.24639234445904, -1.18135989320384], a = 0.2, v = 0.2, t = 0.2)
movej(p[0.469979270556568, -0.0186892531660425, 0.228104644946661, -1.19344982278999, 1.24972411559949, -1.18159694952023], a = 0.2, v = 0.2, t = 0.2)
movej(p[0.46941549561245, -0.0184954137468335, 0.228310248039891, -1.18759305903381, 1.25234605353675, -1.18010067610208], a = 0.2, v = 0.2, t = 0.2)
movej(p[0.47033322258907, -0.018863705937267, 0.228101358717881, -1.18692645504444, 1.24696870930153, -1.1878042323328], a = 0.2, v = 0.2, t = 0.2)
movej(p[0.471430692895398, -0.01920028711731, 0.227439017472019, -1.19297569757509, 1.2377755587337, -1.19527869236156], a = 0.2, v = 0.2, t = 0.2)
movej(p[0.472361684632486, -0.0194411020444807, 0.226703398870891, -1.196390746538, 1.22937941381296, -1.2019707872448], a = 0.2, v = 0.2, t = 0.2)
movej(p[0.473862776126765, -0.0199610313480197, 0.226083932935489, -1.19835313553584, 1.22300229102279, -1.20964735466427], a = 0.2, v = 0.2, t = 0.2)
movej(p[0.474657564069288, -0.0202170187442949, 0.225675080799175, -1.1997917073314, 1.21729005329138, -1.21509960127283], a = 0.2, v = 0.2, t = 0.2)
movej(p[0.475117410330105, -0.0203621612739635, 0.225493387781989, -1.2046087917198, 1.2154587490809, -1.21621761955994], a = 0.2, v = 0.2, t = 0.2)
movej(p[0.475710425635693, -0.0205884966611203, 0.22536251991023, -1.20813291557093, 1.21394385439874, -1.21596520548331], a = 0.2, v = 0.2, t = 0.2)
movej(p[0.476188951499242, -0.0208086445859732, 0.225405057294941, -1.213854344731, 1.21200599263864, -1.21744468930132], a = 0.2, v = 0.2, t = 0.2)
movej(p[0.476897391035203, -0.021106912332306, 0.225268925133479, -1.21332448399484, 1.20710342978726, -1.22396771653911], a = 0.2, v = 0.2, t = 0.2)
movej(p[0.477082234506161, -0.0212190254161663, 0.225381729334072, -1.20624991426376, 1.21263313422636, -1.22307791156464], a = 0.2, v = 0.2, t = 0.2)
movej(p[0.47727662680822, -0.0212690248438821, 0.225286534848263, -1.209529723193, 1.21228331486906, -1.22194284464191], a = 0.2, v = 0.2, t = 0.2)
movej(p[0.477473805551316, -0.0213862769837709, 0.225378493637744, -1.21516326288965, 1.21059382031903, -1.22304547170065], a = 0.2, v = 0.2, t = 0.2)
movej(p[0.477105816506701, -0.021255263132071, 0.225562872225726, -1.21183211720509, 1.21776772037525, -1.21580512508979], a = 0.2, v = 0.2, t = 0.2)
movej(p[0.476270814729697, -0.0209919163245329, 0.22594299290572, -1.20961430224292, 1.21935960658047, -1.21578694794842], a = 0.2, v = 0.2, t = 0.2)
movej(p[0.475451822187701, -0.0207121371296244, 0.226337666971567, -1.21353302812019, 1.22704773782603, -1.20526774795502], a = 0.2, v = 0.2, t = 0.2)
movej(p[0.47392628551302, -0.020132330979462, 0.226743966642299, -1.20715765684331, 1.23103099939118, -1.20094771377994], a = 0.2, v = 0.2, t = 0.2)
movej(p[0.472372882749259, -0.0195598118360881, 0.227255940532268, -1.19807392728976, 1.23978379538537, -1.19227871287424], a = 0.2, v = 0.2, t = 0.2)
movej(p[0.470590602566151, -0.0189023717164966, 0.227810249451601, -1.19716038826942, 1.24292204182721, -1.18661055830242], a = 0.2, v = 0.2, t = 0.2)
movej(p[0.468060828656345, -0.0180113659678034, 0.228793635281812, -1.19006904688901, 1.25622755731903, -1.17102321058183], a = 0.2, v = 0.2, t = 0.2)
movej(p[0.467704945126833, -0.0178966899510112, 0.228957325185577, -1.18666197560906, 1.25848123555466, -1.16948672277174], a = 0.2, v = 0.2, t = 0.2)
movej(p[0.46925436926696, -0.0184977912290586, 0.228446888218343, -1.18181269525752, 1.24876034879469, -1.18564778015122], a = 0.2, v = 0.2, t = 0.2)
movej(p[0.470454381649062, -0.0188218801290381, 0.227738020467834, -1.18880334811821, 1.24131952672905, -1.19092247196907], a = 0.2, v = 0.2, t = 0.2)
movej(p[0.471550275371757, -0.0191510282693962, 0.227159638880767, -1.19033567055183, 1.23496786761955, -1.19785592377652], a = 0.2, v = 0.2, t = 0.2)
movej(p[0.472450968559248, -0.0193917919463034, 0.226594652355363, -1.18771583407525, 1.22953661159517, -1.20572574247313], a = 0.2, v = 0.2, t = 0.2)
movej(p[0.472996839421286, -0.0195590598909997, 0.226334970980105, -1.19075449034811, 1.22657038580099, -1.20815234311181], a = 0.2, v = 0.2, t = 0.2)
movej(p[0.474278687776975, -0.0200312893308391, 0.225915455236461, -1.19787547348078, 1.21876486633025, -1.21451968744964], a = 0.2, v = 0.2, t = 0.2)
movej(p[0.474921167607996, -0.0202420619774343, 0.225646120466745, -1.2038041684075, 1.21425222532165, -1.21811841845548], a = 0.2, v = 0.2, t = 0.2)
movej(p[0.475429021984653, -0.0204219105729431, 0.225507717053477, -1.20687489057272, 1.21520160057786, -1.21522704886555], a = 0.2, v = 0.2, t = 0.2)
movej(p[0.475665068405972, -0.02055140174401, 0.225514227322166, -1.20230822384203, 1.21526560906471, -1.21839267241413], a = 0.2, v = 0.2, t = 0.2)
movej(p[0.475664970058222, -0.0205490918051023, 0.225516115313152, -1.20232462003081, 1.21567831286348, -1.21772141802512], a = 0.2, v = 0.2, t = 0.2)
movej(p[0.476267091025548, -0.0207938508185489, 0.225404963093009, -1.19971224607813, 1.218352992204, -1.21750579792808], a = 0.2, v = 0.2, t = 0.2)
movej(p[0.476960190413492, -0.0211331708044067, 0.225368306775292, -1.20551359921908, 1.21421346677861, -1.22042460741614], a = 0.2, v = 0.2, t = 0.2)
movej(p[0.477032569132066, -0.0212052730594516, 0.22542504438112, -1.21326595585506, 1.20964303603961, -1.22379214365907], a = 0.2, v = 0.2, t = 0.2)
movej(p[0.476475237300266, -0.021012211959468, 0.225696967460198, -1.21005401094252, 1.21884628301281, -1.21408309472629], a = 0.2, v = 0.2, t = 0.2)
movej(p[0.475353387453614, -0.0206437024872054, 0.226215086578182, -1.21208339738706, 1.22452474719679, -1.20547136968082], a = 0.2, v = 0.2, t = 0.2)
movej(p[0.474348293679856, -0.0202740901643262, 0.226539468107757, -1.20684939641327, 1.23096596203801, -1.19957561710782], a = 0.2, v = 0.2, t = 0.2)
movej(p[0.473006870036808, -0.0197728917923185, 0.226980797748465, -1.20020727647645, 1.2377685384922, -1.19440800749573], a = 0.2, v = 0.2, t = 0.2)
movej(p[0.471086126237448, -0.019018748873069, 0.227542190841196, -1.19924007337544, 1.24390858900196, -1.18381633542942], a = 0.2, v = 0.2, t = 0.2)
movej(p[0.468967826574481, -0.0182741271261702, 0.228330377470058, -1.18474667446806, 1.25615241228761, -1.17395671544997], a = 0.2, v = 0.2, t = 0.2)
movej(p[0.467395822037052, -0.0177078727050458, 0.228878840773171, -1.17652039620426, 1.26140355105971, -1.16962600659876], a = 0.2, v = 0.2, t = 0.2)
movej(p[0.468333345193562, -0.0181120965871162, 0.228674081196662, -1.18250280064954, 1.25578876701718, -1.17491618609802], a = 0.2, v = 0.2, t = 0.2)
movej(p[0.47004641416451, -0.0187103647873356, 0.228019607452819, -1.17789524210423, 1.24994524888898, -1.18541827235825], a = 0.2, v = 0.2, t = 0.2)
movej(p[0.47113728234262, -0.0190040772855859, 0.227406332468526, -1.18331281864317, 1.24008440326631, -1.19401423975625], a = 0.2, v = 0.2, t = 0.2)
movej(p[0.472141140982993, -0.0192440501123317, 0.226814481023844, -1.18580374184056, 1.23463446726174, -1.20022486957386], a = 0.2, v = 0.2, t = 0.2)
movej(p[0.473061600828204, -0.0195334982460992, 0.226380391377328, -1.19294983857836, 1.22537187419372, -1.20916450099806], a = 0.2, v = 0.2, t = 0.2)
movej(p[0.47409386229435, -0.0199205113204424, 0.226050361809262, -1.19569657203589, 1.22211588360143, -1.211544133023], a = 0.2, v = 0.2, t = 0.2)
movej(p[0.475072381463973, -0.0202898894634056, 0.225758117883439, -1.20450313514753, 1.21684507364003, -1.21447414561441], a = 0.2, v = 0.2, t = 0.2)
movej(p[0.475283451887827, -0.0203647907755023, 0.225729990501397, -1.21025958822882, 1.21582446731264, -1.21361343367634], a = 0.2, v = 0.2, t = 0.2)
movej(p[0.475458544019315, -0.0204367469076229, 0.225652963749283, -1.20941471448449, 1.21270389094654, -1.21860757985791], a = 0.2, v = 0.2, t = 0.2)
movej(p[0.475567537595036, -0.0204688032105818, 0.225619980209568, -1.20956009902474, 1.21395597223304, -1.21744091893159], a = 0.2, v = 0.2, t = 0.2)
movej(p[0.476050218993024, -0.0206761658845976, 0.225524659700437, -1.20543127722341, 1.2152735634444, -1.21869830460076], a = 0.2, v = 0.2, t = 0.2)
movej(p[0.476862485144614, -0.0210577878564528, 0.225412195174571, -1.21164168840313, 1.21209909021358, -1.22085975361933], a = 0.2, v = 0.2, t = 0.2)
movej(p[0.477131022822102, -0.0211643504998303, 0.225362662772995, -1.20824322483482, 1.21538803227537, -1.21880669743164], a = 0.2, v = 0.2, t = 0.2)
movej(p[0.477188063908109, -0.0212175588331631, 0.225371067400955, -1.21487400148253, 1.21090834775313, -1.22110721152385], a = 0.2, v = 0.2, t = 0.2)
movej(p[0.476862741798906, -0.021074068780242, 0.225455279692082, -1.20452168931445, 1.21674637315982, -1.21986582869076], a = 0.2, v = 0.2, t = 0.2)
movej(p[0.476099352894869, -0.0208404087947723, 0.225796717830525, -1.21387073811168, 1.21772885922053, -1.21359002478874], a = 0.2, v = 0.2, t = 0.2)
movej(p[0.475215395702755, -0.0204733274067249, 0.226060092614926, -1.21593846957154, 1.22173996548754, -1.2058069249613], a = 0.2, v = 0.2, t = 0.2)
movej(p[0.474118728576297, -0.0200443099615599, 0.226396757976215, -1.19985654842567, 1.23335842129886, -1.19976567357967], a = 0.2, v = 0.2, t = 0.2)
movej(p[0.472599501728765, -0.0194724314777236, 0.22691841465015, -1.19951060627114, 1.23839398848083, -1.1906701179575], a = 0.2, v = 0.2, t = 0.2)
movej(p[0.472191995495119, -0.0193321416768517, 0.227077653657028, -1.19781960755997, 1.241732092503, -1.18827680087953], a = 0.2, v = 0.2, t = 0.2)
movej(p[0.471043862498277, -0.0189475448614491, 0.227520928313582, -1.19251312136736, 1.24489683356245, -1.18560291450206], a = 0.2, v = 0.2, t = 0.2)
movej(p[0.469664985810931, -0.0184836911952769, 0.228071363648088, -1.18513807657848, 1.2505319990613, -1.1808821472502], a = 0.2, v = 0.2, t = 0.2)
movej(p[0.470443480057249, -0.0187758833412298, 0.227790360804165, -1.18251327393679, 1.24660596202022, -1.18913747527336], a = 0.2, v = 0.2, t = 0.2)
movej(p[0.471723130158677, -0.0191931692901345, 0.227260557298362, -1.18743961413322, 1.23823337137566, -1.19593288928801], a = 0.2, v = 0.2, t = 0.2)
movej(p[0.472516035364869, -0.0194306644084783, 0.226907907127858, -1.19187424204597, 1.23450481313112, -1.19830651468788], a = 0.2, v = 0.2, t = 0.2)
movej(p[0.473703370674706, -0.019799214077976, 0.22639614037129, -1.19572418781063, 1.22887987653791, -1.20460845176879], a = 0.2, v = 0.2, t = 0.2)
movej(p[0.474395545922997, -0.0200275078785235, 0.226109210299174, -1.19568319625806, 1.22339602996135, -1.2114477077184], a = 0.2, v = 0.2, t = 0.2)
movej(p[0.475602480956214, -0.0205337702382529, 0.225742595448527, -1.20544162801493, 1.21484206593004, -1.21997160098692], a = 0.2, v = 0.2, t = 0.2)
movej(p[0.4761251578485, -0.020741951333876, 0.225605571334972, -1.19907408489162, 1.21740860052545, -1.22111421134587], a = 0.2, v = 0.2, t = 0.2)
movej(p[0.476393566566237, -0.0208579043564134, 0.225557886674887, -1.21026053862786, 1.21274851630166, -1.21801257296446], a = 0.2, v = 0.2, t = 0.2)
movej(p[0.476728794628363, -0.0209900869975532, 0.225441039057264, -1.20992838269715, 1.21095670664213, -1.22250733559602], a = 0.2, v = 0.2, t = 0.2)
movej(p[0.476933863749266, -0.0210441873399621, 0.225351190414518, -1.20879495662652, 1.21210366360672, -1.22132675133618], a = 0.2, v = 0.2, t = 0.2)
movej(p[0.477381673770109, -0.0213033633364963, 0.225313754762349, -1.21479626314868, 1.20837057618899, -1.22217482843488], a = 0.2, v = 0.2, t = 0.2)
movej(p[0.477354782113382, -0.0213577493845224, 0.225420272068824, -1.20465912641195, 1.21599531288653, -1.21798503486137], a = 0.2, v = 0.2, t = 0.2)
movej(p[0.47591456172146, -0.0207194030309352, 0.225799970114058, -1.19990832971411, 1.22451945612727, -1.21098780637836], a = 0.2, v = 0.2, t = 0.2)
movej(p[0.474392729174553, -0.0201841788681692, 0.226368508885617, -1.19999805538488, 1.23189935359399, -1.20176878894411], a = 0.2, v = 0.2, t = 0.2)
movej(p[0.472684268562453, -0.0194524033449933, 0.226869708307587, -1.19614474378952, 1.23805662134011, -1.19327739156857], a = 0.2, v = 0.2, t = 0.2)
movej(p[0.47083692615013, -0.0188034493514963, 0.227569411834775, -1.17573203848202, 1.24971556683186, -1.18764037844077], a = 0.2, v = 0.2, t = 0.2)
movej(p[0.46926616539793, -0.0182892186750077, 0.228211945499811, -1.17401842632326, 1.25596396840677, -1.17937938934453], a = 0.2, v = 0.2, t = 0.2)
movej(p[0.46736819791586, -0.0176616629029437, 0.228983842021345, -1.17430755279932, 1.26260532293209, -1.16910989993163], a = 0.2, v = 0.2, t = 0.2)
movej(p[0.466822744105002, -0.0175414669090218, 0.229268965438946, -1.16644716840129, 1.26492706034918, -1.16946186001117], a = 0.2, v = 0.2, t = 0.2)
movej(p[0.46844178323131, -0.0180224227513756, 0.22858757313257, -1.16915007336822, 1.25853915893664, -1.1763086041132], a = 0.2, v = 0.2, t = 0.2)
movej(p[0.469620567579417, -0.0183829108283382, 0.228063845114392, -1.16966205968356, 1.2511812991578, -1.18732155662528], a = 0.2, v = 0.2, t = 0.2)
movej(p[0.471448940834704, -0.0190386026243694, 0.227386132337495, -1.17986489565114, 1.24070841716954, -1.19549903586089], a = 0.2, v = 0.2, t = 0.2)
movej(p[0.472287839852281, -0.0192876714487327, 0.227023247977072, -1.18080855879881, 1.23752785205002, -1.20081209085138], a = 0.2, v = 0.2, t = 0.2)
movej(p[0.472929997995476, -0.019580795102841, 0.22684193489831, -1.19083146578352, 1.23227314212258, -1.20290825122864], a = 0.2, v = 0.2, t = 0.2)
movej(p[0.473396487313116, -0.019660126453672, 0.226587319672326, -1.19576719582545, 1.22837046125508, -1.20467032483934], a = 0.2, v = 0.2, t = 0.2)
movej(p[0.47450793002942, -0.0200960879036632, 0.226210523490691, -1.20212531478066, 1.22184886596264, -1.2113763284049], a = 0.2, v = 0.2, t = 0.2)
movej(p[0.475622265791901, -0.0205748507303262, 0.225874253503533, -1.20472877897808, 1.21774772338637, -1.21607722945125], a = 0.2, v = 0.2, t = 0.2)
movej(p[0.476079183687731, -0.0206890829949196, 0.225653795035344, -1.20325474949793, 1.21631541092014, -1.22035535779974], a = 0.2, v = 0.2, t = 0.2)
movej(p[0.476331093622859, -0.0208606783018997, 0.225628656912785, -1.20926464119293, 1.21362121691766, -1.22103841320953], a = 0.2, v = 0.2, t = 0.2)
movej(p[0.476619277180376, -0.020925892160714, 0.225520357790924, -1.20782417441345, 1.21485784015501, -1.2165754176597], a = 0.2, v = 0.2, t = 0.2)
movej(p[0.476672947902391, -0.0209983485668203, 0.225537253139765, -1.20580291485889, 1.21462956604288, -1.21999102368905], a = 0.2, v = 0.2, t = 0.2)
movej(p[0.476776026735382, -0.0210231339401011, 0.22547591824382, -1.21840235055998, 1.20686239013502, -1.22162136007646], a = 0.2, v = 0.2, t = 0.2)
movej(p[0.477106791642963, -0.0212455111938715, 0.225456022944911, -1.21702239240151, 1.20992376335504, -1.21600195139432], a = 0.2, v = 0.2, t = 0.2)
movej(p[0.476417063326799, -0.0209591482388865, 0.225659660485393, -1.20676256987812, 1.21788051042745, -1.21549679306366], a = 0.2, v = 0.2, t = 0.2)
movej(p[0.47449744185889, -0.0201350545225721, 0.226290099623354, -1.19113768058751, 1.23246828567833, -1.20312403710771], a = 0.2, v = 0.2, t = 0.2)
movej(p[0.472142249852283, -0.019260216129411, 0.227135071308009, -1.19061149037986, 1.24149721049984, -1.19309717391737], a = 0.2, v = 0.2, t = 0.2)
movej(p[0.470129555796163, -0.0185578078977665, 0.227916518876677, -1.18127671784902, 1.25116774102769, -1.18103904423288], a = 0.2, v = 0.2, t = 0.2)
movej(p[0.468384928851689, -0.0179778166806173, 0.228618013532854, -1.17089300100944, 1.26217679451143, -1.17066481482991], a = 0.2, v = 0.2, t = 0.2)
movej(p[0.466762891871767, -0.0175086253747449, 0.229285258805793, -1.17885015279967, 1.26380007894516, -1.16290046602601], a = 0.2, v = 0.2, t = 0.2)
movej(p[0.467635364431675, -0.0177766146239873, 0.228955349659968, -1.17018212554451, 1.26366113698444, -1.16385967807003], a = 0.2, v = 0.2, t = 0.2)
movej(p[0.469542630678491, -0.018354927351461, 0.228196523162674, -1.1777436535173, 1.25116286833609, -1.17624572847652], a = 0.2, v = 0.2, t = 0.2)
movej(p[0.470836834683108, -0.0188052219761414, 0.227692222621906, -1.18119898081738, 1.24475840130507, -1.18774140728366], a = 0.2, v = 0.2, t = 0.2)
movej(p[0.473206012731218, -0.0195554238981992, 0.226822045764885, -1.16130994942832, 1.24732413715914, -1.20341372272806], a = 0.2, v = 0.2, t = 0.2)
movej(p[0.473223708798501, -0.0195587810318506, 0.226820003987146, -1.15900157668048, 1.24848211175276, -1.20325991081631], a = 0.2, v = 0.2, t = 0.2)
movej(p[0.473241304866402, -0.0195621379030661, 0.226817961975865, -1.15669138890362, 1.24963554059452, -1.20310933371058], a = 0.2, v = 0.2, t = 0.2)
movej(p[0.473259000933686, -0.0195654950367174, 0.226815920198127, -1.15437843059315, 1.25078976991981, -1.20295896473977], a = 0.2, v = 0.2, t = 0.2)
movej(p[0.473547338685543, -0.0198747013413241, 0.226709968973285, -1.17439996529172, 1.24195019182639, -1.20140965765459], a = 0.2, v = 0.2, t = 0.2)
movej(p[0.474308887468348, -0.0202385433150472, 0.226410692830623, -1.19074269387428, 1.23278352168757, -1.20188354971588], a = 0.2, v = 0.2, t = 0.2)
movej(p[0.475056981279171, -0.0204689364483492, 0.226113603173557, -1.19585396144678, 1.22820471107712, -1.20342001310967], a = 0.2, v = 0.2, t = 0.2)
movej(p[0.475503103913964, -0.0206492752139001, 0.225945258454709, -1.19497387061775, 1.22677548327239, -1.21504239981175], a = 0.2, v = 0.2, t = 0.2)
movej(p[0.476393006599117, -0.0212107155616839, 0.22561529015799, -1.21318345858479, 1.21338491688135, -1.21711504728612], a = 0.2, v = 0.2, t = 0.2)
movej(p[0.476598443729645, -0.0210256008746428, 0.225508219022562, -1.21005983998948, 1.21523749459075, -1.20998010632297], a = 0.2, v = 0.2, t = 0.2)
movej(p[0.476754991648238, -0.0210695692853681, 0.225438706232066, -1.20690355651351, 1.21691245075171, -1.2035363069229], a = 0.2, v = 0.2, t = 0.2)
movej(p[0.476999705006538, -0.021286815929397, 0.225360783976403, -1.18815314758274, 1.2255319124401, -1.20370719168271], a = 0.2, v = 0.2, t = 0.2)
movej(p[0.477084253833045, -0.0212941868678057, 0.225331817526788, -1.18200095410922, 1.22826070352252, -1.20429386414411], a = 0.2, v = 0.2, t = 0.2)
movej(p[0.477085279434121, -0.0211780330606706, 0.225322925888556, -1.18758833911156, 1.22550587991164, -1.20522469412945], a = 0.2, v = 0.2, t = 0.2)
movej(p[0.476338287839972, -0.0208004753838658, 0.225613165563576, -1.18706310828586, 1.2275953262798, -1.20173349048783], a = 0.2, v = 0.2, t = 0.2)
movej(p[0.475735076267015, -0.0205666409281478, 0.225836472875524, -1.19269283599113, 1.22791321870968, -1.20202639724284], a = 0.2, v = 0.2, t = 0.2)
movej(p[0.475146359492543, -0.0203402761032015, 0.2260536519387, -1.19856600538329, 1.22811822141446, -1.20248926070008], a = 0.2, v = 0.2, t = 0.2)
movej(p[0.473218042944115, -0.0195011464757501, 0.226784495593249, -1.19899790793471, 1.2359856834464, -1.19730501465823], a = 0.2, v = 0.2, t = 0.2)
movej(p[0.471177720520906, -0.0187903555092509, 0.227587436488518, -1.1871668182344, 1.24732269715772, -1.19139624831704], a = 0.2, v = 0.2, t = 0.2)
movej(p[0.470050547712719, -0.0184205115174344, 0.228031235251699, -1.17434951719637, 1.25625777585011, -1.18270637866731], a = 0.2, v = 0.2, t = 0.2)
movej(p[0.470146745762195, -0.0186375151018593, 0.228002567680756, -1.20094628710621, 1.23916493225264, -1.19316886055696], a = 0.2, v = 0.2, t = 0.2)
movej(p[0.470950013073245, -0.0187621423016427, 0.227707365397443, -1.18829013030814, 1.24321005752639, -1.18543822544229], a = 0.2, v = 0.2, t = 0.2)
movej(p[0.471462865974432, -0.0189170948326055, 0.227511945401301, -1.19086465742533, 1.23902957555992, -1.18798499137636], a = 0.2, v = 0.2, t = 0.2)
movej(p[0.472357831666623, -0.0194019830011914, 0.227155397040253, -1.19615085095444, 1.23317570311035, -1.19082117717471], a = 0.2, v = 0.2, t = 0.2)
movej(p[0.473984791165207, -0.0200533730333402, 0.226530695426692, -1.20308171271429, 1.2257686870418, -1.20683172146284], a = 0.2, v = 0.2, t = 0.2)
movej(p[0.474394733629295, -0.0202318495492687, 0.226355857074494, -1.2147341086846, 1.21754820393245, -1.20891475492201], a = 0.2, v = 0.2, t = 0.2)
movej(p[0.474923444630386, -0.0204576410694981, 0.226141635794695, -1.21708289746624, 1.21619289850171, -1.21181308525185], a = 0.2, v = 0.2, t = 0.2)
movej(p[0.475536273683634, -0.0207838331672193, 0.22589272262333, -1.21507123573998, 1.21503736227044, -1.21780665637444], a = 0.2, v = 0.2, t = 0.2)
movej(p[0.476011451253421, -0.0208706674663452, 0.225720367229837, -1.21157106896949, 1.21466798533865, -1.21740752952391], a = 0.2, v = 0.2, t = 0.2)
movej(p[0.476660348229609, -0.0212460672138157, 0.225429988745968, -1.2118995503534, 1.21244365947053, -1.21828816475586], a = 0.2, v = 0.2, t = 0.2)
movej(p[0.476665461322542, -0.0211312042048777, 0.225425013260228, -1.21683578738525, 1.20975294152519, -1.21959582467794], a = 0.2, v = 0.2, t = 0.2)
movej(p[0.47675547208817, -0.021189882857047, 0.225397521846101, -1.20777516569297, 1.21336269382798, -1.21902936367104], a = 0.2, v = 0.2, t = 0.2)
movej(p[0.476922518412862, -0.02119688121727, 0.225327444400651, -1.20700064458251, 1.21287504281853, -1.21633927472986], a = 0.2, v = 0.2, t = 0.2)
movej(p[0.476807971038977, -0.0210411368723822, 0.225393983172592, -1.20676308080337, 1.21413094399444, -1.21739972133189], a = 0.2, v = 0.2, t = 0.2)
movej(p[0.476590137511782, -0.0207583581488927, 0.225511433408742, -1.20262705182087, 1.21765363246197, -1.21484605617818], a = 0.2, v = 0.2, t = 0.2)
movej(p[0.476386330750224, -0.020737671106235, 0.225579855482733, -1.20147125282113, 1.21848860462659, -1.21357707183208], a = 0.2, v = 0.2, t = 0.2)
movej(p[0.47461422797234, -0.0200944340163962, 0.226256362578683, -1.20080441134899, 1.2274609268853, -1.20700644719961], a = 0.2, v = 0.2, t = 0.2)
movej(p[0.472632716723382, -0.0194293849799236, 0.227003273021332, -1.19018890538659, 1.23925314496262, -1.1951560391587], a = 0.2, v = 0.2, t = 0.2)
movej(p[0.471096710713653, -0.0188025732433585, 0.227620511374791, -1.18675795786419, 1.24617765365319, -1.18898596701917], a = 0.2, v = 0.2, t = 0.2)
movej(p[0.47048504858647, -0.018658284088413, 0.227850457003007, -1.17996690157637, 1.25089358912729, -1.18814804660829], a = 0.2, v = 0.2, t = 0.2)
movej(p[0.469919513912976, -0.018481608223946, 0.228062343864306, -1.18109582161406, 1.24994254996708, -1.18193038420563], a = 0.2, v = 0.2, t = 0.2)
movej(p[0.470503809921091, -0.018725416433379, 0.227834443552954, -1.18918476289688, 1.24264366586128, -1.18596667280108], a = 0.2, v = 0.2, t = 0.2)
movej(p[0.471777123164435, -0.0192332703960327, 0.227347089064986, -1.18896472842115, 1.23347729813582, -1.18815053937577], a = 0.2, v = 0.2, t = 0.2)
movej(p[0.472587241059178, -0.0196041312730973, 0.227010460996519, -1.19238706468005, 1.22969744704557, -1.19270204707046], a = 0.2, v = 0.2, t = 0.2)
movej(p[0.473666878036444, -0.0200550012195727, 0.226576466286084, -1.19772815811624, 1.22505808099102, -1.20076194078787], a = 0.2, v = 0.2, t = 0.2)
movej(p[0.474404840468471, -0.0203185714373922, 0.226298323033074, -1.19327689701902, 1.22574988144374, -1.20531914934119], a = 0.2, v = 0.2, t = 0.2)
movej(p[0.474966152560544, -0.0206290193866766, 0.226031409458901, -1.20945978045834, 1.21691085026678, -1.21217097746641], a = 0.2, v = 0.2, t = 0.2)
movej(p[0.475405440326841, -0.0208003306922672, 0.225845302433352, -1.2199125139245, 1.20910548355225, -1.21483301788404], a = 0.2, v = 0.2, t = 0.2)
movej(p[0.475756689023151, -0.0209613665236757, 0.225687238888084, -1.20938683321065, 1.21555369775231, -1.21438182894855], a = 0.2, v = 0.2, t = 0.2)
movej(p[0.476507229629739, -0.0211850108955794, 0.225420520885733, -1.20709353746884, 1.2132351375254, -1.21755438164467], a = 0.2, v = 0.2, t = 0.2)
movej(p[0.476841894019507, -0.0212958674262153, 0.225269262379074, -1.21406193978719, 1.20688357835106, -1.21880395057957], a = 0.2, v = 0.2, t = 0.2)
movej(p[0.476881154197321, -0.0213452676207033, 0.225230905512379, -1.20811297785432, 1.21239130174266, -1.21954201971191], a = 0.2, v = 0.2, t = 0.2)
movej(p[0.476887381863199, -0.0211314887987094, 0.225288027849907, -1.20604856104506, 1.21344301644452, -1.21591345643082], a = 0.2, v = 0.2, t = 0.2)
movej(p[0.476158830967037, -0.0207589788647218, 0.225598036463952, -1.20735042649895, 1.21647648998204, -1.21217365886676], a = 0.2, v = 0.2, t = 0.2)
movej(p[0.47543425381217, -0.0204483594533687, 0.225892570499226, -1.20541901500289, 1.22077137690358, -1.20889134716222], a = 0.2, v = 0.2, t = 0.2)
movej(p[0.474423282652846, -0.0200134869230547, 0.226323406393034, -1.19228862322677, 1.2332608638102, -1.20523174132356], a = 0.2, v = 0.2, t = 0.2)
movej(p[0.472403365357189, -0.019268583029462, 0.227119720149047, -1.1861651802917, 1.24471223222016, -1.19707289431289], a = 0.2, v = 0.2, t = 0.2)
movej(p[0.469981336883182, -0.0186357704830665, 0.227965074093987, -1.17475192203566, 1.25632999891763, -1.18470712731029], a = 0.2, v = 0.2, t = 0.2)
movej(p[0.467640505319828, -0.0179180126056667, 0.228821782440764, -1.17322603142824, 1.26268291175316, -1.17231025364945], a = 0.2, v = 0.2, t = 0.2)
movej(p[0.465267842731159, -0.0171934830954568, 0.229656481907139, -1.17070189823647, 1.26890063670838, -1.16018908309949], a = 0.2, v = 0.2, t = 0.2)
movej(p[0.465908656183746, -0.017310604586406, 0.22943516519891, -1.17442970489147, 1.25953844049112, -1.157904314414], a = 0.2, v = 0.2, t = 0.2)
movej(p[0.468180775089924, -0.0180083393354177, 0.228606195364591, -1.16366675782355, 1.25475072823156, -1.16588265260578], a = 0.2, v = 0.2, t = 0.2)
movej(p[0.469632930633321, -0.018494247218553, 0.228083043372441, -1.17856650874879, 1.24239164143731, -1.17768836744681], a = 0.2, v = 0.2, t = 0.2)
movej(p[0.47079735049187, -0.018988753226385, 0.227607567977459, -1.18750558379563, 1.23457764393494, -1.18593692098083], a = 0.2, v = 0.2, t = 0.2)
movej(p[0.47154606450409, -0.0192313436910349, 0.227330942446523, -1.18831041026678, 1.23340830951286, -1.19073761613303], a = 0.2, v = 0.2, t = 0.2)
movej(p[0.472375230927247, -0.0196535374015069, 0.226958720505273, -1.19918801058573, 1.22665511940104, -1.19779080276879], a = 0.2, v = 0.2, t = 0.2)
movej(p[0.473353454450684, -0.0199569003629831, 0.226610337480717, -1.18992056683443, 1.22950683918746, -1.20138616602794], a = 0.2, v = 0.2, t = 0.2)
movej(p[0.473657481437149, -0.020115349987345, 0.226464351255201, -1.20250536988322, 1.22405909993657, -1.20380034207327], a = 0.2, v = 0.2, t = 0.2)
movej(p[0.474216678263347, -0.0202471870852142, 0.226276220797284, -1.20127734051373, 1.22061559986859, -1.20423174749668], a = 0.2, v = 0.2, t = 0.2)
movej(p[0.474715476583872, -0.0203770389492934, 0.226132340642861, -1.19683987000055, 1.22452179748458, -1.21035451527291], a = 0.2, v = 0.2, t = 0.2)
movej(p[0.475073868963464, -0.0205156600386109, 0.225980779183886, -1.19195881623031, 1.22419540931456, -1.20902849116481], a = 0.2, v = 0.2, t = 0.2)
movej(p[0.475603700387203, -0.020666184653535, 0.225799576196272, -1.19478711714404, 1.22164757821962, -1.21072330107395], a = 0.2, v = 0.2, t = 0.2)
movej(p[0.475539949578872, -0.0207012079114422, 0.225781806957611, -1.20416423513671, 1.21736559130264, -1.21048752805283], a = 0.2, v = 0.2, t = 0.2)
movej(p[0.475276000909202, -0.0205519689976737, 0.2259268333221, -1.19769406248717, 1.22312061006981, -1.21070729477769], a = 0.2, v = 0.2, t = 0.2)
movej(p[0.475180857799241, -0.0205510197302391, 0.225946107852401, -1.19724326961845, 1.22337285733118, -1.21023848802996], a = 0.2, v = 0.2, t = 0.2)
movej(p[0.475085714689281, -0.0205500704628044, 0.225965382382702, -1.19679246453416, 1.22362500061055, -1.20976965926365], a = 0.2, v = 0.2, t = 0.2)
movej(p[0.474124353125594, -0.0201431096630164, 0.2263608756207, -1.1871595812829, 1.23423068999743, -1.20589083780244], a = 0.2, v = 0.2, t = 0.2)
movej(p[0.473345443286404, -0.0198391144031147, 0.226661817466194, -1.19230534931703, 1.2334733056149, -1.20129666749238], a = 0.2, v = 0.2, t = 0.2)
movej(p[0.474125463360414, -0.0200981951338244, 0.226364148608037, -1.19517008778068, 1.22784414155803, -1.20248251228577], a = 0.2, v = 0.2, t = 0.2)
movej(p[0.474793852768442, -0.0203549841738307, 0.226124709747016, -1.19364496490611, 1.22694519373477, -1.20906678128717], a = 0.2, v = 0.2, t = 0.2)
movej(p[0.476161538406657, -0.0208226312269489, 0.225608968369258, -1.20013893347135, 1.21734293593309, -1.21249563746845], a = 0.2, v = 0.2, t = 0.2)
movej(p[0.476944144694218, -0.0211431233562327, 0.225291019185052, -1.20266642987844, 1.21436566668771, -1.2168349234074], a = 0.2, v = 0.2, t = 0.2)
movej(p[0.477496894561332, -0.0212885188918377, 0.225107743156529, -1.19623535070756, 1.21647233200904, -1.21864849400264], a = 0.2, v = 0.2, t = 0.2)
movej(p[0.476781079393639, -0.0208691508144513, 0.225455142352512, -1.20249933464187, 1.2181350014367, -1.21505193422142], a = 0.2, v = 0.2, t = 0.2)
movej(p[0.474609970944317, -0.0200536822869022, 0.22628374476734, -1.19455684575332, 1.23046573509458, -1.20412563915415], a = 0.2, v = 0.2, t = 0.2)
movej(p[0.472764064297154, -0.0192325567359948, 0.227075972796133, -1.18860186097947, 1.23993337438551, -1.19300694747453], a = 0.2, v = 0.2, t = 0.2)
movej(p[0.470986713327092, -0.0186068011089118, 0.227753457101778, -1.18566466993134, 1.24718785809469, -1.18537308054106], a = 0.2, v = 0.2, t = 0.2)
movej(p[0.467492682894795, -0.0176616940614871, 0.228904929987733, -1.16753853986787, 1.26356097388518, -1.16929614726587], a = 0.2, v = 0.2, t = 0.2)
movej(p[0.464855691798757, -0.0168334306135872, 0.229824886655349, -1.16498804149495, 1.27053726476865, -1.15475614747699], a = 0.2, v = 0.2, t = 0.2)
movej(p[0.463766340393191, -0.0165445988495512, 0.230168585865815, -1.16751027275049, 1.26316099481001, -1.14560004142767], a = 0.2, v = 0.2, t = 0.2)
movej(p[0.465707027344259, -0.0170997740158466, 0.229512620293026, -1.17621997348784, 1.25054938452319, -1.15500506662276], a = 0.2, v = 0.2, t = 0.2)
movej(p[0.468190374896757, -0.0179346774923826, 0.228603440988173, -1.177565582494, 1.24294958469037, -1.16802991279258], a = 0.2, v = 0.2, t = 0.2)
movej(p[0.469571320316155, -0.0185773412814517, 0.227993923758833, -1.17780982296594, 1.23983204319286, -1.17686095206928], a = 0.2, v = 0.2, t = 0.2)
movej(p[0.4708728876979, -0.0190535053523049, 0.227519073047129, -1.18286938807791, 1.23947692643918, -1.18837727029129], a = 0.2, v = 0.2, t = 0.2)
movej(p[0.471907233154562, -0.019425741171601, 0.2271268717836, -1.1971855209035, 1.23031047328745, -1.19535550078344], a = 0.2, v = 0.2, t = 0.2)
movej(p[0.473280441714835, -0.0199265248711226, 0.226606912586846, -1.19642466397736, 1.22764058275436, -1.20251630433492], a = 0.2, v = 0.2, t = 0.2)
movej(p[0.474613451259076, -0.0203658703738025, 0.226112646328403, -1.2053831759844, 1.21987950536722, -1.20804338221128], a = 0.2, v = 0.2, t = 0.2)
movej(p[0.475048535705734, -0.0205838130980728, 0.225918367834447, -1.20073308270428, 1.22141163177443, -1.21105472373487], a = 0.2, v = 0.2, t = 0.2)
movej(p[0.475804276596716, -0.0207893676226071, 0.225671869734775, -1.20383151922982, 1.21816761268545, -1.21415415049023], a = 0.2, v = 0.2, t = 0.2)
movej(p[0.476097839760578, -0.020891746217482, 0.225573373277302, -1.20035398537961, 1.22109077570538, -1.21653083034844], a = 0.2, v = 0.2, t = 0.2)
movej(p[0.476308771911592, -0.0209487980831631, 0.225496053536674, -1.19452637275892, 1.22330392081188, -1.21681838945035], a = 0.2, v = 0.2, t = 0.2)
movej(p[0.476951640228948, -0.0211250478908993, 0.22527044384758, -1.17535180090416, 1.22966425502159, -1.21668008946278], a = 0.2, v = 0.2, t = 0.2)
movej(p[0.477020960891454, -0.0210210952949674, 0.225335774342364, -1.18697217101035, 1.2249046704369, -1.21785148969242], a = 0.2, v = 0.2, t = 0.2)
movej(p[0.476658735368655, -0.0207918072150607, 0.225517763811965, -1.19054106362285, 1.22517137511856, -1.21373902238116], a = 0.2, v = 0.2, t = 0.2)
movej(p[0.475575707212548, -0.0202994086630681, 0.225994638993827, -1.20269832947651, 1.22416700144036, -1.20932211441516], a = 0.2, v = 0.2, t = 0.2)
movej(p[0.47421378414608, -0.0197078189126898, 0.226580061147719, -1.20488961354174, 1.2314617240811, -1.20372851656539], a = 0.2, v = 0.2, t = 0.2)
movej(p[0.473305634273899, -0.0193423433249245, 0.226966889913979, -1.19262851058094, 1.24086285885988, -1.20093606506417], a = 0.2, v = 0.2, t = 0.2)
movej(p[0.471029228705234, -0.0185658103385389, 0.227793046865173, -1.18188431498797, 1.25232118499447, -1.18664780699283], a = 0.2, v = 0.2, t = 0.2)
movej(p[0.468655168030524, -0.017884228513614, 0.228578661897314, -1.18356841181411, 1.25731797950594, -1.17614327908738], a = 0.2, v = 0.2, t = 0.2)
movej(p[0.465996380345434, -0.0171960844233507, 0.229425283209737, -1.17055025661814, 1.26677545505853, -1.16462565696056], a = 0.2, v = 0.2, t = 0.2)
movej(p[0.465204713516181, -0.0169638440418427, 0.229669961420162, -1.16828447599925, 1.26446738247339, -1.15547132377928], a = 0.2, v = 0.2, t = 0.2)
movej(p[0.467201383131316, -0.0175110824531589, 0.229030485518211, -1.16850232467207, 1.25351055454705, -1.16379408410668], a = 0.2, v = 0.2, t = 0.2)
movej(p[0.469738085957216, -0.0183528676713294, 0.228132865470785, -1.17070442197828, 1.24339903062336, -1.1774482949345], a = 0.2, v = 0.2, t = 0.2)
movej(p[0.470737591124826, -0.0188228679910472, 0.227690782379743, -1.18356144073419, 1.234998670899, -1.18508667332612], a = 0.2, v = 0.2, t = 0.2)
movej(p[0.472136300854384, -0.0193313655245787, 0.227161721692458, -1.1953672286373, 1.22859565364031, -1.19391712179695], a = 0.2, v = 0.2, t = 0.2)
movej(p[0.473376239117617, -0.0199024505616773, 0.226592511710312, -1.19803667520386, 1.22377298465044, -1.19981749150022], a = 0.2, v = 0.2, t = 0.2)
movej(p[0.474796975051424, -0.0203958764257789, 0.2260692251989, -1.20075467323455, 1.22183031838285, -1.20787659017827], a = 0.2, v = 0.2, t = 0.2)
movej(p[0.475916717260653, -0.0206913057579739, 0.225722130234158, -1.18506743583179, 1.22682634480903, -1.21348772324976], a = 0.2, v = 0.2, t = 0.2)
movej(p[0.476439128327729, -0.0208550424344666, 0.225534777471255, -1.17893191842503, 1.2327430671965, -1.21602477523747], a = 0.2, v = 0.2, t = 0.2)
movej(p[0.476722300911082, -0.0208900452875252, 0.22546511285818, -1.18314674186596, 1.22811771576941, -1.21626784184476], a = 0.2, v = 0.2, t = 0.2)
movej(p[0.476907406892725, -0.0209264533876317, 0.225422128142213, -1.17782145244356, 1.23168377744046, -1.217793530544], a = 0.2, v = 0.2, t = 0.2)
movej(p[0.477066165241043, -0.0209184513081188, 0.225406555616315, -1.17453465275431, 1.23056897281454, -1.21687893765092], a = 0.2, v = 0.2, t = 0.2)
movej(p[0.477497654567877, -0.0208852056633205, 0.225363986872731, -1.17102053631747, 1.23283717279638, -1.21686960134694], a = 0.2, v = 0.2, t = 0.2)
movej(p[0.477168804282034, -0.0208361508956079, 0.225439773674128, -1.18327255324008, 1.22740401300991, -1.21566093821409], a = 0.2, v = 0.2, t = 0.2)
movej(p[0.475952556427064, -0.0203751217331677, 0.225932300157335, -1.19756963736378, 1.22700709471731, -1.21036317977148], a = 0.2, v = 0.2, t = 0.2)
movej(p[0.474824165863066, -0.0199210885373083, 0.226392665905559, -1.18710506101072, 1.23944006771422, -1.20489601219457], a = 0.2, v = 0.2, t = 0.2)
movej(p[0.473421627669852, -0.0194167426153247, 0.226929239048341, -1.18628000721921, 1.24532423862317, -1.19922701291383], a = 0.2, v = 0.2, t = 0.2)
movej(p[0.473139211030693, -0.0193410297866363, 0.227020697615453, -1.19328816775661, 1.24231054654926, -1.19834694568541], a = 0.2, v = 0.2, t = 0.2)
movej(p[0.472059332108098, -0.018948786219481, 0.227449591432802, -1.19350580764306, 1.24632866564032, -1.19359553107412], a = 0.2, v = 0.2, t = 0.2)
movej(p[0.469728207051063, -0.0181745804961133, 0.228281333313656, -1.17623544363, 1.25945222382868, -1.18047104882422], a = 0.2, v = 0.2, t = 0.2)
movej(p[0.466367004879418, -0.0171920053207011, 0.229377522182416, -1.17025060643214, 1.2680490847043, -1.16281408780486], a = 0.2, v = 0.2, t = 0.2)
movej(p[0.465652118214024, -0.0169891922971617, 0.229597828748649, -1.16242952309263, 1.26459814904597, -1.15739549784815], a = 0.2, v = 0.2, t = 0.2)
movej(p[0.467967646733446, -0.0177585367083442, 0.228770025859835, -1.16605668856717, 1.25340390659707, -1.16805517921993], a = 0.2, v = 0.2, t = 0.2)
movej(p[0.470534607112365, -0.0187596064968772, 0.227754488612095, -1.18434713942987, 1.23885403461893, -1.18488806271462], a = 0.2, v = 0.2, t = 0.2)
movej(p[0.471197406045089, -0.0191854559912513, 0.227363798769739, -1.18514006682898, 1.23406186775036, -1.19033189323933], a = 0.2, v = 0.2, t = 0.2)
movej(p[0.472183639883956, -0.0196858591680842, 0.226875239576099, -1.18802260478396, 1.23270542104394, -1.19680912708416], a = 0.2, v = 0.2, t = 0.2)
movej(p[0.473003990622772, -0.020074118833303, 0.226505023696257, -1.20332842791198, 1.22484651257826, -1.20400122468607], a = 0.2, v = 0.2, t = 0.2)
movej(p[0.4739861539328, -0.0204012975233209, 0.226155671571269, -1.19252803142724, 1.22815760729779, -1.20838409364601], a = 0.2, v = 0.2, t = 0.2)
movej(p[0.475094952387999, -0.0206232985579671, 0.225866976686722, -1.16752587123682, 1.24016276441425, -1.21217518623052], a = 0.2, v = 0.2, t = 0.2)
movej(p[0.475315428358586, -0.0207149517407948, 0.225774855785339, -1.17623201507916, 1.23375079834837, -1.21285554561864], a = 0.2, v = 0.2, t = 0.2)
movej(p[0.475611935415749, -0.020765334798192, 0.225716000942044, -1.16885788068491, 1.23833152900605, -1.21486591757269], a = 0.2, v = 0.2, t = 0.2)
movej(p[0.475951790177074, -0.020789484886164, 0.225666312769852, -1.16355434066681, 1.24146089654546, -1.21637481326073], a = 0.2, v = 0.2, t = 0.2)
movej(p[0.476344170128445, -0.0208064866781883, 0.225614009970402, -1.15820441409349, 1.24137423228905, -1.21734221457932], a = 0.2, v = 0.2, t = 0.2)
movej(p[0.476950624619388, -0.0208685536170247, 0.22552253404177, -1.16226853645633, 1.23829212878063, -1.21879100544315], a = 0.2, v = 0.2, t = 0.2)
movej(p[0.47699505564549, -0.0208488244496223, 0.225531536478835, -1.16019475241646, 1.23829106751684, -1.21797770603773], a = 0.2, v = 0.2, t = 0.2)
movej(p[0.476941213848889, -0.0208040528421686, 0.225556782946009, -1.16276012618738, 1.23594113327683, -1.21662505341357], a = 0.2, v = 0.2, t = 0.2)
movej(p[0.476538389047953, -0.0206692851648213, 0.22567496040957, -1.19423881842778, 1.21998339086215, -1.21238302969736], a = 0.2, v = 0.2, t = 0.2)
movej(p[0.476207577452719, -0.0205916453469787, 0.225766296750334, -1.19936473546987, 1.21864746257211, -1.21139468654193], a = 0.2, v = 0.2, t = 0.2)
movej(p[0.47542514732369, -0.0202314731853175, 0.226139044328665, -1.20010799901424, 1.22497269870364, -1.20787761475716], a = 0.2, v = 0.2, t = 0.2)
movej(p[0.473965155100979, -0.0196546600425421, 0.22673721452012, -1.19164505339947, 1.23501656836855, -1.20071330461413], a = 0.2, v = 0.2, t = 0.2)
movej(p[0.471517777755624, -0.0189337417535476, 0.22753115832168, -1.18443750618766, 1.24787857767403, -1.18995984931663], a = 0.2, v = 0.2, t = 0.2)
movej(p[0.469423481273274, -0.0183051389482084, 0.228230492474383, -1.18074701120216, 1.25331723348582, -1.18125349918058], a = 0.2, v = 0.2, t = 0.2)
movej(p[0.467322227199159, -0.0177305213153107, 0.228850985247893, -1.17073095794846, 1.26031364916178, -1.17058074282576], a = 0.2, v = 0.2, t = 0.2)
movej(p[0.468210234437809, -0.0180035374032697, 0.228543438227389, -1.17313403315071, 1.251657041117, -1.17331061818614], a = 0.2, v = 0.2, t = 0.2)
movej(p[0.470187327512975, -0.0186212627610306, 0.227857476526921, -1.18451312975967, 1.23385834790068, -1.18142989272769], a = 0.2, v = 0.2, t = 0.2)
movej(p[0.471281236426019, -0.0192225745763303, 0.227266481670137, -1.1835205981954, 1.23193992576187, -1.18958241044593], a = 0.2, v = 0.2, t = 0.2)
movej(p[0.472200861426844, -0.0196116617620512, 0.226863800021976, -1.19269828253099, 1.22129628049112, -1.19452425135523], a = 0.2, v = 0.2, t = 0.2)
movej(p[0.473255953993422, -0.0200018396014731, 0.226474138708044, -1.19431376827308, 1.2231313776552, -1.20196840028991], a = 0.2, v = 0.2, t = 0.2)
movej(p[0.473969046159846, -0.0203917178557333, 0.226084081739076, -1.20204505231665, 1.2187741680313, -1.20692497261604], a = 0.2, v = 0.2, t = 0.2)
movej(p[0.475063942322148, -0.0206720947059128, 0.225773552697504, -1.20401047841628, 1.21517512320212, -1.21154212557882], a = 0.2, v = 0.2, t = 0.2)
movej(p[0.475615403680953, -0.0208642625028448, 0.225575612586442, -1.20793408751666, 1.21169873611297, -1.21440977297405], a = 0.2, v = 0.2, t = 0.2)
movej(p[0.475857067137338, -0.020959162577314, 0.225485257510693, -1.21133576635604, 1.21047795823863, -1.21627029496268], a = 0.2, v = 0.2, t = 0.2)
movej(p[0.476260329622069, -0.0210789274618244, 0.225367804367495, -1.21629299907726, 1.20879705025511, -1.21887984440262], a = 0.2, v = 0.2, t = 0.2)
movej(p[0.476577195301325, -0.0211721198064487, 0.225278615196557, -1.21590489995424, 1.20625657242137, -1.22077413748127], a = 0.2, v = 0.2, t = 0.2)
movej(p[0.476846923938135, -0.0211680665326311, 0.225271620666095, -1.2160246301639, 1.20836419507245, -1.22037939633671], a = 0.2, v = 0.2, t = 0.2)
movej(p[0.477373319495304, -0.0212498078556529, 0.225183059481011, -1.21720375676766, 1.20510986297561, -1.22248464608828], a = 0.2, v = 0.2, t = 0.2)
movej(p[0.477426046639671, -0.0212349198200551, 0.225188305874335, -1.21834415145793, 1.20591376431897, -1.22202135679335], a = 0.2, v = 0.2, t = 0.2)
movej(p[0.477450223856272, -0.0212687279801525, 0.225160134425877, -1.2138545789058, 1.21103515859362, -1.22255059359908], a = 0.2, v = 0.2, t = 0.2)
movej(p[0.477136681791261, -0.0209770724844597, 0.225419419279466, -1.2065216717006, 1.21436146362259, -1.21692618291271], a = 0.2, v = 0.2, t = 0.2)
movej(p[0.475803451429026, -0.0203518484673544, 0.22604583673584, -1.19403919448932, 1.23014949833913, -1.20854580513427], a = 0.2, v = 0.2, t = 0.2)
movej(p[0.474507102360449, -0.019841824596652, 0.226593727595146, -1.19340909752483, 1.23741071867397, -1.20276767181881], a = 0.2, v = 0.2, t = 0.2)
movej(p[0.473044779036725, -0.0192916908748073, 0.227175228519465, -1.18034373067235, 1.2477862949578, -1.19572250932693], a = 0.2, v = 0.2, t = 0.2)
movej(p[0.471258020359827, -0.0187709983670614, 0.227737926345038, -1.18517523661188, 1.25319696045091, -1.18828070756767], a = 0.2, v = 0.2, t = 0.2)
movej(p[0.469299250184217, -0.0181084317398414, 0.228421701288741, -1.17568819726701, 1.25999452227471, -1.17788008523977], a = 0.2, v = 0.2, t = 0.2)
movej(p[0.468173957632948, -0.0178341179565884, 0.228723790617213, -1.1718410861947, 1.263883932763, -1.17393704461758], a = 0.2, v = 0.2, t = 0.2)
movej(p[0.4691343601429, -0.0181492559949849, 0.228371126349625, -1.17435379441663, 1.25035408679757, -1.17745262527324], a = 0.2, v = 0.2, t = 0.2)
movej(p[0.470999065722103, -0.0187366205350617, 0.22775644958095, -1.1861972218994, 1.23525933698721, -1.18614455220829], a = 0.2, v = 0.2, t = 0.2)
movej(p[0.47177304310567, -0.019242311326442, 0.22719992349599, -1.18599025208644, 1.23141372524771, -1.19118895693111], a = 0.2, v = 0.2, t = 0.2)
movej(p[0.472575514112512, -0.0196299649285488, 0.226821662874261, -1.19724721261695, 1.22558582271033, -1.19783513663195], a = 0.2, v = 0.2, t = 0.2)
movej(p[0.473380814963289, -0.0199813008654675, 0.226428622902797, -1.19618923681435, 1.22278027069906, -1.20152837590619], a = 0.2, v = 0.2, t = 0.2)
movej(p[0.474179011513947, -0.0203044277563377, 0.226111923409724, -1.1972931735057, 1.22298226103556, -1.20706527762078], a = 0.2, v = 0.2, t = 0.2)
movej(p[0.475172816941992, -0.0206797876996269, 0.225733244199622, -1.20815536715819, 1.21325600219119, -1.21323121782241], a = 0.2, v = 0.2, t = 0.2)
movej(p[0.475415350125249, -0.020805821701568, 0.225578049304816, -1.20519769894346, 1.21220230964226, -1.213770126989], a = 0.2, v = 0.2, t = 0.2)
movej(p[0.47586175054093, -0.020943988573191, 0.22542378983358, -1.20482422416038, 1.21108542815588, -1.21536679941272], a = 0.2, v = 0.2, t = 0.2)
movej(p[0.476128450880604, -0.0210233267392864, 0.225378014029729, -1.21139973355244, 1.21419934199099, -1.21819900293624], a = 0.2, v = 0.2, t = 0.2)
movej(p[0.476267323038825, -0.0210279755069856, 0.225342259692509, -1.20803234233419, 1.21218901857425, -1.21639796266374], a = 0.2, v = 0.2, t = 0.2)
movej(p[0.476590264418013, -0.0211356137883196, 0.225247258397782, -1.20567834171508, 1.20828996985342, -1.2189520877127], a = 0.2, v = 0.2, t = 0.2)
movej(p[0.477096357353954, -0.0211621785858493, 0.225221768954437, -1.21289419881977, 1.20714432219512, -1.21919237526089], a = 0.2, v = 0.2, t = 0.2)
movej(p[0.47686818151951, -0.0209550408842094, 0.225443583564269, -1.2104713163278, 1.20813596012177, -1.2163511058635], a = 0.2, v = 0.2, t = 0.2)
movej(p[0.476044293838959, -0.0204727312341421, 0.22597811295662, -1.19645309302274, 1.22412778824118, -1.21022687119907], a = 0.2, v = 0.2, t = 0.2)
movej(p[0.474816010465243, -0.0200192361976699, 0.226477350120451, -1.19595085317854, 1.23198185432335, -1.20483003726502], a = 0.2, v = 0.2, t = 0.2)
movej(p[0.473592535470487, -0.0194786709993571, 0.227070854756979, -1.19169702654634, 1.24315218078552, -1.19776239220053], a = 0.2, v = 0.2, t = 0.2)
movej(p[0.472697140175563, -0.0191739981292592, 0.227366022570356, -1.18735091267444, 1.24880403944937, -1.19213648075514], a = 0.2, v = 0.2, t = 0.2)
movej(p[0.470913859152309, -0.01871403404045, 0.227827237367503, -1.17910755126645, 1.25748864432277, -1.18497238342591], a = 0.2, v = 0.2, t = 0.2)
movej(p[0.468955838355998, -0.018057292210924, 0.228526144071264, -1.17169495197367, 1.26538598143996, -1.17640341969379], a = 0.2, v = 0.2, t = 0.2)
movej(p[0.468081353785935, -0.0178219969090679, 0.228738813856722, -1.17387594747909, 1.2618459426634, -1.17176935873395], a = 0.2, v = 0.2, t = 0.2)
movej(p[0.469196068892995, -0.0182131044280887, 0.228295794897017, -1.17116046731749, 1.24925401251976, -1.1773091770564], a = 0.2, v = 0.2, t = 0.2)
movej(p[0.470932710438509, -0.018912053911616, 0.227539989060924, -1.17899984797168, 1.23439733229882, -1.18718556529816], a = 0.2, v = 0.2, t = 0.2)
movej(p[0.47225550979605, -0.0195010931937001, 0.226924662550973, -1.19159272038999, 1.22373967793535, -1.19636691340936], a = 0.2, v = 0.2, t = 0.2)
movej(p[0.473368519933495, -0.0200206056886734, 0.22638229458408, -1.19611227456236, 1.22530417108165, -1.20437780653725], a = 0.2, v = 0.2, t = 0.2)
movej(p[0.474080046946201, -0.0203262901586453, 0.226029104090142, -1.20531773399859, 1.21879143650215, -1.20774164691739], a = 0.2, v = 0.2, t = 0.2)
movej(p[0.474846580984994, -0.0206690288470476, 0.225674230748167, -1.20496866906718, 1.22147751741014, -1.21315372249466], a = 0.2, v = 0.2, t = 0.2)
movej(p[0.475325202636247, -0.0207885191773328, 0.225531950792024, -1.20667555108767, 1.21470441704884, -1.21453500788187], a = 0.2, v = 0.2, t = 0.2)
movej(p[0.476322633242191, -0.0209743341740893, 0.225398314744098, -1.20978714606678, 1.21333880924491, -1.2187005837674], a = 0.2, v = 0.2, t = 0.2)
movej(p[0.476563481729141, -0.0210507114433113, 0.22529236282538, -1.21055306689123, 1.20717149108577, -1.2188897168708], a = 0.2, v = 0.2, t = 0.2)
movej(p[0.476782531879304, -0.0211142425819032, 0.225242895501386, -1.21138053136736, 1.20912890488372, -1.21998475756073], a = 0.2, v = 0.2, t = 0.2)
movej(p[0.476883608638757, -0.0211511693796394, 0.225211618508125, -1.21249691903345, 1.20869827763769, -1.22059484325968], a = 0.2, v = 0.2, t = 0.2)
movej(p[0.476970482879517, -0.0211793028135978, 0.225191263749812, -1.21255959486528, 1.21088585321173, -1.22096217951752], a = 0.2, v = 0.2, t = 0.2)
movej(p[0.477165463392425, -0.0210970984981375, 0.225292497786113, -1.21188670947845, 1.20939164917841, -1.21932275414719], a = 0.2, v = 0.2, t = 0.2)
movej(p[0.476642092818884, -0.0206555302447268, 0.225817533128096, -1.19778775702419, 1.21942571138869, -1.21299069277162], a = 0.2, v = 0.2, t = 0.2)
movej(p[0.474999559579222, -0.019913076712889, 0.226661736444641, -1.18937766365878, 1.23721474214769, -1.20206552679671], a = 0.2, v = 0.2, t = 0.2)
movej(p[0.47311933892109, -0.0193132668845455, 0.227296813878153, -1.18509094945464, 1.24947775621397, -1.1931002581039], a = 0.2, v = 0.2, t = 0.2)
movej(p[0.471422960630462, -0.0188297008655383, 0.227783610191148, -1.18435740290758, 1.25267747394163, -1.18583705982358], a = 0.2, v = 0.2, t = 0.2)
movej(p[0.469592966138215, -0.0181691303018849, 0.228475894488804, -1.18120029074538, 1.25950331688609, -1.17553601942785], a = 0.2, v = 0.2, t = 0.2)
movej(p[0.468860019002288, -0.0179650490484568, 0.228680652389593, -1.17145661539998, 1.2619398923725, -1.17346089244027], a = 0.2, v = 0.2, t = 0.2)
movej(p[0.469613094512122, -0.0182823969955588, 0.228336518146952, -1.17925113228721, 1.25290954459117, -1.17861722697032], a = 0.2, v = 0.2, t = 0.2)
movej(p[0.470865771948127, -0.0187886466346456, 0.227780606459498, -1.18514439350095, 1.2409137384994, -1.18658668565364], a = 0.2, v = 0.2, t = 0.2)
movej(p[0.471823247869697, -0.0192562147689805, 0.227225211555516, -1.1919102506882, 1.22739388716132, -1.19353548798875], a = 0.2, v = 0.2, t = 0.2)
movej(p[0.47262714293786, -0.0196178939001157, 0.226823021059005, -1.19488773973582, 1.22604998393982, -1.19858367523246], a = 0.2, v = 0.2, t = 0.2)
movej(p[0.473676724988827, -0.0199199270136313, 0.226536897909594, -1.19187312897388, 1.22661601314225, -1.20316729015927], a = 0.2, v = 0.2, t = 0.2)
movej(p[0.47444580918008, -0.0203300887461, 0.226041973006218, -1.20270542559283, 1.21984487237366, -1.20831597042161], a = 0.2, v = 0.2, t = 0.2)
movej(p[0.474734072934463, -0.0205024763049233, 0.225821720270771, -1.20175782694817, 1.21798488482168, -1.2106566360367], a = 0.2, v = 0.2, t = 0.2)
movej(p[0.475169247443411, -0.0206174234534825, 0.225704616599605, -1.20111556882322, 1.21696094206287, -1.2121210755824], a = 0.2, v = 0.2, t = 0.2)
movej(p[0.475662854465582, -0.0207866888921749, 0.225555525825486, -1.20396616969149, 1.21790615191135, -1.21498139045518], a = 0.2, v = 0.2, t = 0.2)
movej(p[0.476334083392172, -0.0209633922287899, 0.225431985917206, -1.20500206456119, 1.21383348947116, -1.21894584801038], a = 0.2, v = 0.2, t = 0.2)
movej(p[0.476712372772715, -0.0210681641409355, 0.225319798212916, -1.21020966046107, 1.21008285864073, -1.21995733936147], a = 0.2, v = 0.2, t = 0.2)
movej(p[0.476770798431106, -0.0211188652721793, 0.225251992035231, -1.2126727441871, 1.21404458101907, -1.21985620599863], a = 0.2, v = 0.2, t = 0.2)
movej(p[0.47680636930832, -0.0210761490498694, 0.225312557182353, -1.21235795006237, 1.21048999294542, -1.21966533702664], a = 0.2, v = 0.2, t = 0.2)
movej(p[0.476777169127647, -0.0208872663712147, 0.225567627668989, -1.2014209236724, 1.21169885467309, -1.21715615079127], a = 0.2, v = 0.2, t = 0.2)
movej(p[0.475795188624201, -0.0204221379891433, 0.226122178134721, -1.19523870500162, 1.22499248296124, -1.20956220493529], a = 0.2, v = 0.2, t = 0.2)
movej(p[0.474668467206943, -0.0199157027980495, 0.226740282321014, -1.19471888404865, 1.23463095268213, -1.20188883439926], a = 0.2, v = 0.2, t = 0.2)
movej(p[0.473090996244415, -0.0193866026164718, 0.227275422686, -1.1855778427179, 1.2504730288868, -1.19235052187493], a = 0.2, v = 0.2, t = 0.2)
movej(p[0.471120174964988, -0.0188309264632646, 0.227818113940135, -1.19598960927886, 1.24773492348983, -1.1852540026184], a = 0.2, v = 0.2, t = 0.2)
movej(p[0.46941081891044, -0.0181768939826669, 0.228486911415534, -1.16777056816406, 1.26526440695244, -1.17470854497804], a = 0.2, v = 0.2, t = 0.2)
movej(p[0.467839448495468, -0.0177385519836968, 0.228877027694212, -1.17853011067911, 1.25790941713177, -1.16906589384905], a = 0.2, v = 0.2, t = 0.2)
movej(p[0.468687590692012, -0.0179730811303177, 0.228683293123661, -1.17415633092576, 1.25452522553139, -1.17365120389024], a = 0.2, v = 0.2, t = 0.2)
movej(p[0.469562351025534, -0.0182301494638886, 0.228456535079104, -1.17174600606455, 1.25081470496808, -1.17858818076451], a = 0.2, v = 0.2, t = 0.2)
movej(p[0.471049722174558, -0.0188386895905477, 0.227788989583054, -1.17982838133654, 1.23611778409635, -1.18896051759076], a = 0.2, v = 0.2, t = 0.2)
movej(p[0.472200782994702, -0.0194512857423925, 0.227034782553736, -1.19160162633903, 1.23313990741938, -1.1959588689965], a = 0.2, v = 0.2, t = 0.2)
movej(p[0.473175372548957, -0.01981058682187, 0.226638076333688, -1.18729836523611, 1.23048605021844, -1.20142473099959], a = 0.2, v = 0.2, t = 0.2)
movej(p[0.473835278271221, -0.0200693191336371, 0.22634662688941, -1.19944294444119, 1.22132928762906, -1.20496918737112], a = 0.2, v = 0.2, t = 0.2)
movej(p[0.475031236243905, -0.0205216484711048, 0.225902309572575, -1.20578600128133, 1.21308380466334, -1.21265114904486], a = 0.2, v = 0.2, t = 0.2)
movej(p[0.475347284213604, -0.0206296035723664, 0.225761293165866, -1.19923548067618, 1.21964224125387, -1.212998148862], a = 0.2, v = 0.2, t = 0.2)
movej(p[0.47595431570509, -0.0208293956856313, 0.225567721138391, -1.20567641097752, 1.21340584175978, -1.21638983961879], a = 0.2, v = 0.2, t = 0.2)
movej(p[0.476158061439636, -0.0209877601318165, 0.225327900147152, -1.2061205943737, 1.22368671313019, -1.21610142049148], a = 0.2, v = 0.2, t = 0.2)
movej(p[0.476514955382799, -0.0210312961583385, 0.22536815207541, -1.20891860859091, 1.2171575380289, -1.21817564158896], a = 0.2, v = 0.2, t = 0.2)
movej(p[0.476983659182082, -0.0211377276204522, 0.225290983348516, -1.20706889148457, 1.22044264479006, -1.2188194330584], a = 0.2, v = 0.2, t = 0.2)
movej(p[0.477116346309393, -0.0210429460086723, 0.225531810635829, -1.21155243308842, 1.21126967336269, -1.21962238862566], a = 0.2, v = 0.2, t = 0.2)
movej(p[0.476568211411088, -0.0206116123841945, 0.226115641730971, -1.1935916475797, 1.22364406778856, -1.21295302117754], a = 0.2, v = 0.2, t = 0.2)
movej(p[0.475420729842868, -0.0202123640787184, 0.226510542226247, -1.19197899796068, 1.23236457091434, -1.20569610631478], a = 0.2, v = 0.2, t = 0.2)
movej(p[0.474169047308564, -0.0198558865149534, 0.226857518694975, -1.19131043464082, 1.23163118161899, -1.20238806417736], a = 0.2, v = 0.2, t = 0.2)
movej(p[0.472636962100601, -0.0193742661344951, 0.227302705784488, -1.18802825993746, 1.2347642239956, -1.1958839130988], a = 0.2, v = 0.2, t = 0.2)
movej(p[0.471220631088233, -0.0188486774858308, 0.227860038616645, -1.18483553770232, 1.24630819881448, -1.18632541696663], a = 0.2, v = 0.2, t = 0.2)
movej(p[0.468997548353445, -0.0182284900578157, 0.228372413809661, -1.1807948458189, 1.23885685776535, -1.18122329406955], a = 0.2, v = 0.2, t = 0.2)
movej(p[0.467375172612162, -0.0175141395275891, 0.229246108083457, -1.17355627815073, 1.24309160806311, -1.17233796978418], a = 0.2, v = 0.2, t = 0.2)
movej(p[0.467190932295747, -0.0174735532391682, 0.229265673077689, -1.17239608030221, 1.24363456240861, -1.17167309852154], a = 0.2, v = 0.2, t = 0.2)
