def moving():
set_payload_mass(0)
set_tcp(p[0,0,0,0,0,0])
movej(p[0.444963105286588, 0.0571396991586863, 0.34063598312668, -1.222, 0.971, -1.041], a = 0.2, v = 0.2, t = 0.1)
movej(p[0.444962323752368, 0.0571361631341543, 0.340626748490749, -1.222, 0.971, -1.041], a = 0.2, v = 0.2, t = 0.1)
movej(p[0.444959741176411, 0.0571386647435508, 0.340612986043625, -1.222, 0.971, -1.041], a = 0.2, v = 0.2, t = 0.1)
movej(p[0.444954406007118, 0.0571459283847582, 0.34059806120932, -1.222, 0.971, -1.041], a = 0.2, v = 0.2, t = 0.1)
movej(p[0.444946937316661, 0.0571545053599093, 0.34058416491884, -1.222, 0.971, -1.041], a = 0.2, v = 0.2, t = 0.1)
movej(p[0.444938531899035, 0.0571619170129572, 0.340572616299674, -1.222, 0.971, -1.041], a = 0.2, v = 0.2, t = 0.1)
movej(p[0.444930178557532, 0.0571670926057349, 0.340563138467689, -1.222, 0.971, -1.041], a = 0.2, v = 0.2, t = 0.1)
movej(p[0.444919272607708, 0.0571698341035128, 0.340558547401433, -1.222, 0.971, -1.041], a = 0.2, v = 0.2, t = 0.1)
movej(p[0.444905054171366, 0.0571694765124787, 0.340557681222102, -1.222, 0.971, -1.041], a = 0.2, v = 0.2, t = 0.1)
movej(p[0.44488912987545, 0.057165942969937, 0.340558203756973, -1.222, 0.971, -1.041], a = 0.2, v = 0.2, t = 0.1)
movej(p[0.444874768710876, 0.05716265966282, 0.340555607676184, -1.222, 0.971, -1.041], a = 0.2, v = 0.2, t = 0.1)
movej(p[0.444863334349906, 0.0571616708635013, 0.340548254807757, -1.222, 0.971, -1.041], a = 0.2, v = 0.2, t = 0.1)
movej(p[0.444853242328209, 0.0571617956979791, 0.340538253023695, -1.222, 0.971, -1.041], a = 0.2, v = 0.2, t = 0.1)
movej(p[0.444843421086655, 0.0571612392008387, 0.340528900681193, -1.222, 0.971, -1.041], a = 0.2, v = 0.2, t = 0.1)
movej(p[0.444834230169952, 0.0571592941265339, 0.340523620669724, -1.222, 0.971, -1.041], a = 0.2, v = 0.2, t = 0.1)
movej(p[0.444826747352109, 0.0571555148344025, 0.340523853111361, -1.222, 0.971, -1.041], a = 0.2, v = 0.2, t = 0.1)
movej(p[0.444820827512632, 0.0571505388749447, 0.340527333357478, -1.222, 0.971, -1.041], a = 0.2, v = 0.2, t = 0.1)
movej(p[0.444815882384731, 0.0571457489849345, 0.34053071946804, -1.222, 0.971, -1.041], a = 0.2, v = 0.2, t = 0.1)
movej(p[0.444810768339231, 0.0571430490616038, 0.340532162880189, -1.222, 0.971, -1.041], a = 0.2, v = 0.2, t = 0.1)
movej(p[0.444804936134867, 0.0571420365665183, 0.340531984196236, -1.222, 0.971, -1.041], a = 0.2, v = 0.2, t = 0.1)
movej(p[0.444799229714653, 0.0571409732837317, 0.340531158086645, -1.222, 0.971, -1.041], a = 0.2, v = 0.2, t = 0.1)
movej(p[0.44479436748738, 0.0571390327333196, 0.340528717156076, -1.222, 0.971, -1.041], a = 0.2, v = 0.2, t = 0.1)
movej(p[0.444788335753248, 0.0571351477448592, 0.340522957645331, -1.222, 0.971, -1.041], a = 0.2, v = 0.2, t = 0.1)
movej(p[0.444780440561007, 0.0571307444771184, 0.3405120410276, -1.222, 0.971, -1.041], a = 0.2, v = 0.2, t = 0.1)
movej(p[0.444772414034057, 0.0571287125456027, 0.340498892041463, -1.222, 0.971, -1.041], a = 0.2, v = 0.2, t = 0.1)
movej(p[0.444766540191791, 0.0571292724398511, 0.340488362121735, -1.222, 0.971, -1.041], a = 0.2, v = 0.2, t = 0.1)
movej(p[0.444763080748664, 0.0571306243934585, 0.340481439222076, -1.222, 0.971, -1.041], a = 0.2, v = 0.2, t = 0.1)
movej(p[0.444762671135456, 0.057130970228762, 0.340476792058214, -1.222, 0.971, -1.041], a = 0.2, v = 0.2, t = 0.1)
movej(p[0.444766040030578, 0.0571317016545257, 0.340474901816693, -1.222, 0.971, -1.041], a = 0.2, v = 0.2, t = 0.1)
movej(p[0.444773223869949, 0.0571334767048597, 0.340473834048359, -1.222, 0.971, -1.041], a = 0.2, v = 0.2, t = 0.1)
movej(p[0.444783034576785, 0.057135257101183, 0.34047071514065, -1.222, 0.971, -1.041], a = 0.2, v = 0.2, t = 0.1)
movej(p[0.444792314070436, 0.0571360041596648, 0.340462186096025, -1.222, 0.971, -1.041], a = 0.2, v = 0.2, t = 0.1)
movej(p[0.444799077354943, 0.057136015895416, 0.340452023914225, -1.222, 0.971, -1.041], a = 0.2, v = 0.2, t = 0.1)
movej(p[0.444804324142366, 0.0571368366326116, 0.340444926920552, -1.222, 0.971, -1.041], a = 0.2, v = 0.2, t = 0.1)
movej(p[0.444810583443227, 0.0571382159328163, 0.340444059380539, -1.222, 0.971, -1.041], a = 0.2, v = 0.2, t = 0.1)
movej(p[0.444819716284359, 0.0571405891050965, 0.340447946231087, -1.222, 0.971, -1.041], a = 0.2, v = 0.2, t = 0.1)
movej(p[0.444831446085295, 0.0571433795010582, 0.340453936828336, -1.222, 0.971, -1.041], a = 0.2, v = 0.2, t = 0.1)
movej(p[0.444844427315396, 0.057145069373445, 0.340462017440155, -1.222, 0.971, -1.041], a = 0.2, v = 0.2, t = 0.1)
movej(p[0.44485747774583, 0.0571449986382145, 0.340468529920559, -1.222, 0.971, -1.041], a = 0.2, v = 0.2, t = 0.1)
movej(p[0.444869140611306, 0.0571428256111552, 0.340469983303954, -1.222, 0.971, -1.041], a = 0.2, v = 0.2, t = 0.1)
movej(p[0.444878036424921, 0.0571394524972771, 0.340463852178292, -1.222, 0.971, -1.041], a = 0.2, v = 0.2, t = 0.1)
movej(p[0.444884717265012, 0.0571364362413202, 0.3404555285019, -1.222, 0.971, -1.041], a = 0.2, v = 0.2, t = 0.1)
movej(p[0.444890816230173, 0.0571357417064442, 0.340449674998738, -1.222, 0.971, -1.041], a = 0.2, v = 0.2, t = 0.1)
movej(p[0.444898058818631, 0.0571377376808433, 0.34044351526103, -1.222, 0.971, -1.041], a = 0.2, v = 0.2, t = 0.1)
movej(p[0.444905924034269, 0.0571404236728266, 0.340434881963917, -1.222, 0.971, -1.041], a = 0.2, v = 0.2, t = 0.1)
movej(p[0.444914019399182, 0.0571418967756952, 0.340424231953313, -1.222, 0.971, -1.041], a = 0.2, v = 0.2, t = 0.1)
movej(p[0.444922183736972, 0.057143659421998, 0.340415242801326, -1.222, 0.971, -1.041], a = 0.2, v = 0.2, t = 0.1)
movej(p[0.444931206400385, 0.0571465232293325, 0.340409650095496, -1.222, 0.971, -1.041], a = 0.2, v = 0.2, t = 0.1)
movej(p[0.444940236398956, 0.0571497969065301, 0.340406485451217, -1.222, 0.971, -1.041], a = 0.2, v = 0.2, t = 0.1)
movej(p[0.444948832909562, 0.0571512114530944, 0.340405276931287, -1.222, 0.971, -1.041], a = 0.2, v = 0.2, t = 0.1)
movej(p[0.444956250268623, 0.0571498136199733, 0.340403908136154, -1.222, 0.971, -1.041], a = 0.2, v = 0.2, t = 0.1)
movej(p[0.444961233089464, 0.0571458547478647, 0.340402143893229, -1.222, 0.971, -1.041], a = 0.2, v = 0.2, t = 0.1)
movej(p[0.444963661714963, 0.0571393777154336, 0.340402124682037, -1.222, 0.971, -1.041], a = 0.2, v = 0.2, t = 0.1)
movej(p[0.444962202455015, 0.0571315505982995, 0.340406383636812, -1.222, 0.971, -1.041], a = 0.2, v = 0.2, t = 0.1)
movej(p[0.444956715766859, 0.0571237520650073, 0.340415000399636, -1.222, 0.971, -1.041], a = 0.2, v = 0.2, t = 0.1)
movej(p[0.444948887699543, 0.0571195011496655, 0.34042531514936, -1.222, 0.971, -1.041], a = 0.2, v = 0.2, t = 0.1)
movej(p[0.444940837974974, 0.0571191438464529, 0.340433366921697, -1.222, 0.971, -1.041], a = 0.2, v = 0.2, t = 0.1)
movej(p[0.44493265589516, 0.0571204691920906, 0.340437198836344, -1.222, 0.971, -1.041], a = 0.2, v = 0.2, t = 0.1)
movej(p[0.444922844872827, 0.0571213930365093, 0.340436675741456, -1.222, 0.971, -1.041], a = 0.2, v = 0.2, t = 0.1)
movej(p[0.444910395033513, 0.0571219838797815, 0.340432521066585, -1.222, 0.971, -1.041], a = 0.2, v = 0.2, t = 0.1)
movej(p[0.444896559509259, 0.0571233870924999, 0.340426153773777, -1.222, 0.971, -1.041], a = 0.2, v = 0.2, t = 0.1)
movej(p[0.444882469927256, 0.0571259812698039, 0.340420115071924, -1.222, 0.971, -1.041], a = 0.2, v = 0.2, t = 0.1)
movej(p[0.444868357396929, 0.0571289946695089, 0.340416773549515, -1.222, 0.971, -1.041], a = 0.2, v = 0.2, t = 0.1)
movej(p[0.444854041766228, 0.0571306984651487, 0.340414374980143, -1.222, 0.971, -1.041], a = 0.2, v = 0.2, t = 0.1)
movej(p[0.444840196858055, 0.0571301908036118, 0.340409734623213, -1.222, 0.971, -1.041], a = 0.2, v = 0.2, t = 0.1)
movej(p[0.444828846615768, 0.0571280632633179, 0.340401280157746, -1.222, 0.971, -1.041], a = 0.2, v = 0.2, t = 0.1)
movej(p[0.444820704945544, 0.0571258496085994, 0.340390885565317, -1.222, 0.971, -1.041], a = 0.2, v = 0.2, t = 0.1)
movej(p[0.444816095178018, 0.0571249326985762, 0.340380803161171, -1.222, 0.971, -1.041], a = 0.2, v = 0.2, t = 0.1)
movej(p[0.444815444018316, 0.0571254696169095, 0.340372864844993, -1.222, 0.971, -1.041], a = 0.2, v = 0.2, t = 0.1)
movej(p[0.444818528665014, 0.0571273202255875, 0.340367946316425, -1.222, 0.971, -1.041], a = 0.2, v = 0.2, t = 0.1)
movej(p[0.444824359394677, 0.0571296677255665, 0.340366589567944, -1.222, 0.971, -1.041], a = 0.2, v = 0.2, t = 0.1)
movej(p[0.444831633602088, 0.0571322809543014, 0.340368179075769, -1.222, 0.971, -1.041], a = 0.2, v = 0.2, t = 0.1)
movej(p[0.444839973941476, 0.0571354929350875, 0.340370422413531, -1.222, 0.971, -1.041], a = 0.2, v = 0.2, t = 0.1)
movej(p[0.444850195042978, 0.0571400910579606, 0.34037207659343, -1.222, 0.971, -1.041], a = 0.2, v = 0.2, t = 0.1)
movej(p[0.444862359895043, 0.0571461073908398, 0.34037461765107, -1.222, 0.971, -1.041], a = 0.2, v = 0.2, t = 0.1)
movej(p[0.444875569794522, 0.0571528095283573, 0.340380674883889, -1.222, 0.971, -1.041], a = 0.2, v = 0.2, t = 0.1)
movej(p[0.444888549838029, 0.0571604427813683, 0.34038975570186, -1.222, 0.971, -1.041], a = 0.2, v = 0.2, t = 0.1)
movej(p[0.444900276546269, 0.057168735088045, 0.34039987373002, -1.222, 0.971, -1.041], a = 0.2, v = 0.2, t = 0.1)
movej(p[0.444910274822357, 0.0571767548287034, 0.34040959274808, -1.222, 0.971, -1.041], a = 0.2, v = 0.2, t = 0.1)
movej(p[0.444918529649485, 0.0571848896656155, 0.340416753529916, -1.222, 0.971, -1.041], a = 0.2, v = 0.2, t = 0.1)
movej(p[0.444924849590202, 0.0571932657900466, 0.340419014378394, -1.222, 0.971, -1.041], a = 0.2, v = 0.2, t = 0.1)
movej(p[0.444929096570669, 0.0572019105920541, 0.340416918938067, -1.222, 0.971, -1.041], a = 0.2, v = 0.2, t = 0.1)
movej(p[0.444931729528415, 0.05720988035648, 0.340412565833255, -1.222, 0.971, -1.041], a = 0.2, v = 0.2, t = 0.1)
movej(p[0.444931619638994, 0.0572134331719523, 0.340412884330562, -1.222, 0.971, -1.041], a = 0.2, v = 0.2, t = 0.1)
movej(p[0.444928726496218, 0.0572115912363559, 0.340418426947285, -1.222, 0.971, -1.041], a = 0.2, v = 0.2, t = 0.1)
movej(p[0.444924567017211, 0.0572063950002606, 0.340424763510299, -1.222, 0.971, -1.041], a = 0.2, v = 0.2, t = 0.1)
movej(p[0.444921571583477, 0.0571978659307642, 0.340425008314854, -1.222, 0.971, -1.041], a = 0.2, v = 0.2, t = 0.1)
movej(p[0.444920582537273, 0.0571869000382734, 0.34041935465573, -1.222, 0.971, -1.041], a = 0.2, v = 0.2, t = 0.1)
movej(p[0.444922102993575, 0.0571760945604163, 0.34041251819598, -1.222, 0.971, -1.041], a = 0.2, v = 0.2, t = 0.1)
movej(p[0.44492687760181, 0.0571704623719432, 0.340406718800908, -1.222, 0.971, -1.041], a = 0.2, v = 0.2, t = 0.1)
movej(p[0.444934479248224, 0.0571709302167932, 0.340402718010737, -1.222, 0.971, -1.041], a = 0.2, v = 0.2, t = 0.1)
movej(p[0.444942432043835, 0.0571747343016646, 0.340400451682372, -1.222, 0.971, -1.041], a = 0.2, v = 0.2, t = 0.1)
movej(p[0.444947766991167, 0.0571788947718024, 0.340399652518937, -1.222, 0.971, -1.041], a = 0.2, v = 0.2, t = 0.1)
movej(p[0.444949830935107, 0.0571821226079632, 0.340398464845947, -1.222, 0.971, -1.041], a = 0.2, v = 0.2, t = 0.1)
movej(p[0.444948744918219, 0.0571838802589766, 0.340396573296256, -1.222, 0.971, -1.041], a = 0.2, v = 0.2, t = 0.1)
movej(p[0.444945377666755, 0.0571852459754868, 0.340394225555641, -1.222, 0.971, -1.041], a = 0.2, v = 0.2, t = 0.1)
movej(p[0.444940503466462, 0.057186677426946, 0.340392678403024, -1.222, 0.971, -1.041], a = 0.2, v = 0.2, t = 0.1)
movej(p[0.444935292743916, 0.0571880463508507, 0.340392912112018, -1.222, 0.971, -1.041], a = 0.2, v = 0.2, t = 0.1)
movej(p[0.444931095211273, 0.0571904732447057, 0.340395044357765, -1.222, 0.971, -1.041], a = 0.2, v = 0.2, t = 0.1)
movej(p[0.444928137496544, 0.0571946449476859, 0.340398578916836, -1.222, 0.971, -1.041], a = 0.2, v = 0.2, t = 0.1)
movej(p[0.444924635556983, 0.0571999064323473, 0.340402188557326, -1.222, 0.971, -1.041], a = 0.2, v = 0.2, t = 0.1)
movej(p[0.444918724413623, 0.0572048327522866, 0.340404362940464, -1.222, 0.971, -1.041], a = 0.2, v = 0.2, t = 0.1)
movej(p[0.444910531283046, 0.0572084777351828, 0.340404148364054, -1.222, 0.971, -1.041], a = 0.2, v = 0.2, t = 0.1)
movej(p[0.444901332714207, 0.0572100892797171, 0.340400544472473, -1.222, 0.971, -1.041], a = 0.2, v = 0.2, t = 0.1)
movej(p[0.444892709388033, 0.057209443727165, 0.340392340659847, -1.222, 0.971, -1.041], a = 0.2, v = 0.2, t = 0.1)
movej(p[0.444885022259422, 0.0572073451021458, 0.340378885677396, -1.222, 0.971, -1.041], a = 0.2, v = 0.2, t = 0.1)
movej(p[0.44487760807207, 0.0572047212141526, 0.340361605186237, -1.222, 0.971, -1.041], a = 0.2, v = 0.2, t = 0.1)
movej(p[0.444868962198719, 0.0572012112647038, 0.340344749799417, -1.222, 0.971, -1.041], a = 0.2, v = 0.2, t = 0.1)
movej(p[0.444858258255582, 0.0571969598419498, 0.340332371796553, -1.222, 0.971, -1.041], a = 0.2, v = 0.2, t = 0.1)
movej(p[0.444846230546623, 0.0571927288455378, 0.340324267161425, -1.222, 0.971, -1.041], a = 0.2, v = 0.2, t = 0.1)
movej(p[0.444833900439466, 0.0571885269996232, 0.340318658639392, -1.222, 0.971, -1.041], a = 0.2, v = 0.2, t = 0.1)
movej(p[0.44482161151164, 0.0571856928705315, 0.340313596099002, -1.222, 0.971, -1.041], a = 0.2, v = 0.2, t = 0.1)
movej(p[0.444809415757954, 0.057185101532266, 0.34030871013123, -1.222, 0.971, -1.041], a = 0.2, v = 0.2, t = 0.1)
movej(p[0.444798623493308, 0.0571862098346045, 0.340303818747914, -1.222, 0.971, -1.041], a = 0.2, v = 0.2, t = 0.1)
movej(p[0.44478993490558, 0.0571858340173472, 0.340299161611168, -1.222, 0.971, -1.041], a = 0.2, v = 0.2, t = 0.1)
movej(p[0.444784026493206, 0.0571820568458562, 0.340294278066887, -1.222, 0.971, -1.041], a = 0.2, v = 0.2, t = 0.1)
movej(p[0.444782256054701, 0.057177024130655, 0.34028940817005, -1.222, 0.971, -1.041], a = 0.2, v = 0.2, t = 0.1)
movej(p[0.444784433476024, 0.0571728171399223, 0.34028571024031, -1.222, 0.971, -1.041], a = 0.2, v = 0.2, t = 0.1)
movej(p[0.444789711355415, 0.0571700683399955, 0.340284335663611, -1.222, 0.971, -1.041], a = 0.2, v = 0.2, t = 0.1)
movej(p[0.444797670728874, 0.0571678116766519, 0.340286326742886, -1.222, 0.971, -1.041], a = 0.2, v = 0.2, t = 0.1)
movej(p[0.444808089182437, 0.0571649333482503, 0.340290533998284, -1.222, 0.971, -1.041], a = 0.2, v = 0.2, t = 0.1)
movej(p[0.444820873455843, 0.0571618994652388, 0.34029591976725, -1.222, 0.971, -1.041], a = 0.2, v = 0.2, t = 0.1)
movej(p[0.44483451278513, 0.057158593046306, 0.340302302378035, -1.222, 0.971, -1.041], a = 0.2, v = 0.2, t = 0.1)
movej(p[0.444847661549988, 0.0571556028583652, 0.34030909976406, -1.222, 0.971, -1.041], a = 0.2, v = 0.2, t = 0.1)
movej(p[0.444860909674561, 0.0571525372312085, 0.34031699837194, -1.222, 0.971, -1.041], a = 0.2, v = 0.2, t = 0.1)
movej(p[0.444874575038656, 0.0571484317481568, 0.340325152502616, -1.222, 0.971, -1.041], a = 0.2, v = 0.2, t = 0.1)
movej(p[0.444888555752374, 0.0571441365944864, 0.340330623035394, -1.222, 0.971, -1.041], a = 0.2, v = 0.2, t = 0.1)
movej(p[0.444901441773997, 0.0571403983989433, 0.340333679090825, -1.222, 0.971, -1.041], a = 0.2, v = 0.2, t = 0.1)
movej(p[0.444912786949448, 0.0571363285132823, 0.340337877467024, -1.222, 0.971, -1.041], a = 0.2, v = 0.2, t = 0.1)
movej(p[0.44492292727981, 0.0571323532539125, 0.340349364455928, -1.222, 0.971, -1.041], a = 0.2, v = 0.2, t = 0.1)
movej(p[0.444933415868701, 0.0571297868021852, 0.340369219522929, -1.222, 0.971, -1.041], a = 0.2, v = 0.2, t = 0.1)
movej(p[0.444943463711229, 0.0571301037359974, 0.340392094313671, -1.222, 0.971, -1.041], a = 0.2, v = 0.2, t = 0.1)
movej(p[0.444951679954436, 0.0571322990739569, 0.340412732835246, -1.222, 0.971, -1.041], a = 0.2, v = 0.2, t = 0.1)
movej(p[0.444957569913548, 0.0571338857803312, 0.340429961138661, -1.222, 0.971, -1.041], a = 0.2, v = 0.2, t = 0.1)
movej(p[0.444961274470074, 0.0571343189685876, 0.340443891562986, -1.222, 0.971, -1.041], a = 0.2, v = 0.2, t = 0.1)
movej(p[0.444962822446555, 0.0571335655575975, 0.340455680241822, -1.222, 0.971, -1.041], a = 0.2, v = 0.2, t = 0.1)
movej(p[0.444961574212784, 0.0571320728530459, 0.340466875665019, -1.222, 0.971, -1.041], a = 0.2, v = 0.2, t = 0.1)
movej(p[0.444957135246938, 0.0571299792862103, 0.340476415033768, -1.222, 0.971, -1.041], a = 0.2, v = 0.2, t = 0.1)
movej(p[0.444950402842184, 0.0571263767801458, 0.340482477789023, -1.222, 0.971, -1.041], a = 0.2, v = 0.2, t = 0.1)
movej(p[0.444942742736536, 0.05712146826516, 0.340483777804442, -1.222, 0.971, -1.041], a = 0.2, v = 0.2, t = 0.1)
movej(p[0.444935016905668, 0.0571167807313333, 0.340481287421132, -1.222, 0.971, -1.041], a = 0.2, v = 0.2, t = 0.1)
movej(p[0.444927719253811, 0.0571134932975042, 0.340476198103477, -1.222, 0.971, -1.041], a = 0.2, v = 0.2, t = 0.1)
movej(p[0.444921671507733, 0.0571104110161673, 0.340468751602545, -1.222, 0.971, -1.041], a = 0.2, v = 0.2, t = 0.1)
movej(p[0.444915990888838, 0.0571066797532135, 0.340458089445927, -1.222, 0.971, -1.041], a = 0.2, v = 0.2, t = 0.1)
movej(p[0.4449097244708, 0.0571026144166543, 0.340443783935882, -1.222, 0.971, -1.041], a = 0.2, v = 0.2, t = 0.1)
movej(p[0.444902379357438, 0.0570983637865748, 0.3404274992238, -1.222, 0.971, -1.041], a = 0.2, v = 0.2, t = 0.1)
movej(p[0.44489507326578, 0.057094141462731, 0.340410086455839, -1.222, 0.971, -1.041], a = 0.2, v = 0.2, t = 0.1)
movej(p[0.444889625898445, 0.0570897901427629, 0.340392661162078, -1.222, 0.971, -1.041], a = 0.2, v = 0.2, t = 0.1)
movej(p[0.44488690358717, 0.0570848704499713, 0.340376104624785, -1.222, 0.971, -1.041], a = 0.2, v = 0.2, t = 0.1)
movej(p[0.444886868082856, 0.0570794956869888, 0.340362358026721, -1.222, 0.971, -1.041], a = 0.2, v = 0.2, t = 0.1)
movej(p[0.444890420369763, 0.0570749340975957, 0.340352358699246, -1.222, 0.971, -1.041], a = 0.2, v = 0.2, t = 0.1)
movej(p[0.444898535181179, 0.0570724570702653, 0.34034528252625, -1.222, 0.971, -1.041], a = 0.2, v = 0.2, t = 0.1)
movej(p[0.444911020888571, 0.0570722056972957, 0.340338852848454, -1.222, 0.971, -1.041], a = 0.2, v = 0.2, t = 0.1)
movej(p[0.444926071577956, 0.0570749267159231, 0.340331830906723, -1.222, 0.971, -1.041], a = 0.2, v = 0.2, t = 0.1)
movej(p[0.444942528590553, 0.0570809813366713, 0.340324998925314, -1.222, 0.971, -1.041], a = 0.2, v = 0.2, t = 0.1)
movej(p[0.444960198595862, 0.057085480241958, 0.340321436940248, -1.222, 0.971, -1.041], a = 0.2, v = 0.2, t = 0.1)
movej(p[0.444978674714973, 0.0570848593474777, 0.340323418685594, -1.222, 0.971, -1.041], a = 0.2, v = 0.2, t = 0.1)
movej(p[0.444997606208887, 0.0570803549052242, 0.340329359046795, -1.222, 0.971, -1.041], a = 0.2, v = 0.2, t = 0.1)
movej(p[0.445015498402509, 0.0570763059916629, 0.340336578594657, -1.222, 0.971, -1.041], a = 0.2, v = 0.2, t = 0.1)
movej(p[0.445031132811813, 0.0570750643207468, 0.340343901924504, -1.222, 0.971, -1.041], a = 0.2, v = 0.2, t = 0.1)
movej(p[0.445043877359078, 0.0570773504982525, 0.340350223271863, -1.222, 0.971, -1.041], a = 0.2, v = 0.2, t = 0.1)
movej(p[0.445054458863859, 0.0570845951244022, 0.340354322539058, -1.222, 0.971, -1.041], a = 0.2, v = 0.2, t = 0.1)
movej(p[0.445063096798599, 0.0570957337987082, 0.34035471896701, -1.222, 0.971, -1.041], a = 0.2, v = 0.2, t = 0.1)
movej(p[0.44506827498543, 0.0571080806237543, 0.340351547291518, -1.222, 0.971, -1.041], a = 0.2, v = 0.2, t = 0.1)
movej(p[0.445068374560509, 0.0571196467524389, 0.340346287335905, -1.222, 0.971, -1.041], a = 0.2, v = 0.2, t = 0.1)
movej(p[0.445063615273206, 0.0571302941814339, 0.340340285552656, -1.222, 0.971, -1.041], a = 0.2, v = 0.2, t = 0.1)
movej(p[0.445054654913254, 0.0571396566924745, 0.340332718801533, -1.222, 0.971, -1.041], a = 0.2, v = 0.2, t = 0.1)
movej(p[0.445043258329285, 0.0571462502616196, 0.340322073359891, -1.222, 0.971, -1.041], a = 0.2, v = 0.2, t = 0.1)
movej(p[0.445030456588607, 0.0571491459901393, 0.340308554501583, -1.222, 0.971, -1.041], a = 0.2, v = 0.2, t = 0.1)
movej(p[0.445014936974469, 0.0571476668028224, 0.340294684023765, -1.222, 0.971, -1.041], a = 0.2, v = 0.2, t = 0.1)
movej(p[0.444995626642884, 0.0571441110535813, 0.340282350351991, -1.222, 0.971, -1.041], a = 0.2, v = 0.2, t = 0.1)
movej(p[0.444974341690984, 0.0571409092403996, 0.340272923705135, -1.222, 0.971, -1.041], a = 0.2, v = 0.2, t = 0.1)
movej(p[0.444954522451075, 0.0571398400335859, 0.340265853440344, -1.222, 0.971, -1.041], a = 0.2, v = 0.2, t = 0.1)
movej(p[0.444937975454449, 0.0571393723845468, 0.34026081263118, -1.222, 0.971, -1.041], a = 0.2, v = 0.2, t = 0.1)
movej(p[0.444923646323264, 0.0571376893159336, 0.340259555999753, -1.222, 0.971, -1.041], a = 0.2, v = 0.2, t = 0.1)
movej(p[0.444910186909987, 0.0571351994368728, 0.34026191280999, -1.222, 0.971, -1.041], a = 0.2, v = 0.2, t = 0.1)
movej(p[0.444898096782556, 0.0571330396586333, 0.340267261459414, -1.222, 0.971, -1.041], a = 0.2, v = 0.2, t = 0.1)
movej(p[0.444889089799625, 0.0571323983702218, 0.340273588678524, -1.222, 0.971, -1.041], a = 0.2, v = 0.2, t = 0.1)
movej(p[0.444883267189773, 0.0571330152914282, 0.34028103395204, -1.222, 0.971, -1.041], a = 0.2, v = 0.2, t = 0.1)
movej(p[0.444880837873782, 0.0571347831201122, 0.340289780078643, -1.222, 0.971, -1.041], a = 0.2, v = 0.2, t = 0.1)
movej(p[0.444881518478692, 0.0571369218908607, 0.34029785666961, -1.222, 0.971, -1.041], a = 0.2, v = 0.2, t = 0.1)
movej(p[0.444884583251005, 0.0571398164198408, 0.340305574884666, -1.222, 0.971, -1.041], a = 0.2, v = 0.2, t = 0.1)
movej(p[0.444890571264608, 0.0571439736851208, 0.340313224409127, -1.222, 0.971, -1.041], a = 0.2, v = 0.2, t = 0.1)
movej(p[0.44489857188157, 0.0571490509628244, 0.34032041917447, -1.222, 0.971, -1.041], a = 0.2, v = 0.2, t = 0.1)
movej(p[0.444908185314177, 0.0571542969848593, 0.340326291413424, -1.222, 0.971, -1.041], a = 0.2, v = 0.2, t = 0.1)
movej(p[0.444917669260612, 0.0571605382565076, 0.340330102591355, -1.222, 0.971, -1.041], a = 0.2, v = 0.2, t = 0.1)
movej(p[0.444924686231051, 0.0571689081630886, 0.340331900968314, -1.222, 0.971, -1.041], a = 0.2, v = 0.2, t = 0.1)
movej(p[0.444929894620577, 0.0571789231456079, 0.340331529364111, -1.222, 0.971, -1.041], a = 0.2, v = 0.2, t = 0.1)
movej(p[0.444932734548964, 0.0571847476711927, 0.340333957291925, -1.222, 0.971, -1.041], a = 0.2, v = 0.2, t = 0.1)
movej(p[0.444934173662697, 0.0571839834672882, 0.340341634888493, -1.222, 0.971, -1.041], a = 0.2, v = 0.2, t = 0.1)
movej(p[0.444936096919865, 0.05717862189643, 0.340353141916771, -1.222, 0.971, -1.041], a = 0.2, v = 0.2, t = 0.1)
movej(p[0.444940149341204, 0.0571723421174816, 0.340363813909821, -1.222, 0.971, -1.041], a = 0.2, v = 0.2, t = 0.1)
movej(p[0.444946845670264, 0.0571667414628392, 0.340372701919648, -1.222, 0.971, -1.041], a = 0.2, v = 0.2, t = 0.1)
movej(p[0.444954754569785, 0.0571624519430322, 0.340382177747749, -1.222, 0.971, -1.041], a = 0.2, v = 0.2, t = 0.1)
movej(p[0.444964165223159, 0.0571617272403183, 0.340391811076512, -1.222, 0.971, -1.041], a = 0.2, v = 0.2, t = 0.1)
movej(p[0.444975276306247, 0.0571647395947267, 0.34039978759966, -1.222, 0.971, -1.041], a = 0.2, v = 0.2, t = 0.1)
movej(p[0.444986609235751, 0.0571687520815462, 0.340405725300763, -1.222, 0.971, -1.041], a = 0.2, v = 0.2, t = 0.1)
movej(p[0.444995850267006, 0.057171896782311, 0.340409468082942, -1.222, 0.971, -1.041], a = 0.2, v = 0.2, t = 0.1)
movej(p[0.445001025864776, 0.0571735026245285, 0.340410746327244, -1.222, 0.971, -1.041], a = 0.2, v = 0.2, t = 0.1)
movej(p[0.445001783360761, 0.0571737169411917, 0.340410274835781, -1.222, 0.971, -1.041], a = 0.2, v = 0.2, t = 0.1)
movej(p[0.444997818149106, 0.0571728393844204, 0.34041151252744, -1.222, 0.971, -1.041], a = 0.2, v = 0.2, t = 0.1)
movej(p[0.444989124068782, 0.0571718354740281, 0.340415017932017, -1.222, 0.971, -1.041], a = 0.2, v = 0.2, t = 0.1)
movej(p[0.444977109284808, 0.0571714377677598, 0.340418111736273, -1.222, 0.971, -1.041], a = 0.2, v = 0.2, t = 0.1)
movej(p[0.444963168929641, 0.0571704873075517, 0.340419177654766, -1.222, 0.971, -1.041], a = 0.2, v = 0.2, t = 0.1)
movej(p[0.444949335842633, 0.0571671880177874, 0.340419216640321, -1.222, 0.971, -1.041], a = 0.2, v = 0.2, t = 0.1)
movej(p[0.444936162978653, 0.0571610448176275, 0.340419117911626, -1.222, 0.971, -1.041], a = 0.2, v = 0.2, t = 0.1)
movej(p[0.44492400706834, 0.0571532449342371, 0.340417260032308, -1.222, 0.971, -1.041], a = 0.2, v = 0.2, t = 0.1)
movej(p[0.444913069099514, 0.0571444485678079, 0.340412779239899, -1.222, 0.971, -1.041], a = 0.2, v = 0.2, t = 0.1)
movej(p[0.444903139800965, 0.0571347073677829, 0.340406585810123, -1.222, 0.971, -1.041], a = 0.2, v = 0.2, t = 0.1)
movej(p[0.444894005571399, 0.0571247692708958, 0.340400147844179, -1.222, 0.971, -1.041], a = 0.2, v = 0.2, t = 0.1)
movej(p[0.444885261987342, 0.0571157683868669, 0.340394695322878, -1.222, 0.971, -1.041], a = 0.2, v = 0.2, t = 0.1)
movej(p[0.444877941276032, 0.0571085033985035, 0.340391434467469, -1.222, 0.971, -1.041], a = 0.2, v = 0.2, t = 0.1)
movej(p[0.444873990591955, 0.0571026791168474, 0.340391584332459, -1.222, 0.971, -1.041], a = 0.2, v = 0.2, t = 0.1)
movej(p[0.444874810836722, 0.0570970863847376, 0.340395650952071, -1.222, 0.971, -1.041], a = 0.2, v = 0.2, t = 0.1)
movej(p[0.444879949564349, 0.0570910705282714, 0.34040341582067, -1.222, 0.971, -1.041], a = 0.2, v = 0.2, t = 0.1)
movej(p[0.444886995113668, 0.0570810987604211, 0.340416183091707, -1.222, 0.971, -1.041], a = 0.2, v = 0.2, t = 0.1)
movej(p[0.444895615301165, 0.0570687400647047, 0.340431633362924, -1.222, 0.971, -1.041], a = 0.2, v = 0.2, t = 0.1)
movej(p[0.444906869823024, 0.0570586716834967, 0.340446382493698, -1.222, 0.971, -1.041], a = 0.2, v = 0.2, t = 0.1)
movej(p[0.444920271293764, 0.0570541914247205, 0.340455740109917, -1.222, 0.971, -1.041], a = 0.2, v = 0.2, t = 0.1)
movej(p[0.444934725355125, 0.0570544067393993, 0.340459442838611, -1.222, 0.971, -1.041], a = 0.2, v = 0.2, t = 0.1)
movej(p[0.44495015566952, 0.0570566522649295, 0.340461265282511, -1.222, 0.971, -1.041], a = 0.2, v = 0.2, t = 0.1)
movej(p[0.444967562083666, 0.0570609279626149, 0.340462063706493, -1.222, 0.971, -1.041], a = 0.2, v = 0.2, t = 0.1)
movej(p[0.444986789487035, 0.0570664159047671, 0.340461308147332, -1.222, 0.971, -1.041], a = 0.2, v = 0.2, t = 0.1)
movej(p[0.445005079580064, 0.057070688671025, 0.340457770766309, -1.222, 0.971, -1.041], a = 0.2, v = 0.2, t = 0.1)
movej(p[0.445020742644296, 0.0570731487579138, 0.340456022755624, -1.222, 0.971, -1.041], a = 0.2, v = 0.2, t = 0.1)
movej(p[0.445033462412269, 0.0570753633752186, 0.340458653968822, -1.222, 0.971, -1.041], a = 0.2, v = 0.2, t = 0.1)
movej(p[0.445044266230464, 0.0570776599938068, 0.340463889941747, -1.222, 0.971, -1.041], a = 0.2, v = 0.2, t = 0.1)
movej(p[0.44505381248871, 0.0570783025855065, 0.340469492661214, -1.222, 0.971, -1.041], a = 0.2, v = 0.2, t = 0.1)
movej(p[0.445061451060632, 0.0570763772692855, 0.340474529524864, -1.222, 0.971, -1.041], a = 0.2, v = 0.2, t = 0.1)
movej(p[0.445065313426094, 0.0570729161817269, 0.340478699677973, -1.222, 0.971, -1.041], a = 0.2, v = 0.2, t = 0.1)
movej(p[0.445063589429859, 0.05706948899164, 0.340481978710466, -1.222, 0.971, -1.041], a = 0.2, v = 0.2, t = 0.1)
movej(p[0.445056083512688, 0.0570663056228862, 0.340484992204916, -1.222, 0.971, -1.041], a = 0.2, v = 0.2, t = 0.1)
movej(p[0.445044308642786, 0.0570632252802795, 0.340488600292667, -1.222, 0.971, -1.041], a = 0.2, v = 0.2, t = 0.1)
movej(p[0.445029465661711, 0.0570606450808244, 0.340491715207367, -1.222, 0.971, -1.041], a = 0.2, v = 0.2, t = 0.1)
movej(p[0.445013169658685, 0.0570585087809112, 0.340492729373056, -1.222, 0.971, -1.041], a = 0.2, v = 0.2, t = 0.1)
movej(p[0.444996276020571, 0.0570555897050607, 0.340490406281918, -1.222, 0.971, -1.041], a = 0.2, v = 0.2, t = 0.1)
movej(p[0.444978377578286, 0.0570491469267552, 0.340482115109715, -1.222, 0.971, -1.041], a = 0.2, v = 0.2, t = 0.1)
movej(p[0.444961000148519, 0.0570398788672539, 0.3404692742052, -1.222, 0.971, -1.041], a = 0.2, v = 0.2, t = 0.1)
movej(p[0.444944047153322, 0.05703107798488, 0.340456626168068, -1.222, 0.971, -1.041], a = 0.2, v = 0.2, t = 0.1)
movej(p[0.44492789855995, 0.0570237951521445, 0.340448182869811, -1.222, 0.971, -1.041], a = 0.2, v = 0.2, t = 0.1)
movej(p[0.444912362077238, 0.0570171470789827, 0.340442222562255, -1.222, 0.971, -1.041], a = 0.2, v = 0.2, t = 0.1)
movej(p[0.44489898861925, 0.0570109112060763, 0.340436917736192, -1.222, 0.971, -1.041], a = 0.2, v = 0.2, t = 0.1)
movej(p[0.444892121961391, 0.0570077370237519, 0.340432535680349, -1.222, 0.971, -1.041], a = 0.2, v = 0.2, t = 0.1)
movej(p[0.444893895841956, 0.0570076469590831, 0.340429469204995, -1.222, 0.971, -1.041], a = 0.2, v = 0.2, t = 0.1)
movej(p[0.444902994206591, 0.0570086867510094, 0.340426720199592, -1.222, 0.971, -1.041], a = 0.2, v = 0.2, t = 0.1)
movej(p[0.444917088836471, 0.0570103088209492, 0.340424121293924, -1.222, 0.971, -1.041], a = 0.2, v = 0.2, t = 0.1)
movej(p[0.44493396546872, 0.0570129667389286, 0.340423620464672, -1.222, 0.971, -1.041], a = 0.2, v = 0.2, t = 0.1)
movej(p[0.444954143331245, 0.0570172013821868, 0.340426746753432, -1.222, 0.971, -1.041], a = 0.2, v = 0.2, t = 0.1)
movej(p[0.444976039529414, 0.0570228290994986, 0.3404330382773, -1.222, 0.971, -1.041], a = 0.2, v = 0.2, t = 0.1)
movej(p[0.444997579624742, 0.0570299991069729, 0.340438699864012, -1.222, 0.971, -1.041], a = 0.2, v = 0.2, t = 0.1)
movej(p[0.445017065039849, 0.0570383181831624, 0.340441730999189, -1.222, 0.971, -1.041], a = 0.2, v = 0.2, t = 0.1)
movej(p[0.445033794668137, 0.0570464661659466, 0.340443079958378, -1.222, 0.971, -1.041], a = 0.2, v = 0.2, t = 0.1)
movej(p[0.445049231602248, 0.0570535641261193, 0.340444146918842, -1.222, 0.971, -1.041], a = 0.2, v = 0.2, t = 0.1)
movej(p[0.445065072061541, 0.0570588199859004, 0.340445208441024, -1.222, 0.971, -1.041], a = 0.2, v = 0.2, t = 0.1)
movej(p[0.445081634624065, 0.0570623499934545, 0.340445014401572, -1.222, 0.971, -1.041], a = 0.2, v = 0.2, t = 0.1)
movej(p[0.445096987250537, 0.0570653883431909, 0.340443455849263, -1.222, 0.971, -1.041], a = 0.2, v = 0.2, t = 0.1)
movej(p[0.445109059539198, 0.0570694409086913, 0.340441796498982, -1.222, 0.971, -1.041], a = 0.2, v = 0.2, t = 0.1)
movej(p[0.445117539758644, 0.0570744993239258, 0.340440451848673, -1.222, 0.971, -1.041], a = 0.2, v = 0.2, t = 0.1)
movej(p[0.445123091568005, 0.057079800765712, 0.340439245749668, -1.222, 0.971, -1.041], a = 0.2, v = 0.2, t = 0.1)
movej(p[0.445126703916339, 0.0570848193496518, 0.340437299193799, -1.222, 0.971, -1.041], a = 0.2, v = 0.2, t = 0.1)
movej(p[0.445129335638856, 0.0570890888786765, 0.340434907486564, -1.222, 0.971, -1.041], a = 0.2, v = 0.2, t = 0.1)
movej(p[0.445130363018256, 0.0570914845097061, 0.340434692088007, -1.222, 0.971, -1.041], a = 0.2, v = 0.2, t = 0.1)
movej(p[0.445129191098252, 0.0570905609313955, 0.340437718545938, -1.222, 0.971, -1.041], a = 0.2, v = 0.2, t = 0.1)
movej(p[0.445125700807129, 0.0570866262688674, 0.340442668825897, -1.222, 0.971, -1.041], a = 0.2, v = 0.2, t = 0.1)
movej(p[0.445120748321037, 0.0570806053229328, 0.340446325864803, -1.222, 0.971, -1.041], a = 0.2, v = 0.2, t = 0.1)
movej(p[0.445115196985155, 0.0570733585970278, 0.340445643076709, -1.222, 0.971, -1.041], a = 0.2, v = 0.2, t = 0.1)
movej(p[0.445108270184402, 0.0570660566092816, 0.340439783497861, -1.222, 0.971, -1.041], a = 0.2, v = 0.2, t = 0.1)
movej(p[0.445099122233191, 0.0570595590679256, 0.340430600231505, -1.222, 0.971, -1.041], a = 0.2, v = 0.2, t = 0.1)
movej(p[0.445087215783606, 0.0570544853143398, 0.340419269308028, -1.222, 0.971, -1.041], a = 0.2, v = 0.2, t = 0.1)
movej(p[0.445074089249344, 0.0570509231826623, 0.340406148444445, -1.222, 0.971, -1.041], a = 0.2, v = 0.2, t = 0.1)
movej(p[0.445060686379989, 0.0570495003107222, 0.340393431868746, -1.222, 0.971, -1.041], a = 0.2, v = 0.2, t = 0.1)
movej(p[0.445046439547705, 0.0570494434046607, 0.340384500941048, -1.222, 0.971, -1.041], a = 0.2, v = 0.2, t = 0.1)
movej(p[0.445029856455128, 0.0570470068200702, 0.34038158898859, -1.222, 0.971, -1.041], a = 0.2, v = 0.2, t = 0.1)
movej(p[0.445010222057834, 0.057040062453458, 0.340381923784471, -1.222, 0.971, -1.041], a = 0.2, v = 0.2, t = 0.1)
movej(p[0.444989619465821, 0.0570307314227107, 0.340382651716829, -1.222, 0.971, -1.041], a = 0.2, v = 0.2, t = 0.1)
movej(p[0.44497165957267, 0.0570227108732243, 0.340383706865608, -1.222, 0.971, -1.041], a = 0.2, v = 0.2, t = 0.1)
movej(p[0.444959188814047, 0.0570168280463673, 0.340383837516097, -1.222, 0.971, -1.041], a = 0.2, v = 0.2, t = 0.1)
movej(p[0.444951983108833, 0.0570129837579091, 0.340382818401475, -1.222, 0.971, -1.041], a = 0.2, v = 0.2, t = 0.1)
movej(p[0.444949403891775, 0.0570125976169972, 0.340382639906201, -1.222, 0.971, -1.041], a = 0.2, v = 0.2, t = 0.1)
movej(p[0.444951883706814, 0.057016532304731, 0.340384739098144, -1.222, 0.971, -1.041], a = 0.2, v = 0.2, t = 0.1)
movej(p[0.444958474549087, 0.0570229195813391, 0.34038995105331, -1.222, 0.971, -1.041], a = 0.2, v = 0.2, t = 0.1)
movej(p[0.444968144639198, 0.0570294469244744, 0.340397365806498, -1.222, 0.971, -1.041], a = 0.2, v = 0.2, t = 0.1)
movej(p[0.44498015289763, 0.057034962551848, 0.340405896315985, -1.222, 0.971, -1.041], a = 0.2, v = 0.2, t = 0.1)
movej(p[0.44499518708849, 0.0570403389931834, 0.340414331315318, -1.222, 0.971, -1.041], a = 0.2, v = 0.2, t = 0.1)
movej(p[0.445013174291221, 0.0570462517874514, 0.340422840364787, -1.222, 0.971, -1.041], a = 0.2, v = 0.2, t = 0.1)
movej(p[0.445032863142833, 0.0570519827446616, 0.340432553524039, -1.222, 0.971, -1.041], a = 0.2, v = 0.2, t = 0.1)
movej(p[0.445052981438486, 0.0570560352487235, 0.340441334529953, -1.222, 0.971, -1.041], a = 0.2, v = 0.2, t = 0.1)
movej(p[0.445072106440125, 0.0570585721381527, 0.340447107079072, -1.222, 0.971, -1.041], a = 0.2, v = 0.2, t = 0.1)
movej(p[0.44508903834313, 0.0570610754904329, 0.340448449603175, -1.222, 0.971, -1.041], a = 0.2, v = 0.2, t = 0.1)
movej(p[0.445103117556743, 0.0570642364559876, 0.340447039111838, -1.222, 0.971, -1.041], a = 0.2, v = 0.2, t = 0.1)
movej(p[0.445113752720175, 0.0570683981804438, 0.340443996241265, -1.222, 0.971, -1.041], a = 0.2, v = 0.2, t = 0.1)
movej(p[0.445121587034432, 0.0570732412408225, 0.340439263803807, -1.222, 0.971, -1.041], a = 0.2, v = 0.2, t = 0.1)
movej(p[0.445127217148421, 0.0570778049114739, 0.340433372841182, -1.222, 0.971, -1.041], a = 0.2, v = 0.2, t = 0.1)
movej(p[0.445130843695578, 0.0570806733198002, 0.340425876541335, -1.222, 0.971, -1.041], a = 0.2, v = 0.2, t = 0.1)
movej(p[0.445133186951728, 0.0570811511883762, 0.340417908028724, -1.222, 0.971, -1.041], a = 0.2, v = 0.2, t = 0.1)
movej(p[0.445135084119913, 0.057079535776831, 0.340410725132343, -1.222, 0.971, -1.041], a = 0.2, v = 0.2, t = 0.1)
movej(p[0.445137166450776, 0.0570751414533316, 0.340403692026261, -1.222, 0.971, -1.041], a = 0.2, v = 0.2, t = 0.1)
movej(p[0.445138475928, 0.0570683547959056, 0.34039542091144, -1.222, 0.971, -1.041], a = 0.2, v = 0.2, t = 0.1)
movej(p[0.445138503461785, 0.0570603019444063, 0.340385547478115, -1.222, 0.971, -1.041], a = 0.2, v = 0.2, t = 0.1)
movej(p[0.445136112230059, 0.0570491346531353, 0.340373304166247, -1.222, 0.971, -1.041], a = 0.2, v = 0.2, t = 0.1)
movej(p[0.445131745177729, 0.0570337649923271, 0.340360430361541, -1.222, 0.971, -1.041], a = 0.2, v = 0.2, t = 0.1)
movej(p[0.445126785455267, 0.0570159601286522, 0.340351186531782, -1.222, 0.971, -1.041], a = 0.2, v = 0.2, t = 0.1)
movej(p[0.445123744082386, 0.0570002458396617, 0.340348217829621, -1.222, 0.971, -1.041], a = 0.2, v = 0.2, t = 0.1)
movej(p[0.445123467453592, 0.0569891875675464, 0.340350130328336, -1.222, 0.971, -1.041], a = 0.2, v = 0.2, t = 0.1)
movej(p[0.445125398711736, 0.0569831305809181, 0.340353318969577, -1.222, 0.971, -1.041], a = 0.2, v = 0.2, t = 0.1)
movej(p[0.445129774015772, 0.0569826179877618, 0.34035539856181, -1.222, 0.971, -1.041], a = 0.2, v = 0.2, t = 0.1)
movej(p[0.445136074985665, 0.0569857354301099, 0.340356166497746, -1.222, 0.971, -1.041], a = 0.2, v = 0.2, t = 0.1)
movej(p[0.445143026302291, 0.056989796597323, 0.340357450283959, -1.222, 0.971, -1.041], a = 0.2, v = 0.2, t = 0.1)
movej(p[0.44514771628974, 0.056993074112774, 0.34036146176027, -1.222, 0.971, -1.041], a = 0.2, v = 0.2, t = 0.1)
movej(p[0.445148203480408, 0.0569940697290492, 0.340368672597357, -1.222, 0.971, -1.041], a = 0.2, v = 0.2, t = 0.1)
movej(p[0.445144793764207, 0.0569916339187839, 0.340377690276924, -1.222, 0.971, -1.041], a = 0.2, v = 0.2, t = 0.1)
movej(p[0.445138724485291, 0.0569858510900196, 0.340387289676641, -1.222, 0.971, -1.041], a = 0.2, v = 0.2, t = 0.1)
movej(p[0.445131485117984, 0.0569785684948438, 0.340395758234694, -1.222, 0.971, -1.041], a = 0.2, v = 0.2, t = 0.1)
movej(p[0.445123230513969, 0.0569709357766694, 0.340402775256557, -1.222, 0.971, -1.041], a = 0.2, v = 0.2, t = 0.1)
movej(p[0.445113468235598, 0.056964310225083, 0.340408634461724, -1.222, 0.971, -1.041], a = 0.2, v = 0.2, t = 0.1)
movej(p[0.445103022519998, 0.0569601680856522, 0.340414928613575, -1.222, 0.971, -1.041], a = 0.2, v = 0.2, t = 0.1)
movej(p[0.445093626579964, 0.0569587593710764, 0.34042023346071, -1.222, 0.971, -1.041], a = 0.2, v = 0.2, t = 0.1)
movej(p[0.445085954302781, 0.0569594138244707, 0.340421530211875, -1.222, 0.971, -1.041], a = 0.2, v = 0.2, t = 0.1)
movej(p[0.445078613662119, 0.0569611527067699, 0.340417776247035, -1.222, 0.971, -1.041], a = 0.2, v = 0.2, t = 0.1)
movej(p[0.445070438779964, 0.0569634866648308, 0.34041222451915, -1.222, 0.971, -1.041], a = 0.2, v = 0.2, t = 0.1)
movej(p[0.445062430671816, 0.0569643611981244, 0.340408544052277, -1.222, 0.971, -1.041], a = 0.2, v = 0.2, t = 0.1)
movej(p[0.445055865053291, 0.0569627954895119, 0.340406460313348, -1.222, 0.971, -1.041], a = 0.2, v = 0.2, t = 0.1)
movej(p[0.445050889051538, 0.0569608660533468, 0.340405320450356, -1.222, 0.971, -1.041], a = 0.2, v = 0.2, t = 0.1)
movej(p[0.445047021805657, 0.0569612818949141, 0.340404396443275, -1.222, 0.971, -1.041], a = 0.2, v = 0.2, t = 0.1)
movej(p[0.445044346896443, 0.0569656603577762, 0.340404577864503, -1.222, 0.971, -1.041], a = 0.2, v = 0.2, t = 0.1)
movej(p[0.445043596928578, 0.0569740982523027, 0.340405624567977, -1.222, 0.971, -1.041], a = 0.2, v = 0.2, t = 0.1)
movej(p[0.445045954074704, 0.056984902225996, 0.340404503929063, -1.222, 0.971, -1.041], a = 0.2, v = 0.2, t = 0.1)
movej(p[0.445051547330905, 0.0569956350721825, 0.340399297058332, -1.222, 0.971, -1.041], a = 0.2, v = 0.2, t = 0.1)
movej(p[0.445059586509171, 0.0570049099709865, 0.340391466673988, -1.222, 0.971, -1.041], a = 0.2, v = 0.2, t = 0.1)
movej(p[0.445069819070339, 0.0570125714018402, 0.340382754610214, -1.222, 0.971, -1.041], a = 0.2, v = 0.2, t = 0.1)
movej(p[0.445082591491837, 0.0570186088150657, 0.340375461948515, -1.222, 0.971, -1.041], a = 0.2, v = 0.2, t = 0.1)
movej(p[0.44509777406631, 0.0570230321149612, 0.340370345380976, -1.222, 0.971, -1.041], a = 0.2, v = 0.2, t = 0.1)
movej(p[0.445114955036401, 0.0570249456327988, 0.340368773951936, -1.222, 0.971, -1.041], a = 0.2, v = 0.2, t = 0.1)
movej(p[0.44513404071872, 0.0570240438675007, 0.34037121803945, -1.222, 0.971, -1.041], a = 0.2, v = 0.2, t = 0.1)
movej(p[0.445154690850113, 0.0570202000817585, 0.340375987789192, -1.222, 0.971, -1.041], a = 0.2, v = 0.2, t = 0.1)
movej(p[0.445173754247132, 0.0570137300736536, 0.340384690759387, -1.222, 0.971, -1.041], a = 0.2, v = 0.2, t = 0.1)
movej(p[0.445189701809652, 0.0570056748252906, 0.340397013257409, -1.222, 0.971, -1.041], a = 0.2, v = 0.2, t = 0.1)
movej(p[0.445205014204857, 0.0569958271369112, 0.340410859480889, -1.222, 0.971, -1.041], a = 0.2, v = 0.2, t = 0.1)
movej(p[0.445222424824123, 0.0569839337776916, 0.340424092147032, -1.222, 0.971, -1.041], a = 0.2, v = 0.2, t = 0.1)
movej(p[0.445241500316872, 0.0569719376422443, 0.340436333784248, -1.222, 0.971, -1.041], a = 0.2, v = 0.2, t = 0.1)
movej(p[0.445259722770608, 0.0569629718674928, 0.340447276969888, -1.222, 0.971, -1.041], a = 0.2, v = 0.2, t = 0.1)
movej(p[0.445275159686126, 0.0569598347073137, 0.340453266753463, -1.222, 0.971, -1.041], a = 0.2, v = 0.2, t = 0.1)
movej(p[0.445286765982323, 0.0569618318615628, 0.340451559626493, -1.222, 0.971, -1.041], a = 0.2, v = 0.2, t = 0.1)
movej(p[0.445294856457801, 0.0569666806836742, 0.340444780920667, -1.222, 0.971, -1.041], a = 0.2, v = 0.2, t = 0.1)
movej(p[0.445300091716462, 0.0569731938767723, 0.340438735473419, -1.222, 0.971, -1.041], a = 0.2, v = 0.2, t = 0.1)
movej(p[0.445303817279626, 0.0569813243615144, 0.340436288272168, -1.222, 0.971, -1.041], a = 0.2, v = 0.2, t = 0.1)
movej(p[0.445308169623458, 0.0569904520363752, 0.340435814023491, -1.222, 0.971, -1.041], a = 0.2, v = 0.2, t = 0.1)
movej(p[0.445314044508504, 0.0569998357231472, 0.34043507279326, -1.222, 0.971, -1.041], a = 0.2, v = 0.2, t = 0.1)
movej(p[0.445319403965989, 0.0570077821043366, 0.340433497692481, -1.222, 0.971, -1.041], a = 0.2, v = 0.2, t = 0.1)
movej(p[0.445323204885761, 0.0570137317898482, 0.340432288640291, -1.222, 0.971, -1.041], a = 0.2, v = 0.2, t = 0.1)
movej(p[0.445323571765311, 0.057015946735044, 0.340436313021631, -1.222, 0.971, -1.041], a = 0.2, v = 0.2, t = 0.1)
movej(p[0.445321104949932, 0.0570138774507655, 0.340446568327451, -1.222, 0.971, -1.041], a = 0.2, v = 0.2, t = 0.1)
movej(p[0.445317727597843, 0.0570086654724465, 0.340459467745611, -1.222, 0.971, -1.041], a = 0.2, v = 0.2, t = 0.1)
movej(p[0.44531508482513, 0.0570012366827945, 0.340469805381061, -1.222, 0.971, -1.041], a = 0.2, v = 0.2, t = 0.1)
movej(p[0.445313935370098, 0.0569925746925765, 0.340476681360453, -1.222, 0.971, -1.041], a = 0.2, v = 0.2, t = 0.1)
movej(p[0.445313058579934, 0.0569835332204621, 0.340484902045523, -1.222, 0.971, -1.041], a = 0.2, v = 0.2, t = 0.1)
movej(p[0.445311314305496, 0.0569752281836562, 0.340493949550446, -1.222, 0.971, -1.041], a = 0.2, v = 0.2, t = 0.1)
movej(p[0.445307923468413, 0.056967984512041, 0.340501613029578, -1.222, 0.971, -1.041], a = 0.2, v = 0.2, t = 0.1)
movej(p[0.445304568161634, 0.0569622660302589, 0.340507412792377, -1.222, 0.971, -1.041], a = 0.2, v = 0.2, t = 0.1)
movej(p[0.445302639976718, 0.0569612314873435, 0.340510371950684, -1.222, 0.971, -1.041], a = 0.2, v = 0.2, t = 0.1)
movej(p[0.445301846624737, 0.0569656104813856, 0.340507715203648, -1.222, 0.971, -1.041], a = 0.2, v = 0.2, t = 0.1)
movej(p[0.445301346833491, 0.0569727059388087, 0.340499040176808, -1.222, 0.971, -1.041], a = 0.2, v = 0.2, t = 0.1)
movej(p[0.445300523341281, 0.0569796770988808, 0.340486375785752, -1.222, 0.971, -1.041], a = 0.2, v = 0.2, t = 0.1)
movej(p[0.445300864257485, 0.0569843592870716, 0.340473940900192, -1.222, 0.971, -1.041], a = 0.2, v = 0.2, t = 0.1)
movej(p[0.445303076031631, 0.0569859344113342, 0.340465260135209, -1.222, 0.971, -1.041], a = 0.2, v = 0.2, t = 0.1)
movej(p[0.445306808136637, 0.0569846174000565, 0.34046062950863, -1.222, 0.971, -1.041], a = 0.2, v = 0.2, t = 0.1)
movej(p[0.445310810313861, 0.0569821400125627, 0.340460949051547, -1.222, 0.971, -1.041], a = 0.2, v = 0.2, t = 0.1)
movej(p[0.445314387654422, 0.0569792319962453, 0.340465977292651, -1.222, 0.971, -1.041], a = 0.2, v = 0.2, t = 0.1)
movej(p[0.445318426819027, 0.0569765395667133, 0.340474967653629, -1.222, 0.971, -1.041], a = 0.2, v = 0.2, t = 0.1)
movej(p[0.445323875220744, 0.0569745157954483, 0.340484592223468, -1.222, 0.971, -1.041], a = 0.2, v = 0.2, t = 0.1)
movej(p[0.445330400666782, 0.0569733055949352, 0.340492489318803, -1.222, 0.971, -1.041], a = 0.2, v = 0.2, t = 0.1)
movej(p[0.445335725258327, 0.056974297927674, 0.340499541221995, -1.222, 0.971, -1.041], a = 0.2, v = 0.2, t = 0.1)
movej(p[0.445338154209374, 0.0569777462133246, 0.340508296663096, -1.222, 0.971, -1.041], a = 0.2, v = 0.2, t = 0.1)
movej(p[0.445337963990442, 0.056981714456902, 0.340518196262566, -1.222, 0.971, -1.041], a = 0.2, v = 0.2, t = 0.1)
movej(p[0.445334535613939, 0.0569825175949869, 0.340525607566282, -1.222, 0.971, -1.041], a = 0.2, v = 0.2, t = 0.1)
movej(p[0.445327427372401, 0.0569794161693524, 0.340528816100257, -1.222, 0.971, -1.041], a = 0.2, v = 0.2, t = 0.1)
movej(p[0.445317998643939, 0.0569741786970586, 0.340528421930788, -1.222, 0.971, -1.041], a = 0.2, v = 0.2, t = 0.1)
movej(p[0.445307754296092, 0.0569663094152815, 0.340527255885124, -1.222, 0.971, -1.041], a = 0.2, v = 0.2, t = 0.1)
movej(p[0.445299623543936, 0.0569557424269109, 0.340526825633853, -1.222, 0.971, -1.041], a = 0.2, v = 0.2, t = 0.1)
movej(p[0.44529593186917, 0.0569429827769139, 0.340528973099191, -1.222, 0.971, -1.041], a = 0.2, v = 0.2, t = 0.1)
movej(p[0.44529840772515, 0.0569331194545557, 0.340535598391202, -1.222, 0.971, -1.041], a = 0.2, v = 0.2, t = 0.1)
movej(p[0.445306426764124, 0.0569294544613607, 0.340546658419041, -1.222, 0.971, -1.041], a = 0.2, v = 0.2, t = 0.1)
movej(p[0.445317997798003, 0.0569317037795611, 0.340561163661666, -1.222, 0.971, -1.041], a = 0.2, v = 0.2, t = 0.1)
movej(p[0.445332018615753, 0.0569385499771756, 0.340577797170401, -1.222, 0.971, -1.041], a = 0.2, v = 0.2, t = 0.1)
movej(p[0.445346262042642, 0.0569472198138551, 0.340596351167286, -1.222, 0.971, -1.041], a = 0.2, v = 0.2, t = 0.1)
movej(p[0.445359035455187, 0.056956264385406, 0.340615844604218, -1.222, 0.971, -1.041], a = 0.2, v = 0.2, t = 0.1)
movej(p[0.445369681360692, 0.0569658943045524, 0.340634879495633, -1.222, 0.971, -1.041], a = 0.2, v = 0.2, t = 0.1)
movej(p[0.44537708648845, 0.0569760018718813, 0.340651868275418, -1.222, 0.971, -1.041], a = 0.2, v = 0.2, t = 0.1)
movej(p[0.445380698208388, 0.0569854840881756, 0.340664244534071, -1.222, 0.971, -1.041], a = 0.2, v = 0.2, t = 0.1)
movej(p[0.44538170897539, 0.0569929154681484, 0.340670816089958, -1.222, 0.971, -1.041], a = 0.2, v = 0.2, t = 0.1)
movej(p[0.445381787732772, 0.0569985671343504, 0.340671237558124, -1.222, 0.971, -1.041], a = 0.2, v = 0.2, t = 0.1)
movej(p[0.445381641706629, 0.0570031186120997, 0.340667082906675, -1.222, 0.971, -1.041], a = 0.2, v = 0.2, t = 0.1)
movej(p[0.445380508447048, 0.0570069418122262, 0.340659650555599, -1.222, 0.971, -1.041], a = 0.2, v = 0.2, t = 0.1)
movej(p[0.44537831666443, 0.0570096153747876, 0.340650163347728, -1.222, 0.971, -1.041], a = 0.2, v = 0.2, t = 0.1)
movej(p[0.445376122012205, 0.0570097764787078, 0.340640908030654, -1.222, 0.971, -1.041], a = 0.2, v = 0.2, t = 0.1)
movej(p[0.445377196878473, 0.0570028486451763, 0.340635041559052, -1.222, 0.971, -1.041], a = 0.2, v = 0.2, t = 0.1)
movej(p[0.445382041627308, 0.0569881338635059, 0.340632611239091, -1.222, 0.971, -1.041], a = 0.2, v = 0.2, t = 0.1)
movej(p[0.445390686741763, 0.0569701318683606, 0.340630200862386, -1.222, 0.971, -1.041], a = 0.2, v = 0.2, t = 0.1)
movej(p[0.445398271488405, 0.0569565246248331, 0.340623635352432, -1.222, 0.971, -1.041], a = 0.2, v = 0.2, t = 0.1)
movej(p[0.445402735015732, 0.0569495271156268, 0.340612957740681, -1.222, 0.971, -1.041], a = 0.2, v = 0.2, t = 0.1)
movej(p[0.445403160065499, 0.0569461288093929, 0.340600999835621, -1.222, 0.971, -1.041], a = 0.2, v = 0.2, t = 0.1)
movej(p[0.445400716932968, 0.0569425711463175, 0.340592001599411, -1.222, 0.971, -1.041], a = 0.2, v = 0.2, t = 0.1)
movej(p[0.445396597566025, 0.0569394117338895, 0.340588289136335, -1.222, 0.971, -1.041], a = 0.2, v = 0.2, t = 0.1)
movej(p[0.445390249475682, 0.0569403789241823, 0.340589670467914, -1.222, 0.971, -1.041], a = 0.2, v = 0.2, t = 0.1)
movej(p[0.445381590978283, 0.0569440555792448, 0.34059554227184, -1.222, 0.971, -1.041], a = 0.2, v = 0.2, t = 0.1)
movej(p[0.445371427255876, 0.0569475993651771, 0.340602410361101, -1.222, 0.971, -1.041], a = 0.2, v = 0.2, t = 0.1)
movej(p[0.445359724117021, 0.0569501266751255, 0.340607408283907, -1.222, 0.971, -1.041], a = 0.2, v = 0.2, t = 0.1)
movej(p[0.445348093107257, 0.0569507430234355, 0.340609490044849, -1.222, 0.971, -1.041], a = 0.2, v = 0.2, t = 0.1)
movej(p[0.445336806633818, 0.0569495019606278, 0.340611142043462, -1.222, 0.971, -1.041], a = 0.2, v = 0.2, t = 0.1)
movej(p[0.445326656425048, 0.0569476566118229, 0.340615515650981, -1.222, 0.971, -1.041], a = 0.2, v = 0.2, t = 0.1)
movej(p[0.445316146902115, 0.056950714665217, 0.340622729966898, -1.222, 0.971, -1.041], a = 0.2, v = 0.2, t = 0.1)
movej(p[0.445306129264118, 0.0569605961489444, 0.340627477009484, -1.222, 0.971, -1.041], a = 0.2, v = 0.2, t = 0.1)
movej(p[0.445297297420307, 0.0569749849718013, 0.340626722065326, -1.222, 0.971, -1.041], a = 0.2, v = 0.2, t = 0.1)
movej(p[0.445289177996177, 0.0569921000984334, 0.340620699287465, -1.222, 0.971, -1.041], a = 0.2, v = 0.2, t = 0.1)
movej(p[0.445280228683842, 0.0570099347132528, 0.340612187440839, -1.222, 0.971, -1.041], a = 0.2, v = 0.2, t = 0.1)
movej(p[0.445269431466132, 0.0570265248214885, 0.34060308528151, -1.222, 0.971, -1.041], a = 0.2, v = 0.2, t = 0.1)
movej(p[0.445256776292316, 0.0570405158897027, 0.340593655549175, -1.222, 0.971, -1.041], a = 0.2, v = 0.2, t = 0.1)
movej(p[0.445243424396773, 0.0570509688231057, 0.340584254642054, -1.222, 0.971, -1.041], a = 0.2, v = 0.2, t = 0.1)
movej(p[0.445229841554519, 0.0570575958599199, 0.340574816736177, -1.222, 0.971, -1.041], a = 0.2, v = 0.2, t = 0.1)
movej(p[0.445216527975024, 0.057056368663386, 0.340566091671151, -1.222, 0.971, -1.041], a = 0.2, v = 0.2, t = 0.1)
movej(p[0.445204554315912, 0.0570462549848147, 0.340560743344103, -1.222, 0.971, -1.041], a = 0.2, v = 0.2, t = 0.1)
movej(p[0.445195080174092, 0.057030876663541, 0.340559305912159, -1.222, 0.971, -1.041], a = 0.2, v = 0.2, t = 0.1)
movej(p[0.445189337641666, 0.0570112745310652, 0.340564762683524, -1.222, 0.971, -1.041], a = 0.2, v = 0.2, t = 0.1)
movej(p[0.445186472232752, 0.0569887767132995, 0.340576146471845, -1.222, 0.971, -1.041], a = 0.2, v = 0.2, t = 0.1)
movej(p[0.445185218415941, 0.0569671678385897, 0.340589380779049, -1.222, 0.971, -1.041], a = 0.2, v = 0.2, t = 0.1)
movej(p[0.445184816091757, 0.0569565263720409, 0.340598043394933, -1.222, 0.971, -1.041], a = 0.2, v = 0.2, t = 0.1)
movej(p[0.445185842862967, 0.056960500977782, 0.340601728978752, -1.222, 0.971, -1.041], a = 0.2, v = 0.2, t = 0.1)
movej(p[0.445188467435084, 0.0569747891814845, 0.340604496636454, -1.222, 0.971, -1.041], a = 0.2, v = 0.2, t = 0.1)
movej(p[0.445192271953509, 0.0569951182133126, 0.340607559643553, -1.222, 0.971, -1.041], a = 0.2, v = 0.2, t = 0.1)
movej(p[0.445197064880182, 0.0570175745241892, 0.340610317416336, -1.222, 0.971, -1.041], a = 0.2, v = 0.2, t = 0.1)
movej(p[0.445202698897766, 0.0570399781218301, 0.340612068701467, -1.222, 0.971, -1.041], a = 0.2, v = 0.2, t = 0.1)
movej(p[0.445209276399437, 0.0570605532179421, 0.340614428445254, -1.222, 0.971, -1.041], a = 0.2, v = 0.2, t = 0.1)
movej(p[0.445216202893054, 0.0570774862598892, 0.340618820529338, -1.222, 0.971, -1.041], a = 0.2, v = 0.2, t = 0.1)
movej(p[0.445222969653321, 0.0570902337435206, 0.340624402360808, -1.222, 0.971, -1.041], a = 0.2, v = 0.2, t = 0.1)
movej(p[0.44522954375443, 0.0570988538405838, 0.340627671254845, -1.222, 0.971, -1.041], a = 0.2, v = 0.2, t = 0.1)
movej(p[0.445235969552853, 0.0571039855661711, 0.340626964003041, -1.222, 0.971, -1.041], a = 0.2, v = 0.2, t = 0.1)
movej(p[0.445241782284444, 0.0571045046968893, 0.340621903706137, -1.222, 0.971, -1.041], a = 0.2, v = 0.2, t = 0.1)
movej(p[0.445247132167748, 0.0571011661493442, 0.340611821548535, -1.222, 0.971, -1.041], a = 0.2, v = 0.2, t = 0.1)
movej(p[0.445253158206391, 0.0570971194610716, 0.340598051465409, -1.222, 0.971, -1.041], a = 0.2, v = 0.2, t = 0.1)
movej(p[0.445259252489485, 0.0570944691753065, 0.340582962353575, -1.222, 0.971, -1.041], a = 0.2, v = 0.2, t = 0.1)
movej(p[0.445263577471329, 0.0570913218562097, 0.340568956614232, -1.222, 0.971, -1.041], a = 0.2, v = 0.2, t = 0.1)
movej(p[0.445266147504684, 0.0570851712883483, 0.34055729643445, -1.222, 0.971, -1.041], a = 0.2, v = 0.2, t = 0.1)
movej(p[0.445267117612623, 0.057075955483705, 0.34054785123348, -1.222, 0.971, -1.041], a = 0.2, v = 0.2, t = 0.1)
movej(p[0.445265591542155, 0.0570651722360782, 0.340540176901747, -1.222, 0.971, -1.041], a = 0.2, v = 0.2, t = 0.1)
movej(p[0.445259576615142, 0.0570546611160685, 0.340531745153698, -1.222, 0.971, -1.041], a = 0.2, v = 0.2, t = 0.1)
movej(p[0.445248635445567, 0.0570459147230837, 0.340520299721067, -1.222, 0.971, -1.041], a = 0.2, v = 0.2, t = 0.1)
movej(p[0.445234286868781, 0.0570396451708695, 0.340506240601599, -1.222, 0.971, -1.041], a = 0.2, v = 0.2, t = 0.1)
movej(p[0.445217840215041, 0.0570352294329779, 0.340493630289762, -1.222, 0.971, -1.041], a = 0.2, v = 0.2, t = 0.1)
movej(p[0.445199702938566, 0.0570314665592013, 0.34048409997796, -1.222, 0.971, -1.041], a = 0.2, v = 0.2, t = 0.1)
movej(p[0.445181681296501, 0.0570280556991256, 0.340475775344406, -1.222, 0.971, -1.041], a = 0.2, v = 0.2, t = 0.1)
movej(p[0.445165675742838, 0.0570248612133807, 0.340465542976411, -1.222, 0.971, -1.041], a = 0.2, v = 0.2, t = 0.1)
movej(p[0.44515236457886, 0.057023131678328, 0.340453453375879, -1.222, 0.971, -1.041], a = 0.2, v = 0.2, t = 0.1)
movej(p[0.445141329706731, 0.0570234099369157, 0.340443227163419, -1.222, 0.971, -1.041], a = 0.2, v = 0.2, t = 0.1)
movej(p[0.445131804521463, 0.0570248132195953, 0.340438795306435, -1.222, 0.971, -1.041], a = 0.2, v = 0.2, t = 0.1)
movej(p[0.445123528493607, 0.0570249643428175, 0.340440617978567, -1.222, 0.971, -1.041], a = 0.2, v = 0.2, t = 0.1)
movej(p[0.445115305845712, 0.0570233987627446, 0.340445053234549, -1.222, 0.971, -1.041], a = 0.2, v = 0.2, t = 0.1)
movej(p[0.445106028639658, 0.0570234617646005, 0.340445339721196, -1.222, 0.971, -1.041], a = 0.2, v = 0.2, t = 0.1)
movej(p[0.445096644491285, 0.0570275648460863, 0.340439548519885, -1.222, 0.971, -1.041], a = 0.2, v = 0.2, t = 0.1)
movej(p[0.445088440501224, 0.0570346642303879, 0.340431638452652, -1.222, 0.971, -1.041], a = 0.2, v = 0.2, t = 0.1)
movej(p[0.445082855121744, 0.0570419656259285, 0.340425776518737, -1.222, 0.971, -1.041], a = 0.2, v = 0.2, t = 0.1)
movej(p[0.445080897794344, 0.0570467359974764, 0.340423497823114, -1.222, 0.971, -1.041], a = 0.2, v = 0.2, t = 0.1)
movej(p[0.445082546992369, 0.0570485861133582, 0.340424303177133, -1.222, 0.971, -1.041], a = 0.2, v = 0.2, t = 0.1)
movej(p[0.445087055927331, 0.0570490182087157, 0.34042826798988, -1.222, 0.971, -1.041], a = 0.2, v = 0.2, t = 0.1)
movej(p[0.445092825221139, 0.0570494589926434, 0.340433597813281, -1.222, 0.971, -1.041], a = 0.2, v = 0.2, t = 0.1)
movej(p[0.445099290275542, 0.0570497529704009, 0.340436332079296, -1.222, 0.971, -1.041], a = 0.2, v = 0.2, t = 0.1)
movej(p[0.445105641968305, 0.0570504230947994, 0.340435440908531, -1.222, 0.971, -1.041], a = 0.2, v = 0.2, t = 0.1)
movej(p[0.445111679922815, 0.0570521908398765, 0.340431328727032, -1.222, 0.971, -1.041], a = 0.2, v = 0.2, t = 0.1)
movej(p[0.44511786764387, 0.0570550770590018, 0.340425830279041, -1.222, 0.971, -1.041], a = 0.2, v = 0.2, t = 0.1)
movej(p[0.445123370180213, 0.0570582807287568, 0.340419937733336, -1.222, 0.971, -1.041], a = 0.2, v = 0.2, t = 0.1)
movej(p[0.445128414197811, 0.0570615625510435, 0.340412908308683, -1.222, 0.971, -1.041], a = 0.2, v = 0.2, t = 0.1)
movej(p[0.445134227281668, 0.0570661005333524, 0.340405354956471, -1.222, 0.971, -1.041], a = 0.2, v = 0.2, t = 0.1)
movej(p[0.445141043545296, 0.0570731035613011, 0.34039706658566, -1.222, 0.971, -1.041], a = 0.2, v = 0.2, t = 0.1)
movej(p[0.445147424645291, 0.0570833567688546, 0.340388890638821, -1.222, 0.971, -1.041], a = 0.2, v = 0.2, t = 0.1)
movej(p[0.445152066047455, 0.0570964847620484, 0.340382421179596, -1.222, 0.971, -1.041], a = 0.2, v = 0.2, t = 0.1)
movej(p[0.44515547964564, 0.057109484273638, 0.340379257578031, -1.222, 0.971, -1.041], a = 0.2, v = 0.2, t = 0.1)
movej(p[0.445158315734179, 0.0571197167524929, 0.340378998643135, -1.222, 0.971, -1.041], a = 0.2, v = 0.2, t = 0.1)
movej(p[0.445160233290943, 0.0571273871135969, 0.340380501185178, -1.222, 0.971, -1.041], a = 0.2, v = 0.2, t = 0.1)
movej(p[0.445161013817755, 0.0571331886512954, 0.340383733337283, -1.222, 0.971, -1.041], a = 0.2, v = 0.2, t = 0.1)
movej(p[0.445161256617355, 0.0571368057457427, 0.340389032188961, -1.222, 0.971, -1.041], a = 0.2, v = 0.2, t = 0.1)
movej(p[0.445162010451035, 0.0571364434821473, 0.340395646185399, -1.222, 0.971, -1.041], a = 0.2, v = 0.2, t = 0.1)
movej(p[0.445163759197654, 0.0571328867728419, 0.340403067075788, -1.222, 0.971, -1.041], a = 0.2, v = 0.2, t = 0.1)
movej(p[0.445165736557425, 0.0571280456381093, 0.34041168866612, -1.222, 0.971, -1.041], a = 0.2, v = 0.2, t = 0.1)
movej(p[0.445167146705819, 0.0571239363373236, 0.340422447020202, -1.222, 0.971, -1.041], a = 0.2, v = 0.2, t = 0.1)
movej(p[0.445168976100007, 0.0571214581989935, 0.34043379549377, -1.222, 0.971, -1.041], a = 0.2, v = 0.2, t = 0.1)
movej(p[0.445171771418417, 0.0571203978193514, 0.340444071738025, -1.222, 0.971, -1.041], a = 0.2, v = 0.2, t = 0.1)
movej(p[0.445174465109041, 0.0571206823439584, 0.340453714691389, -1.222, 0.971, -1.041], a = 0.2, v = 0.2, t = 0.1)
movej(p[0.445175658581503, 0.0571224992600818, 0.340463669357294, -1.222, 0.971, -1.041], a = 0.2, v = 0.2, t = 0.1)
movej(p[0.445174239590538, 0.0571269266434107, 0.340475396008756, -1.222, 0.971, -1.041], a = 0.2, v = 0.2, t = 0.1)
movej(p[0.445170399538697, 0.057133885807184, 0.340488564516319, -1.222, 0.971, -1.041], a = 0.2, v = 0.2, t = 0.1)
movej(p[0.445165387210143, 0.0571420949363114, 0.340503175971531, -1.222, 0.971, -1.041], a = 0.2, v = 0.2, t = 0.1)
movej(p[0.445160249635572, 0.0571513708137928, 0.340518012225286, -1.222, 0.971, -1.041], a = 0.2, v = 0.2, t = 0.1)
movej(p[0.445155553636069, 0.0571619461916918, 0.340531000916289, -1.222, 0.971, -1.041], a = 0.2, v = 0.2, t = 0.1)
movej(p[0.445151312881286, 0.0571728250699263, 0.34054100569161, -1.222, 0.971, -1.041], a = 0.2, v = 0.2, t = 0.1)
movej(p[0.445147130891444, 0.05718280161266, 0.340548715572092, -1.222, 0.971, -1.041], a = 0.2, v = 0.2, t = 0.1)
movej(p[0.445142895921275, 0.0571916236737807, 0.340557097012914, -1.222, 0.971, -1.041], a = 0.2, v = 0.2, t = 0.1)
movej(p[0.445138230982031, 0.0571990911943114, 0.3405681819545, -1.222, 0.971, -1.041], a = 0.2, v = 0.2, t = 0.1)
movej(p[0.445132548803, 0.0572051710569963, 0.340582332420824, -1.222, 0.971, -1.041], a = 0.2, v = 0.2, t = 0.1)
movej(p[0.445125360542533, 0.0572101618512722, 0.340596845052459, -1.222, 0.971, -1.041], a = 0.2, v = 0.2, t = 0.1)
movej(p[0.445119388926368, 0.0572151293437393, 0.34060716387584, -1.222, 0.971, -1.041], a = 0.2, v = 0.2, t = 0.1)
movej(p[0.445116509692792, 0.0572197589178153, 0.340611659509709, -1.222, 0.971, -1.041], a = 0.2, v = 0.2, t = 0.1)
movej(p[0.445115838605468, 0.0572231473094139, 0.340612874943861, -1.222, 0.971, -1.041], a = 0.2, v = 0.2, t = 0.1)
movej(p[0.445113207852382, 0.0572258721758965, 0.340613828419006, -1.222, 0.971, -1.041], a = 0.2, v = 0.2, t = 0.1)
movej(p[0.44510627536273, 0.0572290192252174, 0.340613719021547, -1.222, 0.971, -1.041], a = 0.2, v = 0.2, t = 0.1)
movej(p[0.445096152583641, 0.0572326987224033, 0.340610870055951, -1.222, 0.971, -1.041], a = 0.2, v = 0.2, t = 0.1)
movej(p[0.445084636341176, 0.0572360318901092, 0.340605352988836, -1.222, 0.971, -1.041], a = 0.2, v = 0.2, t = 0.1)
movej(p[0.445073303105725, 0.0572386727507715, 0.340598685377333, -1.222, 0.971, -1.041], a = 0.2, v = 0.2, t = 0.1)
movej(p[0.445062282379182, 0.0572414238554225, 0.340593325296114, -1.222, 0.971, -1.041], a = 0.2, v = 0.2, t = 0.1)
movej(p[0.445052021628269, 0.0572444859873315, 0.340590465244913, -1.222, 0.971, -1.041], a = 0.2, v = 0.2, t = 0.1)
movej(p[0.445042960225127, 0.0572470533232954, 0.340588073876863, -1.222, 0.971, -1.041], a = 0.2, v = 0.2, t = 0.1)
movej(p[0.445034803043703, 0.0572484673457317, 0.340584924463305, -1.222, 0.971, -1.041], a = 0.2, v = 0.2, t = 0.1)
movej(p[0.445027342484941, 0.0572479929554876, 0.340582000217272, -1.222, 0.971, -1.041], a = 0.2, v = 0.2, t = 0.1)
movej(p[0.445020505565655, 0.0572473235988601, 0.340581252739925, -1.222, 0.971, -1.041], a = 0.2, v = 0.2, t = 0.1)
movej(p[0.445014899174764, 0.0572481002704121, 0.340582959000009, -1.222, 0.971, -1.041], a = 0.2, v = 0.2, t = 0.1)
movej(p[0.445011333254597, 0.0572499152959997, 0.340585631179921, -1.222, 0.971, -1.041], a = 0.2, v = 0.2, t = 0.1)
movej(p[0.44500901177432, 0.0572515288534905, 0.340587859339597, -1.222, 0.971, -1.041], a = 0.2, v = 0.2, t = 0.1)
movej(p[0.445007099837632, 0.057252684847031, 0.340589393141096, -1.222, 0.971, -1.041], a = 0.2, v = 0.2, t = 0.1)
movej(p[0.445006071969341, 0.0572546810788145, 0.340590545326603, -1.222, 0.971, -1.041], a = 0.2, v = 0.2, t = 0.1)
movej(p[0.445008341550845, 0.0572578028650265, 0.340591702619413, -1.222, 0.971, -1.041], a = 0.2, v = 0.2, t = 0.1)
movej(p[0.445015364356173, 0.0572628210790142, 0.340592726259827, -1.222, 0.971, -1.041], a = 0.2, v = 0.2, t = 0.1)
movej(p[0.445026098269124, 0.0572697814081771, 0.340594126536475, -1.222, 0.971, -1.041], a = 0.2, v = 0.2, t = 0.1)
movej(p[0.445038550564805, 0.0572779071067305, 0.340596882625786, -1.222, 0.971, -1.041], a = 0.2, v = 0.2, t = 0.1)
movej(p[0.445050822196971, 0.057285723899473, 0.340602249325351, -1.222, 0.971, -1.041], a = 0.2, v = 0.2, t = 0.1)
movej(p[0.445062480419042, 0.0572922892403486, 0.340609520588194, -1.222, 0.971, -1.041], a = 0.2, v = 0.2, t = 0.1)
movej(p[0.445074868482264, 0.0572967868805579, 0.340615228028525, -1.222, 0.971, -1.041], a = 0.2, v = 0.2, t = 0.1)
movej(p[0.445089252426966, 0.0572985160429321, 0.340616321979765, -1.222, 0.971, -1.041], a = 0.2, v = 0.2, t = 0.1)
movej(p[0.445105817840071, 0.0572982711356001, 0.340612756006821, -1.222, 0.971, -1.041], a = 0.2, v = 0.2, t = 0.1)
movej(p[0.445123659967263, 0.0572984027237035, 0.34060755126198, -1.222, 0.971, -1.041], a = 0.2, v = 0.2, t = 0.1)
movej(p[0.445141601210427, 0.0572989668566944, 0.340601979247559, -1.222, 0.971, -1.041], a = 0.2, v = 0.2, t = 0.1)
movej(p[0.445158437864124, 0.0573004481985887, 0.340595007426388, -1.222, 0.971, -1.041], a = 0.2, v = 0.2, t = 0.1)
movej(p[0.445172598210198, 0.0573027089775329, 0.340586573228936, -1.222, 0.971, -1.041], a = 0.2, v = 0.2, t = 0.1)
movej(p[0.445183558432314, 0.0573054434829265, 0.340576772004451, -1.222, 0.971, -1.041], a = 0.2, v = 0.2, t = 0.1)
movej(p[0.445190673507843, 0.0573082645089815, 0.340566480327221, -1.222, 0.971, -1.041], a = 0.2, v = 0.2, t = 0.1)
movej(p[0.445193384143901, 0.0573111119508568, 0.340557169321264, -1.222, 0.971, -1.041], a = 0.2, v = 0.2, t = 0.1)
movej(p[0.445192993257904, 0.0573142539518994, 0.340549339700418, -1.222, 0.971, -1.041], a = 0.2, v = 0.2, t = 0.1)
movej(p[0.445191031320412, 0.0573163870659969, 0.340542300438559, -1.222, 0.971, -1.041], a = 0.2, v = 0.2, t = 0.1)
movej(p[0.445188986525739, 0.0573170499796214, 0.340534490328299, -1.222, 0.971, -1.041], a = 0.2, v = 0.2, t = 0.1)
movej(p[0.445187694758586, 0.0573160281484001, 0.340525254530359, -1.222, 0.971, -1.041], a = 0.2, v = 0.2, t = 0.1)
movej(p[0.445187287525337, 0.0573136987015709, 0.340515573174124, -1.222, 0.971, -1.041], a = 0.2, v = 0.2, t = 0.1)
movej(p[0.445186558185324, 0.0573090601057394, 0.340505575558316, -1.222, 0.971, -1.041], a = 0.2, v = 0.2, t = 0.1)
movej(p[0.445183353473846, 0.0573022741544577, 0.340495922461997, -1.222, 0.971, -1.041], a = 0.2, v = 0.2, t = 0.1)
movej(p[0.445176108066724, 0.0572949132198917, 0.340489808807856, -1.222, 0.971, -1.041], a = 0.2, v = 0.2, t = 0.1)
movej(p[0.445165359705479, 0.0572881459099206, 0.34048817923481, -1.222, 0.971, -1.041], a = 0.2, v = 0.2, t = 0.1)
movej(p[0.445151882039308, 0.0572826901723111, 0.340487283491142, -1.222, 0.971, -1.041], a = 0.2, v = 0.2, t = 0.1)
movej(p[0.445136465589181, 0.0572785038295833, 0.340481198065847, -1.222, 0.971, -1.041], a = 0.2, v = 0.2, t = 0.1)
movej(p[0.445119935989412, 0.057275002211082, 0.340468232035446, -1.222, 0.971, -1.041], a = 0.2, v = 0.2, t = 0.1)
movej(p[0.44510384330113, 0.0572709011417403, 0.340451524275359, -1.222, 0.971, -1.041], a = 0.2, v = 0.2, t = 0.1)
movej(p[0.445089973284525, 0.0572648320770299, 0.340437346547653, -1.222, 0.971, -1.041], a = 0.2, v = 0.2, t = 0.1)
movej(p[0.445077899549071, 0.057256483244463, 0.340428184362544, -1.222, 0.971, -1.041], a = 0.2, v = 0.2, t = 0.1)
movej(p[0.445065781519475, 0.0572460074017311, 0.340421952965689, -1.222, 0.971, -1.041], a = 0.2, v = 0.2, t = 0.1)
movej(p[0.445052287560098, 0.0572343217457853, 0.340416869923841, -1.222, 0.971, -1.041], a = 0.2, v = 0.2, t = 0.1)
movej(p[0.445037116614484, 0.0572230531432928, 0.340412856244224, -1.222, 0.971, -1.041], a = 0.2, v = 0.2, t = 0.1)
movej(p[0.445020524710148, 0.0572138064689315, 0.340409969164776, -1.222, 0.971, -1.041], a = 0.2, v = 0.2, t = 0.1)
movej(p[0.445002087554406, 0.0572064857942565, 0.340407243499269, -1.222, 0.971, -1.041], a = 0.2, v = 0.2, t = 0.1)
movej(p[0.444982366787363, 0.0572000556325748, 0.340402518339167, -1.222, 0.971, -1.041], a = 0.2, v = 0.2, t = 0.1)
movej(p[0.444962379407037, 0.0571930655128217, 0.340395115092748, -1.222, 0.971, -1.041], a = 0.2, v = 0.2, t = 0.1)
movej(p[0.444943456005356, 0.0571844149028325, 0.340385167640831, -1.222, 0.971, -1.041], a = 0.2, v = 0.2, t = 0.1)
movej(p[0.444926838171449, 0.0571751992666538, 0.340373899481662, -1.222, 0.971, -1.041], a = 0.2, v = 0.2, t = 0.1)
movej(p[0.444913285101186, 0.057166798609083, 0.3403617065627, -1.222, 0.971, -1.041], a = 0.2, v = 0.2, t = 0.1)
movej(p[0.444903418348286, 0.0571603905625351, 0.340348401590409, -1.222, 0.971, -1.041], a = 0.2, v = 0.2, t = 0.1)
movej(p[0.444896342260756, 0.0571557806247271, 0.340333867358277, -1.222, 0.971, -1.041], a = 0.2, v = 0.2, t = 0.1)
movej(p[0.444889931178053, 0.0571533637325026, 0.340319542395466, -1.222, 0.971, -1.041], a = 0.2, v = 0.2, t = 0.1)
movej(p[0.444882743065681, 0.0571529026331974, 0.340307223959243, -1.222, 0.971, -1.041], a = 0.2, v = 0.2, t = 0.1)
movej(p[0.444874720969163, 0.0571530030195538, 0.340298477503045, -1.222, 0.971, -1.041], a = 0.2, v = 0.2, t = 0.1)
movej(p[0.444867034582124, 0.0571527394630656, 0.340293994614103, -1.222, 0.971, -1.041], a = 0.2, v = 0.2, t = 0.1)
movej(p[0.444860236493682, 0.0571512441869685, 0.340295112027154, -1.222, 0.971, -1.041], a = 0.2, v = 0.2, t = 0.1)
movej(p[0.44485548337585, 0.0571491463527685, 0.340300672690922, -1.222, 0.971, -1.041], a = 0.2, v = 0.2, t = 0.1)
movej(p[0.444854188133824, 0.0571469351845233, 0.340308915939134, -1.222, 0.971, -1.041], a = 0.2, v = 0.2, t = 0.1)
movej(p[0.444857169865188, 0.0571456788398877, 0.340318490033882, -1.222, 0.971, -1.041], a = 0.2, v = 0.2, t = 0.1)
movej(p[0.444863749746629, 0.0571452385386574, 0.340328749324357, -1.222, 0.971, -1.041], a = 0.2, v = 0.2, t = 0.1)
movej(p[0.444922305867828, 0.0571569890659266, 0.340406851655648, -1.222, 0.971, -1.041], a = 0.2, v = 0.2, t = 0.1)
movej(p[0.445252970061491, 0.0572307438094283, 0.340862695356209, -1.222, 0.971, -1.041], a = 0.2, v = 0.2, t = 0.1)
movej(p[0.44576927211392, 0.0573467895000857, 0.341577135461454, -1.222, 0.971, -1.041], a = 0.2, v = 0.2, t = 0.1)
movej(p[0.446363787086444, 0.0574807774399647, 0.342400904650885, -1.222, 0.971, -1.041], a = 0.2, v = 0.2, t = 0.1)
movej(p[0.446961438788037, 0.0576156737417227, 0.343229634118378, -1.222, 0.971, -1.041], a = 0.2, v = 0.2, t = 0.1)
movej(p[0.447513835418564, 0.0577404853880707, 0.343996002154977, -1.222, 0.971, -1.041], a = 0.2, v = 0.2, t = 0.1)
movej(p[0.447993523686869, 0.0578489575561526, 0.344661769360875, -1.222, 0.971, -1.041], a = 0.2, v = 0.2, t = 0.1)
movej(p[0.448388647054482, 0.057938372673359, 0.345210368323972, -1.222, 0.971, -1.041], a = 0.2, v = 0.2, t = 0.1)
movej(p[0.448698292069916, 0.0580084956844829, 0.345640441742743, -1.222, 0.971, -1.041], a = 0.2, v = 0.2, t = 0.1)
movej(p[0.448928631421344, 0.0580607010659567, 0.345960494423786, -1.222, 0.971, -1.041], a = 0.2, v = 0.2, t = 0.1)
movej(p[0.449089896395659, 0.0580972875096001, 0.34618467951136, -1.222, 0.971, -1.041], a = 0.2, v = 0.2, t = 0.1)
movej(p[0.44919414224392, 0.0581210507614223, 0.346330297054054, -1.222, 0.971, -1.041], a = 0.2, v = 0.2, t = 0.1)
movej(p[0.449253610656527, 0.0581351494200862, 0.346416374475146, -1.222, 0.971, -1.041], a = 0.2, v = 0.2, t = 0.1)
movej(p[0.449279513568465, 0.0581427178477082, 0.346458366730509, -1.222, 0.971, -1.041], a = 0.2, v = 0.2, t = 0.1)
movej(p[0.44928250934257, 0.0581459734678604, 0.346468429306121, -1.222, 0.971, -1.041], a = 0.2, v = 0.2, t = 0.1)
movej(p[0.449271888826183, 0.0581443930839426, 0.346455810254479, -1.222, 0.971, -1.041], a = 0.2, v = 0.2, t = 0.1)
movej(p[0.449252644427303, 0.0581380447420447, 0.346428153277965, -1.222, 0.971, -1.041], a = 0.2, v = 0.2, t = 0.1)
movej(p[0.449226998097945, 0.0581284298842612, 0.346392638680047, -1.222, 0.971, -1.041], a = 0.2, v = 0.2, t = 0.1)
movej(p[0.449196568234595, 0.0581176498732803, 0.346353471961844, -1.222, 0.971, -1.041], a = 0.2, v = 0.2, t = 0.1)
movej(p[0.449162910361212, 0.058107537417278, 0.346315120459919, -1.222, 0.971, -1.041], a = 0.2, v = 0.2, t = 0.1)
movej(p[0.449127868305162, 0.0580995993301072, 0.346280217429035, -1.222, 0.971, -1.041], a = 0.2, v = 0.2, t = 0.1)
movej(p[0.449093632244479, 0.0580928773348402, 0.346249501759248, -1.222, 0.971, -1.041], a = 0.2, v = 0.2, t = 0.1)
movej(p[0.449061773587417, 0.0580868848545889, 0.34622261493274, -1.222, 0.971, -1.041], a = 0.2, v = 0.2, t = 0.1)
movej(p[0.449033167910187, 0.0580813918412091, 0.346199749441466, -1.222, 0.971, -1.041], a = 0.2, v = 0.2, t = 0.1)
movej(p[0.449007905377614, 0.0580767021725816, 0.346180803454498, -1.222, 0.971, -1.041], a = 0.2, v = 0.2, t = 0.1)
movej(p[0.448986284841752, 0.0580723954332968, 0.346165347740739, -1.222, 0.971, -1.041], a = 0.2, v = 0.2, t = 0.1)
movej(p[0.448969480597051, 0.0580678887183596, 0.346152788896187, -1.222, 0.971, -1.041], a = 0.2, v = 0.2, t = 0.1)
movej(p[0.4489585792001, 0.0580646529327585, 0.346142431166366, -1.222, 0.971, -1.041], a = 0.2, v = 0.2, t = 0.1)
movej(p[0.448954692662406, 0.058063127102311, 0.346134931930725, -1.222, 0.971, -1.041], a = 0.2, v = 0.2, t = 0.1)
movej(p[0.448957806445108, 0.0580644183941723, 0.346130248556983, -1.222, 0.971, -1.041], a = 0.2, v = 0.2, t = 0.1)
movej(p[0.448967845231752, 0.0580697168687195, 0.346128869660255, -1.222, 0.971, -1.041], a = 0.2, v = 0.2, t = 0.1)
movej(p[0.448984487396932, 0.0580792517865944, 0.346131277549214, -1.222, 0.971, -1.041], a = 0.2, v = 0.2, t = 0.1)
movej(p[0.449005602138711, 0.0580903256751616, 0.346137047670583, -1.222, 0.971, -1.041], a = 0.2, v = 0.2, t = 0.1)
movej(p[0.449027926584337, 0.0580986590997161, 0.346146495018025, -1.222, 0.971, -1.041], a = 0.2, v = 0.2, t = 0.1)
movej(p[0.449048805191394, 0.0581026296796508, 0.34615664433531, -1.222, 0.971, -1.041], a = 0.2, v = 0.2, t = 0.1)
movej(p[0.449067429296768, 0.0581023854316465, 0.346165698820825, -1.222, 0.971, -1.041], a = 0.2, v = 0.2, t = 0.1)
movej(p[0.449083286453886, 0.0580988488324234, 0.346172710045759, -1.222, 0.971, -1.041], a = 0.2, v = 0.2, t = 0.1)
movej(p[0.449095646428968, 0.0580931122544883, 0.346176046329404, -1.222, 0.971, -1.041], a = 0.2, v = 0.2, t = 0.1)
movej(p[0.449104017925625, 0.0580870232475677, 0.346175444989697, -1.222, 0.971, -1.041], a = 0.2, v = 0.2, t = 0.1)
movej(p[0.449106212778042, 0.0580823788247534, 0.346171732660968, -1.222, 0.971, -1.041], a = 0.2, v = 0.2, t = 0.1)
movej(p[0.449100709331303, 0.058080772151226, 0.34616690992314, -1.222, 0.971, -1.041], a = 0.2, v = 0.2, t = 0.1)
movej(p[0.449088883474527, 0.0580824194468578, 0.346160441165252, -1.222, 0.971, -1.041], a = 0.2, v = 0.2, t = 0.1)
movej(p[0.449073663272635, 0.0580849726657195, 0.346150102202933, -1.222, 0.971, -1.041], a = 0.2, v = 0.2, t = 0.1)
movej(p[0.449056594509636, 0.0580874887189125, 0.346136353696723, -1.222, 0.971, -1.041], a = 0.2, v = 0.2, t = 0.1)
movej(p[0.449037897040598, 0.0580907340472771, 0.346121171653502, -1.222, 0.971, -1.041], a = 0.2, v = 0.2, t = 0.1)
movej(p[0.449018549785241, 0.0580950699756752, 0.346106560766394, -1.222, 0.971, -1.041], a = 0.2, v = 0.2, t = 0.1)
movej(p[0.449000542189149, 0.0580993798750152, 0.346094779152257, -1.222, 0.971, -1.041], a = 0.2, v = 0.2, t = 0.1)
movej(p[0.448985403313514, 0.0581026576210146, 0.346088187966274, -1.222, 0.971, -1.041], a = 0.2, v = 0.2, t = 0.1)
movej(p[0.448974620820756, 0.0581050020128974, 0.34608797823877, -1.222, 0.971, -1.041], a = 0.2, v = 0.2, t = 0.1)
movej(p[0.448969955610549, 0.058106945836861, 0.346092357804516, -1.222, 0.971, -1.041], a = 0.2, v = 0.2, t = 0.1)
movej(p[0.44897188016472, 0.058108789037073, 0.346099817923833, -1.222, 0.971, -1.041], a = 0.2, v = 0.2, t = 0.1)
movej(p[0.448982124030121, 0.0581110842481086, 0.346107417473685, -1.222, 0.971, -1.041], a = 0.2, v = 0.2, t = 0.1)
movej(p[0.448999813866797, 0.0581114101947697, 0.346114629693463, -1.222, 0.971, -1.041], a = 0.2, v = 0.2, t = 0.1)
movej(p[0.449023257660903, 0.0581079920025364, 0.346121346617521, -1.222, 0.971, -1.041], a = 0.2, v = 0.2, t = 0.1)
movej(p[0.449049348749107, 0.0581008256916739, 0.346127886762926, -1.222, 0.971, -1.041], a = 0.2, v = 0.2, t = 0.1)
movej(p[0.449075430238882, 0.0580912441593879, 0.346135474136265, -1.222, 0.971, -1.041], a = 0.2, v = 0.2, t = 0.1)
movej(p[0.449100379031274, 0.0580803555874563, 0.346142944620752, -1.222, 0.971, -1.041], a = 0.2, v = 0.2, t = 0.1)
movej(p[0.44912397117451, 0.0580695130942015, 0.346148321127011, -1.222, 0.971, -1.041], a = 0.2, v = 0.2, t = 0.1)
movej(p[0.449146858952194, 0.0580612246129669, 0.346150883917973, -1.222, 0.971, -1.041], a = 0.2, v = 0.2, t = 0.1)
movej(p[0.44916839145209, 0.0580563431639733, 0.346149490654913, -1.222, 0.971, -1.041], a = 0.2, v = 0.2, t = 0.1)
movej(p[0.449186319297191, 0.0580543250725796, 0.346144866015665, -1.222, 0.971, -1.041], a = 0.2, v = 0.2, t = 0.1)
movej(p[0.449199158971822, 0.058054121886489, 0.346136242194251, -1.222, 0.971, -1.041], a = 0.2, v = 0.2, t = 0.1)
movej(p[0.449206675567601, 0.0580555923183396, 0.346125516123439, -1.222, 0.971, -1.041], a = 0.2, v = 0.2, t = 0.1)
movej(p[0.44920897132229, 0.0580572994846626, 0.346113964145792, -1.222, 0.971, -1.041], a = 0.2, v = 0.2, t = 0.1)
movej(p[0.449205265335162, 0.0580576523944714, 0.34610143253839, -1.222, 0.971, -1.041], a = 0.2, v = 0.2, t = 0.1)
movej(p[0.449195690096549, 0.0580558667716982, 0.346085553354789, -1.222, 0.971, -1.041], a = 0.2, v = 0.2, t = 0.1)
movej(p[0.449181807527669, 0.0580528192443608, 0.346066583611396, -1.222, 0.971, -1.041], a = 0.2, v = 0.2, t = 0.1)
movej(p[0.449166251706133, 0.0580484630607086, 0.346045366601396, -1.222, 0.971, -1.041], a = 0.2, v = 0.2, t = 0.1)
movej(p[0.449151488439357, 0.0580431646548172, 0.346021511582069, -1.222, 0.971, -1.041], a = 0.2, v = 0.2, t = 0.1)
movej(p[0.449137976150816, 0.0580386512243526, 0.345996835288712, -1.222, 0.971, -1.041], a = 0.2, v = 0.2, t = 0.1)
movej(p[0.449125517617971, 0.058036384772946, 0.345974381747713, -1.222, 0.971, -1.041], a = 0.2, v = 0.2, t = 0.1)
movej(p[0.449115442485817, 0.0580370552366734, 0.345957984838753, -1.222, 0.971, -1.041], a = 0.2, v = 0.2, t = 0.1)
movej(p[0.449109422147901, 0.0580399597274367, 0.345948280024598, -1.222, 0.971, -1.041], a = 0.2, v = 0.2, t = 0.1)
movej(p[0.449109217497535, 0.058044356671999, 0.345943141476968, -1.222, 0.971, -1.041], a = 0.2, v = 0.2, t = 0.1)
movej(p[0.449114738420487, 0.0580487389140685, 0.345942050251418, -1.222, 0.971, -1.041], a = 0.2, v = 0.2, t = 0.1)
movej(p[0.449125700915404, 0.0580534697010791, 0.345944292163423, -1.222, 0.971, -1.041], a = 0.2, v = 0.2, t = 0.1)
movej(p[0.449140588085347, 0.0580587568849327, 0.345947866915443, -1.222, 0.971, -1.041], a = 0.2, v = 0.2, t = 0.1)
movej(p[0.449157756415771, 0.0580642836257088, 0.345951194861183, -1.222, 0.971, -1.041], a = 0.2, v = 0.2, t = 0.1)
movej(p[0.449174416350503, 0.0580701566982374, 0.345954784595268, -1.222, 0.971, -1.041], a = 0.2, v = 0.2, t = 0.1)
movej(p[0.44918921538094, 0.0580755084275129, 0.345959861355049, -1.222, 0.971, -1.041], a = 0.2, v = 0.2, t = 0.1)
movej(p[0.449201681516773, 0.0580804249513645, 0.345966089647722, -1.222, 0.971, -1.041], a = 0.2, v = 0.2, t = 0.1)
movej(p[0.44921186099757, 0.0580845967606663, 0.345970886252235, -1.222, 0.971, -1.041], a = 0.2, v = 0.2, t = 0.1)
movej(p[0.449220651953951, 0.0580883062190597, 0.345973545458193, -1.222, 0.971, -1.041], a = 0.2, v = 0.2, t = 0.1)
movej(p[0.449229175011558, 0.0580924924452559, 0.345975413962747, -1.222, 0.971, -1.041], a = 0.2, v = 0.2, t = 0.1)
movej(p[0.44923816515291, 0.0580956533715864, 0.345974586641647, -1.222, 0.971, -1.041], a = 0.2, v = 0.2, t = 0.1)
movej(p[0.449246281833015, 0.0580968465780232, 0.345969884564184, -1.222, 0.971, -1.041], a = 0.2, v = 0.2, t = 0.1)
movej(p[0.449251364400343, 0.0580945262801061, 0.345961819446459, -1.222, 0.971, -1.041], a = 0.2, v = 0.2, t = 0.1)
movej(p[0.449251362616313, 0.0580891988535148, 0.345954040650939, -1.222, 0.971, -1.041], a = 0.2, v = 0.2, t = 0.1)
movej(p[0.449244485490243, 0.0580832661812769, 0.345946036709839, -1.222, 0.971, -1.041], a = 0.2, v = 0.2, t = 0.1)
movej(p[0.449231978936239, 0.0580787309387635, 0.345934925211773, -1.222, 0.971, -1.041], a = 0.2, v = 0.2, t = 0.1)
movej(p[0.449215699359605, 0.0580753652902526, 0.345919338548893, -1.222, 0.971, -1.041], a = 0.2, v = 0.2, t = 0.1)
movej(p[0.449197079195045, 0.0580725508384125, 0.345901618533865, -1.222, 0.971, -1.041], a = 0.2, v = 0.2, t = 0.1)
movej(p[0.449177004973287, 0.0580703560055138, 0.345885518701246, -1.222, 0.971, -1.041], a = 0.2, v = 0.2, t = 0.1)
movej(p[0.449155650425992, 0.0580684326122159, 0.345873311165129, -1.222, 0.971, -1.041], a = 0.2, v = 0.2, t = 0.1)
movej(p[0.449134597911892, 0.0580670349102921, 0.345864887123498, -1.222, 0.971, -1.041], a = 0.2, v = 0.2, t = 0.1)
movej(p[0.449114760383123, 0.0580655373129935, 0.345858535516561, -1.222, 0.971, -1.041], a = 0.2, v = 0.2, t = 0.1)
movej(p[0.449096819037602, 0.0580638164962575, 0.345852874992235, -1.222, 0.971, -1.041], a = 0.2, v = 0.2, t = 0.1)
movej(p[0.449081019988077, 0.0580612163306094, 0.345847809022662, -1.222, 0.971, -1.041], a = 0.2, v = 0.2, t = 0.1)
movej(p[0.449068037586097, 0.0580578827437968, 0.345844108856884, -1.222, 0.971, -1.041], a = 0.2, v = 0.2, t = 0.1)
movej(p[0.449060934302032, 0.0580544334041327, 0.345843495051229, -1.222, 0.971, -1.041], a = 0.2, v = 0.2, t = 0.1)
movej(p[0.449062230014619, 0.0580502915676506, 0.345847114808189, -1.222, 0.971, -1.041], a = 0.2, v = 0.2, t = 0.1)
movej(p[0.449071389264979, 0.0580457423705705, 0.345854611271873, -1.222, 0.971, -1.041], a = 0.2, v = 0.2, t = 0.1)
movej(p[0.449086371509988, 0.0580417600157298, 0.345864192339162, -1.222, 0.971, -1.041], a = 0.2, v = 0.2, t = 0.1)
movej(p[0.449105960540831, 0.0580390841788189, 0.34587419318995, -1.222, 0.971, -1.041], a = 0.2, v = 0.2, t = 0.1)
movej(p[0.449128911002991, 0.0580369456748574, 0.345882216384853, -1.222, 0.971, -1.041], a = 0.2, v = 0.2, t = 0.1)
movej(p[0.449153316158881, 0.0580341463035152, 0.345887774024554, -1.222, 0.971, -1.041], a = 0.2, v = 0.2, t = 0.1)
movej(p[0.449177459034394, 0.0580304155306782, 0.3458916937063, -1.222, 0.971, -1.041], a = 0.2, v = 0.2, t = 0.1)
movej(p[0.449199602946229, 0.0580260393407499, 0.345893001331005, -1.222, 0.971, -1.041], a = 0.2, v = 0.2, t = 0.1)
movej(p[0.449217856071542, 0.0580216075343512, 0.345891276156994, -1.222, 0.971, -1.041], a = 0.2, v = 0.2, t = 0.1)
movej(p[0.449230299710098, 0.0580181195168164, 0.345886432344946, -1.222, 0.971, -1.041], a = 0.2, v = 0.2, t = 0.1)
movej(p[0.449235901089963, 0.0580165466000661, 0.345880069011268, -1.222, 0.971, -1.041], a = 0.2, v = 0.2, t = 0.1)
movej(p[0.449234874973197, 0.0580164878553356, 0.345871418438313, -1.222, 0.971, -1.041], a = 0.2, v = 0.2, t = 0.1)
movej(p[0.449227898010887, 0.0580178411524262, 0.345860132323441, -1.222, 0.971, -1.041], a = 0.2, v = 0.2, t = 0.1)
movej(p[0.449216385551809, 0.0580209189567121, 0.345847659705722, -1.222, 0.971, -1.041], a = 0.2, v = 0.2, t = 0.1)
movej(p[0.449201512320081, 0.0580252421973623, 0.345835809856388, -1.222, 0.971, -1.041], a = 0.2, v = 0.2, t = 0.1)
movej(p[0.449183635295552, 0.0580306717240169, 0.345824256806779, -1.222, 0.971, -1.041], a = 0.2, v = 0.2, t = 0.1)
movej(p[0.449162328195536, 0.0580365026302869, 0.34581287451303, -1.222, 0.971, -1.041], a = 0.2, v = 0.2, t = 0.1)
movej(p[0.449138252526539, 0.0580422658886605, 0.345801239366435, -1.222, 0.971, -1.041], a = 0.2, v = 0.2, t = 0.1)
movej(p[0.449113268846368, 0.0580468955034245, 0.345790193737333, -1.222, 0.971, -1.041], a = 0.2, v = 0.2, t = 0.1)
movej(p[0.449090687608537, 0.0580489871109557, 0.345779884756105, -1.222, 0.971, -1.041], a = 0.2, v = 0.2, t = 0.1)
movej(p[0.449072675376682, 0.0580492782727745, 0.345772370171526, -1.222, 0.971, -1.041], a = 0.2, v = 0.2, t = 0.1)
movej(p[0.449059545260264, 0.0580480219266369, 0.345768918180328, -1.222, 0.971, -1.041], a = 0.2, v = 0.2, t = 0.1)
movej(p[0.449050324962688, 0.0580459407492552, 0.345770439876198, -1.222, 0.971, -1.041], a = 0.2, v = 0.2, t = 0.1)
movej(p[0.449045524117181, 0.0580446972881066, 0.345777666828584, -1.222, 0.971, -1.041], a = 0.2, v = 0.2, t = 0.1)
movej(p[0.449046639032804, 0.0580433129911133, 0.345789060969534, -1.222, 0.971, -1.041], a = 0.2, v = 0.2, t = 0.1)
movej(p[0.449054769008037, 0.0580407372146721, 0.345802237283982, -1.222, 0.971, -1.041], a = 0.2, v = 0.2, t = 0.1)
movej(p[0.449069236368052, 0.0580376249558904, 0.345814479236705, -1.222, 0.971, -1.041], a = 0.2, v = 0.2, t = 0.1)
movej(p[0.449088477724127, 0.0580351655341015, 0.345824915168808, -1.222, 0.971, -1.041], a = 0.2, v = 0.2, t = 0.1)
movej(p[0.449110151281195, 0.0580332482960811, 0.345832775180475, -1.222, 0.971, -1.041], a = 0.2, v = 0.2, t = 0.1)
movej(p[0.449131196072577, 0.0580312784266479, 0.345838471192686, -1.222, 0.971, -1.041], a = 0.2, v = 0.2, t = 0.1)
movej(p[0.449149785390349, 0.0580297346423526, 0.345843272982438, -1.222, 0.971, -1.041], a = 0.2, v = 0.2, t = 0.1)
movej(p[0.449164986336914, 0.058028651730218, 0.345846883974383, -1.222, 0.971, -1.041], a = 0.2, v = 0.2, t = 0.1)
movej(p[0.449175554384438, 0.0580273387902632, 0.34584726543762, -1.222, 0.971, -1.041], a = 0.2, v = 0.2, t = 0.1)
movej(p[0.449180035065265, 0.058025049284046, 0.345843401321859, -1.222, 0.971, -1.041], a = 0.2, v = 0.2, t = 0.1)
movej(p[0.449178355586489, 0.0580229000527326, 0.345837540256017, -1.222, 0.971, -1.041], a = 0.2, v = 0.2, t = 0.1)
movej(p[0.44917046751111, 0.058022381747327, 0.34583199025752, -1.222, 0.971, -1.041], a = 0.2, v = 0.2, t = 0.1)
movej(p[0.449156265354725, 0.0580241914567876, 0.345827852877105, -1.222, 0.971, -1.041], a = 0.2, v = 0.2, t = 0.1)
movej(p[0.449136221617187, 0.0580277565247554, 0.345826435529621, -1.222, 0.971, -1.041], a = 0.2, v = 0.2, t = 0.1)
movej(p[0.449112612371558, 0.0580321202408219, 0.345827503842262, -1.222, 0.971, -1.041], a = 0.2, v = 0.2, t = 0.1)
movej(p[0.449086898549222, 0.0580374460467719, 0.345829692021389, -1.222, 0.971, -1.041], a = 0.2, v = 0.2, t = 0.1)
movej(p[0.449060374275931, 0.0580428683321714, 0.345830228539242, -1.222, 0.971, -1.041], a = 0.2, v = 0.2, t = 0.1)
movej(p[0.449034781380164, 0.0580468345805218, 0.345826729721543, -1.222, 0.971, -1.041], a = 0.2, v = 0.2, t = 0.1)
movej(p[0.449011231191296, 0.0580489031930766, 0.345820742492521, -1.222, 0.971, -1.041], a = 0.2, v = 0.2, t = 0.1)
movej(p[0.448991085074364, 0.0580506098211325, 0.345815829597932, -1.222, 0.971, -1.041], a = 0.2, v = 0.2, t = 0.1)
movej(p[0.448976498850538, 0.0580528872254392, 0.34581338765278, -1.222, 0.971, -1.041], a = 0.2, v = 0.2, t = 0.1)
movej(p[0.448969880084791, 0.0580545318453035, 0.345813517188449, -1.222, 0.971, -1.041], a = 0.2, v = 0.2, t = 0.1)
movej(p[0.448971383471897, 0.0580539498603776, 0.345815544522352, -1.222, 0.971, -1.041], a = 0.2, v = 0.2, t = 0.1)
movej(p[0.448979666184147, 0.0580511929622086, 0.345817759222169, -1.222, 0.971, -1.041], a = 0.2, v = 0.2, t = 0.1)
movej(p[0.448994195181083, 0.0580481842451558, 0.345819152491608, -1.222, 0.971, -1.041], a = 0.2, v = 0.2, t = 0.1)
movej(p[0.44901321787076, 0.058047111164271, 0.345820576292448, -1.222, 0.971, -1.041], a = 0.2, v = 0.2, t = 0.1)
movej(p[0.449035076556771, 0.0580479466820699, 0.345823845446605, -1.222, 0.971, -1.041], a = 0.2, v = 0.2, t = 0.1)
movej(p[0.449058719617895, 0.0580491202311102, 0.345829325374006, -1.222, 0.971, -1.041], a = 0.2, v = 0.2, t = 0.1)
movej(p[0.449083853811966, 0.0580493972891432, 0.345834976702724, -1.222, 0.971, -1.041], a = 0.2, v = 0.2, t = 0.1)
movej(p[0.449110424715198, 0.058050171217485, 0.345839740496836, -1.222, 0.971, -1.041], a = 0.2, v = 0.2, t = 0.1)
movej(p[0.449137984324249, 0.0580524869237566, 0.34584405634941, -1.222, 0.971, -1.041], a = 0.2, v = 0.2, t = 0.1)
movej(p[0.449164947961494, 0.0580554541331907, 0.345848451664153, -1.222, 0.971, -1.041], a = 0.2, v = 0.2, t = 0.1)
movej(p[0.449188728871796, 0.0580574897744128, 0.345853737278213, -1.222, 0.971, -1.041], a = 0.2, v = 0.2, t = 0.1)
movej(p[0.449207678568288, 0.0580575448872574, 0.345858044581247, -1.222, 0.971, -1.041], a = 0.2, v = 0.2, t = 0.1)
movej(p[0.449220895661301, 0.0580561335132411, 0.345858962608307, -1.222, 0.971, -1.041], a = 0.2, v = 0.2, t = 0.1)
movej(p[0.449228916803633, 0.0580526514213369, 0.345856596747434, -1.222, 0.971, -1.041], a = 0.2, v = 0.2, t = 0.1)
movej(p[0.449231140555345, 0.0580467459497893, 0.345852609324316, -1.222, 0.971, -1.041], a = 0.2, v = 0.2, t = 0.1)
movej(p[0.449228491470307, 0.0580390979025262, 0.34584710433971, -1.222, 0.971, -1.041], a = 0.2, v = 0.2, t = 0.1)
movej(p[0.449222063625965, 0.0580303210489482, 0.345837744097599, -1.222, 0.971, -1.041], a = 0.2, v = 0.2, t = 0.1)
movej(p[0.449212480572542, 0.0580215975736967, 0.345827145495113, -1.222, 0.971, -1.041], a = 0.2, v = 0.2, t = 0.1)
movej(p[0.449199948444121, 0.058014793418941, 0.345817353201802, -1.222, 0.971, -1.041], a = 0.2, v = 0.2, t = 0.1)
movej(p[0.449185396533979, 0.058010668176337, 0.345809572221615, -1.222, 0.971, -1.041], a = 0.2, v = 0.2, t = 0.1)
movej(p[0.449170703001625, 0.0580078069418189, 0.345802355772834, -1.222, 0.971, -1.041], a = 0.2, v = 0.2, t = 0.1)
movej(p[0.449156650417414, 0.0580044293292214, 0.345795422313731, -1.222, 0.971, -1.041], a = 0.2, v = 0.2, t = 0.1)
movej(p[0.449143689410041, 0.0579998642739769, 0.3457912557771, -1.222, 0.971, -1.041], a = 0.2, v = 0.2, t = 0.1)
movej(p[0.44913297613499, 0.0579952384700507, 0.345791135694967, -1.222, 0.971, -1.041], a = 0.2, v = 0.2, t = 0.1)
movej(p[0.449124972103104, 0.0579908954304426, 0.34579597518921, -1.222, 0.971, -1.041], a = 0.2, v = 0.2, t = 0.1)
movej(p[0.449120941535756, 0.0579882325597744, 0.345804898167, -1.222, 0.971, -1.041], a = 0.2, v = 0.2, t = 0.1)
movej(p[0.449122681614281, 0.0579885190919149, 0.345818212026511, -1.222, 0.971, -1.041], a = 0.2, v = 0.2, t = 0.1)
movej(p[0.449130834456269, 0.0579927291700623, 0.345833441547137, -1.222, 0.971, -1.041], a = 0.2, v = 0.2, t = 0.1)
movej(p[0.449144729562618, 0.0579996148565957, 0.345848726419054, -1.222, 0.971, -1.041], a = 0.2, v = 0.2, t = 0.1)
movej(p[0.449162786549728, 0.0580070312105182, 0.345862437096682, -1.222, 0.971, -1.041], a = 0.2, v = 0.2, t = 0.1)
movej(p[0.449183394340698, 0.0580140307783746, 0.34587542757778, -1.222, 0.971, -1.041], a = 0.2, v = 0.2, t = 0.1)
movej(p[0.449204762218375, 0.0580210168032595, 0.345889097986658, -1.222, 0.971, -1.041], a = 0.2, v = 0.2, t = 0.1)
movej(p[0.449225188616901, 0.0580274454691709, 0.345903483076573, -1.222, 0.971, -1.041], a = 0.2, v = 0.2, t = 0.1)
movej(p[0.449244806137343, 0.0580327010747308, 0.345916847303295, -1.222, 0.971, -1.041], a = 0.2, v = 0.2, t = 0.1)
movej(p[0.449263577345817, 0.0580358990093088, 0.345927179383718, -1.222, 0.971, -1.041], a = 0.2, v = 0.2, t = 0.1)
movej(p[0.449281271869923, 0.0580381965578452, 0.34593415198907, -1.222, 0.971, -1.041], a = 0.2, v = 0.2, t = 0.1)
movej(p[0.449296040436942, 0.0580397708046049, 0.345938789136723, -1.222, 0.971, -1.041], a = 0.2, v = 0.2, t = 0.1)
movej(p[0.449304133200036, 0.0580411726893012, 0.345940411220814, -1.222, 0.971, -1.041], a = 0.2, v = 0.2, t = 0.1)
movej(p[0.449302934375957, 0.0580425951521702, 0.345936483673715, -1.222, 0.971, -1.041], a = 0.2, v = 0.2, t = 0.1)
movej(p[0.449293278267044, 0.0580439397125353, 0.34592700048179, -1.222, 0.971, -1.041], a = 0.2, v = 0.2, t = 0.1)
movej(p[0.449277382884535, 0.058045403696183, 0.345914472636016, -1.222, 0.971, -1.041], a = 0.2, v = 0.2, t = 0.1)
movej(p[0.449256351316181, 0.0580466633929467, 0.345900865151949, -1.222, 0.971, -1.041], a = 0.2, v = 0.2, t = 0.1)
movej(p[0.44923096164975, 0.0580474709544658, 0.345886444211135, -1.222, 0.971, -1.041], a = 0.2, v = 0.2, t = 0.1)
movej(p[0.449202764240114, 0.0580479292411719, 0.345872096120805, -1.222, 0.971, -1.041], a = 0.2, v = 0.2, t = 0.1)
movej(p[0.449171913674175, 0.0580484635724085, 0.345858468655108, -1.222, 0.971, -1.041], a = 0.2, v = 0.2, t = 0.1)
movej(p[0.449139835823952, 0.0580490880412575, 0.345845626245141, -1.222, 0.971, -1.041], a = 0.2, v = 0.2, t = 0.1)
movej(p[0.449108863227589, 0.0580499944170025, 0.345832734363877, -1.222, 0.971, -1.041], a = 0.2, v = 0.2, t = 0.1)
movej(p[0.449080852958347, 0.0580512888105809, 0.345819062785758, -1.222, 0.971, -1.041], a = 0.2, v = 0.2, t = 0.1)
movej(p[0.449057384867317, 0.0580532175868835, 0.345807090756007, -1.222, 0.971, -1.041], a = 0.2, v = 0.2, t = 0.1)
movej(p[0.449039461195453, 0.0580543959410163, 0.345798292839465, -1.222, 0.971, -1.041], a = 0.2, v = 0.2, t = 0.1)
movej(p[0.449028350728811, 0.0580546029776307, 0.345794512362797, -1.222, 0.971, -1.041], a = 0.2, v = 0.2, t = 0.1)
movej(p[0.449023832942635, 0.0580538896276673, 0.34579423576039, -1.222, 0.971, -1.041], a = 0.2, v = 0.2, t = 0.1)
movej(p[0.449024557635817, 0.0580535847163128, 0.34579546947221, -1.222, 0.971, -1.041], a = 0.2, v = 0.2, t = 0.1)
movej(p[0.449029586169165, 0.0580531222348149, 0.345797319538219, -1.222, 0.971, -1.041], a = 0.2, v = 0.2, t = 0.1)
movej(p[0.449038080059467, 0.0580522344362104, 0.345798787793363, -1.222, 0.971, -1.041], a = 0.2, v = 0.2, t = 0.1)
movej(p[0.449049229044123, 0.0580515941324472, 0.345799595378183, -1.222, 0.971, -1.041], a = 0.2, v = 0.2, t = 0.1)
movej(p[0.449063210622205, 0.0580529412189716, 0.345801735065598, -1.222, 0.971, -1.041], a = 0.2, v = 0.2, t = 0.1)
movej(p[0.449080034609267, 0.0580565691641356, 0.345805906461913, -1.222, 0.971, -1.041], a = 0.2, v = 0.2, t = 0.1)
movej(p[0.449099536667287, 0.0580615175719333, 0.345813384478312, -1.222, 0.971, -1.041], a = 0.2, v = 0.2, t = 0.1)
movej(p[0.44912058979063, 0.0580677716653159, 0.345823966045986, -1.222, 0.971, -1.041], a = 0.2, v = 0.2, t = 0.1)
movej(p[0.449141710413655, 0.058074912604766, 0.345837084505034, -1.222, 0.971, -1.041], a = 0.2, v = 0.2, t = 0.1)
movej(p[0.449161506750215, 0.0580828870171061, 0.345850620802927, -1.222, 0.971, -1.041], a = 0.2, v = 0.2, t = 0.1)
movej(p[0.449179495387468, 0.0580902569458477, 0.345862411932692, -1.222, 0.971, -1.041], a = 0.2, v = 0.2, t = 0.1)
movej(p[0.449193925959071, 0.0580964240360981, 0.345871496356451, -1.222, 0.971, -1.041], a = 0.2, v = 0.2, t = 0.1)
movej(p[0.449202946778221, 0.0580999860000686, 0.345877611607186, -1.222, 0.971, -1.041], a = 0.2, v = 0.2, t = 0.1)
movej(p[0.449204944649056, 0.0581009451418981, 0.34588035726286, -1.222, 0.971, -1.041], a = 0.2, v = 0.2, t = 0.1)
movej(p[0.449200820707888, 0.0581006207619156, 0.345879170193834, -1.222, 0.971, -1.041], a = 0.2, v = 0.2, t = 0.1)
movej(p[0.449192149989772, 0.0580996490362608, 0.345875578822005, -1.222, 0.971, -1.041], a = 0.2, v = 0.2, t = 0.1)
movej(p[0.449180149406448, 0.0580990435388417, 0.345871869096576, -1.222, 0.971, -1.041], a = 0.2, v = 0.2, t = 0.1)
movej(p[0.449165684709319, 0.0580989412322462, 0.345869310840272, -1.222, 0.971, -1.041], a = 0.2, v = 0.2, t = 0.1)
movej(p[0.44915049886448, 0.0580988630124945, 0.34586707297093, -1.222, 0.971, -1.041], a = 0.2, v = 0.2, t = 0.1)
movej(p[0.44913554569433, 0.0580984146061566, 0.345863547737854, -1.222, 0.971, -1.041], a = 0.2, v = 0.2, t = 0.1)
movej(p[0.449121103454826, 0.0580969785008515, 0.345858032177262, -1.222, 0.971, -1.041], a = 0.2, v = 0.2, t = 0.1)
movej(p[0.449106995618638, 0.0580948340826324, 0.345851006150106, -1.222, 0.971, -1.041], a = 0.2, v = 0.2, t = 0.1)
movej(p[0.449094172896212, 0.0580917669727391, 0.345842819546934, -1.222, 0.971, -1.041], a = 0.2, v = 0.2, t = 0.1)
movej(p[0.449083697036968, 0.0580882540620683, 0.345835051858879, -1.222, 0.971, -1.041], a = 0.2, v = 0.2, t = 0.1)
movej(p[0.449077161770082, 0.0580847468534678, 0.345829078572216, -1.222, 0.971, -1.041], a = 0.2, v = 0.2, t = 0.1)
movej(p[0.449076235330609, 0.0580815284257098, 0.345825583236657, -1.222, 0.971, -1.041], a = 0.2, v = 0.2, t = 0.1)
movej(p[0.449081405161249, 0.0580788102528159, 0.345824684828471, -1.222, 0.971, -1.041], a = 0.2, v = 0.2, t = 0.1)
movej(p[0.449092344163505, 0.0580771675225476, 0.345825969966945, -1.222, 0.971, -1.041], a = 0.2, v = 0.2, t = 0.1)
movej(p[0.449107267914017, 0.0580766898192591, 0.34583160640689, -1.222, 0.971, -1.041], a = 0.2, v = 0.2, t = 0.1)
movej(p[0.449125123577703, 0.0580772045369422, 0.345842509166588, -1.222, 0.971, -1.041], a = 0.2, v = 0.2, t = 0.1)
movej(p[0.44914468251647, 0.0580789274973068, 0.345858022585743, -1.222, 0.971, -1.041], a = 0.2, v = 0.2, t = 0.1)
movej(p[0.449165419865544, 0.0580829237514831, 0.345875752294904, -1.222, 0.971, -1.041], a = 0.2, v = 0.2, t = 0.1)
movej(p[0.449186472933295, 0.0580896823156109, 0.345893496750213, -1.222, 0.971, -1.041], a = 0.2, v = 0.2, t = 0.1)
movej(p[0.449207509227806, 0.0580974679661265, 0.345910347051614, -1.222, 0.971, -1.041], a = 0.2, v = 0.2, t = 0.1)
movej(p[0.449226552534409, 0.0581042573419224, 0.345924246282381, -1.222, 0.971, -1.041], a = 0.2, v = 0.2, t = 0.1)
movej(p[0.449240689715692, 0.0581093921280697, 0.345935418756753, -1.222, 0.971, -1.041], a = 0.2, v = 0.2, t = 0.1)
movej(p[0.449248819347545, 0.0581123219785804, 0.345944623206054, -1.222, 0.971, -1.041], a = 0.2, v = 0.2, t = 0.1)
movej(p[0.449251010402963, 0.0581134296531456, 0.345952027066075, -1.222, 0.971, -1.041], a = 0.2, v = 0.2, t = 0.1)
movej(p[0.449248977121537, 0.0581132531757706, 0.34595796842378, -1.222, 0.971, -1.041], a = 0.2, v = 0.2, t = 0.1)
movej(p[0.449243272490187, 0.0581116826042278, 0.345962841294617, -1.222, 0.971, -1.041], a = 0.2, v = 0.2, t = 0.1)
movej(p[0.449234267248235, 0.0581091221021524, 0.345965289489767, -1.222, 0.971, -1.041], a = 0.2, v = 0.2, t = 0.1)
movej(p[0.449222511406119, 0.058106174826851, 0.345964146602878, -1.222, 0.971, -1.041], a = 0.2, v = 0.2, t = 0.1)
movej(p[0.449208530482987, 0.0581042715712685, 0.345957821316515, -1.222, 0.971, -1.041], a = 0.2, v = 0.2, t = 0.1)
movej(p[0.4491920701548, 0.0581039857729001, 0.345946874912892, -1.222, 0.971, -1.041], a = 0.2, v = 0.2, t = 0.1)
movej(p[0.449174089638475, 0.0581053627440543, 0.345933475054044, -1.222, 0.971, -1.041], a = 0.2, v = 0.2, t = 0.1)
movej(p[0.449155709829289, 0.0581094740712589, 0.345919218109319, -1.222, 0.971, -1.041], a = 0.2, v = 0.2, t = 0.1)
movej(p[0.449138527419736, 0.058116433494374, 0.345905207255639, -1.222, 0.971, -1.041], a = 0.2, v = 0.2, t = 0.1)
movej(p[0.449124226746022, 0.0581257651213467, 0.34589206088875, -1.222, 0.971, -1.041], a = 0.2, v = 0.2, t = 0.1)
movej(p[0.449114554535969, 0.0581351940392358, 0.345881394349802, -1.222, 0.971, -1.041], a = 0.2, v = 0.2, t = 0.1)
movej(p[0.449111121768747, 0.05814275683934, 0.345873697609597, -1.222, 0.971, -1.041], a = 0.2, v = 0.2, t = 0.1)
movej(p[0.449113832477125, 0.058148645642064, 0.345867697423053, -1.222, 0.971, -1.041], a = 0.2, v = 0.2, t = 0.1)
movej(p[0.449121168187941, 0.0581534175609417, 0.345859850903949, -1.222, 0.971, -1.041], a = 0.2, v = 0.2, t = 0.1)
movej(p[0.449131893320521, 0.058157618022512, 0.345851806668763, -1.222, 0.971, -1.041], a = 0.2, v = 0.2, t = 0.1)
movej(p[0.449144758255332, 0.0581602647684984, 0.345845753902206, -1.222, 0.971, -1.041], a = 0.2, v = 0.2, t = 0.1)
movej(p[0.449158680678779, 0.0581612760713425, 0.345841574842273, -1.222, 0.971, -1.041], a = 0.2, v = 0.2, t = 0.1)
movej(p[0.449172435286863, 0.0581605298785976, 0.345837416669137, -1.222, 0.971, -1.041], a = 0.2, v = 0.2, t = 0.1)
movej(p[0.449185708299234, 0.058158489813225, 0.345832072694503, -1.222, 0.971, -1.041], a = 0.2, v = 0.2, t = 0.1)
movej(p[0.44919772434377, 0.0581545495147882, 0.345827069617456, -1.222, 0.971, -1.041], a = 0.2, v = 0.2, t = 0.1)
movej(p[0.44920740190877, 0.0581490027940083, 0.345822281653665, -1.222, 0.971, -1.041], a = 0.2, v = 0.2, t = 0.1)
movej(p[0.44921352882378, 0.0581424308351393, 0.345816017636178, -1.222, 0.971, -1.041], a = 0.2, v = 0.2, t = 0.1)
movej(p[0.449214597399372, 0.0581359961149734, 0.345808507489535, -1.222, 0.971, -1.041], a = 0.2, v = 0.2, t = 0.1)
movej(p[0.449210321397799, 0.0581305200096192, 0.345800145567944, -1.222, 0.971, -1.041], a = 0.2, v = 0.2, t = 0.1)
movej(p[0.449200045928836, 0.0581269155755589, 0.345790931062277, -1.222, 0.971, -1.041], a = 0.2, v = 0.2, t = 0.1)
movej(p[0.449184643399071, 0.0581253346435158, 0.345780109431497, -1.222, 0.971, -1.041], a = 0.2, v = 0.2, t = 0.1)
movej(p[0.449165506918008, 0.0581246737610697, 0.345767879433422, -1.222, 0.971, -1.041], a = 0.2, v = 0.2, t = 0.1)
movej(p[0.449143985912096, 0.058122690080024, 0.345756076039503, -1.222, 0.971, -1.041], a = 0.2, v = 0.2, t = 0.1)
movej(p[0.44912141235674, 0.0581196196563417, 0.345745299593056, -1.222, 0.971, -1.041], a = 0.2, v = 0.2, t = 0.1)
movej(p[0.44909927508915, 0.058116014246358, 0.345736146742816, -1.222, 0.971, -1.041], a = 0.2, v = 0.2, t = 0.1)
movej(p[0.449079281002288, 0.05811174967835, 0.345729928393738, -1.222, 0.971, -1.041], a = 0.2, v = 0.2, t = 0.1)
movej(p[0.449064059155583, 0.0581061384881524, 0.345729045982588, -1.222, 0.971, -1.041], a = 0.2, v = 0.2, t = 0.1)
movej(p[0.449055076376945, 0.058099530831699, 0.345732464921185, -1.222, 0.971, -1.041], a = 0.2, v = 0.2, t = 0.1)
movej(p[0.449052622880868, 0.0580938812365161, 0.345737622440189, -1.222, 0.971, -1.041], a = 0.2, v = 0.2, t = 0.1)
movej(p[0.449055923151291, 0.0580901063217203, 0.345742958728638, -1.222, 0.971, -1.041], a = 0.2, v = 0.2, t = 0.1)
movej(p[0.449064215213012, 0.0580874127377607, 0.34574967404329, -1.222, 0.971, -1.041], a = 0.2, v = 0.2, t = 0.1)
movej(p[0.44907632340516, 0.0580856337976566, 0.345758361840941, -1.222, 0.971, -1.041], a = 0.2, v = 0.2, t = 0.1)
movej(p[0.449090696561467, 0.0580839269814188, 0.345768837091109, -1.222, 0.971, -1.041], a = 0.2, v = 0.2, t = 0.1)
movej(p[0.449106933955562, 0.058082520656508, 0.345780945522356, -1.222, 0.971, -1.041], a = 0.2, v = 0.2, t = 0.1)
movej(p[0.449123618169139, 0.0580786962330655, 0.345793949671104, -1.222, 0.971, -1.041], a = 0.2, v = 0.2, t = 0.1)
movej(p[0.449140323991957, 0.0580734007480251, 0.345804786043383, -1.222, 0.971, -1.041], a = 0.2, v = 0.2, t = 0.1)
movej(p[0.449157424472573, 0.05806884305627, 0.345812576428582, -1.222, 0.971, -1.041], a = 0.2, v = 0.2, t = 0.1)
movej(p[0.44917604332951, 0.0580677225417197, 0.345817074525791, -1.222, 0.971, -1.041], a = 0.2, v = 0.2, t = 0.1)
movej(p[0.449195197669277, 0.0580689155692469, 0.345821691417754, -1.222, 0.971, -1.041], a = 0.2, v = 0.2, t = 0.1)
movej(p[0.44921279289945, 0.0580706875962369, 0.345827500759672, -1.222, 0.971, -1.041], a = 0.2, v = 0.2, t = 0.1)
movej(p[0.449225945886106, 0.0580713282119094, 0.345833521952875, -1.222, 0.971, -1.041], a = 0.2, v = 0.2, t = 0.1)
movej(p[0.449234280281255, 0.0580709388365117, 0.345836374855485, -1.222, 0.971, -1.041], a = 0.2, v = 0.2, t = 0.1)
movej(p[0.449238263611392, 0.0580688697501709, 0.345835131958977, -1.222, 0.971, -1.041], a = 0.2, v = 0.2, t = 0.1)
movej(p[0.449238777704925, 0.0580663379390017, 0.34582983065932, -1.222, 0.971, -1.041], a = 0.2, v = 0.2, t = 0.1)
movej(p[0.449235674966604, 0.0580646838126916, 0.345822756676209, -1.222, 0.971, -1.041], a = 0.2, v = 0.2, t = 0.1)
movej(p[0.449227739249261, 0.0580648389714074, 0.345815524666321, -1.222, 0.971, -1.041], a = 0.2, v = 0.2, t = 0.1)
