def moving():
set_payload_mass(0)
set_tcp(p[0,0,0,0,0,0])
movej(p[-0.4432, 0.0999, 0.3023, 0.805, -1.382, -0.764], a = 0.2, v = 0.2, t = 0.2)
movej(p[-0.443247442556944, 0.0998290840806435, 0.302285163013365, 0.804782249176389, -1.38346644475764, -0.763200020434591], a = 0.2, v = 0.2, t = 0.2)
movej(p[-0.4432, 0.0999, 0.3023, 0.805, -1.382, -0.764], a = 0.2, v = 0.2, t = 0.2)
movej(p[-0.443247442556944, 0.0998290840806435, 0.302285163013365, 0.804782249176389, -1.38346644475764, -0.763200020434591], a = 0.2, v = 0.2, t = 0.2)
movej(p[-0.4432, 0.0999, 0.3023, 0.805, -1.382, -0.764], a = 0.2, v = 0.2, t = 0.2)
movej(p[-0.4432, 0.0999, 0.3023, 0.805, -1.382, -0.764], a = 0.2, v = 0.2, t = 0.2)
movej(p[-0.444055052764286, 0.0998292190648838, 0.30249403431555, 0.781676987280318, -1.36375790621466, -0.754716043960739], a = 0.2, v = 0.2, t = 0.2)
movej(p[-0.445524031626445, 0.0998744854842629, 0.303009907501912, 0.769270017922204, -1.35587674155355, -0.753295959393429], a = 0.2, v = 0.2, t = 0.2)
movej(p[-0.446827110473112, 0.099919596135978, 0.303501437839297, 0.765294173744208, -1.36104811621848, -0.750894830037536], a = 0.2, v = 0.2, t = 0.2)
movej(p[-0.447845535306359, 0.100038750032894, 0.303883373210631, 0.787322698230044, -1.38446752218992, -0.742249728995211], a = 0.2, v = 0.2, t = 0.2)
movej(p[-0.448842065363502, 0.100096353597546, 0.304146898704936, 0.821743528360714, -1.3804373991218, -0.755094732641482], a = 0.2, v = 0.2, t = 0.2)
movej(p[-0.449870900961827, 0.100028909638325, 0.304218068266446, 0.82925515524787, -1.36996745012988, -0.759213572170287], a = 0.2, v = 0.2, t = 0.2)
movej(p[-0.450355762062762, 0.100231957214497, 0.30446132823173, 0.82689518496529, -1.36432198570527, -0.761328493031245], a = 0.2, v = 0.2, t = 0.2)
movej(p[-0.449591376059163, 0.100619774890584, 0.304798197609406, 0.826831296176303, -1.38969226373854, -0.725880664928564], a = 0.2, v = 0.2, t = 0.2)
movej(p[-0.447272057338638, 0.101086155079161, 0.304815843354707, 0.805613447834948, -1.41966202345347, -0.719625395282601], a = 0.2, v = 0.2, t = 0.2)
movej(p[-0.444259009580011, 0.101347377462966, 0.304719997722215, 0.788855816217055, -1.44344769820687, -0.71976633545676], a = 0.2, v = 0.2, t = 0.2)
movej(p[-0.441197266828645, 0.101535849727067, 0.304153538782899, 0.775748302416066, -1.44737551127818, -0.763487669612218], a = 0.2, v = 0.2, t = 0.2)
movej(p[-0.438333805956375, 0.101370220562312, 0.303499992261784, 0.758585005962696, -1.45053016339938, -0.772530844480967], a = 0.2, v = 0.2, t = 0.2)
movej(p[-0.4362363400568, 0.101215339094774, 0.302714786747773, 0.769538858450182, -1.4486653084377, -0.782909268716554], a = 0.2, v = 0.2, t = 0.2)
movej(p[-0.435486165789198, 0.10075634994271, 0.302104922498521, 0.731796148748698, -1.43880042779554, -0.765119187745312], a = 0.2, v = 0.2, t = 0.2)
movej(p[-0.436659258312705, 0.100495660200155, 0.301963459245626, 0.709483274549382, -1.41277917040429, -0.76204543838823], a = 0.2, v = 0.2, t = 0.2)
movej(p[-0.438876110280697, 0.100138631538862, 0.301976507143104, 0.671201851447035, -1.38811205644474, -0.760954581841245], a = 0.2, v = 0.2, t = 0.2)
movej(p[-0.441350870559971, 0.100017820228092, 0.302566579835079, 0.70281078207347, -1.37941076910767, -0.74311778634445], a = 0.2, v = 0.2, t = 0.2)
movej(p[-0.443423938794221, 0.0999338304135448, 0.302822822747556, 0.724743550679643, -1.37662648131717, -0.735964289085605], a = 0.2, v = 0.2, t = 0.2)
movej(p[-0.445135244410261, 0.0998941631101794, 0.303215574831769, 0.7462375359356, -1.37251456725239, -0.734772748469453], a = 0.2, v = 0.2, t = 0.2)
movej(p[-0.446556489436822, 0.0998979416104981, 0.303242301436714, 0.770093369514961, -1.37949204230525, -0.741838042631151], a = 0.2, v = 0.2, t = 0.2)
movej(p[-0.447745440629034, 0.0999939571548037, 0.303672837245666, 0.797770797848944, -1.38149470558385, -0.738051385284979], a = 0.2, v = 0.2, t = 0.2)
movej(p[-0.448799877807613, 0.100113428336407, 0.304008133578479, 0.802033734337021, -1.37299551224988, -0.719106545928241], a = 0.2, v = 0.2, t = 0.2)
movej(p[-0.449470539108242, 0.100219948003655, 0.304480294603159, 0.778082425071992, -1.3703822893547, -0.718493998071349], a = 0.2, v = 0.2, t = 0.2)
movej(p[-0.449439105143008, 0.100524701812022, 0.304804740256105, 0.792825275264778, -1.38762496280195, -0.704724300936365], a = 0.2, v = 0.2, t = 0.2)
movej(p[-0.448085653388757, 0.101013935480227, 0.305199755285833, 0.81762184703911, -1.42614246870811, -0.686706728943612], a = 0.2, v = 0.2, t = 0.2)
movej(p[-0.445844826084404, 0.101399287244761, 0.305337609986643, 0.855685147508458, -1.43632528756031, -0.70898832695215], a = 0.2, v = 0.2, t = 0.2)
movej(p[-0.443184589310222, 0.101664265534591, 0.305150226001919, 0.823732023683679, -1.43827608945706, -0.728358491600692], a = 0.2, v = 0.2, t = 0.2)
movej(p[-0.44062462925739, 0.101529519576876, 0.30438401131225, 0.810824664729566, -1.44154779106876, -0.75369802347007], a = 0.2, v = 0.2, t = 0.2)
movej(p[-0.438610274373835, 0.101353930381028, 0.303555704505866, 0.776712127958245, -1.44674916010464, -0.738257785524679], a = 0.2, v = 0.2, t = 0.2)
movej(p[-0.437573109544137, 0.100946424868126, 0.302792030339293, 0.743760633966309, -1.42286730530171, -0.746476994111778], a = 0.2, v = 0.2, t = 0.2)
movej(p[-0.438068091494324, 0.10072414951222, 0.302538075171703, 0.735831459318054, -1.39413813161046, -0.769067025303612], a = 0.2, v = 0.2, t = 0.2)
movej(p[-0.439513179158327, 0.100504230947688, 0.302498133164715, 0.723978224564593, -1.38118138014704, -0.775622613275201], a = 0.2, v = 0.2, t = 0.2)
movej(p[-0.44170303539238, 0.100628103752496, 0.303059758341865, 0.751116022083175, -1.3775721306708, -0.781092233476781], a = 0.2, v = 0.2, t = 0.2)
movej(p[-0.443652153712843, 0.100535875063923, 0.303472752523325, 0.760409803809231, -1.37792795879609, -0.755788007367265], a = 0.2, v = 0.2, t = 0.2)
movej(p[-0.445263820866476, 0.100554143174511, 0.303907117061927, 0.758201251724497, -1.36784454586993, -0.739134730420156], a = 0.2, v = 0.2, t = 0.2)
movej(p[-0.446528954263231, 0.100335650484062, 0.303920547904615, 0.758267615105854, -1.37366059595074, -0.703897505900501], a = 0.2, v = 0.2, t = 0.2)
movej(p[-0.447632358738984, 0.100339752982548, 0.304163009349786, 0.759937607625923, -1.380207104766, -0.684945537240351], a = 0.2, v = 0.2, t = 0.2)
movej(p[-0.4486094613326, 0.100395045852176, 0.304523871085798, 0.774388261834911, -1.3557469432913, -0.713650765372329], a = 0.2, v = 0.2, t = 0.2)
movej(p[-0.449482058951853, 0.100307229159445, 0.304657413279326, 0.779275079599339, -1.3440481757649, -0.704775930491237], a = 0.2, v = 0.2, t = 0.2)
movej(p[-0.450167126196969, 0.100293751418685, 0.304980802946096, 0.776941706768733, -1.33381482280192, -0.712461063519629], a = 0.2, v = 0.2, t = 0.2)
movej(p[-0.450101160370487, 0.100313420478853, 0.3048887062827, 0.796615442756104, -1.35119349663327, -0.703800186260632], a = 0.2, v = 0.2, t = 0.2)
movej(p[-0.448842297258673, 0.100839521740182, 0.305162573248477, 0.814041020242381, -1.38362247744288, -0.715693147286732], a = 0.2, v = 0.2, t = 0.2)
movej(p[-0.446451218195883, 0.101255982470875, 0.305030666397335, 0.815347743788844, -1.41433576794576, -0.73055808102396], a = 0.2, v = 0.2, t = 0.2)
movej(p[-0.443639010840319, 0.101513055311325, 0.304848590043575, 0.770046182669707, -1.43316960924561, -0.731949145260203], a = 0.2, v = 0.2, t = 0.2)
movej(p[-0.44081436190762, 0.10137381209468, 0.30433593155696, 0.735542501713147, -1.45547203156317, -0.717599414830857], a = 0.2, v = 0.2, t = 0.2)
movej(p[-0.438476493617967, 0.101203607150832, 0.303471247257966, 0.721724122952039, -1.46095353300197, -0.723392047183892], a = 0.2, v = 0.2, t = 0.2)
movej(p[-0.437410986356418, 0.101087869266386, 0.302991147718506, 0.726266538847027, -1.43921867664234, -0.749687983942715], a = 0.2, v = 0.2, t = 0.2)
movej(p[-0.437940101410772, 0.100816385567608, 0.302682566675255, 0.720170799843382, -1.40577141339114, -0.779478349936103], a = 0.2, v = 0.2, t = 0.2)
movej(p[-0.439774198905559, 0.100590110346438, 0.302980163504252, 0.717643839496029, -1.37813217041903, -0.794589481655542], a = 0.2, v = 0.2, t = 0.2)
movej(p[-0.442031843785782, 0.100348150983541, 0.303188599794753, 0.741330941041386, -1.37821087809052, -0.782261443972782], a = 0.2, v = 0.2, t = 0.2)
movej(p[-0.444182250559353, 0.100341231548202, 0.303501735746211, 0.755979455596524, -1.36853542269845, -0.779747116447592], a = 0.2, v = 0.2, t = 0.2)
movej(p[-0.445777290887913, 0.100244679217079, 0.303812134957104, 0.780218686653461, -1.36524184792496, -0.762517669802518], a = 0.2, v = 0.2, t = 0.2)
movej(p[-0.446956764915575, 0.100197389273052, 0.304000844002099, 0.771197642139539, -1.36880953363516, -0.741282526958649], a = 0.2, v = 0.2, t = 0.2)
movej(p[-0.447865460357567, 0.100070196172126, 0.304196325133874, 0.774035242506014, -1.36447909039301, -0.73848559722167], a = 0.2, v = 0.2, t = 0.2)
movej(p[-0.448606298749135, 0.100116403110403, 0.304470030312001, 0.772048867469594, -1.35857428770592, -0.732955162816389], a = 0.2, v = 0.2, t = 0.2)
movej(p[-0.449199490863362, 0.100211018276851, 0.304690548751814, 0.771634272045137, -1.36390290564274, -0.715614873684376], a = 0.2, v = 0.2, t = 0.2)
movej(p[-0.44949112850874, 0.100451158125581, 0.305076900616376, 0.783920175234843, -1.3758724271333, -0.715602543946691], a = 0.2, v = 0.2, t = 0.2)
movej(p[-0.448783355168321, 0.100731854490992, 0.305307984074542, 0.795259382955837, -1.39382223810973, -0.708292357338488], a = 0.2, v = 0.2, t = 0.2)
movej(p[-0.447181817169787, 0.101082620076829, 0.305493876154639, 0.81433841224806, -1.41160816173769, -0.732466724246813], a = 0.2, v = 0.2, t = 0.2)
movej(p[-0.4448440652016, 0.101292740020412, 0.305338030503275, 0.789125561058446, -1.42970326893195, -0.708578732290376], a = 0.2, v = 0.2, t = 0.2)
movej(p[-0.442469109716071, 0.101558389776002, 0.304826682903309, 0.786614518686824, -1.44164439296918, -0.706387108947374], a = 0.2, v = 0.2, t = 0.2)
movej(p[-0.440353358756251, 0.101495501311371, 0.304042713598042, 0.750603915909309, -1.42762998398464, -0.715025139728061], a = 0.2, v = 0.2, t = 0.2)
movej(p[-0.438949874626984, 0.101347509422123, 0.303455000266889, 0.752039286733038, -1.42035536665304, -0.74783265483286], a = 0.2, v = 0.2, t = 0.2)
movej(p[-0.438632681365913, 0.100889001117251, 0.302802177586911, 0.732747624715162, -1.40339136137623, -0.777718029826503], a = 0.2, v = 0.2, t = 0.2)
movej(p[-0.439550058198505, 0.100646077546965, 0.302809042251698, 0.744813018545819, -1.39056784661343, -0.789606324888108], a = 0.2, v = 0.2, t = 0.2)
movej(p[-0.441313738600955, 0.100538237832832, 0.303052043777823, 0.738398469488919, -1.36752872547038, -0.786696597488496], a = 0.2, v = 0.2, t = 0.2)
movej(p[-0.443167618537823, 0.100504953205752, 0.303570118275789, 0.735506761942903, -1.36333556014276, -0.77152899046135], a = 0.2, v = 0.2, t = 0.2)
movej(p[-0.44478626436907, 0.100498402056248, 0.3040350359832, 0.755686142826226, -1.37039543806559, -0.739735601920746], a = 0.2, v = 0.2, t = 0.2)
movej(p[-0.446076360140663, 0.100304126227928, 0.304183798743154, 0.765410369762819, -1.36006978724898, -0.745559067893296], a = 0.2, v = 0.2, t = 0.2)
movej(p[-0.447129490090899, 0.10039910137578, 0.304558196041229, 0.766501067326654, -1.36024807844085, -0.723489590014773], a = 0.2, v = 0.2, t = 0.2)
movej(p[-0.448064669601641, 0.100453689881513, 0.304736103670717, 0.756810777411101, -1.33910201096983, -0.746898238564313], a = 0.2, v = 0.2, t = 0.2)
movej(p[-0.448722547948309, 0.1006932481946, 0.305216991945908, 0.761354966244352, -1.35490282125497, -0.739385798579196], a = 0.2, v = 0.2, t = 0.2)
movej(p[-0.449067399334409, 0.100722463862845, 0.305399796959881, 0.804262820455275, -1.38321310577126, -0.736606697564824], a = 0.2, v = 0.2, t = 0.2)
movej(p[-0.448309008623075, 0.100835704740755, 0.305710198568981, 0.850571877036224, -1.42515381790798, -0.727383793222015], a = 0.2, v = 0.2, t = 0.2)
movej(p[-0.446711929224939, 0.101216934752569, 0.30572925182706, 0.841965637742388, -1.42801900926066, -0.732986233908067], a = 0.2, v = 0.2, t = 0.2)
movej(p[-0.444461701399573, 0.101537094416398, 0.305601936308746, 0.814634035769393, -1.43617621077249, -0.760074815982068], a = 0.2, v = 0.2, t = 0.2)
movej(p[-0.442002919931106, 0.101830981002304, 0.305185101852455, 0.74873943469304, -1.43452300349067, -0.765834027696661], a = 0.2, v = 0.2, t = 0.2)
movej(p[-0.439654772340037, 0.101643311756711, 0.304524897799079, 0.743673046227009, -1.45272190121106, -0.759335974942201], a = 0.2, v = 0.2, t = 0.2)
movej(p[-0.437331232178907, 0.101406084340551, 0.303572212025311, 0.735250516961524, -1.44686942552615, -0.764993245984765], a = 0.2, v = 0.2, t = 0.2)
movej(p[-0.435996301651151, 0.101012908722541, 0.302677582442765, 0.726578477502334, -1.43289513294002, -0.770523663633382], a = 0.2, v = 0.2, t = 0.2)
movej(p[-0.436107468080641, 0.100584003748815, 0.302009401628563, 0.701420082817903, -1.42265639428452, -0.766212839168357], a = 0.2, v = 0.2, t = 0.2)
movej(p[-0.437789569631983, 0.100381801861594, 0.30224206554127, 0.696262094582078, -1.39471213157331, -0.760538696257231], a = 0.2, v = 0.2, t = 0.2)
movej(p[-0.440276461543756, 0.100347208434536, 0.302702869071659, 0.719408754174211, -1.36944799688293, -0.782925519344915], a = 0.2, v = 0.2, t = 0.2)
movej(p[-0.442701468696303, 0.100272865875001, 0.303082320170451, 0.738192239465192, -1.35449652551178, -0.792004301468207], a = 0.2, v = 0.2, t = 0.2)
movej(p[-0.444725018514349, 0.100262695519067, 0.303474725835862, 0.768974325320499, -1.34736606989204, -0.784015584314034], a = 0.2, v = 0.2, t = 0.2)
movej(p[-0.44630546300937, 0.100111552053463, 0.303657398088444, 0.782405892263285, -1.3574723882812, -0.750076592533938], a = 0.2, v = 0.2, t = 0.2)
movej(p[-0.447396214359541, 0.100233652441557, 0.304073565597301, 0.789126009144227, -1.35834581944715, -0.731643509316827], a = 0.2, v = 0.2, t = 0.2)
movej(p[-0.448422041762789, 0.100287349086397, 0.30428745188947, 0.779063645328637, -1.36148475120782, -0.722753837457025], a = 0.2, v = 0.2, t = 0.2)
movej(p[-0.449232549367761, 0.100264468969789, 0.304620074532335, 0.780802942738692, -1.3656209127061, -0.704806021240563], a = 0.2, v = 0.2, t = 0.2)
movej(p[-0.449567916535725, 0.100290520740805, 0.304760681969829, 0.796018841351866, -1.38817268141755, -0.681624731420495], a = 0.2, v = 0.2, t = 0.2)
movej(p[-0.448995609243106, 0.100581733178534, 0.305146958581892, 0.842328574910849, -1.41801696073454, -0.681655696168837], a = 0.2, v = 0.2, t = 0.2)
movej(p[-0.447204845212129, 0.100913854549332, 0.305149545572067, 0.82303861754431, -1.44223695451272, -0.674137105065483], a = 0.2, v = 0.2, t = 0.2)
movej(p[-0.444764854089294, 0.101435600408399, 0.30523935457292, 0.838869217481551, -1.44980202579237, -0.707155980454724], a = 0.2, v = 0.2, t = 0.2)
movej(p[-0.442105975308546, 0.101538051076829, 0.304585354435134, 0.797236969690833, -1.45522836058565, -0.708795621601646], a = 0.2, v = 0.2, t = 0.2)
movej(p[-0.439714580775947, 0.101626437549152, 0.304056077202141, 0.802301583965503, -1.46550919064665, -0.732263208905779], a = 0.2, v = 0.2, t = 0.2)
movej(p[-0.437776563327023, 0.101278344982616, 0.303134313292895, 0.761856686785391, -1.45807360346004, -0.761677097513899], a = 0.2, v = 0.2, t = 0.2)
movej(p[-0.436611241712833, 0.101045694658002, 0.302568010607082, 0.746743622871165, -1.44019757754702, -0.782832650100826], a = 0.2, v = 0.2, t = 0.2)
movej(p[-0.437038632846704, 0.100665858492505, 0.302127554531101, 0.72715020832028, -1.39513757525079, -0.803739420018154], a = 0.2, v = 0.2, t = 0.2)
movej(p[-0.438741458037427, 0.100534758143416, 0.302296556695904, 0.711634995509487, -1.3741680227692, -0.778509662250341], a = 0.2, v = 0.2, t = 0.2)
movej(p[-0.441112112069979, 0.100260110236712, 0.302723442416926, 0.70363364516361, -1.3765944742971, -0.746658649778648], a = 0.2, v = 0.2, t = 0.2)
movej(p[-0.443387676859877, 0.100140718044652, 0.303147485340431, 0.708800482602359, -1.37329100036383, -0.72406400927649], a = 0.2, v = 0.2, t = 0.2)
movej(p[-0.445207548984985, 0.100144988223682, 0.303581270408322, 0.749226112749479, -1.35779821540913, -0.727661774535339], a = 0.2, v = 0.2, t = 0.2)
movej(p[-0.446598986756344, 0.100255916323353, 0.303829454060561, 0.787613329872668, -1.34374911983034, -0.744433328657503], a = 0.2, v = 0.2, t = 0.2)
movej(p[-0.447686615768708, 0.100294378099871, 0.304282736743676, 0.787939261609654, -1.35302411270631, -0.730920002429932], a = 0.2, v = 0.2, t = 0.2)
movej(p[-0.448653488720666, 0.100071174128683, 0.304522147884848, 0.771837646723533, -1.3614652968512, -0.704771817330369], a = 0.2, v = 0.2, t = 0.2)
movej(p[-0.449577247902388, 0.100075600370929, 0.304943332232924, 0.774773085551927, -1.36957723862464, -0.684097059064119], a = 0.2, v = 0.2, t = 0.2)
movej(p[-0.450181255292103, 0.100269204373577, 0.305181962166981, 0.791515254809555, -1.38669699880216, -0.664668690673806], a = 0.2, v = 0.2, t = 0.2)
movej(p[-0.449697424202781, 0.100745140529956, 0.305453740123512, 0.821197033344394, -1.40649973723448, -0.684685636229179], a = 0.2, v = 0.2, t = 0.2)
movej(p[-0.448011274519234, 0.10121962628865, 0.305562937082595, 0.821400023451758, -1.42102930317064, -0.702537244567492], a = 0.2, v = 0.2, t = 0.2)
movej(p[-0.44537553093649, 0.10163051335314, 0.305367523484405, 0.823507623085739, -1.42365817551967, -0.745961770609254], a = 0.2, v = 0.2, t = 0.2)
movej(p[-0.442427179107662, 0.101723287918921, 0.304656965241339, 0.813287419435826, -1.43408807837079, -0.75758585893528], a = 0.2, v = 0.2, t = 0.2)
movej(p[-0.439555539886364, 0.101553860747893, 0.30368366627996, 0.777717191170268, -1.42862402720963, -0.775705326666658], a = 0.2, v = 0.2, t = 0.2)
movej(p[-0.437124058032435, 0.101198659777569, 0.302687688234673, 0.743962788716978, -1.42156579179865, -0.777307606759142], a = 0.2, v = 0.2, t = 0.2)
movej(p[-0.435941954803828, 0.100909630072741, 0.302175104872239, 0.717460552059753, -1.41149421340478, -0.783948226559208], a = 0.2, v = 0.2, t = 0.2)
movej(p[-0.436216365349571, 0.100560355482465, 0.301874694587473, 0.713737672645722, -1.39392735484961, -0.790010907184059], a = 0.2, v = 0.2, t = 0.2)
movej(p[-0.437988185949728, 0.100372767766674, 0.302014368167703, 0.708978971141376, -1.37067328409636, -0.805225527474053], a = 0.2, v = 0.2, t = 0.2)
movej(p[-0.440508410528113, 0.100175772880371, 0.30225733135366, 0.707648260485751, -1.34454285894948, -0.801808499870113], a = 0.2, v = 0.2, t = 0.2)
movej(p[-0.443004083365938, 0.100149026861145, 0.302839499382615, 0.725971170587427, -1.34490210291288, -0.777471987254126], a = 0.2, v = 0.2, t = 0.2)
movej(p[-0.444974795943099, 0.0998275828234252, 0.303145143866272, 0.764370210642574, -1.35367976971618, -0.778662033192468], a = 0.2, v = 0.2, t = 0.2)
movej(p[-0.44656724845215, 0.0998473492910149, 0.303544063253713, 0.793391126885396, -1.36501872659628, -0.746939304980416], a = 0.2, v = 0.2, t = 0.2)
movej(p[-0.447726910966775, 0.0997574515800961, 0.303526541751379, 0.797862662247704, -1.35699158318464, -0.744478655107074], a = 0.2, v = 0.2, t = 0.2)
movej(p[-0.448697611665815, 0.10000817943185, 0.304002711693981, 0.7926287180316, -1.36729121589096, -0.693206389908113], a = 0.2, v = 0.2, t = 0.2)
movej(p[-0.449526713712382, 0.100084857245418, 0.304342574736079, 0.778177161500041, -1.36966808502968, -0.68312368993468], a = 0.2, v = 0.2, t = 0.2)
movej(p[-0.450299925453165, 0.100149596894771, 0.304683821271764, 0.776748105390267, -1.36510940745149, -0.685628611625332], a = 0.2, v = 0.2, t = 0.2)
movej(p[-0.45107619772348, 0.100223121590405, 0.304840407650077, 0.796310032338658, -1.37278931872347, -0.68083551382185], a = 0.2, v = 0.2, t = 0.2)
movej(p[-0.451031768515574, 0.100125989445659, 0.304802622357412, 0.817117729338995, -1.39330669953845, -0.678796982659041], a = 0.2, v = 0.2, t = 0.2)
movej(p[-0.450071036508772, 0.100418960386618, 0.304944943267189, 0.829421629623384, -1.41670416984841, -0.681211043395823], a = 0.2, v = 0.2, t = 0.2)
movej(p[-0.44796956586717, 0.100905715871751, 0.305272849924304, 0.811170833407755, -1.42669816119113, -0.727451757608726], a = 0.2, v = 0.2, t = 0.2)
movej(p[-0.445612443430189, 0.101439453844405, 0.305372470256193, 0.822215992502879, -1.42495493210589, -0.763134676133376], a = 0.2, v = 0.2, t = 0.2)
movej(p[-0.443288227185502, 0.101779196912177, 0.305310145367857, 0.803860228971514, -1.42116206874778, -0.764830040060872], a = 0.2, v = 0.2, t = 0.2)
movej(p[-0.441383016020095, 0.101553889428497, 0.304427052177539, 0.791063907226735, -1.42151206146105, -0.731252206831126], a = 0.2, v = 0.2, t = 0.2)
movej(p[-0.440494511788604, 0.101355895669864, 0.303901877937725, 0.746017616685906, -1.40458322170279, -0.727893209822479], a = 0.2, v = 0.2, t = 0.2)
movej(p[-0.441063671238652, 0.10103139162557, 0.303597562927156, 0.736164770521962, -1.39184302387151, -0.738456241224454], a = 0.2, v = 0.2, t = 0.2)
movej(p[-0.442888003784643, 0.100816285939249, 0.303763369385236, 0.766799753501284, -1.36685894265316, -0.757789688403016], a = 0.2, v = 0.2, t = 0.2)
movej(p[-0.445129371121812, 0.100708185082958, 0.303986468537033, 0.779912946461386, -1.35013529524984, -0.761387692617151], a = 0.2, v = 0.2, t = 0.2)
movej(p[-0.447026524845472, 0.100483347912559, 0.304058272754239, 0.779569887820483, -1.35458497115129, -0.735734607220423], a = 0.2, v = 0.2, t = 0.2)
movej(p[-0.44864271208089, 0.100452973522142, 0.304281335755607, 0.755033822307802, -1.34286050785877, -0.732243969990249], a = 0.2, v = 0.2, t = 0.2)
movej(p[-0.450015928119071, 0.10030833749321, 0.304555035338392, 0.77655770012466, -1.33822370158415, -0.749672890614053], a = 0.2, v = 0.2, t = 0.2)
movej(p[-0.451198001203854, 0.100364583437517, 0.305030390406085, 0.786187622413296, -1.33342629390594, -0.753328681611782], a = 0.2, v = 0.2, t = 0.2)
movej(p[-0.452138455094589, 0.100325132914916, 0.305222525602672, 0.779070377739183, -1.33757890183976, -0.746957801314052], a = 0.2, v = 0.2, t = 0.2)
movej(p[-0.452771082168927, 0.100361760537725, 0.305623615433087, 0.774052370921142, -1.34571802032782, -0.702799150007004], a = 0.2, v = 0.2, t = 0.2)
movej(p[-0.453217091711825, 0.100435104440979, 0.305753094744174, 0.768620371311098, -1.34161178189397, -0.680193113044676], a = 0.2, v = 0.2, t = 0.2)
movej(p[-0.453332020670687, 0.100573900315055, 0.305795770974727, 0.800448521465995, -1.35316106050759, -0.670201059684855], a = 0.2, v = 0.2, t = 0.2)
movej(p[-0.452682224260665, 0.100751579050721, 0.305996299963441, 0.844338799664373, -1.37087305416332, -0.692242135118639], a = 0.2, v = 0.2, t = 0.2)
movej(p[-0.451040095501798, 0.101081917062556, 0.306107137095027, 0.879378066557538, -1.39282520237293, -0.705738584381151], a = 0.2, v = 0.2, t = 0.2)
movej(p[-0.448623615061334, 0.101444888235267, 0.306360662610585, 0.874725083303181, -1.40846948652865, -0.710348951902485], a = 0.2, v = 0.2, t = 0.2)
movej(p[-0.445920513374803, 0.101737168670709, 0.305859220393145, 0.829737328864542, -1.41094031009404, -0.725603308713976], a = 0.2, v = 0.2, t = 0.2)
movej(p[-0.443482168447093, 0.101763070906154, 0.305395608806001, 0.803786805313424, -1.42587763982668, -0.74922278761347], a = 0.2, v = 0.2, t = 0.2)
movej(p[-0.44170662940805, 0.101459578761843, 0.30445479866185, 0.75605049397495, -1.43094616010988, -0.741396607993605], a = 0.2, v = 0.2, t = 0.2)
movej(p[-0.441261279084384, 0.101220397804237, 0.304098404151329, 0.735857061714109, -1.42789563643114, -0.72026533436897], a = 0.2, v = 0.2, t = 0.2)
movej(p[-0.442183910505758, 0.101114349790384, 0.303926434335805, 0.690486144768629, -1.37639730012492, -0.72958045909341], a = 0.2, v = 0.2, t = 0.2)
movej(p[-0.44416456800328, 0.101103019692492, 0.304343772476879, 0.72295945042306, -1.34363375417192, -0.755151710935668], a = 0.2, v = 0.2, t = 0.2)
movej(p[-0.446535161434694, 0.100879237585107, 0.304462066560803, 0.739064775431665, -1.30832702335157, -0.772770633019447], a = 0.2, v = 0.2, t = 0.2)
movej(p[-0.448601914881636, 0.100532893766568, 0.304672207506395, 0.776274948722071, -1.32725463567488, -0.746538784462115], a = 0.2, v = 0.2, t = 0.2)
movej(p[-0.450127940023984, 0.100403629939276, 0.30486226617096, 0.786616098959292, -1.32923846804962, -0.737014086393123], a = 0.2, v = 0.2, t = 0.2)
movej(p[-0.451266054691033, 0.100461588131986, 0.305010774182347, 0.785852652739709, -1.32205080342066, -0.73660202707795], a = 0.2, v = 0.2, t = 0.2)
movej(p[-0.451985798977728, 0.100613854788489, 0.30517781479743, 0.790635524531382, -1.3103800187303, -0.740327337932392], a = 0.2, v = 0.2, t = 0.2)
movej(p[-0.452502272945944, 0.100571151340325, 0.305267266919093, 0.816972807506628, -1.33130458283944, -0.727471033952425], a = 0.2, v = 0.2, t = 0.2)
movej(p[-0.452639590980145, 0.100715832904767, 0.305824488725911, 0.869101821877212, -1.38032442843508, -0.712351332171904], a = 0.2, v = 0.2, t = 0.2)
movej(p[-0.451879366141603, 0.100878517393443, 0.30614753745847, 0.919006156405577, -1.42799402445001, -0.689149763735083], a = 0.2, v = 0.2, t = 0.2)
movej(p[-0.450196589879331, 0.101244902832303, 0.306284811365047, 0.931272621983266, -1.43151770283174, -0.698595253623573], a = 0.2, v = 0.2, t = 0.2)
movej(p[-0.447538340989035, 0.101652667021727, 0.306250195392409, 0.885406549471721, -1.4305913429793, -0.690056703301204], a = 0.2, v = 0.2, t = 0.2)
movej(p[-0.444587088387814, 0.101824477100228, 0.305694365595934, 0.835765447461012, -1.42899738772378, -0.709005845566536], a = 0.2, v = 0.2, t = 0.2)
movej(p[-0.441701445407469, 0.101743499838976, 0.30510582159427, 0.778425612096803, -1.44535627863122, -0.71818237112696], a = 0.2, v = 0.2, t = 0.2)
movej(p[-0.439213567846659, 0.101505432421691, 0.304061425689348, 0.763082246439613, -1.44878486332295, -0.756753190940331], a = 0.2, v = 0.2, t = 0.2)
movej(p[-0.437983706676486, 0.101235715449906, 0.303236390803218, 0.730592031187083, -1.43844729318217, -0.77434923853019], a = 0.2, v = 0.2, t = 0.2)
movej(p[-0.438472734888428, 0.100897149746731, 0.302798023278577, 0.726187979548526, -1.41153978336996, -0.788110111544189], a = 0.2, v = 0.2, t = 0.2)
movej(p[-0.440521896339644, 0.100667633874509, 0.302974156612585, 0.723921624090026, -1.38121146014483, -0.782711562239442], a = 0.2, v = 0.2, t = 0.2)
movej(p[-0.443085840866747, 0.100515301163101, 0.303537168409507, 0.746909674427301, -1.35625795965858, -0.799168893243145], a = 0.2, v = 0.2, t = 0.2)
movej(p[-0.445519133121243, 0.100689629150813, 0.304140827160964, 0.753584227872472, -1.33478632237088, -0.785570227342996], a = 0.2, v = 0.2, t = 0.2)
movej(p[-0.447520958948433, 0.100526848474604, 0.304337058186661, 0.761075125818699, -1.32880424194719, -0.776220592835722], a = 0.2, v = 0.2, t = 0.2)
movej(p[-0.449132847152023, 0.100504915016834, 0.304592940954655, 0.768686570126085, -1.32419613177989, -0.757315307046214], a = 0.2, v = 0.2, t = 0.2)
movej(p[-0.450260279510527, 0.100224357806484, 0.304648966237519, 0.789983293691461, -1.33610677591922, -0.744641659242386], a = 0.2, v = 0.2, t = 0.2)
movej(p[-0.451170531001839, 0.100308446007163, 0.304991014544006, 0.825472683683646, -1.3454941663841, -0.735711368822787], a = 0.2, v = 0.2, t = 0.2)
movej(p[-0.451832212787709, 0.100256330806639, 0.304999585904607, 0.835751185129114, -1.35661577652776, -0.70805142725031], a = 0.2, v = 0.2, t = 0.2)
movej(p[-0.451623853570461, 0.100328819552981, 0.304961626706229, 0.833622618778989, -1.36989058093329, -0.700508991003141], a = 0.2, v = 0.2, t = 0.2)
movej(p[-0.450316522141803, 0.100417923539802, 0.305057128787752, 0.80635846446689, -1.39842026712883, -0.69360156071521], a = 0.2, v = 0.2, t = 0.2)
movej(p[-0.44785417050168, 0.100962219114272, 0.30550695200291, 0.816104760418722, -1.4309999333708, -0.704041375130402], a = 0.2, v = 0.2, t = 0.2)
movej(p[-0.444988178799117, 0.101479376670998, 0.305800800206009, 0.812871340263483, -1.4482042118647, -0.709728778793275], a = 0.2, v = 0.2, t = 0.2)
movej(p[-0.441953888775898, 0.101792743698775, 0.305417994167139, 0.782792646554509, -1.44383812706789, -0.739387105086791], a = 0.2, v = 0.2, t = 0.2)
movej(p[-0.439181495950457, 0.101738188122447, 0.304440703697199, 0.728643759508888, -1.4473969631497, -0.739540891822146], a = 0.2, v = 0.2, t = 0.2)
movej(p[-0.437418705409226, 0.101210512988418, 0.303184402546569, 0.681068981977221, -1.43674427457058, -0.761804257099363], a = 0.2, v = 0.2, t = 0.2)
movej(p[-0.436872185615441, 0.100760304700872, 0.30252339488608, 0.652980658093941, -1.41780873600755, -0.754971172604568], a = 0.2, v = 0.2, t = 0.2)
movej(p[-0.438069404946936, 0.10046611895623, 0.302391097055244, 0.664070452444459, -1.368667006702, -0.785424511157306], a = 0.2, v = 0.2, t = 0.2)
movej(p[-0.440366759169332, 0.100536007764308, 0.302824044094782, 0.675361917717002, -1.3337003841648, -0.781571388845392], a = 0.2, v = 0.2, t = 0.2)
movej(p[-0.443063871240194, 0.100471592189017, 0.303112881906311, 0.717102062366343, -1.31446314052928, -0.779092621535914], a = 0.2, v = 0.2, t = 0.2)
movej(p[-0.445405691867511, 0.100238543976404, 0.303571046821025, 0.761074950867907, -1.34213310020824, -0.740491531314324], a = 0.2, v = 0.2, t = 0.2)
movej(p[-0.447149584862627, 0.100012683966809, 0.303684534350073, 0.764568107300057, -1.35232703934932, -0.704582033408501], a = 0.2, v = 0.2, t = 0.2)
movej(p[-0.448486681535364, 0.0998582562475697, 0.303842461884673, 0.766613681580098, -1.36188294504091, -0.678984105030953], a = 0.2, v = 0.2, t = 0.2)
movej(p[-0.44951735277472, 0.100035470568204, 0.304135436637556, 0.744639277104876, -1.3522713006203, -0.673131060878521], a = 0.2, v = 0.2, t = 0.2)
movej(p[-0.450354264910039, 0.100133879870954, 0.304594321290261, 0.754877594935045, -1.35403432673935, -0.672556058991797], a = 0.2, v = 0.2, t = 0.2)
movej(p[-0.451023458761248, 0.100441671595673, 0.305160368458083, 0.786190247605374, -1.36007110834351, -0.680302405855351], a = 0.2, v = 0.2, t = 0.2)
movej(p[-0.450797669214109, 0.100681636945458, 0.305328199246098, 0.784818128324851, -1.37267763600076, -0.683339869969915], a = 0.2, v = 0.2, t = 0.2)
movej(p[-0.449458792788348, 0.101011379775147, 0.30534931290069, 0.786523577432185, -1.40142689580366, -0.686217729995186], a = 0.2, v = 0.2, t = 0.2)
movej(p[-0.446787037952973, 0.101315299080847, 0.305498595377128, 0.782562978847144, -1.43486822880748, -0.690339664441917], a = 0.2, v = 0.2, t = 0.2)
movej(p[-0.443805813536307, 0.101412395675195, 0.305223936950462, 0.794817503559936, -1.46000832625775, -0.702394875562371], a = 0.2, v = 0.2, t = 0.2)
movej(p[-0.440673756178288, 0.101574616861118, 0.304762964027373, 0.790229801112722, -1.47805962877646, -0.721379861273081], a = 0.2, v = 0.2, t = 0.2)
movej(p[-0.437901858647945, 0.10143381468412, 0.303619186249935, 0.772446573424263, -1.48118703182905, -0.71561263159981], a = 0.2, v = 0.2, t = 0.2)
movej(p[-0.43610071622349, 0.101357062047235, 0.302743953391115, 0.755341172775938, -1.45323407374624, -0.747472700822393], a = 0.2, v = 0.2, t = 0.2)
movej(p[-0.436197734547944, 0.101049343995652, 0.302343124420043, 0.734999676492933, -1.41274256501192, -0.779160171443051], a = 0.2, v = 0.2, t = 0.2)
movej(p[-0.43798515947998, 0.100670125676875, 0.302277890475359, 0.722331903926416, -1.37105483919747, -0.797305096050631], a = 0.2, v = 0.2, t = 0.2)
movej(p[-0.440570493086499, 0.100253738592471, 0.302469992134259, 0.716184086834022, -1.35733173977434, -0.778318241762944], a = 0.2, v = 0.2, t = 0.2)
movej(p[-0.44315627075511, 0.10009660716551, 0.302767988890578, 0.722523271597815, -1.35055158706625, -0.762716959996878], a = 0.2, v = 0.2, t = 0.2)
movej(p[-0.445341635368978, 0.100082497741739, 0.303262639056138, 0.732497704972577, -1.35525615189503, -0.740050869796745], a = 0.2, v = 0.2, t = 0.2)
movej(p[-0.447069629923672, 0.100033243579017, 0.303566466538276, 0.745098328372375, -1.35169591430059, -0.726274305833261], a = 0.2, v = 0.2, t = 0.2)
movej(p[-0.448429175442544, 0.0999437539427037, 0.303661637853319, 0.742306689510592, -1.35717818030793, -0.691978602401417], a = 0.2, v = 0.2, t = 0.2)
movej(p[-0.449458684064559, 0.0998671851841164, 0.303677676509923, 0.763007047604466, -1.36548110183026, -0.683942553212585], a = 0.2, v = 0.2, t = 0.2)
movej(p[-0.450395441206056, 0.0999605422608249, 0.304064187008724, 0.752446069067342, -1.36952200732281, -0.674611407359141], a = 0.2, v = 0.2, t = 0.2)
movej(p[-0.450831678840098, 0.100153489610325, 0.304516650186194, 0.819685607870797, -1.3892069146299, -0.684769435365586], a = 0.2, v = 0.2, t = 0.2)
movej(p[-0.45023766620179, 0.100459556059256, 0.305123110122602, 0.849872203889926, -1.4145117585162, -0.681512069643225], a = 0.2, v = 0.2, t = 0.2)
movej(p[-0.448107257072324, 0.100888162507282, 0.305221473981303, 0.892165067094046, -1.4420024355137, -0.69512286935123], a = 0.2, v = 0.2, t = 0.2)
movej(p[-0.444925511210964, 0.101227003196711, 0.305052278020051, 0.847251791137185, -1.44815852296391, -0.699548098816605], a = 0.2, v = 0.2, t = 0.2)
movej(p[-0.441874400410016, 0.101379113796687, 0.304435983001199, 0.796174628103249, -1.44812023017485, -0.734437590276475], a = 0.2, v = 0.2, t = 0.2)
movej(p[-0.439260763887655, 0.101415752486866, 0.303688293041347, 0.77741062626486, -1.46303462345087, -0.744788171264844], a = 0.2, v = 0.2, t = 0.2)
movej(p[-0.437486945733816, 0.101231081502254, 0.30297697231435, 0.743333873308975, -1.45037299428665, -0.764529140170888], a = 0.2, v = 0.2, t = 0.2)
movej(p[-0.436986645796173, 0.101017844094091, 0.30240764636917, 0.737688161455759, -1.43882739513628, -0.761671258202361], a = 0.2, v = 0.2, t = 0.2)
movej(p[-0.438090805627214, 0.100649960765314, 0.302349881953442, 0.704358484168485, -1.38537623434452, -0.774605269236773], a = 0.2, v = 0.2, t = 0.2)
movej(p[-0.440410370991245, 0.100374070546911, 0.302427870858923, 0.714546893451701, -1.36317095266801, -0.786788274558302], a = 0.2, v = 0.2, t = 0.2)
movej(p[-0.442868294491975, 0.100258010331781, 0.302887788541151, 0.76460410639372, -1.35641526132104, -0.780418782315167], a = 0.2, v = 0.2, t = 0.2)
movej(p[-0.44508415302389, 0.100118499344511, 0.30316968166447, 0.805095999379763, -1.37235944191568, -0.760049640602248], a = 0.2, v = 0.2, t = 0.2)
movej(p[-0.446764950563157, 0.0999150489345681, 0.303386956634929, 0.828065344906883, -1.37135292713331, -0.749745587992256], a = 0.2, v = 0.2, t = 0.2)
movej(p[-0.447952858733956, 0.0998365693553414, 0.303583549960843, 0.817543113972351, -1.37080329355575, -0.724787533200713], a = 0.2, v = 0.2, t = 0.2)
movej(p[-0.448928269234243, 0.0999075410192502, 0.303915419735381, 0.799366259338204, -1.34765584760382, -0.734579524102674], a = 0.2, v = 0.2, t = 0.2)
movej(p[-0.449804036938115, 0.0999770907954756, 0.304373799391976, 0.791708270917667, -1.33962376249157, -0.74214306019591], a = 0.2, v = 0.2, t = 0.2)
movej(p[-0.450357548128261, 0.100022777328952, 0.304642896057773, 0.788771217140674, -1.34279972840767, -0.751872629165411], a = 0.2, v = 0.2, t = 0.2)
movej(p[-0.450157323673686, 0.100178977959494, 0.305016976639611, 0.797361779340926, -1.37106662577232, -0.745777681309281], a = 0.2, v = 0.2, t = 0.2)
movej(p[-0.448730602597807, 0.100627544335584, 0.305429473281399, 0.825556255367369, -1.40492058209362, -0.721753014693895], a = 0.2, v = 0.2, t = 0.2)
movej(p[-0.446224997526265, 0.100989610643289, 0.305422526023995, 0.804879443815145, -1.41458896362521, -0.707081310700396], a = 0.2, v = 0.2, t = 0.2)
movej(p[-0.443353852071658, 0.101198910591976, 0.304910347898174, 0.790856080221609, -1.43183159924127, -0.696396383571489], a = 0.2, v = 0.2, t = 0.2)
movej(p[-0.440417741909107, 0.101292962474081, 0.304081079154436, 0.741757623211728, -1.4324353333575, -0.711038519386191], a = 0.2, v = 0.2, t = 0.2)
movej(p[-0.437841039155923, 0.101174025482526, 0.303194252110773, 0.718803083018329, -1.43707895337317, -0.736653123015285], a = 0.2, v = 0.2, t = 0.2)
movej(p[-0.43586765094171, 0.10098686864758, 0.302401120459381, 0.710789477549313, -1.41868316018039, -0.776965164044243], a = 0.2, v = 0.2, t = 0.2)
movej(p[-0.435588853926776, 0.100726057175776, 0.30190968927228, 0.68521859486296, -1.39632880180891, -0.784433478314198], a = 0.2, v = 0.2, t = 0.2)
movej(p[-0.436996866506646, 0.100530073452232, 0.301981121090531, 0.683894200426143, -1.36817949704356, -0.792061020528644], a = 0.2, v = 0.2, t = 0.2)
movej(p[-0.439592759239479, 0.100436819867074, 0.302586560910893, 0.691423851230606, -1.35540558443361, -0.775640648713963], a = 0.2, v = 0.2, t = 0.2)
movej(p[-0.442411605911136, 0.100199784621178, 0.302974838278885, 0.730990130655491, -1.36184046872498, -0.755620302607423], a = 0.2, v = 0.2, t = 0.2)
movej(p[-0.444675961564972, 0.100021806160123, 0.303359743137313, 0.770964959009789, -1.37292153358839, -0.744671798054905], a = 0.2, v = 0.2, t = 0.2)
movej(p[-0.446424536331997, 0.0999623271033069, 0.303422078568027, 0.768170080676428, -1.36701335186037, -0.728427752339797], a = 0.2, v = 0.2, t = 0.2)
movej(p[-0.44785636476885, 0.0998963809834618, 0.303613137031324, 0.757786413546556, -1.36096716026597, -0.719664815384765], a = 0.2, v = 0.2, t = 0.2)
movej(p[-0.449093257102941, 0.100012808256625, 0.303967069268948, 0.756944094126972, -1.34473881377556, -0.724975333995768], a = 0.2, v = 0.2, t = 0.2)
movej(p[-0.450213935655397, 0.0998564386160115, 0.304270126282824, 0.772574550048981, -1.34591077373101, -0.729812909081009], a = 0.2, v = 0.2, t = 0.2)
movej(p[-0.450803502497327, 0.0999600945203053, 0.304494916181401, 0.805153200438119, -1.34896631039323, -0.741272172344157], a = 0.2, v = 0.2, t = 0.2)
movej(p[-0.450371627639698, 0.100257525695642, 0.304765938008725, 0.806189249670251, -1.36896062793575, -0.709735260951929], a = 0.2, v = 0.2, t = 0.2)
movej(p[-0.4484180484566, 0.100881783474929, 0.305199105078647, 0.814253791917744, -1.40054603103181, -0.700466249210859], a = 0.2, v = 0.2, t = 0.2)
movej(p[-0.445492277750858, 0.101433022844613, 0.305560284213748, 0.797631696418652, -1.42965887612783, -0.698153957001553], a = 0.2, v = 0.2, t = 0.2)
movej(p[-0.44212391278941, 0.1015234778123, 0.305002823060112, 0.781393598423384, -1.46494430377488, -0.698151053257481], a = 0.2, v = 0.2, t = 0.2)
movej(p[-0.438894010993508, 0.101465962147422, 0.30404194576242, 0.747734964847502, -1.47772903584631, -0.712229346227376], a = 0.2, v = 0.2, t = 0.2)
movej(p[-0.43608134986222, 0.101318540209321, 0.302961721455015, 0.701687884938163, -1.47544683124935, -0.726224928633829], a = 0.2, v = 0.2, t = 0.2)
movej(p[-0.434855837600308, 0.101285743970124, 0.30248482813487, 0.671892824820121, -1.44004871782641, -0.775082034270446], a = 0.2, v = 0.2, t = 0.2)
movej(p[-0.435648520831171, 0.100935049225259, 0.302283524426177, 0.662398613595087, -1.40644082144537, -0.785129330776491], a = 0.2, v = 0.2, t = 0.2)
movej(p[-0.437907564327191, 0.100583095409373, 0.302308322461856, 0.693130563882592, -1.38151112520999, -0.792704149241917], a = 0.2, v = 0.2, t = 0.2)
movej(p[-0.440686671603751, 0.100098068858545, 0.302218095851402, 0.72047249537096, -1.36966802407077, -0.771996153510493], a = 0.2, v = 0.2, t = 0.2)
movej(p[-0.443122747206294, 0.0999045565331844, 0.302457019700356, 0.742260558595816, -1.3636660594967, -0.760577629423107], a = 0.2, v = 0.2, t = 0.2)
movej(p[-0.44520608487361, 0.0998848986818012, 0.302997696909025, 0.750540410060633, -1.34724206157831, -0.753941118638206], a = 0.2, v = 0.2, t = 0.2)
movej(p[-0.446810522015092, 0.0998552441600966, 0.303571706869892, 0.737979278610626, -1.34775514368137, -0.732535977704654], a = 0.2, v = 0.2, t = 0.2)
movej(p[-0.448182736852214, 0.0999304074401636, 0.303895432135683, 0.738147383336258, -1.32886993068358, -0.731870900696593], a = 0.2, v = 0.2, t = 0.2)
movej(p[-0.44953055877261, 0.0998291987891211, 0.303833049033356, 0.735868848618357, -1.34047116270984, -0.705151221217824], a = 0.2, v = 0.2, t = 0.2)
movej(p[-0.450593484630313, 0.0998542901376448, 0.303873120814624, 0.763690653481712, -1.35317855091351, -0.674229451560634], a = 0.2, v = 0.2, t = 0.2)
movej(p[-0.45087998988416, 0.0999712542822946, 0.304290619470052, 0.800394152215688, -1.39762040524693, -0.628916223926922], a = 0.2, v = 0.2, t = 0.2)
movej(p[-0.449738576723121, 0.100486860701309, 0.304984981346438, 0.830663602177384, -1.43433256857956, -0.61571470411518], a = 0.2, v = 0.2, t = 0.2)
movej(p[-0.447246715450127, 0.101071563716215, 0.305472511461831, 0.827693889307505, -1.45268837814717, -0.662588257831697], a = 0.2, v = 0.2, t = 0.2)
movej(p[-0.444275230990251, 0.101514594411145, 0.305277104550583, 0.795460848135349, -1.44764503862185, -0.711026166056634], a = 0.2, v = 0.2, t = 0.2)
movej(p[-0.440926777247528, 0.101647007952173, 0.304422521630676, 0.751076763418249, -1.43473217150702, -0.759711070297301], a = 0.2, v = 0.2, t = 0.2)
movej(p[-0.438060659374006, 0.101428207867934, 0.303356836819948, 0.709432011104631, -1.44634404411236, -0.742430178230741], a = 0.2, v = 0.2, t = 0.2)
movej(p[-0.436417478508281, 0.101182160214243, 0.302546766249673, 0.682815039092012, -1.42281594411883, -0.777000803659527], a = 0.2, v = 0.2, t = 0.2)
movej(p[-0.436359190621145, 0.100817396824071, 0.302227914763236, 0.684100973879277, -1.39980652993235, -0.785883888213928], a = 0.2, v = 0.2, t = 0.2)
movej(p[-0.437965623452652, 0.100434861598317, 0.302116478274531, 0.690416067957327, -1.3718215996862, -0.791096601532391], a = 0.2, v = 0.2, t = 0.2)
movej(p[-0.44028050170171, 0.100177398864148, 0.302438851662134, 0.731150385421895, -1.37625172051943, -0.774475530197893], a = 0.2, v = 0.2, t = 0.2)
movej(p[-0.442778456943442, 0.0999277020492468, 0.302754229919463, 0.750990522692198, -1.38649077996483, -0.740759499742237], a = 0.2, v = 0.2, t = 0.2)
movej(p[-0.444995387626671, 0.0998777335266544, 0.303189892770541, 0.777042717545656, -1.38312959907368, -0.743449342596317], a = 0.2, v = 0.2, t = 0.2)
movej(p[-0.4466503913975, 0.099742584318568, 0.30330601075491, 0.762692691014855, -1.38833987446904, -0.698333131263253], a = 0.2, v = 0.2, t = 0.2)
movej(p[-0.448073553793787, 0.0996701037201576, 0.303597713605686, 0.772921302902242, -1.37106772872104, -0.700337548982004], a = 0.2, v = 0.2, t = 0.2)
movej(p[-0.449258560386922, 0.0997454380979831, 0.303851190689941, 0.765182581129889, -1.35785629480203, -0.695949482773704], a = 0.2, v = 0.2, t = 0.2)
movej(p[-0.450294857332406, 0.100002524062961, 0.304439321521467, 0.779634522170162, -1.33755090248541, -0.725020088912667], a = 0.2, v = 0.2, t = 0.2)
movej(p[-0.451036131126733, 0.100212313366548, 0.304834787461271, 0.78668367911858, -1.36084937068059, -0.705693595403341], a = 0.2, v = 0.2, t = 0.2)
movej(p[-0.450538046799482, 0.100489096048733, 0.305113604695116, 0.828148036474891, -1.39917586353046, -0.686633353339242], a = 0.2, v = 0.2, t = 0.2)
movej(p[-0.448740322608527, 0.100936298736591, 0.305351225583988, 0.859145522949613, -1.43305089772738, -0.682292625716277], a = 0.2, v = 0.2, t = 0.2)
movej(p[-0.445678320477964, 0.101319083483931, 0.305262073874929, 0.855921129114782, -1.44478986054614, -0.711340075680362], a = 0.2, v = 0.2, t = 0.2)
movej(p[-0.44233183521748, 0.101570569726323, 0.305056924696532, 0.819114623574968, -1.4387749948401, -0.737325674283413], a = 0.2, v = 0.2, t = 0.2)
movej(p[-0.439143495448612, 0.101378528387356, 0.304128349826625, 0.758993689876532, -1.43813107027467, -0.747125867663045], a = 0.2, v = 0.2, t = 0.2)
movej(p[-0.436535813705635, 0.101122813068201, 0.303028284629202, 0.722156877025609, -1.43751579222075, -0.776938601968958], a = 0.2, v = 0.2, t = 0.2)
movej(p[-0.435695991283442, 0.100967625539534, 0.302179422449205, 0.700317531630403, -1.42479464036282, -0.792701022864855], a = 0.2, v = 0.2, t = 0.2)
movej(p[-0.4365473573378, 0.100757843637414, 0.302023923149431, 0.702434795782276, -1.3953230662891, -0.811973941449466], a = 0.2, v = 0.2, t = 0.2)
movej(p[-0.439116525166226, 0.100637695353997, 0.302491795578486, 0.719386370497609, -1.36096409081584, -0.805176074230719], a = 0.2, v = 0.2, t = 0.2)
movej(p[-0.441899052690444, 0.100312841278672, 0.302940791462131, 0.749844288935193, -1.34891441398516, -0.79944807009348], a = 0.2, v = 0.2, t = 0.2)
movej(p[-0.444395122480194, 0.100093928144551, 0.303109603321564, 0.753944461350198, -1.35002891319499, -0.767657381021199], a = 0.2, v = 0.2, t = 0.2)
movej(p[-0.44607149623158, 0.100005958067859, 0.303199947544237, 0.760556551942634, -1.36615687823974, -0.745817934760877], a = 0.2, v = 0.2, t = 0.2)
movej(p[-0.447438978042031, 0.100130028956684, 0.303632059041922, 0.756323024408502, -1.36407071526186, -0.729194064724075], a = 0.2, v = 0.2, t = 0.2)
movej(p[-0.448549075429057, 0.100200936577648, 0.304116414763482, 0.773222595267281, -1.36478981847213, -0.72737811866887], a = 0.2, v = 0.2, t = 0.2)
movej(p[-0.449601706412169, 0.10027611898293, 0.30451176970392, 0.766348492751647, -1.35427372028828, -0.698537915619365], a = 0.2, v = 0.2, t = 0.2)
movej(p[-0.450339308785033, 0.100284428894931, 0.304708705752949, 0.748128983675276, -1.35287409244894, -0.669670186506571], a = 0.2, v = 0.2, t = 0.2)
movej(p[-0.45004090793384, 0.100563899309761, 0.304998636540797, 0.76450836751081, -1.37618732060164, -0.639066430828981], a = 0.2, v = 0.2, t = 0.2)
movej(p[-0.448452818368839, 0.100913541762772, 0.305352802417453, 0.812677639523032, -1.42241224271304, -0.633329153854368], a = 0.2, v = 0.2, t = 0.2)
movej(p[-0.445819597374285, 0.101303545237835, 0.305417829640068, 0.829442383022258, -1.46495016085468, -0.624282847653553], a = 0.2, v = 0.2, t = 0.2)
movej(p[-0.443024125817434, 0.101451012674052, 0.304867373706054, 0.786054390805616, -1.47360595289197, -0.648028478029169], a = 0.2, v = 0.2, t = 0.2)
movej(p[-0.440741665011599, 0.101311487358468, 0.303870088267356, 0.723549028722361, -1.44783170228032, -0.684196200440831], a = 0.2, v = 0.2, t = 0.2)
movej(p[-0.43939034630701, 0.100959429596636, 0.302851180916632, 0.695146065177652, -1.42787284018413, -0.733370786536759], a = 0.2, v = 0.2, t = 0.2)
movej(p[-0.439355043359057, 0.100713404952751, 0.302650210302691, 0.724797678160711, -1.39797663277862, -0.769981592700473], a = 0.2, v = 0.2, t = 0.2)
movej(p[-0.4405055156908, 0.100459258070382, 0.30259978961471, 0.741063911635024, -1.36796501003469, -0.784106557199689], a = 0.2, v = 0.2, t = 0.2)
movej(p[-0.442381598597969, 0.10036860154999, 0.302977490500503, 0.75235673612882, -1.33431328503875, -0.776332314284868], a = 0.2, v = 0.2, t = 0.2)
movej(p[-0.444417646211683, 0.100233927433667, 0.303216222351135, 0.744280143141311, -1.32309823688974, -0.769604765307115], a = 0.2, v = 0.2, t = 0.2)
movej(p[-0.446135890193786, 0.100093706045235, 0.303645980549067, 0.752044308976565, -1.32933204014143, -0.758764803610337], a = 0.2, v = 0.2, t = 0.2)
movej(p[-0.44758097729399, 0.0999819035462786, 0.303975811946834, 0.769480131324583, -1.33627978198911, -0.751556889636372], a = 0.2, v = 0.2, t = 0.2)
movej(p[-0.448718979330102, 0.0998243090113265, 0.304069408292689, 0.742065194912889, -1.33837444146337, -0.712483223068727], a = 0.2, v = 0.2, t = 0.2)
movej(p[-0.449624615298281, 0.100000248858084, 0.304381853812841, 0.757978057768495, -1.33110678672721, -0.714058604566691], a = 0.2, v = 0.2, t = 0.2)
movej(p[-0.450404886253677, 0.100227117819905, 0.304748972040158, 0.752761144617369, -1.3415207488765, -0.707013300893463], a = 0.2, v = 0.2, t = 0.2)
movej(p[-0.450181034280104, 0.100682413633672, 0.305410809179033, 0.80486958925342, -1.36586718391112, -0.71671932766695], a = 0.2, v = 0.2, t = 0.2)
movej(p[-0.448698747125703, 0.10102768513938, 0.305568271140296, 0.793839213199198, -1.39372393553339, -0.708462970612362], a = 0.2, v = 0.2, t = 0.2)
movej(p[-0.445678577309694, 0.101373855635484, 0.305483208216567, 0.784446147954277, -1.42244845273047, -0.701021602534126], a = 0.2, v = 0.2, t = 0.2)
movej(p[-0.442043866080641, 0.101559888032194, 0.304913409030881, 0.762832555676983, -1.44865361945973, -0.707719771193884], a = 0.2, v = 0.2, t = 0.2)
movej(p[-0.438685068407132, 0.10144260275677, 0.304061207228275, 0.76467886282861, -1.46880377726366, -0.728621644788354], a = 0.2, v = 0.2, t = 0.2)
movej(p[-0.436159830325486, 0.101277367003444, 0.30317740875553, 0.736913182328554, -1.4557945124387, -0.76902653364894], a = 0.2, v = 0.2, t = 0.2)
movej(p[-0.43529195281582, 0.100924467952423, 0.302253928276199, 0.698269490862396, -1.40217889971824, -0.821324802087097], a = 0.2, v = 0.2, t = 0.2)
movej(p[-0.436489141258726, 0.100831555056958, 0.301936457091637, 0.662628955831998, -1.3536583611611, -0.835910470836304], a = 0.2, v = 0.2, t = 0.2)
movej(p[-0.438847827266954, 0.100537892797696, 0.302079843643569, 0.68416316246078, -1.3314263881649, -0.818109171142582], a = 0.2, v = 0.2, t = 0.2)
movej(p[-0.441452943237409, 0.100263213426662, 0.302462670900835, 0.706081740290421, -1.34638027965027, -0.778579510990542], a = 0.2, v = 0.2, t = 0.2)
movej(p[-0.443496660275776, 0.0998986728692313, 0.302817486260108, 0.710858888444181, -1.36890090931792, -0.725599622956784], a = 0.2, v = 0.2, t = 0.2)
movej(p[-0.44524248284568, 0.0998650202740792, 0.303165824607919, 0.740452462160385, -1.38705364504954, -0.69931874378051], a = 0.2, v = 0.2, t = 0.2)
movej(p[-0.446575653161217, 0.0999980772456311, 0.303723326703872, 0.760777141012779, -1.37957484403871, -0.712128335412383], a = 0.2, v = 0.2, t = 0.2)
movej(p[-0.447727191772527, 0.100038642282433, 0.304209626883238, 0.805778240812053, -1.36530474840917, -0.739061679332472], a = 0.2, v = 0.2, t = 0.2)
movej(p[-0.44880840439701, 0.0999404940419958, 0.304399979835561, 0.798017516257796, -1.35960726506276, -0.737469273665802], a = 0.2, v = 0.2, t = 0.2)
movej(p[-0.44961821308128, 0.100015483686461, 0.304572517231519, 0.803875998554595, -1.36412893248053, -0.723165937073017], a = 0.2, v = 0.2, t = 0.2)
movej(p[-0.449986421898149, 0.10028250696208, 0.304718002749209, 0.804380540607405, -1.37844549194055, -0.699914922970068], a = 0.2, v = 0.2, t = 0.2)
movej(p[-0.449380158620536, 0.100659196953216, 0.305226327187335, 0.833146210638831, -1.41383049114554, -0.692777216309509], a = 0.2, v = 0.2, t = 0.2)
movej(p[-0.44778939976943, 0.101067231940569, 0.305633057779768, 0.849564320786899, -1.45660279842637, -0.670079714443298], a = 0.2, v = 0.2, t = 0.2)
movej(p[-0.445389735917273, 0.101462005374567, 0.305676199291812, 0.839339316270704, -1.46814547336301, -0.687895756423376], a = 0.2, v = 0.2, t = 0.2)
movej(p[-0.442647744109936, 0.101663283663863, 0.305053799500055, 0.820550977647225, -1.46311757788907, -0.721804086785752], a = 0.2, v = 0.2, t = 0.2)
movej(p[-0.440059465478863, 0.10148752506593, 0.303929590508377, 0.77393757025759, -1.43427546869133, -0.761482134858692], a = 0.2, v = 0.2, t = 0.2)
movej(p[-0.438452577288988, 0.101266231517357, 0.303197794404944, 0.757776831545831, -1.42476834792291, -0.779420143078397], a = 0.2, v = 0.2, t = 0.2)
movej(p[-0.438487476836079, 0.10103491416129, 0.302833286879651, 0.731055091477185, -1.39814244462779, -0.793911294457206], a = 0.2, v = 0.2, t = 0.2)
movej(p[-0.439957815418952, 0.100932542356909, 0.302972325393319, 0.714328514777297, -1.37618820125682, -0.784826332253525], a = 0.2, v = 0.2, t = 0.2)
movej(p[-0.442209129987415, 0.10067387446947, 0.30319964855147, 0.716314271676888, -1.36089067970545, -0.768345384882101], a = 0.2, v = 0.2, t = 0.2)
movej(p[-0.444321308527094, 0.100383084023812, 0.303561098121442, 0.718170586661105, -1.34731908553191, -0.738243693452583], a = 0.2, v = 0.2, t = 0.2)
movej(p[-0.446199316508292, 0.100153304400729, 0.303902443297143, 0.758673500962036, -1.3501021130655, -0.726169988860227], a = 0.2, v = 0.2, t = 0.2)
movej(p[-0.447591860040172, 0.100194592993631, 0.304296041230973, 0.781911640721089, -1.35929272440225, -0.725206366036204], a = 0.2, v = 0.2, t = 0.2)
movej(p[-0.448707465661335, 0.100148016467325, 0.304499128317778, 0.797941148182661, -1.36678487264997, -0.718546039785169], a = 0.2, v = 0.2, t = 0.2)
movej(p[-0.449530627809452, 0.100211594323543, 0.304728368597192, 0.800102765115922, -1.36349088230891, -0.729421195413335], a = 0.2, v = 0.2, t = 0.2)
movej(p[-0.450349460079244, 0.100203827105401, 0.304942618032127, 0.81291219030022, -1.35339280078491, -0.733247273822295], a = 0.2, v = 0.2, t = 0.2)
movej(p[-0.45085315314422, 0.100349328740232, 0.305198977683118, 0.830655012399875, -1.35727238738167, -0.742235932749607], a = 0.2, v = 0.2, t = 0.2)
movej(p[-0.450436278977459, 0.100526779151842, 0.305563800046203, 0.842093983624328, -1.38868814512966, -0.709912640490877], a = 0.2, v = 0.2, t = 0.2)
movej(p[-0.448628876210477, 0.10091719452146, 0.305814964688362, 0.844106083972405, -1.41980820333932, -0.686910993394563], a = 0.2, v = 0.2, t = 0.2)
movej(p[-0.44608818920701, 0.101381265400708, 0.305838069050496, 0.827923176545509, -1.43667664945009, -0.689150796199757], a = 0.2, v = 0.2, t = 0.2)
movej(p[-0.443693789509963, 0.101707634622449, 0.305513325387768, 0.80665739519482, -1.43252027412388, -0.727650539108317], a = 0.2, v = 0.2, t = 0.2)
movej(p[-0.441542451791304, 0.101766298386716, 0.304861902208846, 0.795822577766295, -1.42918243564611, -0.756882466176119], a = 0.2, v = 0.2, t = 0.2)
movej(p[-0.440038132459612, 0.101590289527195, 0.304188623617054, 0.776878546070541, -1.42397213000997, -0.767158738425603], a = 0.2, v = 0.2, t = 0.2)
movej(p[-0.439543608597138, 0.101345202590374, 0.303531488088229, 0.766509743303808, -1.41238361480381, -0.763122670582177], a = 0.2, v = 0.2, t = 0.2)
movej(p[-0.440546529796943, 0.101018934960145, 0.303242663610655, 0.73168780534573, -1.38520430289119, -0.765211367345118], a = 0.2, v = 0.2, t = 0.2)
movej(p[-0.442519434280329, 0.100685379111586, 0.303531883589166, 0.714335249954897, -1.36424920321793, -0.756341244720894], a = 0.2, v = 0.2, t = 0.2)
movej(p[-0.444769501228257, 0.100463736732764, 0.303841367076666, 0.72175575821836, -1.34571789867921, -0.74728401431403], a = 0.2, v = 0.2, t = 0.2)
movej(p[-0.446656582866079, 0.10018652017671, 0.304026987314912, 0.746492078517756, -1.34752288864405, -0.724099931120124], a = 0.2, v = 0.2, t = 0.2)
movej(p[-0.448117908623658, 0.100045810389685, 0.303866887041113, 0.760157092649852, -1.35775869663879, -0.701798072977847], a = 0.2, v = 0.2, t = 0.2)
movej(p[-0.449247392016208, 0.100021761712165, 0.304341950773221, 0.773700689345586, -1.35924203191636, -0.714140802594183], a = 0.2, v = 0.2, t = 0.2)
movej(p[-0.45022168242711, 0.100112546862065, 0.304750572556023, 0.79459718780559, -1.36945893426252, -0.71698460375227], a = 0.2, v = 0.2, t = 0.2)
movej(p[-0.450656029230122, 0.10023490866109, 0.3052671278143, 0.831872449952441, -1.36827925127227, -0.727323531206465], a = 0.2, v = 0.2, t = 0.2)
movej(p[-0.450269764534824, 0.100611051062146, 0.305388926873796, 0.838829092210495, -1.37528351420528, -0.7323002091172], a = 0.2, v = 0.2, t = 0.2)
movej(p[-0.448631227532319, 0.100952159567135, 0.305520024364794, 0.821323008649162, -1.38199728052955, -0.739050299112416], a = 0.2, v = 0.2, t = 0.2)
movej(p[-0.44617953620917, 0.101377829085572, 0.305600751643139, 0.801121234815914, -1.40808423085853, -0.737535482505186], a = 0.2, v = 0.2, t = 0.2)
movej(p[-0.443156028850551, 0.101396983236681, 0.305255698136405, 0.775293442215919, -1.42783803822446, -0.719153428584521], a = 0.2, v = 0.2, t = 0.2)
movej(p[-0.43997609321554, 0.101473060228743, 0.304655441662785, 0.755480101627492, -1.43155322712213, -0.732426793873071], a = 0.2, v = 0.2, t = 0.2)
movej(p[-0.437138334055875, 0.101331721495545, 0.303576217510704, 0.734061071248347, -1.42377674812215, -0.752819241969381], a = 0.2, v = 0.2, t = 0.2)
movej(p[-0.435320528309002, 0.101244425314613, 0.302842229943008, 0.715087446912169, -1.41644609836705, -0.780508165645464], a = 0.2, v = 0.2, t = 0.2)
movej(p[-0.435187946100607, 0.100815637672869, 0.302058636250139, 0.688352527426306, -1.41459807606006, -0.788561833871757], a = 0.2, v = 0.2, t = 0.2)
movej(p[-0.436788424007653, 0.100510626689873, 0.302144125207376, 0.683330797350681, -1.40047585271529, -0.789989648083586], a = 0.2, v = 0.2, t = 0.2)
movej(p[-0.439299409882029, 0.100229290735056, 0.302366069750157, 0.69781963827991, -1.38563494067561, -0.790162422867273], a = 0.2, v = 0.2, t = 0.2)
movej(p[-0.442008508913331, 0.100169105012553, 0.302993320494005, 0.719292574524989, -1.36428969620663, -0.775610540025111], a = 0.2, v = 0.2, t = 0.2)
movej(p[-0.444214882217866, 0.100111069149296, 0.303473044437554, 0.741945352353672, -1.35709593327726, -0.77115394184455], a = 0.2, v = 0.2, t = 0.2)
movej(p[-0.44597900877559, 0.100024888725715, 0.303775716317685, 0.769319111620364, -1.35632208622576, -0.750378835027218], a = 0.2, v = 0.2, t = 0.2)
movej(p[-0.447309174785846, 0.0999136586544011, 0.304048983359963, 0.749799624549372, -1.35852357266626, -0.741751176648079], a = 0.2, v = 0.2, t = 0.2)
movej(p[-0.448281867824352, 0.0998155855698312, 0.30411163003127, 0.745259094151005, -1.35617791514249, -0.723700250112062], a = 0.2, v = 0.2, t = 0.2)
movej(p[-0.449251949753467, 0.0998678128742389, 0.304304453542226, 0.755448595265321, -1.35285378291244, -0.731706444976915], a = 0.2, v = 0.2, t = 0.2)
movej(p[-0.45008212613882, 0.100007133224262, 0.304561962686283, 0.773815563679764, -1.34298932775202, -0.728395381801485], a = 0.2, v = 0.2, t = 0.2)
movej(p[-0.450660482293697, 0.100223157549104, 0.304847036152764, 0.776415412693552, -1.34190711665395, -0.724916008876806], a = 0.2, v = 0.2, t = 0.2)
movej(p[-0.450411037056192, 0.100685758807019, 0.305304837105321, 0.767161564151057, -1.35831030166923, -0.729298117830375], a = 0.2, v = 0.2, t = 0.2)
movej(p[-0.448988257773748, 0.101058964728063, 0.305582115232918, 0.808118209816396, -1.39249826341112, -0.726159579036338], a = 0.2, v = 0.2, t = 0.2)
movej(p[-0.446807207820099, 0.101587918587886, 0.305762183071154, 0.841905305392361, -1.42761912850832, -0.73378173818428], a = 0.2, v = 0.2, t = 0.2)
movej(p[-0.444318156464256, 0.101774446646269, 0.305498371454359, 0.83390145586189, -1.44121358597628, -0.734022958471671], a = 0.2, v = 0.2, t = 0.2)
movej(p[-0.441944841634682, 0.101743807348618, 0.304744147550119, 0.808965763835108, -1.44856529425208, -0.746108983549943], a = 0.2, v = 0.2, t = 0.2)
movej(p[-0.439742030365595, 0.101423535799095, 0.303921632305428, 0.768056167091806, -1.44969888617702, -0.750051765931818], a = 0.2, v = 0.2, t = 0.2)
movej(p[-0.438610143837106, 0.100935029541863, 0.303252613657428, 0.73745668694197, -1.44222854115174, -0.745535853790126], a = 0.2, v = 0.2, t = 0.2)
movej(p[-0.438851956125669, 0.100671415857167, 0.303001629409989, 0.717086768661042, -1.42030331288026, -0.750533630647946], a = 0.2, v = 0.2, t = 0.2)
movej(p[-0.44053583872183, 0.100633270886881, 0.303297712550075, 0.718635172754165, -1.38972518212868, -0.773561738160443], a = 0.2, v = 0.2, t = 0.2)
movej(p[-0.442758809236077, 0.100536944809748, 0.303569513531265, 0.741370806668458, -1.37371081251983, -0.785760533907557], a = 0.2, v = 0.2, t = 0.2)
movej(p[-0.444843854523343, 0.100430657772123, 0.304086082222035, 0.753409945391643, -1.36503116406361, -0.767845224983735], a = 0.2, v = 0.2, t = 0.2)
movej(p[-0.446502425292077, 0.100353638595502, 0.304385147252479, 0.767908289936652, -1.35903348188571, -0.749943270623245], a = 0.2, v = 0.2, t = 0.2)
movej(p[-0.447747275267018, 0.10018460984297, 0.30453586486527, 0.764894239681153, -1.35568333195417, -0.718901047214287], a = 0.2, v = 0.2, t = 0.2)
movej(p[-0.448814546783347, 0.100228341117124, 0.304713990399922, 0.780782526448295, -1.34834337705793, -0.72505094495905], a = 0.2, v = 0.2, t = 0.2)
movej(p[-0.449727715149022, 0.100135377192554, 0.30497355553001, 0.781837429195737, -1.33954001205262, -0.727770322402818], a = 0.2, v = 0.2, t = 0.2)
movej(p[-0.450443739490064, 0.100328929180512, 0.305375463852135, 0.799831556457427, -1.33171894326839, -0.754072783895208], a = 0.2, v = 0.2, t = 0.2)
movej(p[-0.450893734420925, 0.100339696469345, 0.305510150092304, 0.79189058897083, -1.33363685577803, -0.743936793666116], a = 0.2, v = 0.2, t = 0.2)
movej(p[-0.450566126765957, 0.100681882337524, 0.305645051456736, 0.809448601438153, -1.36105628535589, -0.725792951506014], a = 0.2, v = 0.2, t = 0.2)
movej(p[-0.44941649577375, 0.101019547500763, 0.305776124615284, 0.840478647011887, -1.39286767499148, -0.706853661198591], a = 0.2, v = 0.2, t = 0.2)
movej(p[-0.447322918853028, 0.101441383011746, 0.30604750752759, 0.837108602757369, -1.42216430788627, -0.693496036183637], a = 0.2, v = 0.2, t = 0.2)
movej(p[-0.444836076392393, 0.101564357998923, 0.305737535601587, 0.819649557510301, -1.4311976210747, -0.697936388332985], a = 0.2, v = 0.2, t = 0.2)
movej(p[-0.442391768188965, 0.101672676858198, 0.305220273383317, 0.779904992412104, -1.41848433552311, -0.719228142287344], a = 0.2, v = 0.2, t = 0.2)
movej(p[-0.440119260861756, 0.101764475903908, 0.304505895035453, 0.765416662282998, -1.4130930390991, -0.749251507635058], a = 0.2, v = 0.2, t = 0.2)
movej(p[-0.438917550113134, 0.101656653957994, 0.303804644946307, 0.739541135253457, -1.40562923014012, -0.777419567465775], a = 0.2, v = 0.2, t = 0.2)
movej(p[-0.439119864548193, 0.101185673504842, 0.303260048239546, 0.709590419176992, -1.39563674229906, -0.784567038953319], a = 0.2, v = 0.2, t = 0.2)
movej(p[-0.440831116252549, 0.100690503854305, 0.302911498180693, 0.708884028638382, -1.3685975576032, -0.799004348958027], a = 0.2, v = 0.2, t = 0.2)
movej(p[-0.442888901669152, 0.100333260904402, 0.303132430106609, 0.717158764102563, -1.35630370225437, -0.786074639399002], a = 0.2, v = 0.2, t = 0.2)
movej(p[-0.444827044153102, 0.100078115638508, 0.303356542073737, 0.737845076926287, -1.35442661987513, -0.7656981589429], a = 0.2, v = 0.2, t = 0.2)
movej(p[-0.446463056892773, 0.0998992643465657, 0.30365121318634, 0.739615591366123, -1.35930314176143, -0.740412682094485], a = 0.2, v = 0.2, t = 0.2)
movej(p[-0.44780208693026, 0.0999208493860024, 0.304033115928908, 0.762095041713456, -1.36603647223459, -0.734914511806502], a = 0.2, v = 0.2, t = 0.2)
movej(p[-0.448719680053477, 0.0999876395048804, 0.304443339478019, 0.772391621781311, -1.37354708465771, -0.730173677670093], a = 0.2, v = 0.2, t = 0.2)
movej(p[-0.449412116353382, 0.10017170425931, 0.305011199213561, 0.784628971954846, -1.37194559118049, -0.735095085740595], a = 0.2, v = 0.2, t = 0.2)
movej(p[-0.450025402207979, 0.100224515976404, 0.305231335396842, 0.78317462929764, -1.34853185358795, -0.744097233264298], a = 0.2, v = 0.2, t = 0.2)
movej(p[-0.450705517947788, 0.100392628181854, 0.305545624155378, 0.791650891362045, -1.33499721785828, -0.759439169818107], a = 0.2, v = 0.2, t = 0.2)
movej(p[-0.4513888487369, 0.100581373878883, 0.305795869392905, 0.792264487939339, -1.3388473411966, -0.74677364845133], a = 0.2, v = 0.2, t = 0.2)
movej(p[-0.451225813923039, 0.100827059358122, 0.30608499143852, 0.790871945385802, -1.35819975064409, -0.717522161638303], a = 0.2, v = 0.2, t = 0.2)
movej(p[-0.449908118767988, 0.101152364082686, 0.306289270719237, 0.777649045005617, -1.37135796225815, -0.683533554581949], a = 0.2, v = 0.2, t = 0.2)
movej(p[-0.447656406795244, 0.101533143010708, 0.306320627407107, 0.808003107696777, -1.39555452515664, -0.685407947977428], a = 0.2, v = 0.2, t = 0.2)
movej(p[-0.445043528816644, 0.101770413548259, 0.305902491922655, 0.818159265231374, -1.42940499389842, -0.70391200097908], a = 0.2, v = 0.2, t = 0.2)
movej(p[-0.442599205674619, 0.101776263703001, 0.305180656740032, 0.836208087702325, -1.44959795215609, -0.737917913312482], a = 0.2, v = 0.2, t = 0.2)
movej(p[-0.440067030171883, 0.101659989964338, 0.304348602920051, 0.791279162516635, -1.454818110553, -0.749005898439699], a = 0.2, v = 0.2, t = 0.2)
movej(p[-0.438297054224713, 0.101513112426411, 0.303775290478804, 0.780666332808283, -1.42638334252168, -0.787653622137121], a = 0.2, v = 0.2, t = 0.2)
movej(p[-0.4378552498489, 0.101315757287732, 0.303202889332448, 0.72833487848047, -1.38547491416943, -0.801650561772738], a = 0.2, v = 0.2, t = 0.2)
movej(p[-0.439184370521061, 0.101168262315695, 0.303195854529131, 0.718562584655598, -1.34936822985426, -0.809699229563841], a = 0.2, v = 0.2, t = 0.2)
movej(p[-0.441595949009616, 0.10075411026812, 0.303280165650153, 0.694187451695329, -1.33299377293293, -0.784812173485493], a = 0.2, v = 0.2, t = 0.2)
movej(p[-0.444045856494382, 0.10045328454893, 0.303598573148431, 0.730924762780024, -1.33159138075794, -0.771525998869921], a = 0.2, v = 0.2, t = 0.2)
movej(p[-0.446025570790349, 0.100127551898318, 0.303835503913997, 0.736920225918827, -1.3357810121672, -0.756654828482353], a = 0.2, v = 0.2, t = 0.2)
movej(p[-0.447476083209617, 0.100018509993823, 0.304116681288998, 0.755561445157429, -1.3351805886931, -0.743124474444112], a = 0.2, v = 0.2, t = 0.2)
movej(p[-0.448554744425581, 0.100102974839669, 0.304414453611236, 0.7822304162382, -1.34447369153155, -0.739831258734003], a = 0.2, v = 0.2, t = 0.2)
movej(p[-0.44953038418533, 0.100254288312504, 0.304804041535247, 0.803586209017719, -1.34662325799818, -0.7358825034074], a = 0.2, v = 0.2, t = 0.2)
movej(p[-0.450383330556978, 0.100388095693687, 0.305142006613819, 0.813900117191712, -1.35884935723733, -0.72399509193722], a = 0.2, v = 0.2, t = 0.2)
movej(p[-0.451169757775283, 0.100369490394912, 0.305409920176869, 0.769523272768117, -1.35401136807433, -0.693037644881286], a = 0.2, v = 0.2, t = 0.2)
movej(p[-0.451779890017624, 0.100347076081194, 0.305388808431417, 0.772048561706574, -1.35396754062348, -0.681562908066747], a = 0.2, v = 0.2, t = 0.2)
movej(p[-0.451960593454219, 0.100417449947912, 0.305513220865626, 0.808616118423125, -1.36638149388555, -0.686116255362507], a = 0.2, v = 0.2, t = 0.2)
movej(p[-0.451270157295772, 0.100661826629966, 0.305743102191481, 0.866980703497016, -1.39874957251783, -0.696996726806462], a = 0.2, v = 0.2, t = 0.2)
movej(p[-0.449614116515361, 0.101008162441936, 0.305984388953375, 0.882547703615408, -1.42538282894194, -0.689669334177712], a = 0.2, v = 0.2, t = 0.2)
movej(p[-0.44730216140659, 0.101323854490908, 0.30578096801212, 0.858851782328773, -1.43759249717945, -0.701019794883283], a = 0.2, v = 0.2, t = 0.2)
movej(p[-0.444952311791725, 0.101567741230439, 0.30549682497015, 0.811715808255528, -1.43580238818396, -0.701345106331636], a = 0.2, v = 0.2, t = 0.2)
movej(p[-0.442928415372131, 0.101560870861748, 0.304948828748034, 0.772221310697663, -1.43447560499065, -0.71143736441319], a = 0.2, v = 0.2, t = 0.2)
movej(p[-0.441592911672971, 0.101495380816334, 0.304616826459534, 0.735111388545366, -1.42101540568021, -0.707069748854819], a = 0.2, v = 0.2, t = 0.2)
movej(p[-0.441319541752735, 0.101035495160049, 0.303989050474949, 0.71133939468791, -1.40995436424388, -0.721024935177713], a = 0.2, v = 0.2, t = 0.2)
movej(p[-0.442219758460885, 0.100913849786664, 0.303852818696752, 0.728377919497066, -1.37544324028164, -0.749999197597763], a = 0.2, v = 0.2, t = 0.2)
movej(p[-0.443876716951632, 0.100733614900551, 0.304107854661485, 0.748702352532346, -1.35535020542123, -0.752740336265866], a = 0.2, v = 0.2, t = 0.2)
movej(p[-0.445698299718358, 0.100928361055734, 0.304795288151437, 0.754778712720947, -1.3378993536794, -0.758809755195303], a = 0.2, v = 0.2, t = 0.2)
movej(p[-0.447277754503423, 0.100761700867321, 0.305310266984434, 0.772185363446175, -1.34422664689108, -0.748443778187769], a = 0.2, v = 0.2, t = 0.2)
movej(p[-0.448584868260122, 0.100821160355133, 0.305610880222261, 0.772833069748939, -1.35646396526933, -0.741560849898883], a = 0.2, v = 0.2, t = 0.2)
movej(p[-0.449648334973697, 0.100633933149696, 0.305793462412689, 0.788596037094111, -1.35690328140137, -0.737960821823667], a = 0.2, v = 0.2, t = 0.2)
movej(p[-0.450512123330889, 0.100472076433532, 0.305654859211378, 0.759572166381346, -1.35697102119094, -0.712538569796261], a = 0.2, v = 0.2, t = 0.2)
movej(p[-0.45122955365192, 0.100390958745488, 0.305602137204109, 0.778059322523765, -1.35561766606432, -0.724929206383849], a = 0.2, v = 0.2, t = 0.2)
movej(p[-0.451507467391043, 0.100327471306476, 0.305560700791441, 0.808921459754704, -1.38009100236218, -0.712680502110962], a = 0.2, v = 0.2, t = 0.2)
movej(p[-0.45078262471575, 0.100702948279743, 0.305976338784315, 0.838292308438694, -1.40548894462117, -0.713474144954395], a = 0.2, v = 0.2, t = 0.2)
movej(p[-0.448906599081321, 0.101015771201803, 0.306096270273096, 0.828611849110329, -1.42927186628646, -0.696659557113379], a = 0.2, v = 0.2, t = 0.2)
movej(p[-0.446352329371312, 0.101375979360848, 0.306042311949479, 0.791064324265906, -1.42774261297399, -0.703739498267204], a = 0.2, v = 0.2, t = 0.2)
movej(p[-0.443911607550314, 0.101501594018262, 0.305460140980052, 0.778670624102078, -1.44281900989663, -0.707368194121096], a = 0.2, v = 0.2, t = 0.2)
movej(p[-0.441694671458288, 0.101401719448866, 0.30470323392375, 0.752502797343703, -1.4331507706694, -0.720473872188951], a = 0.2, v = 0.2, t = 0.2)
movej(p[-0.439890507855209, 0.101365675909088, 0.304088333207064, 0.745123068775458, -1.43283734792521, -0.737955280480799], a = 0.2, v = 0.2, t = 0.2)
movej(p[-0.439012579710395, 0.101198134506416, 0.303633705622074, 0.733571372542742, -1.41785853828806, -0.765331691824138], a = 0.2, v = 0.2, t = 0.2)
movej(p[-0.439255821033242, 0.101036516523226, 0.30351099055385, 0.761961525906279, -1.40343611745938, -0.798830221986193], a = 0.2, v = 0.2, t = 0.2)
movej(p[-0.440905520052846, 0.100893901968397, 0.30349444959049, 0.762968081674209, -1.38692943589863, -0.785341106010167], a = 0.2, v = 0.2, t = 0.2)
movej(p[-0.443111597633356, 0.100819144192001, 0.303933310785083, 0.754224234139425, -1.36339772212106, -0.769590333470578], a = 0.2, v = 0.2, t = 0.2)
movej(p[-0.445239076746316, 0.100609158863301, 0.304136313704365, 0.74286723875178, -1.36272585529774, -0.753839275779295], a = 0.2, v = 0.2, t = 0.2)
movej(p[-0.446786541123672, 0.100444778191095, 0.304468448082919, 0.760184743334326, -1.35970365682628, -0.7495219183044], a = 0.2, v = 0.2, t = 0.2)
movej(p[-0.447902519574517, 0.100279547826262, 0.304631711317566, 0.781853729383721, -1.35963145884852, -0.751509074646006], a = 0.2, v = 0.2, t = 0.2)
movej(p[-0.448884964882555, 0.100347799579508, 0.305093973757411, 0.792716272448758, -1.3441610229645, -0.749833764382106], a = 0.2, v = 0.2, t = 0.2)
movej(p[-0.449810446198495, 0.100331920299695, 0.305446255112608, 0.788097939349481, -1.33245452498769, -0.75057645145261], a = 0.2, v = 0.2, t = 0.2)
movej(p[-0.450683747103991, 0.100437486572944, 0.305783978583088, 0.795950934820755, -1.32819821728301, -0.75616504681205], a = 0.2, v = 0.2, t = 0.2)
movej(p[-0.451421801991291, 0.100533211140554, 0.306006518063828, 0.807417825948296, -1.33823198015399, -0.745570085290361], a = 0.2, v = 0.2, t = 0.2)
movej(p[-0.451426682154576, 0.10077160374769, 0.306188610060547, 0.83698377104374, -1.36180106459322, -0.74078866693247], a = 0.2, v = 0.2, t = 0.2)
movej(p[-0.450460723455001, 0.101121804132766, 0.30648949104351, 0.864837795622744, -1.39067161064385, -0.7111938427779], a = 0.2, v = 0.2, t = 0.2)
movej(p[-0.448411986961949, 0.101448724079631, 0.306609554080604, 0.874947622581545, -1.42961310269647, -0.683031818192707], a = 0.2, v = 0.2, t = 0.2)
movej(p[-0.445757243990304, 0.101768448504035, 0.306440089339304, 0.863420189274685, -1.44549239028753, -0.677501008455159], a = 0.2, v = 0.2, t = 0.2)
movej(p[-0.44299377546568, 0.101800887357499, 0.305808664361341, 0.821092373240174, -1.448856982406, -0.688861607487232], a = 0.2, v = 0.2, t = 0.2)
movej(p[-0.440416948240341, 0.101887227085143, 0.305027836433061, 0.776620864091126, -1.43194578744667, -0.734948856637753], a = 0.2, v = 0.2, t = 0.2)
movej(p[-0.438514315946802, 0.101534527112811, 0.304130875448847, 0.731527001525199, -1.4322470101646, -0.744426428843591], a = 0.2, v = 0.2, t = 0.2)
movej(p[-0.437989557943005, 0.10126719039044, 0.303565165427084, 0.726939683122645, -1.41559684585535, -0.760628676047622], a = 0.2, v = 0.2, t = 0.2)
movej(p[-0.439002800760878, 0.100826357848043, 0.303237940970546, 0.745555735943689, -1.40015833497251, -0.746454705849567], a = 0.2, v = 0.2, t = 0.2)
movej(p[-0.441179884151661, 0.100657897991912, 0.303447521149334, 0.769932474752383, -1.37319375919669, -0.751508775564136], a = 0.2, v = 0.2, t = 0.2)
movej(p[-0.443527158242078, 0.100396562717262, 0.303554905889884, 0.785066430115009, -1.37129054430661, -0.75669301361199], a = 0.2, v = 0.2, t = 0.2)
movej(p[-0.44566903056797, 0.100184775719967, 0.303942044434279, 0.774840839922205, -1.34971491716488, -0.765262632946725], a = 0.2, v = 0.2, t = 0.2)
movej(p[-0.44735309280262, 0.100048194019364, 0.304085236268496, 0.754259675892448, -1.34898757909182, -0.743782774273168], a = 0.2, v = 0.2, t = 0.2)
movej(p[-0.448672620046674, 0.100073852781535, 0.304531022995218, 0.739410138138735, -1.33661891802589, -0.727839465143489], a = 0.2, v = 0.2, t = 0.2)
movej(p[-0.449700159089639, 0.100154118821978, 0.304665379084905, 0.730743945820325, -1.34724505111118, -0.694793644963027], a = 0.2, v = 0.2, t = 0.2)
movej(p[-0.450609396132157, 0.100159589676729, 0.304987416139232, 0.767921145487406, -1.36167396021518, -0.69739743113164], a = 0.2, v = 0.2, t = 0.2)
movej(p[-0.451491127755731, 0.100165077300903, 0.305259906972236, 0.808734415015912, -1.36297970407277, -0.704005228452447], a = 0.2, v = 0.2, t = 0.2)
movej(p[-0.452193534552736, 0.100162231629143, 0.305478534782163, 0.833300188334482, -1.35790264994445, -0.729616246482139], a = 0.2, v = 0.2, t = 0.2)
movej(p[-0.45212902652974, 0.100368896729262, 0.305660258264029, 0.848405894755174, -1.36595413715541, -0.739811844222777], a = 0.2, v = 0.2, t = 0.2)
movej(p[-0.450806315323663, 0.100757378889859, 0.305725172301919, 0.825440010636946, -1.38115886548627, -0.719407842391288], a = 0.2, v = 0.2, t = 0.2)
movej(p[-0.448515946562749, 0.101275863598154, 0.306057701406202, 0.810011437319205, -1.41392770842961, -0.71430465601224], a = 0.2, v = 0.2, t = 0.2)
movej(p[-0.445640614703893, 0.1016933743756, 0.306188034065821, 0.802541976192229, -1.42700074560038, -0.73618150076721], a = 0.2, v = 0.2, t = 0.2)
movej(p[-0.442763530838365, 0.101836947493577, 0.305662197184546, 0.810957147680002, -1.44058739713434, -0.76629077331059], a = 0.2, v = 0.2, t = 0.2)
movej(p[-0.440002030643946, 0.101773544215021, 0.304852822698252, 0.797292303717392, -1.45050523027458, -0.759281803197241], a = 0.2, v = 0.2, t = 0.2)
movej(p[-0.437691372641044, 0.101581909463608, 0.303949794365516, 0.741190723086706, -1.43007246571495, -0.762933860163716], a = 0.2, v = 0.2, t = 0.2)
movej(p[-0.436723892311713, 0.101204160417131, 0.303315210003398, 0.685488458804545, -1.41775681330548, -0.76179882985965], a = 0.2, v = 0.2, t = 0.2)
movej(p[-0.437411698041474, 0.100834859628938, 0.303078070706048, 0.671253818794629, -1.40316054020694, -0.761776940217954], a = 0.2, v = 0.2, t = 0.2)
movej(p[-0.439626301198557, 0.100447903737982, 0.302844539400877, 0.690562835341982, -1.40240097761368, -0.751439000068537], a = 0.2, v = 0.2, t = 0.2)
movej(p[-0.44220094021001, 0.100233105432486, 0.303033172530427, 0.704102908616393, -1.39739035160762, -0.732816801852673], a = 0.2, v = 0.2, t = 0.2)
movej(p[-0.44454827172849, 0.100094563182318, 0.303446548940579, 0.727842830871963, -1.39408222686082, -0.717686937915165], a = 0.2, v = 0.2, t = 0.2)
movej(p[-0.446557138069383, 0.100144752663821, 0.303859471233961, 0.753355402792329, -1.37607688905713, -0.699154235162005], a = 0.2, v = 0.2, t = 0.2)
movej(p[-0.448185506395879, 0.10030203273441, 0.304418735487386, 0.791612415818959, -1.3491035017661, -0.721587420099875], a = 0.2, v = 0.2, t = 0.2)
movej(p[-0.449491074125441, 0.100317087961676, 0.30459594910469, 0.803697167770426, -1.3313216402703, -0.734650843936318], a = 0.2, v = 0.2, t = 0.2)
movej(p[-0.45050575621262, 0.10022416654126, 0.304846789841387, 0.809354275724589, -1.33591100239602, -0.740911503387413], a = 0.2, v = 0.2, t = 0.2)
movej(p[-0.451440947422796, 0.0999948868055514, 0.304900907669342, 0.797794896973788, -1.339618575737, -0.732831658261933], a = 0.2, v = 0.2, t = 0.2)
movej(p[-0.451939475636619, 0.100153771694827, 0.305224018102449, 0.805057199519499, -1.3622788472598, -0.709097779780127], a = 0.2, v = 0.2, t = 0.2)
movej(p[-0.451593062874747, 0.100433727904051, 0.305653953170719, 0.834638704881592, -1.37639643295611, -0.722342824577938], a = 0.2, v = 0.2, t = 0.2)
movej(p[-0.449947796123674, 0.1009231457226, 0.305951845460484, 0.842456701428211, -1.40253133716855, -0.701297591976917], a = 0.2, v = 0.2, t = 0.2)
movej(p[-0.447289030985285, 0.101350588844075, 0.306183015149652, 0.834201146513286, -1.42791724240248, -0.699461320026471], a = 0.2, v = 0.2, t = 0.2)
movej(p[-0.444426771047914, 0.101571674073886, 0.305867493372145, 0.782411109794173, -1.43694638095555, -0.682325929399081], a = 0.2, v = 0.2, t = 0.2)
movej(p[-0.441708716433943, 0.101511500932669, 0.305035098798072, 0.774435171246301, -1.44951090007208, -0.699150654315911], a = 0.2, v = 0.2, t = 0.2)
movej(p[-0.439546094612088, 0.101480092834144, 0.304127200511102, 0.748465714713197, -1.42174487430947, -0.742588344402064], a = 0.2, v = 0.2, t = 0.2)
movej(p[-0.438201403968246, 0.101378276838659, 0.303503880712743, 0.738104955099576, -1.38800061308528, -0.783522920529427], a = 0.2, v = 0.2, t = 0.2)
movej(p[-0.438533198585151, 0.101183150162642, 0.303348274495002, 0.688496333220209, -1.36017967690834, -0.798524012719855], a = 0.2, v = 0.2, t = 0.2)
movej(p[-0.440240477327891, 0.100747096531252, 0.303155028592746, 0.679700157434371, -1.35176056360225, -0.783070094461594], a = 0.2, v = 0.2, t = 0.2)
movej(p[-0.442603474446731, 0.100449810435465, 0.303202520862002, 0.688307998504022, -1.3501611032931, -0.768770118264606], a = 0.2, v = 0.2, t = 0.2)
movej(p[-0.444898068541299, 0.100313269344506, 0.303467948612757, 0.72051042440384, -1.33754529372435, -0.757333522404877], a = 0.2, v = 0.2, t = 0.2)
movej(p[-0.446811378941508, 0.100300749307265, 0.30397524215896, 0.7472921721466, -1.33243155950558, -0.768041561825295], a = 0.2, v = 0.2, t = 0.2)
movej(p[-0.448309053273103, 0.100091193169219, 0.30443321021635, 0.762524519822904, -1.3194569239006, -0.758931806786127], a = 0.2, v = 0.2, t = 0.2)
movej(p[-0.449484192895015, 0.0999353337775451, 0.304450871516944, 0.769478179770173, -1.32709298816887, -0.743133450115425], a = 0.2, v = 0.2, t = 0.2)
movej(p[-0.450498037244764, 0.100002349993459, 0.304797933346864, 0.78748832510505, -1.32898952287811, -0.716226864141471], a = 0.2, v = 0.2, t = 0.2)
movej(p[-0.451305925196125, 0.100129249045361, 0.304757972887998, 0.804484824216013, -1.34352222108393, -0.716921115554348], a = 0.2, v = 0.2, t = 0.2)
movej(p[-0.451515316635738, 0.100401562876361, 0.305170366574737, 0.82339204093086, -1.3582201212541, -0.716292168565674], a = 0.2, v = 0.2, t = 0.2)
movej(p[-0.450679516206522, 0.100499819343408, 0.305260515799948, 0.829746031022547, -1.37580254004058, -0.712010665763836], a = 0.2, v = 0.2, t = 0.2)
movej(p[-0.448678590404829, 0.100955096267399, 0.305467706259904, 0.822899185500014, -1.40153829737958, -0.70770287741117], a = 0.2, v = 0.2, t = 0.2)
movej(p[-0.446031243238096, 0.101353870862856, 0.305571272723646, 0.808440664833643, -1.42613296043578, -0.712428787350774], a = 0.2, v = 0.2, t = 0.2)
movej(p[-0.443282474131415, 0.101583402675951, 0.305313174869171, 0.797057186427985, -1.45207708527256, -0.712438013658023], a = 0.2, v = 0.2, t = 0.2)
movej(p[-0.441049440004706, 0.101561679673341, 0.305014054695883, 0.774426568605871, -1.45507037851338, -0.717919827414039], a = 0.2, v = 0.2, t = 0.2)
movej(p[-0.439571984834137, 0.101461465041035, 0.304566151193469, 0.742501251471841, -1.42946690970133, -0.737777204611495], a = 0.2, v = 0.2, t = 0.2)
movej(p[-0.439293583209164, 0.101222042789184, 0.30405683781148, 0.703903445300418, -1.40435335220013, -0.756378567521964], a = 0.2, v = 0.2, t = 0.2)
movej(p[-0.440284033543807, 0.101012670092739, 0.303777501687263, 0.699573196211193, -1.37692300709582, -0.76069528041214], a = 0.2, v = 0.2, t = 0.2)
movej(p[-0.442232211984194, 0.100799334562291, 0.30387532154141, 0.70666071303631, -1.36430195278653, -0.742898883482865], a = 0.2, v = 0.2, t = 0.2)
movej(p[-0.444568093587361, 0.100670132968297, 0.304275715903126, 0.724417808511347, -1.33777299335649, -0.751003867807877], a = 0.2, v = 0.2, t = 0.2)
movej(p[-0.446489413434371, 0.100506028157121, 0.304540693549988, 0.746833754218007, -1.3407965030354, -0.738259469038591], a = 0.2, v = 0.2, t = 0.2)
movej(p[-0.448021986005795, 0.100469723002619, 0.304872753894915, 0.769754614270847, -1.32823517976957, -0.757277768504866], a = 0.2, v = 0.2, t = 0.2)
movej(p[-0.449163257510747, 0.100259479744079, 0.304712878596245, 0.769289921127427, -1.34021929397185, -0.730468690532777], a = 0.2, v = 0.2, t = 0.2)
movej(p[-0.450079842461117, 0.100219767822278, 0.304791859670697, 0.767630121177901, -1.33199636807739, -0.725844619168369], a = 0.2, v = 0.2, t = 0.2)
movej(p[-0.450998892321801, 0.100141767953135, 0.304864078363505, 0.771002657292483, -1.33939313642409, -0.715221868055801], a = 0.2, v = 0.2, t = 0.2)
movej(p[-0.451705119358051, 0.100317039292483, 0.305399307545232, 0.780064719778495, -1.34154916365816, -0.71323499647474], a = 0.2, v = 0.2, t = 0.2)
movej(p[-0.452320226117817, 0.10035412121947, 0.305620648887238, 0.805194767901077, -1.34490035391692, -0.715862760985327], a = 0.2, v = 0.2, t = 0.2)
movej(p[-0.452407088800517, 0.100389277200615, 0.305620471563264, 0.787843954758508, -1.34734673862003, -0.717569652011398], a = 0.2, v = 0.2, t = 0.2)
movej(p[-0.45185627081458, 0.100594866336472, 0.305811867823637, 0.804757559414183, -1.36304964601407, -0.721188885603139], a = 0.2, v = 0.2, t = 0.2)
movej(p[-0.450285171416731, 0.101027264342014, 0.306072138008989, 0.800226658784828, -1.37693365261313, -0.728708657963581], a = 0.2, v = 0.2, t = 0.2)
movej(p[-0.447926048435504, 0.101371069928262, 0.306136698584504, 0.801895167026065, -1.40038485460413, -0.721575936408223], a = 0.2, v = 0.2, t = 0.2)
movej(p[-0.445360745073821, 0.101447550190212, 0.305581820487829, 0.77804587716218, -1.40444194254732, -0.716263797656528], a = 0.2, v = 0.2, t = 0.2)
movej(p[-0.443285543870185, 0.10147147245959, 0.304926959009618, 0.758212086817571, -1.40674933060215, -0.720938508683909], a = 0.2, v = 0.2, t = 0.2)
movej(p[-0.442308927517191, 0.101306814182441, 0.304341072936554, 0.734943771509183, -1.39182258031312, -0.720328799238345], a = 0.2, v = 0.2, t = 0.2)
movej(p[-0.442633428696872, 0.101248234704923, 0.304327777325673, 0.735653485716993, -1.37663346276974, -0.726309229633978], a = 0.2, v = 0.2, t = 0.2)
movej(p[-0.44419455546515, 0.100827826607058, 0.304285549907853, 0.729683219468525, -1.35111270639498, -0.74859708691418], a = 0.2, v = 0.2, t = 0.2)
movej(p[-0.446254300746314, 0.100830185996347, 0.304638570683594, 0.751772434527174, -1.33085705033931, -0.763438945607098], a = 0.2, v = 0.2, t = 0.2)
movej(p[-0.448293322165366, 0.100762922056424, 0.304945639365056, 0.824482403570761, -1.34456176977831, -0.786586613940034], a = 0.2, v = 0.2, t = 0.2)
movej(p[-0.449820872513382, 0.100687927499095, 0.305251645056255, 0.846861873660991, -1.34985197485321, -0.769403427325521], a = 0.2, v = 0.2, t = 0.2)
movej(p[-0.451006466731938, 0.100452885267379, 0.305298646323654, 0.829893969257903, -1.34672681246494, -0.749805739192713], a = 0.2, v = 0.2, t = 0.2)
movej(p[-0.451784585892583, 0.100289691957794, 0.30530177810314, 0.789825920757381, -1.33474607328544, -0.724314992010658], a = 0.2, v = 0.2, t = 0.2)
movej(p[-0.452329841606035, 0.100278652653834, 0.305473456334481, 0.75498515492886, -1.34161978145437, -0.693913538731949], a = 0.2, v = 0.2, t = 0.2)
movej(p[-0.452734869783165, 0.100077433470137, 0.30566124485448, 0.757580998702876, -1.35795556481171, -0.677762144407241], a = 0.2, v = 0.2, t = 0.2)
movej(p[-0.4530126853745, 0.100096232742946, 0.30580562149578, 0.738531414365114, -1.35139319577251, -0.672338699244156], a = 0.2, v = 0.2, t = 0.2)
movej(p[-0.452620323586159, 0.100235471868444, 0.305810412422713, 0.733422749764483, -1.35911848111396, -0.681736578727587], a = 0.2, v = 0.2, t = 0.2)
movej(p[-0.451331219501692, 0.100797471949925, 0.306097455453328, 0.736937463750254, -1.35930971193225, -0.698635031071076], a = 0.2, v = 0.2, t = 0.2)
movej(p[-0.44886041226361, 0.101440007562323, 0.306301882626523, 0.755347636110804, -1.37680817066063, -0.704820680190583], a = 0.2, v = 0.2, t = 0.2)
movej(p[-0.445962363744739, 0.101936665569822, 0.306523875743444, 0.790108431717894, -1.38539383846334, -0.734580474322615], a = 0.2, v = 0.2, t = 0.2)
movej(p[-0.442795312040855, 0.102052677290797, 0.306031382972815, 0.807604052440475, -1.41619397643618, -0.745436442045317], a = 0.2, v = 0.2, t = 0.2)
movej(p[-0.439803654475486, 0.101828543627071, 0.305145300784845, 0.796249505443583, -1.43599307987296, -0.771318475009173], a = 0.2, v = 0.2, t = 0.2)
movej(p[-0.437532160826176, 0.101675505130659, 0.304201911707275, 0.756917969825224, -1.42590711601226, -0.778976477314426], a = 0.2, v = 0.2, t = 0.2)
movej(p[-0.436798213911846, 0.101403512749709, 0.303528747488045, 0.70454086355077, -1.39260070357096, -0.787894539510982], a = 0.2, v = 0.2, t = 0.2)
movej(p[-0.437764617939946, 0.10109722144101, 0.303297474642497, 0.687209340123668, -1.36836190856662, -0.784551694067382], a = 0.2, v = 0.2, t = 0.2)
movej(p[-0.43978762137504, 0.100578519667786, 0.303174465755514, 0.682047370894751, -1.35495955631408, -0.775678572825268], a = 0.2, v = 0.2, t = 0.2)
movej(p[-0.442192077003649, 0.10030711220092, 0.303435764306795, 0.70629422144738, -1.35945782042484, -0.760559282809737], a = 0.2, v = 0.2, t = 0.2)
movej(p[-0.444476472934372, 0.100088799592633, 0.303652649542948, 0.696177917477991, -1.34723296123079, -0.730412160027106], a = 0.2, v = 0.2, t = 0.2)
movej(p[-0.4464525096851, 0.100047194284467, 0.304020528471676, 0.721556542112283, -1.34563915957368, -0.719596905463292], a = 0.2, v = 0.2, t = 0.2)
movej(p[-0.44801988378896, 0.0999908253846994, 0.304304291450566, 0.744537228956512, -1.33218187720388, -0.726838579520641], a = 0.2, v = 0.2, t = 0.2)
movej(p[-0.449272336514495, 0.0998533195293881, 0.304680372796095, 0.787791967397159, -1.35189731898766, -0.721313775507157], a = 0.2, v = 0.2, t = 0.2)
movej(p[-0.450214155993513, 0.100045697613133, 0.304946138054807, 0.795932474945803, -1.35379633999267, -0.707096188141524], a = 0.2, v = 0.2, t = 0.2)
movej(p[-0.450954918284472, 0.0999862914498303, 0.304972558504365, 0.814193419736527, -1.36129554776494, -0.686958492553472], a = 0.2, v = 0.2, t = 0.2)
movej(p[-0.450949919271146, 0.100334423004607, 0.305125100581624, 0.824923852236675, -1.36976230403645, -0.697799704237651], a = 0.2, v = 0.2, t = 0.2)
movej(p[-0.449482943700226, 0.100559802428404, 0.305424517101131, 0.843565432407232, -1.39462950650732, -0.68422199601949], a = 0.2, v = 0.2, t = 0.2)
movej(p[-0.447012674279918, 0.101232770557752, 0.305885658499807, 0.848321321517217, -1.42800450896711, -0.662104325813642], a = 0.2, v = 0.2, t = 0.2)
movej(p[-0.443897267174824, 0.101685052260823, 0.305883444319121, 0.828631608795155, -1.43051273873702, -0.678266617650875], a = 0.2, v = 0.2, t = 0.2)
movej(p[-0.441004493931309, 0.101805100181164, 0.30521285545802, 0.783712702324656, -1.4247149663888, -0.714033481112108], a = 0.2, v = 0.2, t = 0.2)
movej(p[-0.438441458474414, 0.101639198276229, 0.304334663691555, 0.7522167644164, -1.4120277777876, -0.764545619368296], a = 0.2, v = 0.2, t = 0.2)
movej(p[-0.436773063156444, 0.101185172238219, 0.303469173528592, 0.738003051352593, -1.42106177508633, -0.761197229121045], a = 0.2, v = 0.2, t = 0.2)
movej(p[-0.436704305758626, 0.100738206904013, 0.302971527386073, 0.741892690815536, -1.40475194149289, -0.774751910995396], a = 0.2, v = 0.2, t = 0.2)
movej(p[-0.438509857664271, 0.100360250612541, 0.303062490397553, 0.732362071969786, -1.38534435683461, -0.779938622271867], a = 0.2, v = 0.2, t = 0.2)
movej(p[-0.441359319540282, 0.100067087050137, 0.303214490323015, 0.732813896000425, -1.3526952284322, -0.774867399201934], a = 0.2, v = 0.2, t = 0.2)
movej(p[-0.444142278038908, 0.0999498189014972, 0.303629894459175, 0.735313934279475, -1.34146693341186, -0.759428034870561], a = 0.2, v = 0.2, t = 0.2)
movej(p[-0.446209262422633, 0.0997969692063757, 0.303675793333205, 0.736044656657717, -1.34618075673992, -0.741452407013671], a = 0.2, v = 0.2, t = 0.2)
movej(p[-0.447846654154917, 0.0997296208250424, 0.303977379024978, 0.756621380420254, -1.34186703169543, -0.754436094142727], a = 0.2, v = 0.2, t = 0.2)
movej(p[-0.44915878272489, 0.0996928709720063, 0.304374554284229, 0.78089005801959, -1.36419202206867, -0.731682603167218], a = 0.2, v = 0.2, t = 0.2)
movej(p[-0.450237466621377, 0.0998158294139511, 0.304869554476062, 0.843552913654923, -1.35480664908508, -0.74507478859961], a = 0.2, v = 0.2, t = 0.2)
movej(p[-0.451119269585675, 0.0999728307366308, 0.305156411525534, 0.83283094460911, -1.34816664020699, -0.732019395457426], a = 0.2, v = 0.2, t = 0.2)
movej(p[-0.451283884606674, 0.100226898131737, 0.305281055070113, 0.864816865763079, -1.37275607002951, -0.73359574175154], a = 0.2, v = 0.2, t = 0.2)
movej(p[-0.45021152303683, 0.100513434951861, 0.305310468261623, 0.840640121266168, -1.39936408981051, -0.721590331475692], a = 0.2, v = 0.2, t = 0.2)
movej(p[-0.447717642363082, 0.10105819034146, 0.305567029444792, 0.864031523473491, -1.44435413395295, -0.738758820857955], a = 0.2, v = 0.2, t = 0.2)
movej(p[-0.444494100755135, 0.101582349106091, 0.305505813714004, 0.813432081650016, -1.43444061426558, -0.768430019913031], a = 0.2, v = 0.2, t = 0.2)
movej(p[-0.441254353090459, 0.101770193583604, 0.304903192905288, 0.787216128036552, -1.44710613925591, -0.765642402252192], a = 0.2, v = 0.2, t = 0.2)
movej(p[-0.43827259893995, 0.101701893164918, 0.303879874999245, 0.747984801892012, -1.45248004704301, -0.755674879021048], a = 0.2, v = 0.2, t = 0.2)
movej(p[-0.436401763991142, 0.101281458932341, 0.302878208432769, 0.718820592830119, -1.4283343234194, -0.779189292076788], a = 0.2, v = 0.2, t = 0.2)
movej(p[-0.436146008619408, 0.100874350020404, 0.302439798250234, 0.691751442881357, -1.39260867686728, -0.802107552151528], a = 0.2, v = 0.2, t = 0.2)
movej(p[-0.437571652812459, 0.100425350618942, 0.302250097409152, 0.662016421583998, -1.34603881902598, -0.807822776339721], a = 0.2, v = 0.2, t = 0.2)
movej(p[-0.440206780403328, 0.100070946973264, 0.302329345383863, 0.669606845029326, -1.34186183315309, -0.776698286298103], a = 0.2, v = 0.2, t = 0.2)
movej(p[-0.442844983945618, 0.0999250770321905, 0.302751963056662, 0.700022137149456, -1.35102271888249, -0.735877306087052], a = 0.2, v = 0.2, t = 0.2)
movej(p[-0.445059756970611, 0.0997637167417038, 0.303157470512596, 0.705681338172675, -1.36834530381977, -0.705042150164584], a = 0.2, v = 0.2, t = 0.2)
movej(p[-0.446704489798067, 0.0996793000864421, 0.303571726836509, 0.737400615592475, -1.37653759104551, -0.694388340512758], a = 0.2, v = 0.2, t = 0.2)
movej(p[-0.448043915344366, 0.09962970335165, 0.303726608070425, 0.763779301952323, -1.37321993346377, -0.701895863066906], a = 0.2, v = 0.2, t = 0.2)
movej(p[-0.449181002044694, 0.0995406876448163, 0.303761381385975, 0.782505396553373, -1.35916015016375, -0.701263661274885], a = 0.2, v = 0.2, t = 0.2)
movej(p[-0.450026368041943, 0.0996561204891545, 0.303879451060503, 0.795032827966965, -1.35367624965292, -0.697303145248193], a = 0.2, v = 0.2, t = 0.2)
movej(p[-0.450570964361785, 0.0997073012036733, 0.304158821433621, 0.771792831958876, -1.34417613167652, -0.697285226180507], a = 0.2, v = 0.2, t = 0.2)
movej(p[-0.450205471072926, 0.100101421105343, 0.304773952315066, 0.820619278691956, -1.37743591659367, -0.705222820038357], a = 0.2, v = 0.2, t = 0.2)
movej(p[-0.448840767949898, 0.100356116123519, 0.305031994133022, 0.854117158764633, -1.41750881492445, -0.694401018056218], a = 0.2, v = 0.2, t = 0.2)
movej(p[-0.446491978503104, 0.100719093648909, 0.305280463589279, 0.865476914187262, -1.45367388677959, -0.672420807779651], a = 0.2, v = 0.2, t = 0.2)
movej(p[-0.443701017863464, 0.100988952353247, 0.304635346934194, 0.838137207040783, -1.46394309538625, -0.681336062247891], a = 0.2, v = 0.2, t = 0.2)
movej(p[-0.440751189558872, 0.101038809931901, 0.303938490921756, 0.786825460197762, -1.44414676075826, -0.71415336459438], a = 0.2, v = 0.2, t = 0.2)
movej(p[-0.437984868793143, 0.101103150162566, 0.303021833961851, 0.75123039101488, -1.44643402819314, -0.752855350893255], a = 0.2, v = 0.2, t = 0.2)
movej(p[-0.436041459304773, 0.100843462399459, 0.302322984585871, 0.732968809251719, -1.41679111269328, -0.795972418575282], a = 0.2, v = 0.2, t = 0.2)
movej(p[-0.435361471851847, 0.10044548809684, 0.301833287446898, 0.729599432752465, -1.4122509977244, -0.811352894046227], a = 0.2, v = 0.2, t = 0.2)
movej(p[-0.436485370397001, 0.0999066752650265, 0.301545535489722, 0.707674514171113, -1.36765360238899, -0.825781310783878], a = 0.2, v = 0.2, t = 0.2)
movej(p[-0.438736674750414, 0.0995808746326023, 0.301566697897462, 0.703041339200099, -1.35741970102799, -0.806146235628825], a = 0.2, v = 0.2, t = 0.2)
movej(p[-0.44141110782777, 0.0994234209101242, 0.301814417946143, 0.714359650081032, -1.34754462328765, -0.77385289453346], a = 0.2, v = 0.2, t = 0.2)
movej(p[-0.443891520970127, 0.0992582873706286, 0.30210323929691, 0.749603961278822, -1.34771021705743, -0.762297232561701], a = 0.2, v = 0.2, t = 0.2)
movej(p[-0.445796723481449, 0.0992542741854022, 0.302623852245037, 0.75710034169958, -1.34596707718713, -0.752586426843272], a = 0.2, v = 0.2, t = 0.2)
movej(p[-0.447303432060154, 0.0993334668155615, 0.3030940312336, 0.760164326195888, -1.33963291381116, -0.761067782116781], a = 0.2, v = 0.2, t = 0.2)
movej(p[-0.448431457385414, 0.0994651490798097, 0.303336906487493, 0.770523598299945, -1.34214736023425, -0.747278677401829], a = 0.2, v = 0.2, t = 0.2)
movej(p[-0.449298759984079, 0.099413874529049, 0.303479606274438, 0.778361893602859, -1.35298114373897, -0.715753656976804], a = 0.2, v = 0.2, t = 0.2)
movej(p[-0.45006452717084, 0.0994455271464035, 0.303766273574796, 0.795106719745111, -1.37207160972959, -0.699431130903534], a = 0.2, v = 0.2, t = 0.2)
movej(p[-0.4499530998931, 0.0996648408097719, 0.304163508883442, 0.817995210495677, -1.38899281783695, -0.686632688721841], a = 0.2, v = 0.2, t = 0.2)
movej(p[-0.448803797723728, 0.100126733348924, 0.304525181536892, 0.848144255250216, -1.41241480017423, -0.704030314300303], a = 0.2, v = 0.2, t = 0.2)
movej(p[-0.44619920590253, 0.100511388894156, 0.304289810466936, 0.8499376388835, -1.42379790581358, -0.716225158303847], a = 0.2, v = 0.2, t = 0.2)
movej(p[-0.443169928628207, 0.100801470870886, 0.303916214413258, 0.820923413535136, -1.43528170435999, -0.728774336082825], a = 0.2, v = 0.2, t = 0.2)
movej(p[-0.440258271363139, 0.100686136300979, 0.303286839408011, 0.787364903128595, -1.4396300121626, -0.745760432004516], a = 0.2, v = 0.2, t = 0.2)
movej(p[-0.437681907971719, 0.100553849903467, 0.302514817049967, 0.756675438203586, -1.44301753355133, -0.761057686029475], a = 0.2, v = 0.2, t = 0.2)
movej(p[-0.436103731083283, 0.100249130537006, 0.301710489785098, 0.746261371882986, -1.4334320647405, -0.784010021356149], a = 0.2, v = 0.2, t = 0.2)
movej(p[-0.435948558158359, 0.0999525028445482, 0.301167342109104, 0.730991703429805, -1.41355732820853, -0.77786670181156], a = 0.2, v = 0.2, t = 0.2)
movej(p[-0.437511937736741, 0.0997118739218879, 0.301241052895123, 0.720190741054106, -1.37185826370683, -0.778099850466727], a = 0.2, v = 0.2, t = 0.2)
movej(p[-0.440014684887929, 0.0995762328563303, 0.301691402771949, 0.723225786297878, -1.35451409291229, -0.771271613626439], a = 0.2, v = 0.2, t = 0.2)
movej(p[-0.442541084370372, 0.0994640878636153, 0.302072626851222, 0.726296596080065, -1.34461812907593, -0.76506222551174], a = 0.2, v = 0.2, t = 0.2)
movej(p[-0.444676141874129, 0.0993407697091522, 0.302245863341986, 0.738898757296412, -1.34395954339786, -0.762957971008049], a = 0.2, v = 0.2, t = 0.2)
movej(p[-0.446386300513578, 0.0991646885699352, 0.302388665553559, 0.75026413769789, -1.34998557086672, -0.738762481707641], a = 0.2, v = 0.2, t = 0.2)
movej(p[-0.447697218429992, 0.0991702604466301, 0.302489303451065, 0.768308476064909, -1.34153005865597, -0.749231470566919], a = 0.2, v = 0.2, t = 0.2)
movej(p[-0.448894859758797, 0.0991132500980704, 0.302816732351616, 0.790797114228744, -1.34963087251468, -0.741681649202592], a = 0.2, v = 0.2, t = 0.2)
movej(p[-0.449775757446437, 0.0990828936396929, 0.302914922428747, 0.821150558177793, -1.35802438081594, -0.731607596076476], a = 0.2, v = 0.2, t = 0.2)
movej(p[-0.44970639361184, 0.0992087609935929, 0.303202022721628, 0.819955415904839, -1.37371369692708, -0.728111545954973], a = 0.2, v = 0.2, t = 0.2)
movej(p[-0.448614669468491, 0.099554804933703, 0.303461124593569, 0.817492456570298, -1.40190709257673, -0.71931054637146], a = 0.2, v = 0.2, t = 0.2)
movej(p[-0.446193008199738, 0.0999403764029654, 0.303587534503028, 0.791132385830062, -1.41477659472689, -0.717052380691204], a = 0.2, v = 0.2, t = 0.2)
movej(p[-0.443498701223879, 0.100248290907275, 0.303372642331051, 0.778782212056553, -1.44038714247763, -0.70227732034352], a = 0.2, v = 0.2, t = 0.2)
movej(p[-0.440578705155615, 0.100295951425013, 0.302595609941574, 0.785316137425323, -1.45027689882634, -0.713418228530384], a = 0.2, v = 0.2, t = 0.2)
movej(p[-0.43802668125177, 0.100179337505787, 0.301640300993884, 0.766058360778036, -1.45819106522806, -0.748549114144934], a = 0.2, v = 0.2, t = 0.2)
movej(p[-0.435988925831405, 0.0999889102370862, 0.300893821738306, 0.748297443160354, -1.44513936613553, -0.773816282281226], a = 0.2, v = 0.2, t = 0.2)
movej(p[-0.435152818922961, 0.0997377812523069, 0.300608857756974, 0.698951319626334, -1.42094872464905, -0.778332301944343], a = 0.2, v = 0.2, t = 0.2)
movej(p[-0.436066088385984, 0.0994932990059064, 0.300590964755393, 0.691964479685693, -1.38763563168457, -0.778622290467168], a = 0.2, v = 0.2, t = 0.2)
movej(p[-0.438125213802838, 0.0991632592947467, 0.300836219703371, 0.68458750891744, -1.36677156830631, -0.767571798272761], a = 0.2, v = 0.2, t = 0.2)
movej(p[-0.440807484308589, 0.0990661929298677, 0.301268128275535, 0.721520262057021, -1.34902308343849, -0.767410585056819], a = 0.2, v = 0.2, t = 0.2)
movej(p[-0.443345772959366, 0.0989478170530441, 0.30161301892723, 0.74536709876943, -1.34671544697998, -0.75620748579153], a = 0.2, v = 0.2, t = 0.2)
movej(p[-0.445332841404484, 0.0990074670253118, 0.302033722631426, 0.762155454005312, -1.34193770379927, -0.766373523684761], a = 0.2, v = 0.2, t = 0.2)
movej(p[-0.446686761544636, 0.0989230204554818, 0.302231474341744, 0.78102151803975, -1.35127147970204, -0.750109748596789], a = 0.2, v = 0.2, t = 0.2)
movej(p[-0.447803582004272, 0.0989505561773267, 0.302618116007193, 0.800648544221166, -1.3552959354533, -0.748879312552319], a = 0.2, v = 0.2, t = 0.2)
movej(p[-0.448778166180041, 0.0989137219614333, 0.302780153461212, 0.843371072775381, -1.35584135943638, -0.746897183908801], a = 0.2, v = 0.2, t = 0.2)
movej(p[-0.449321373667813, 0.0989893616674636, 0.303112555383476, 0.864844886815434, -1.36630293414206, -0.766025502658764], a = 0.2, v = 0.2, t = 0.2)
movej(p[-0.448888967875346, 0.0992245729676249, 0.303253374946452, 0.871947493137549, -1.3745554906666, -0.760699352349567], a = 0.2, v = 0.2, t = 0.2)
movej(p[-0.44760147008474, 0.0995486955615185, 0.303465908737913, 0.869077741484912, -1.40301617712501, -0.755416643442321], a = 0.2, v = 0.2, t = 0.2)
movej(p[-0.445809668890418, 0.0999415528831285, 0.303620928872683, 0.833407005773817, -1.41570114815483, -0.732116883289036], a = 0.2, v = 0.2, t = 0.2)
movej(p[-0.443728215218347, 0.10013613493478, 0.303416780313304, 0.79041984658899, -1.43156232600299, -0.727049879452228], a = 0.2, v = 0.2, t = 0.2)
movej(p[-0.441437381571494, 0.10031201541985, 0.303012100294129, 0.749858542939806, -1.44295953716314, -0.69516349600853], a = 0.2, v = 0.2, t = 0.2)
movej(p[-0.439064061407511, 0.100385315532266, 0.30231185555152, 0.730274682726505, -1.45046061103075, -0.705056201324325], a = 0.2, v = 0.2, t = 0.2)
movej(p[-0.436783937655677, 0.100258208483387, 0.301672339729239, 0.728733976347538, -1.44720711268771, -0.728529053851056], a = 0.2, v = 0.2, t = 0.2)
movej(p[-0.435413999616928, 0.0998515348162132, 0.300866129767495, 0.698309663705524, -1.4200381914692, -0.771098243543758], a = 0.2, v = 0.2, t = 0.2)
movej(p[-0.435171240637379, 0.0994331184909599, 0.300478299780633, 0.701125799070087, -1.4076967185251, -0.790622160676303], a = 0.2, v = 0.2, t = 0.2)
