def moving():
set_payload_mass(0)
set_tcp(p[0,0,0,0,0,0])
movej(p[-0.5692, 0.119, 0.3516, -1.241, -0.987, 1.548], a = 0.2, v = 0.2, t = 0.2)
movej(p[-0.569431012383325, 0.118753199815646, 0.351863375032517, -1.23847775898776, -0.986421404352348, 1.55155766369016], a = 0.2, v = 0.2, t = 0.2)
movej(p[-0.569313033020713, 0.118922210433174, 0.351813287996665, -1.23898635211924, -0.986198268335416, 1.54942887986672], a = 0.2, v = 0.2, t = 0.2)
movej(p[-0.569272286811285, 0.1189192695325, 0.351879236366778, -1.23855968271029, -0.987233672865213, 1.54938716586824], a = 0.2, v = 0.2, t = 0.2)
movej(p[-0.569122763551018, 0.119040008238374, 0.351709963865932, -1.24054785486304, -0.987174469194405, 1.54744146338672], a = 0.2, v = 0.2, t = 0.2)
movej(p[-0.569285736637642, 0.118879887875221, 0.35185862284595, -1.24022805498746, -0.984752886507104, 1.55106206480981], a = 0.2, v = 0.2, t = 0.2)
movej(p[-0.569465382185736, 0.118816157312493, 0.352067347335227, -1.23798473765033, -0.984509797171569, 1.55233953298718], a = 0.2, v = 0.2, t = 0.2)
movej(p[-0.569308082080934, 0.11867233510693, 0.351758719695156, -1.24093505371618, -0.985424610256661, 1.55274836945334], a = 0.2, v = 0.2, t = 0.2)
movej(p[-0.569304039482013, 0.119016523608969, 0.351888385274467, -1.23789643965885, -0.987154480580874, 1.54867909107683], a = 0.2, v = 0.2, t = 0.2)
movej(p[-0.569337180836962, 0.118991112116897, 0.35182427211932, -1.23934012360762, -0.986696846269737, 1.54863675566723], a = 0.2, v = 0.2, t = 0.2)
movej(p[-0.569384066671367, 0.118805121072832, 0.351941963410671, -1.23871292298017, -0.985966379486865, 1.55088598925055], a = 0.2, v = 0.2, t = 0.2)
movej(p[-0.569243312712759, 0.118811149000017, 0.35174026103778, -1.24109340985651, -0.98633293930256, 1.55028822352157], a = 0.2, v = 0.2, t = 0.2)
movej(p[-0.569407009652145, 0.118787585434245, 0.351885725158455, -1.23786325111535, -0.987155862160051, 1.55016120361019], a = 0.2, v = 0.2, t = 0.2)
movej(p[-0.569310464977019, 0.118875457917587, 0.351822439359288, -1.23923899081794, -0.986160549212905, 1.54971626541655], a = 0.2, v = 0.2, t = 0.2)
movej(p[-0.569319679873512, 0.118793208447643, 0.351816722683977, -1.23976398022121, -0.985917439544218, 1.55049806664777], a = 0.2, v = 0.2, t = 0.2)
movej(p[-0.569296638932826, 0.118860139047184, 0.35172140395603, -1.24003986013783, -0.985325014608593, 1.55111228423489], a = 0.2, v = 0.2, t = 0.2)
movej(p[-0.569335920005535, 0.118745435768639, 0.351666916845463, -1.24128715211655, -0.987849809692356, 1.55075231446331], a = 0.2, v = 0.2, t = 0.2)
movej(p[-0.569200769894455, 0.118901709833707, 0.351775747007009, -1.23901375561319, -0.987069607834967, 1.54837188360084], a = 0.2, v = 0.2, t = 0.2)
movej(p[-0.569234127989951, 0.118810437070603, 0.351691877941316, -1.23982922275577, -0.987797714431472, 1.54886318934599], a = 0.2, v = 0.2, t = 0.2)
movej(p[-0.569349179624614, 0.118963818257223, 0.351853294771146, -1.24061086859183, -0.984863491004564, 1.54911887335841], a = 0.2, v = 0.2, t = 0.2)
movej(p[-0.569288433368587, 0.118918407079633, 0.352063552440039, -1.23764553535065, -0.984863623295326, 1.5500414643032], a = 0.2, v = 0.2, t = 0.2)
movej(p[-0.569174675899997, 0.119055859668536, 0.352068157235755, -1.2376619707122, -0.985698943290933, 1.54784847211878], a = 0.2, v = 0.2, t = 0.2)
movej(p[-0.569449936458386, 0.119094549627211, 0.352140709713953, -1.23710298870423, -0.983443603346654, 1.54905799834609], a = 0.2, v = 0.2, t = 0.2)
movej(p[-0.569325084727938, 0.118888351032831, 0.35194622417444, -1.2386160177513, -0.984737472122588, 1.55200935228062], a = 0.2, v = 0.2, t = 0.2)
movej(p[-0.569334094675819, 0.11892428561572, 0.351927758081411, -1.2391636338357, -0.983819838512771, 1.55166847858351], a = 0.2, v = 0.2, t = 0.2)
movej(p[-0.569334110290122, 0.1188845446107, 0.351809301202015, -1.23963706593942, -0.987510631907614, 1.54937239936023], a = 0.2, v = 0.2, t = 0.2)
movej(p[-0.569449626166986, 0.118845341587258, 0.35183114164948, -1.23934561020159, -0.985242414939153, 1.55158453068896], a = 0.2, v = 0.2, t = 0.2)
movej(p[-0.56928505266506, 0.118772719069066, 0.351671661862938, -1.24111567382182, -0.987092347915643, 1.55060248599426], a = 0.2, v = 0.2, t = 0.2)
movej(p[-0.569286174128546, 0.118769923780204, 0.351671419623732, -1.24111226548647, -0.987095853677325, 1.55063240205158], a = 0.2, v = 0.2, t = 0.2)
movej(p[-0.5694248148455, 0.118617557056075, 0.351861147410259, -1.23962814051663, -0.985388082129086, 1.55316183468138], a = 0.2, v = 0.2, t = 0.2)
movej(p[-0.569268653974023, 0.118857145562679, 0.351613343597288, -1.2414539417074, -0.986036745393072, 1.54995573722174], a = 0.2, v = 0.2, t = 0.2)
movej(p[-0.56932940229321, 0.118757017512066, 0.35168518930138, -1.23928442030214, -0.989479659396798, 1.54972902937502], a = 0.2, v = 0.2, t = 0.2)
movej(p[-0.569306294687753, 0.118782376731627, 0.351711771787218, -1.24022462053522, -0.986313796508262, 1.55088143996513], a = 0.2, v = 0.2, t = 0.2)
movej(p[-0.569274212885394, 0.118890831187828, 0.351685805291739, -1.24116661610505, -0.986214204569011, 1.54976397980482], a = 0.2, v = 0.2, t = 0.2)
movej(p[-0.569378582101498, 0.118831359784611, 0.351833246394995, -1.23781506524822, -0.987689625669579, 1.54952682737105], a = 0.2, v = 0.2, t = 0.2)
movej(p[-0.56928186259644, 0.118925346486277, 0.35180151175696, -1.24012139851624, -0.986793266844017, 1.54926282748393], a = 0.2, v = 0.2, t = 0.2)
movej(p[-0.569230313311998, 0.119191035409839, 0.351821129024109, -1.24095645371853, -0.985372865732038, 1.54657484963199], a = 0.2, v = 0.2, t = 0.2)
movej(p[-0.569321267031905, 0.118732855048769, 0.351818807911202, -1.2402753679247, -0.985614891761471, 1.55188588644877], a = 0.2, v = 0.2, t = 0.2)
movej(p[-0.569263249573003, 0.118869732270663, 0.351713557255198, -1.24134092070009, -0.985790435168401, 1.55010101706275], a = 0.2, v = 0.2, t = 0.2)
movej(p[-0.569313752126526, 0.11889890750639, 0.351795020361621, -1.23954039688094, -0.985510982862803, 1.54970707445587], a = 0.2, v = 0.2, t = 0.2)
movej(p[-0.569331149065628, 0.119011828417774, 0.351876895903036, -1.23863731202647, -0.986873780291933, 1.54860377638779], a = 0.2, v = 0.2, t = 0.2)
movej(p[-0.569434165919375, 0.118999907588011, 0.351988487263193, -1.23736999778252, -0.985725575007584, 1.54940093340238], a = 0.2, v = 0.2, t = 0.2)
movej(p[-0.569333884065723, 0.119163228145333, 0.351863030396564, -1.23889058714363, -0.985587774807529, 1.54692678576354], a = 0.2, v = 0.2, t = 0.2)
movej(p[-0.56948297924488, 0.118833270665577, 0.352083355041362, -1.2373670795553, -0.984920089506623, 1.5516776302348], a = 0.2, v = 0.2, t = 0.2)
movej(p[-0.569324558433914, 0.118933472216728, 0.351927949006088, -1.23819029262333, -0.986464855070555, 1.549668972803], a = 0.2, v = 0.2, t = 0.2)
movej(p[-0.569349835882257, 0.118864292614734, 0.3517655669773, -1.24020491060801, -0.985818449826323, 1.55011064226695], a = 0.2, v = 0.2, t = 0.2)
movej(p[-0.569367683449821, 0.118791072090339, 0.351612032423732, -1.24106811850916, -0.986135711973376, 1.55067244004274], a = 0.2, v = 0.2, t = 0.2)
movej(p[-0.569335609245239, 0.118828179739439, 0.351871294140495, -1.23838587039782, -0.986997426284641, 1.55068016487225], a = 0.2, v = 0.2, t = 0.2)
movej(p[-0.569213078694784, 0.11887063232664, 0.35169873420295, -1.2404389351956, -0.986600295055443, 1.5498601535418], a = 0.2, v = 0.2, t = 0.2)
movej(p[-0.569273897127956, 0.119019309941126, 0.351783727762338, -1.24013959902085, -0.984302385950836, 1.54879932277997], a = 0.2, v = 0.2, t = 0.2)
movej(p[-0.569179405174596, 0.119065505285966, 0.351707486560449, -1.24067648428147, -0.985381204894516, 1.54804614214208], a = 0.2, v = 0.2, t = 0.2)
movej(p[-0.569147829760094, 0.119017295705629, 0.35171231248655, -1.24099618711038, -0.986378766923032, 1.54805698228205], a = 0.2, v = 0.2, t = 0.2)
movej(p[-0.569276573676151, 0.119025235645022, 0.351743592215461, -1.24110972497565, -0.986124562571084, 1.547734528119], a = 0.2, v = 0.2, t = 0.2)
movej(p[-0.569195264011161, 0.119087889357117, 0.351638402621204, -1.24098798400078, -0.986593245130588, 1.54644537851707], a = 0.2, v = 0.2, t = 0.2)
movej(p[-0.569238807286209, 0.118849594896907, 0.351965575272004, -1.23822895659021, -0.985672280640483, 1.55039014773342], a = 0.2, v = 0.2, t = 0.2)
movej(p[-0.569363387998482, 0.118730835922987, 0.351954959140744, -1.23809055266765, -0.986397239084736, 1.55173978709545], a = 0.2, v = 0.2, t = 0.2)
movej(p[-0.569287744188037, 0.119110611757062, 0.352005467355857, -1.23780727707363, -0.985700205525709, 1.54785237283804], a = 0.2, v = 0.2, t = 0.2)
movej(p[-0.569342181361677, 0.118930014421423, 0.351853060248128, -1.23880394420547, -0.986217816499555, 1.54952263825295], a = 0.2, v = 0.2, t = 0.2)
movej(p[-0.569399575315201, 0.118766116089755, 0.351853590319396, -1.23898039887614, -0.986575916408704, 1.55124705905633], a = 0.2, v = 0.2, t = 0.2)
movej(p[-0.569375969003483, 0.118950744122237, 0.351755124428505, -1.23998181043039, -0.98562153213137, 1.54975470073795], a = 0.2, v = 0.2, t = 0.2)
movej(p[-0.569219444866978, 0.118949628458881, 0.351672406594959, -1.24081153601846, -0.98758062405205, 1.54854525924529], a = 0.2, v = 0.2, t = 0.2)
movej(p[-0.569197087205361, 0.119070544233801, 0.351704078512215, -1.24035862204045, -0.987573854779485, 1.54754544790441], a = 0.2, v = 0.2, t = 0.2)
movej(p[-0.569244592784, 0.118981728128903, 0.351651454662974, -1.24138094156704, -0.985439567066129, 1.54899373099457], a = 0.2, v = 0.2, t = 0.2)
movej(p[-0.569293715621748, 0.11902110101368, 0.351886019841029, -1.23863996453394, -0.985466091510706, 1.5492810995071], a = 0.2, v = 0.2, t = 0.2)
movej(p[-0.569418105508717, 0.118696426391112, 0.351891667449425, -1.23773267025664, -0.986429951701458, 1.5523115215067], a = 0.2, v = 0.2, t = 0.2)
movej(p[-0.569303108887785, 0.119043352318297, 0.351962660535154, -1.23825620412074, -0.984938993818295, 1.54874211742972], a = 0.2, v = 0.2, t = 0.2)
movej(p[-0.569215199884607, 0.119163473766428, 0.351685905652886, -1.24072612441351, -0.985067071397074, 1.54722446094368], a = 0.2, v = 0.2, t = 0.2)
movej(p[-0.569212584354078, 0.11900187320639, 0.351692911221767, -1.24018903801093, -0.987416895141407, 1.54751457097542], a = 0.2, v = 0.2, t = 0.2)
movej(p[-0.569331642865704, 0.118953187003418, 0.351855443847568, -1.23882848240371, -0.985903983701968, 1.54948345065595], a = 0.2, v = 0.2, t = 0.2)
movej(p[-0.569258099442933, 0.11896249297486, 0.351846654429914, -1.23925319454442, -0.98599705856513, 1.54909077046262], a = 0.2, v = 0.2, t = 0.2)
movej(p[-0.569452276647881, 0.118883798469814, 0.351974117357679, -1.23738634819453, -0.986166963125904, 1.55014285395221], a = 0.2, v = 0.2, t = 0.2)
movej(p[-0.569224501247955, 0.118985461380567, 0.351862042205367, -1.24019457667286, -0.984864803805579, 1.5496942920001], a = 0.2, v = 0.2, t = 0.2)
movej(p[-0.569354137847719, 0.118802425675503, 0.351846810899678, -1.23889827586124, -0.986204429843737, 1.55096199732113], a = 0.2, v = 0.2, t = 0.2)
movej(p[-0.569387807878533, 0.118889828848648, 0.351929343343899, -1.23819526949781, -0.986045676499535, 1.55013085601592], a = 0.2, v = 0.2, t = 0.2)
movej(p[-0.569354532612195, 0.119015430409852, 0.351873078128418, -1.239923529116, -0.984332939656833, 1.54941337660064], a = 0.2, v = 0.2, t = 0.2)
movej(p[-0.56945563651656, 0.118901427937194, 0.352024061858501, -1.23791718654221, -0.984427622639106, 1.55092778116141], a = 0.2, v = 0.2, t = 0.2)
movej(p[-0.569375791909922, 0.118865780736288, 0.351834296593348, -1.23963461936636, -0.987449468272199, 1.54987997566711], a = 0.2, v = 0.2, t = 0.2)
movej(p[-0.569248474215865, 0.119206231174857, 0.351717472136754, -1.24193782566405, -0.983314689228724, 1.54743645376277], a = 0.2, v = 0.2, t = 0.2)
movej(p[-0.56919830916138, 0.118968915008884, 0.351695960170863, -1.24109572031484, -0.985146105360494, 1.54913068171805], a = 0.2, v = 0.2, t = 0.2)
movej(p[-0.569310503602044, 0.119008829333689, 0.351740461228821, -1.23893605099266, -0.9868850942216, 1.54848797435512], a = 0.2, v = 0.2, t = 0.2)
movej(p[-0.569306728799208, 0.119015339401208, 0.351744008042103, -1.23889220175989, -0.986885196308466, 1.54841371676671], a = 0.2, v = 0.2, t = 0.2)
movej(p[-0.569344671442425, 0.118846388178399, 0.351759813741622, -1.23976289021494, -0.985854791747696, 1.55054210487367], a = 0.2, v = 0.2, t = 0.2)
movej(p[-0.569185400888287, 0.119066629735452, 0.351864442213519, -1.23935572964748, -0.985237325076476, 1.54837558738594], a = 0.2, v = 0.2, t = 0.2)
movej(p[-0.569271581959587, 0.119003735541913, 0.351855262705439, -1.23838210309596, -0.987386877420327, 1.54837312324004], a = 0.2, v = 0.2, t = 0.2)
movej(p[-0.569209891152981, 0.11903245010076, 0.351726218881525, -1.23962950300973, -0.98794850248351, 1.54784923570882], a = 0.2, v = 0.2, t = 0.2)
movej(p[-0.569244100950133, 0.118958495382682, 0.351761967999737, -1.24041323266969, -0.98610292003856, 1.54902120788481], a = 0.2, v = 0.2, t = 0.2)
movej(p[-0.569121478836441, 0.119155273355437, 0.351650642096765, -1.24137754673595, -0.986483344072047, 1.54633471732025], a = 0.2, v = 0.2, t = 0.2)
movej(p[-0.569121478836441, 0.119155273355437, 0.351650642096765, -1.24137754673595, -0.986483344072047, 1.54633471732025], a = 0.2, v = 0.2, t = 0.2)
movej(p[-0.569322822853066, 0.118860500576804, 0.351824664411274, -1.23904497389601, -0.987109845834431, 1.54988880168546], a = 0.2, v = 0.2, t = 0.2)
movej(p[-0.569257836747553, 0.118871127970788, 0.351753469575875, -1.24060544617618, -0.98664735390061, 1.5500157535463], a = 0.2, v = 0.2, t = 0.2)
movej(p[-0.569305606709791, 0.118907543374666, 0.351911291656295, -1.23998063938114, -0.985031863757222, 1.55054049604417], a = 0.2, v = 0.2, t = 0.2)
movej(p[-0.569349763021787, 0.118904828212438, 0.35179516410571, -1.23937580650513, -0.986798735191562, 1.54947068309659], a = 0.2, v = 0.2, t = 0.2)
movej(p[-0.569320690110078, 0.11877229704016, 0.351833633108547, -1.23992794004137, -0.986709312005944, 1.55054626594459], a = 0.2, v = 0.2, t = 0.2)
movej(p[-0.569240548271944, 0.119118349310973, 0.352001887444734, -1.23879104175849, -0.985165044682803, 1.54739294053629], a = 0.2, v = 0.2, t = 0.2)
movej(p[-0.569446430686905, 0.118769840446179, 0.351895020179541, -1.23850411657946, -0.985863928547339, 1.55163729250783], a = 0.2, v = 0.2, t = 0.2)
movej(p[-0.569313090515475, 0.119015457658531, 0.351763756575753, -1.238897017642, -0.987576210021788, 1.54833536546], a = 0.2, v = 0.2, t = 0.2)
movej(p[-0.569504675522701, 0.118720625174055, 0.351826081539484, -1.23734770918616, -0.98823552325901, 1.55100946683032], a = 0.2, v = 0.2, t = 0.2)
movej(p[-0.569243982342595, 0.118926114743198, 0.351702399718589, -1.24052007601371, -0.986066362337741, 1.54959135759802], a = 0.2, v = 0.2, t = 0.2)
movej(p[-0.569313765398686, 0.118961931987579, 0.35172832287595, -1.23983122682269, -0.985910474486034, 1.54959764745233], a = 0.2, v = 0.2, t = 0.2)
movej(p[-0.569286250797814, 0.119119015259745, 0.351799988644239, -1.23926448120209, -0.985504148307387, 1.54799004989289], a = 0.2, v = 0.2, t = 0.2)
movej(p[-0.569287885932376, 0.118956859328167, 0.351684261766681, -1.2399973019557, -0.985567379583821, 1.54976384336096], a = 0.2, v = 0.2, t = 0.2)
movej(p[-0.569320265341383, 0.118983064466401, 0.351723815206513, -1.23949802278096, -0.986414125435515, 1.54883370882576], a = 0.2, v = 0.2, t = 0.2)
movej(p[-0.569262978663675, 0.118854873788543, 0.351775809501079, -1.23978282662935, -0.986474106936493, 1.54998534086439], a = 0.2, v = 0.2, t = 0.2)
movej(p[-0.569175783450945, 0.119051118565292, 0.351649334987933, -1.24163996101739, -0.985488657285555, 1.54828746572653], a = 0.2, v = 0.2, t = 0.2)
movej(p[-0.56917818888633, 0.119068068676531, 0.351699851793153, -1.24117067795921, -0.986435608693504, 1.54736800542983], a = 0.2, v = 0.2, t = 0.2)
movej(p[-0.56921301963201, 0.118998416912025, 0.351778403119409, -1.23956879005767, -0.98561634443406, 1.54890784417203], a = 0.2, v = 0.2, t = 0.2)
movej(p[-0.569361326395739, 0.118919743125142, 0.351864006852328, -1.23883604105665, -0.985398201607233, 1.55067452945621], a = 0.2, v = 0.2, t = 0.2)
movej(p[-0.569400463419868, 0.118925826402437, 0.351885457658366, -1.23841030984577, -0.98628986975509, 1.54974220334529], a = 0.2, v = 0.2, t = 0.2)
movej(p[-0.569097883151661, 0.119258425315556, 0.351785668859976, -1.24092345278763, -0.985201099207539, 1.54601003180889], a = 0.2, v = 0.2, t = 0.2)
movej(p[-0.569338717452522, 0.118895613165414, 0.351811724247858, -1.2398801620152, -0.986627046426206, 1.54997264576948], a = 0.2, v = 0.2, t = 0.2)
movej(p[-0.569362470212915, 0.118938240800747, 0.351869647568546, -1.23826617178439, -0.98628558062159, 1.54974418347514], a = 0.2, v = 0.2, t = 0.2)
movej(p[-0.569276637324951, 0.118863566401863, 0.351644903048046, -1.24104276190231, -0.987075323772885, 1.5497822798369], a = 0.2, v = 0.2, t = 0.2)
movej(p[-0.569423864120535, 0.119050952033587, 0.351964679963544, -1.23877942296826, -0.983898538991191, 1.54987192707771], a = 0.2, v = 0.2, t = 0.2)
movej(p[-0.569423087884197, 0.119005576699082, 0.351932796794383, -1.23881876660516, -0.984477902171366, 1.55009483892505], a = 0.2, v = 0.2, t = 0.2)
movej(p[-0.569336734690242, 0.118880796402357, 0.35175006427554, -1.23930064181897, -0.987845926125066, 1.5492185672158], a = 0.2, v = 0.2, t = 0.2)
movej(p[-0.569224542023726, 0.119004709290114, 0.351591286122674, -1.24172627386543, -0.98571999651483, 1.54893917708736], a = 0.2, v = 0.2, t = 0.2)
movej(p[-0.569292972931421, 0.11891936475411, 0.351689806075202, -1.24028206683727, -0.985445160532235, 1.54942427092262], a = 0.2, v = 0.2, t = 0.2)
movej(p[-0.569281178287677, 0.119098249239933, 0.351732404163312, -1.24102302984684, -0.984532997667173, 1.54762515337655], a = 0.2, v = 0.2, t = 0.2)
movej(p[-0.56931099589424, 0.118919605431511, 0.351702063925161, -1.2398084295027, -0.986433043102623, 1.54914898207927], a = 0.2, v = 0.2, t = 0.2)
movej(p[-0.569236500991493, 0.119042622328924, 0.351643357175843, -1.23971722342222, -0.98657470848897, 1.54772565787387], a = 0.2, v = 0.2, t = 0.2)
movej(p[-0.569156951054236, 0.119164079672566, 0.351642322208344, -1.2415651492356, -0.984792218306738, 1.54645192243115], a = 0.2, v = 0.2, t = 0.2)
movej(p[-0.569432140534656, 0.11900598563335, 0.351925734054657, -1.2365899805436, -0.986648439396781, 1.54874875125983], a = 0.2, v = 0.2, t = 0.2)
movej(p[-0.569220633108344, 0.119132460428232, 0.351819097968482, -1.23888520417733, -0.985511909637334, 1.54781936370478], a = 0.2, v = 0.2, t = 0.2)
movej(p[-0.569333702436187, 0.118808667302998, 0.351878413052164, -1.23891576027668, -0.985789820371904, 1.55158861967105], a = 0.2, v = 0.2, t = 0.2)
movej(p[-0.569308097339947, 0.118836934592715, 0.351760635170631, -1.24036138410961, -0.986185728645449, 1.5503780862296], a = 0.2, v = 0.2, t = 0.2)
movej(p[-0.569303457675965, 0.118826227597354, 0.351909520776948, -1.23867298778735, -0.986306596298929, 1.55075673225275], a = 0.2, v = 0.2, t = 0.2)
movej(p[-0.569355057774071, 0.119053300120561, 0.351882003889775, -1.23846053504302, -0.985572928763909, 1.54847484114444], a = 0.2, v = 0.2, t = 0.2)
movej(p[-0.569411980061278, 0.118850468665292, 0.351978514997802, -1.23754099840844, -0.986035458222322, 1.5510327360535], a = 0.2, v = 0.2, t = 0.2)
movej(p[-0.56922688613975, 0.119170729920822, 0.351850753703114, -1.23988922248136, -0.985074033091862, 1.54720917396903], a = 0.2, v = 0.2, t = 0.2)
movej(p[-0.569213525532077, 0.119165817328581, 0.351870604662791, -1.23924418825536, -0.985353467274227, 1.54715870188866], a = 0.2, v = 0.2, t = 0.2)
movej(p[-0.569426869981011, 0.118790874227267, 0.351844400333254, -1.23980270950222, -0.985438305776939, 1.55120610854278], a = 0.2, v = 0.2, t = 0.2)
movej(p[-0.569390030301346, 0.11882193099721, 0.351818116401987, -1.2395914471725, -0.986029567768609, 1.55140087878417], a = 0.2, v = 0.2, t = 0.2)
movej(p[-0.569343701245454, 0.118779188762557, 0.351748930854674, -1.23960992722445, -0.987720668906772, 1.55085546554141], a = 0.2, v = 0.2, t = 0.2)
movej(p[-0.569436760802316, 0.118801671090914, 0.351779059309469, -1.23893439798904, -0.986828680644088, 1.55031227435749], a = 0.2, v = 0.2, t = 0.2)
movej(p[-0.569194609662116, 0.118867086049834, 0.351540834586886, -1.24292022260324, -0.986743140106429, 1.54935563527446], a = 0.2, v = 0.2, t = 0.2)
movej(p[-0.569309164207047, 0.118824348604089, 0.351614118534425, -1.24137372235366, -0.987392300157538, 1.5499503939502], a = 0.2, v = 0.2, t = 0.2)
movej(p[-0.569331083499963, 0.118933321405968, 0.351767938504029, -1.23977505315607, -0.985649491871685, 1.54946677248615], a = 0.2, v = 0.2, t = 0.2)
movej(p[-0.569344985701158, 0.118855091159554, 0.351793314030583, -1.24010313738206, -0.98634360888606, 1.55021010729724], a = 0.2, v = 0.2, t = 0.2)
movej(p[-0.569264943002366, 0.118689176933747, 0.351652846361545, -1.24075784311931, -0.988130869857566, 1.55084696911012], a = 0.2, v = 0.2, t = 0.2)
movej(p[-0.569362116813804, 0.118894999646456, 0.351828841592456, -1.23907906666698, -0.986143273202985, 1.5501066791524], a = 0.2, v = 0.2, t = 0.2)
movej(p[-0.569261056683561, 0.119062082120243, 0.351796976297403, -1.23942895228105, -0.987371969434589, 1.54755572964277], a = 0.2, v = 0.2, t = 0.2)
movej(p[-0.569315389533095, 0.11890553094589, 0.351711887101436, -1.24121643401426, -0.985817300606499, 1.5496441310998], a = 0.2, v = 0.2, t = 0.2)
movej(p[-0.56932340282315, 0.11916380918517, 0.351928137507903, -1.23947255154981, -0.983642795464058, 1.54807279695761], a = 0.2, v = 0.2, t = 0.2)
movej(p[-0.569326328015656, 0.119093123506151, 0.351924452669988, -1.23916257455516, -0.984868242219328, 1.54821351682631], a = 0.2, v = 0.2, t = 0.2)
movej(p[-0.569358536678973, 0.11898554515962, 0.351775068897894, -1.23869237079493, -0.987748369932271, 1.54767458453134], a = 0.2, v = 0.2, t = 0.2)
movej(p[-0.569376131684723, 0.119061032111296, 0.352007997011052, -1.23836132341975, -0.985187688956728, 1.54912121608761], a = 0.2, v = 0.2, t = 0.2)
movej(p[-0.569304950361512, 0.119165137762215, 0.351933101532733, -1.23852405017928, -0.985442482615206, 1.54748748615062], a = 0.2, v = 0.2, t = 0.2)
movej(p[-0.569317917857453, 0.119044841477873, 0.351853987324006, -1.23942306298106, -0.9865101314684, 1.5482598379714], a = 0.2, v = 0.2, t = 0.2)
movej(p[-0.569253157446989, 0.118999230233348, 0.351640769023644, -1.24170579022678, -0.98647963596636, 1.54773092474101], a = 0.2, v = 0.2, t = 0.2)
movej(p[-0.569251830788024, 0.118999725365336, 0.351640926568249, -1.24168376152488, -0.986501501358028, 1.54771224069348], a = 0.2, v = 0.2, t = 0.2)
movej(p[-0.56934493324922, 0.118987241547274, 0.351779784718913, -1.23905727473456, -0.986549126671097, 1.54909698433209], a = 0.2, v = 0.2, t = 0.2)
movej(p[-0.569356102628583, 0.119072852817652, 0.351718018584594, -1.24118466324607, -0.985058583855953, 1.54806492149283], a = 0.2, v = 0.2, t = 0.2)
movej(p[-0.569436676566091, 0.118904665469254, 0.351770251873149, -1.23803832209456, -0.987092473557553, 1.55028350655288], a = 0.2, v = 0.2, t = 0.2)
movej(p[-0.569343588343357, 0.118923624433531, 0.351697551732422, -1.23974864945267, -0.985289894760909, 1.54928797924909], a = 0.2, v = 0.2, t = 0.2)
movej(p[-0.56944878855354, 0.118843221369716, 0.351638552129824, -1.23960487809224, -0.986645620262975, 1.55023074723832], a = 0.2, v = 0.2, t = 0.2)
movej(p[-0.569339769674913, 0.118946581890652, 0.351651005916994, -1.24074201597819, -0.985703914738637, 1.54960289709048], a = 0.2, v = 0.2, t = 0.2)
movej(p[-0.569291798849487, 0.119060966808026, 0.351601771878107, -1.24101833807291, -0.984577088866417, 1.54917209764098], a = 0.2, v = 0.2, t = 0.2)
movej(p[-0.569342193477691, 0.118942727433314, 0.351683339774461, -1.23996926136378, -0.985435031550587, 1.55041170420268], a = 0.2, v = 0.2, t = 0.2)
movej(p[-0.569370468559701, 0.118913391136615, 0.351704075044735, -1.2403499922137, -0.98586905173207, 1.5496704278638], a = 0.2, v = 0.2, t = 0.2)
movej(p[-0.569265842772035, 0.119097986247483, 0.351847071476854, -1.23979513988717, -0.984106930509625, 1.54859858708586], a = 0.2, v = 0.2, t = 0.2)
movej(p[-0.569385951886802, 0.118972811707722, 0.351754093064599, -1.23904534655753, -0.985777209942382, 1.54937159845648], a = 0.2, v = 0.2, t = 0.2)
movej(p[-0.569354497831278, 0.119000232053376, 0.351760151697717, -1.23989483667381, -0.986467460298872, 1.54895103059654], a = 0.2, v = 0.2, t = 0.2)
movej(p[-0.569366708908053, 0.119080163402395, 0.351769948077048, -1.23929821248323, -0.986399900481739, 1.54830634823597], a = 0.2, v = 0.2, t = 0.2)
movej(p[-0.569406890323619, 0.11882512868373, 0.351779804857384, -1.2404016614237, -0.984903943191033, 1.55131118509459], a = 0.2, v = 0.2, t = 0.2)
movej(p[-0.569399223702809, 0.119003102688118, 0.351798519468984, -1.23882379320371, -0.986400151647403, 1.5494447700221], a = 0.2, v = 0.2, t = 0.2)
movej(p[-0.569426107591475, 0.11884899149351, 0.351788878606637, -1.23942223331865, -0.984439788627057, 1.55198177079374], a = 0.2, v = 0.2, t = 0.2)
movej(p[-0.569350863221101, 0.118945273741359, 0.351747264745048, -1.24045843059198, -0.985623794218562, 1.54963533032676], a = 0.2, v = 0.2, t = 0.2)
movej(p[-0.569307862282311, 0.119037821660527, 0.3516281174332, -1.24158279751538, -0.98588550353494, 1.54820355659676], a = 0.2, v = 0.2, t = 0.2)
movej(p[-0.569337586385795, 0.118945786417445, 0.351685455742407, -1.23893618056725, -0.987163460101924, 1.54824599393553], a = 0.2, v = 0.2, t = 0.2)
movej(p[-0.569337586385795, 0.118945786417445, 0.351685455742407, -1.23893618056725, -0.987163460101924, 1.54824599393553], a = 0.2, v = 0.2, t = 0.2)
movej(p[-0.56936241384636, 0.118864162674076, 0.351689150565879, -1.23936926390668, -0.987472373991688, 1.54926161466133], a = 0.2, v = 0.2, t = 0.2)
movej(p[-0.569303954629834, 0.118915676637723, 0.351733254551556, -1.23924729965803, -0.986758035773864, 1.54988942416341], a = 0.2, v = 0.2, t = 0.2)
movej(p[-0.569303148867701, 0.118936405276272, 0.351515840673684, -1.2421913695757, -0.986564163058946, 1.54834816898815], a = 0.2, v = 0.2, t = 0.2)
movej(p[-0.569336563248359, 0.119040301625937, 0.351676602011361, -1.24004651521587, -0.986014982236734, 1.54840297476416], a = 0.2, v = 0.2, t = 0.2)
movej(p[-0.569372193658034, 0.119118353940097, 0.351851303042155, -1.23823748959331, -0.985566502168049, 1.54810451846005], a = 0.2, v = 0.2, t = 0.2)
movej(p[-0.569243803985644, 0.11893740606827, 0.351638815725581, -1.24093957642206, -0.986117169994204, 1.54884251871443], a = 0.2, v = 0.2, t = 0.2)
movej(p[-0.569340252264142, 0.119040766764664, 0.351702142465713, -1.24072043789565, -0.983768737124246, 1.54936089041617], a = 0.2, v = 0.2, t = 0.2)
movej(p[-0.569202667921865, 0.11892420214089, 0.351572956021979, -1.24209475314772, -0.986341080980153, 1.54941820619525], a = 0.2, v = 0.2, t = 0.2)
movej(p[-0.569452214768076, 0.118734324508504, 0.351990603141287, -1.2362094327512, -0.988981114952915, 1.55106846447321], a = 0.2, v = 0.2, t = 0.2)
movej(p[-0.569142965476212, 0.119168217047916, 0.351648145071262, -1.24114033954985, -0.986053791018648, 1.54721957879456], a = 0.2, v = 0.2, t = 0.2)
movej(p[-0.569360595518175, 0.118993850460861, 0.351904995004403, -1.23974657327333, -0.983928644817486, 1.5505925725635], a = 0.2, v = 0.2, t = 0.2)
movej(p[-0.569443717163991, 0.118929129934093, 0.351848688917595, -1.23860069254376, -0.98652248577829, 1.55044043463952], a = 0.2, v = 0.2, t = 0.2)
movej(p[-0.569446356331997, 0.118984127010023, 0.351791501712458, -1.23836470538181, -0.987763975076791, 1.54908174138077], a = 0.2, v = 0.2, t = 0.2)
movej(p[-0.569379501652597, 0.119048374381221, 0.351768941190822, -1.23947565888605, -0.986296770429388, 1.54830024661087], a = 0.2, v = 0.2, t = 0.2)
movej(p[-0.569313501319567, 0.118918794901919, 0.351647635937087, -1.24075255539516, -0.987245973944251, 1.54943512549669], a = 0.2, v = 0.2, t = 0.2)
movej(p[-0.56941387600297, 0.118718809339216, 0.351615659107314, -1.23989341751887, -0.987730071607351, 1.55084546146081], a = 0.2, v = 0.2, t = 0.2)
movej(p[-0.56923723120053, 0.119004535693971, 0.351596428559491, -1.24235132123351, -0.984434522750362, 1.54824324683767], a = 0.2, v = 0.2, t = 0.2)
movej(p[-0.569272501778327, 0.118838659195375, 0.351629897105253, -1.24039384577317, -0.986407803779733, 1.5503275666567], a = 0.2, v = 0.2, t = 0.2)
movej(p[-0.569356736626859, 0.118956475805265, 0.351657864706631, -1.24076484671847, -0.98575637605767, 1.54934257894058], a = 0.2, v = 0.2, t = 0.2)
movej(p[-0.569440456102128, 0.118843028530219, 0.35169727302105, -1.23864766055365, -0.987845302452305, 1.54866338204954], a = 0.2, v = 0.2, t = 0.2)
movej(p[-0.569371204598738, 0.118935625497923, 0.351714659534507, -1.23910665215388, -0.986376567754963, 1.54941743628849], a = 0.2, v = 0.2, t = 0.2)
movej(p[-0.569406231695682, 0.118854201794322, 0.351643343176134, -1.2403984562795, -0.986508291147133, 1.55046596992535], a = 0.2, v = 0.2, t = 0.2)
movej(p[-0.569174487318035, 0.119172233599066, 0.351563407235528, -1.24044498075121, -0.988141439023976, 1.54488231887847], a = 0.2, v = 0.2, t = 0.2)
movej(p[-0.569286249990073, 0.118895596509921, 0.351640927013961, -1.24007323492, -0.987474125055924, 1.54937682944238], a = 0.2, v = 0.2, t = 0.2)
movej(p[-0.569432783022717, 0.118919413766053, 0.351828408369446, -1.23857484917659, -0.985721446507411, 1.55045860820981], a = 0.2, v = 0.2, t = 0.2)
movej(p[-0.569225786341297, 0.119126190583037, 0.351657626134308, -1.2405565583149, -0.986741227408398, 1.54716908634655], a = 0.2, v = 0.2, t = 0.2)
movej(p[-0.569252776193931, 0.118983007539247, 0.351644936617938, -1.24087423888306, -0.986338793841426, 1.5488258520067], a = 0.2, v = 0.2, t = 0.2)
movej(p[-0.569340779947633, 0.119093834531811, 0.35170978796375, -1.24061830521072, -0.985213855723764, 1.54832976943614], a = 0.2, v = 0.2, t = 0.2)
movej(p[-0.569422949924811, 0.118931633522469, 0.351843289489656, -1.23937148504635, -0.98565655712519, 1.55039137361529], a = 0.2, v = 0.2, t = 0.2)
movej(p[-0.569435109677354, 0.118806934688587, 0.351650735935426, -1.23997135967944, -0.986021382886782, 1.55139946943992], a = 0.2, v = 0.2, t = 0.2)
movej(p[-0.5692629894657, 0.119115507497088, 0.351524428276933, -1.24120980570619, -0.98734735439493, 1.54731025444105], a = 0.2, v = 0.2, t = 0.2)
movej(p[-0.569367641892522, 0.119011519292744, 0.351691085628758, -1.23924073835165, -0.987663170861445, 1.54747008550774], a = 0.2, v = 0.2, t = 0.2)
movej(p[-0.56925524997062, 0.118843707028858, 0.351559398917277, -1.2412563111969, -0.988301955945628, 1.54933117309128], a = 0.2, v = 0.2, t = 0.2)
movej(p[-0.569269033126369, 0.118887230529268, 0.351530363774266, -1.24177178375432, -0.986687654252806, 1.54861561281874], a = 0.2, v = 0.2, t = 0.2)
movej(p[-0.569327374882946, 0.118909801896235, 0.351516677546413, -1.24074110679889, -0.988264124121202, 1.54877719488315], a = 0.2, v = 0.2, t = 0.2)
movej(p[-0.569305646336897, 0.11906977376817, 0.351689748775901, -1.23934007839743, -0.986187323274074, 1.54775647803902], a = 0.2, v = 0.2, t = 0.2)
movej(p[-0.56924316457319, 0.119099111606255, 0.351572968553001, -1.241443449661, -0.985631297608521, 1.5472135459612], a = 0.2, v = 0.2, t = 0.2)
movej(p[-0.56933602972344, 0.118910011038715, 0.351617782046785, -1.24026351882359, -0.98650225852678, 1.54879853475311], a = 0.2, v = 0.2, t = 0.2)
movej(p[-0.569179494010647, 0.11914209174439, 0.351578681449936, -1.24161240842774, -0.985439186099503, 1.54746503874335], a = 0.2, v = 0.2, t = 0.2)
movej(p[-0.569339699587728, 0.119108876895307, 0.351730472743732, -1.23939552032892, -0.98658821794292, 1.54791526828108], a = 0.2, v = 0.2, t = 0.2)
movej(p[-0.569357132745045, 0.118904808162043, 0.351732750270889, -1.24012436852643, -0.984639704915127, 1.55066374948145], a = 0.2, v = 0.2, t = 0.2)
movej(p[-0.569164164070739, 0.119162782399198, 0.351418268421331, -1.24430260283177, -0.983812219063722, 1.54869199922296], a = 0.2, v = 0.2, t = 0.2)
movej(p[-0.569400197855902, 0.119028898784762, 0.351839903915624, -1.23914530682939, -0.985813999558159, 1.54939904291176], a = 0.2, v = 0.2, t = 0.2)
movej(p[-0.569312987628079, 0.119036173586498, 0.351645227508674, -1.24103559515587, -0.986038936635557, 1.54918587748893], a = 0.2, v = 0.2, t = 0.2)
movej(p[-0.56930929154847, 0.119005152207617, 0.351634984313479, -1.24046767068417, -0.987378396292303, 1.54855802062752], a = 0.2, v = 0.2, t = 0.2)
movej(p[-0.569571914761175, 0.119000616781476, 0.35188143562319, -1.23724013221263, -0.987314412019613, 1.54961364940301], a = 0.2, v = 0.2, t = 0.2)
movej(p[-0.569455236306805, 0.118969368162971, 0.351806089806271, -1.2387994005291, -0.985402202693926, 1.55020585022365], a = 0.2, v = 0.2, t = 0.2)
movej(p[-0.569441109294209, 0.118924066353189, 0.351704903524861, -1.23990321005048, -0.986055566786929, 1.55035957043661], a = 0.2, v = 0.2, t = 0.2)
movej(p[-0.569351065445158, 0.118915662734161, 0.351454075646755, -1.24257125468693, -0.98522548206348, 1.55061239901201], a = 0.2, v = 0.2, t = 0.2)
movej(p[-0.56926360312543, 0.1190457590201, 0.351500300629315, -1.24188463976286, -0.987183642273492, 1.5482509667629], a = 0.2, v = 0.2, t = 0.2)
movej(p[-0.569472889730136, 0.118789763835853, 0.351716895510909, -1.23860643608852, -0.98859753821049, 1.55061129541617], a = 0.2, v = 0.2, t = 0.2)
movej(p[-0.569301654446544, 0.11907493597377, 0.351627468952163, -1.24009765410624, -0.986448587781139, 1.54846382574965], a = 0.2, v = 0.2, t = 0.2)
movej(p[-0.569281619120362, 0.118922556946619, 0.351484447143374, -1.2414175960048, -0.986660011820437, 1.54940661685163], a = 0.2, v = 0.2, t = 0.2)
movej(p[-0.569387760429699, 0.118987283954579, 0.351753862319066, -1.2388025586703, -0.987011213264984, 1.54951477790789], a = 0.2, v = 0.2, t = 0.2)
movej(p[-0.569390661620622, 0.119068910068775, 0.351769941515949, -1.2390862776782, -0.985793522180891, 1.54859927329432], a = 0.2, v = 0.2, t = 0.2)
movej(p[-0.569436224121018, 0.118867024406031, 0.35168492400166, -1.23983665870281, -0.986485237501, 1.55067744403824], a = 0.2, v = 0.2, t = 0.2)
movej(p[-0.569316727226722, 0.119065685738637, 0.351853033808574, -1.23880064756794, -0.984481683434946, 1.55032958371477], a = 0.2, v = 0.2, t = 0.2)
movej(p[-0.569319932431738, 0.118830025141589, 0.351586412898554, -1.24202536368017, -0.986789338254333, 1.55096877059443], a = 0.2, v = 0.2, t = 0.2)
movej(p[-0.569224547698057, 0.119140601679547, 0.351442457535158, -1.24346516222966, -0.985421926700704, 1.54763618684456], a = 0.2, v = 0.2, t = 0.2)
movej(p[-0.569235956460206, 0.119271717463804, 0.351680395975232, -1.23986844474927, -0.985527347652075, 1.54701067504755], a = 0.2, v = 0.2, t = 0.2)
movej(p[-0.569258001403299, 0.119310974291255, 0.351611201669235, -1.24219041904286, -0.982675235777732, 1.54852480796759], a = 0.2, v = 0.2, t = 0.2)
movej(p[-0.569391994326809, 0.119041299283714, 0.35179208781231, -1.23942372719641, -0.985100902813195, 1.55013224489869], a = 0.2, v = 0.2, t = 0.2)
movej(p[-0.569306921727251, 0.119117675611505, 0.351524172005838, -1.2417193381826, -0.985948843629564, 1.54798486988796], a = 0.2, v = 0.2, t = 0.2)
movej(p[-0.569440352676841, 0.119215967550801, 0.351794126550828, -1.23843375302523, -0.985407328145626, 1.54804169300636], a = 0.2, v = 0.2, t = 0.2)
movej(p[-0.569276374745323, 0.119050458833235, 0.351673499553913, -1.24157880295921, -0.984182857793434, 1.54947732309496], a = 0.2, v = 0.2, t = 0.2)
movej(p[-0.569295557297944, 0.119087782125034, 0.351591610045646, -1.24057582721597, -0.987975492582794, 1.54783100485793], a = 0.2, v = 0.2, t = 0.2)
movej(p[-0.569228394225956, 0.119095271204427, 0.351543619989895, -1.24201448169433, -0.98711895522799, 1.54762263550049], a = 0.2, v = 0.2, t = 0.2)
movej(p[-0.569344260784853, 0.119178563894527, 0.351718583352646, -1.24035627145028, -0.985632256864017, 1.54722755166183], a = 0.2, v = 0.2, t = 0.2)
movej(p[-0.569369107390048, 0.118929164203118, 0.351618222801956, -1.24013328228147, -0.985939268627422, 1.54979329863001], a = 0.2, v = 0.2, t = 0.2)
movej(p[-0.569161313404089, 0.119192386897133, 0.35144105564147, -1.24227676500466, -0.986273788737024, 1.54656984508114], a = 0.2, v = 0.2, t = 0.2)
movej(p[-0.569370604911006, 0.118938836968298, 0.351686631390925, -1.2399988873822, -0.986107417793951, 1.54998254091252], a = 0.2, v = 0.2, t = 0.2)
movej(p[-0.569419181790553, 0.118974396878909, 0.35176596196215, -1.23873572596597, -0.986588400612136, 1.54860138308403], a = 0.2, v = 0.2, t = 0.2)
movej(p[-0.569358771939986, 0.118890501928349, 0.351662028246614, -1.23985703990539, -0.986989754449262, 1.54974503037728], a = 0.2, v = 0.2, t = 0.2)
movej(p[-0.569241135245142, 0.119404764938149, 0.351482004040524, -1.24373361109876, -0.980691462120082, 1.54794595090316], a = 0.2, v = 0.2, t = 0.2)
movej(p[-0.569332625723671, 0.119142795487683, 0.351889673464643, -1.23890440998419, -0.986004504544137, 1.5478141451314], a = 0.2, v = 0.2, t = 0.2)
movej(p[-0.569327704631908, 0.119148900636465, 0.351647827894052, -1.23974726632796, -0.987992036912438, 1.54715264582186], a = 0.2, v = 0.2, t = 0.2)
movej(p[-0.569342617472588, 0.118826350823438, 0.351668196627423, -1.24082181998666, -0.985420210302288, 1.55197378239307], a = 0.2, v = 0.2, t = 0.2)
movej(p[-0.569397630763579, 0.119091785518575, 0.351819446918108, -1.23857293565005, -0.987987161447152, 1.54769080481633], a = 0.2, v = 0.2, t = 0.2)
movej(p[-0.569377079576602, 0.119246993742081, 0.351887027951467, -1.2381219819756, -0.986362325767449, 1.54700373971822], a = 0.2, v = 0.2, t = 0.2)
movej(p[-0.569488743640627, 0.119097450052565, 0.351884323930144, -1.23844685236416, -0.98627903255794, 1.54883035958293], a = 0.2, v = 0.2, t = 0.2)
movej(p[-0.56939168723053, 0.119177178624203, 0.351747683752584, -1.24005237967938, -0.98467944014523, 1.54770695655908], a = 0.2, v = 0.2, t = 0.2)
movej(p[-0.569376233435903, 0.119080957661904, 0.351609946006683, -1.24090723113197, -0.987232177421664, 1.54837822316649], a = 0.2, v = 0.2, t = 0.2)
movej(p[-0.569428787417573, 0.119082730719053, 0.351745230319443, -1.2399858890537, -0.985807365517922, 1.54846354226014], a = 0.2, v = 0.2, t = 0.2)
movej(p[-0.569368989260854, 0.119021006153344, 0.351647543992655, -1.2406493197817, -0.986185014385687, 1.54882992970959], a = 0.2, v = 0.2, t = 0.2)
movej(p[-0.569331470007885, 0.119092904322883, 0.351685347019962, -1.24074013754419, -0.984784622860468, 1.5481069939556], a = 0.2, v = 0.2, t = 0.2)
movej(p[-0.569441439552568, 0.118979060213596, 0.351795791567237, -1.23945938000151, -0.985627712997719, 1.54944839533717], a = 0.2, v = 0.2, t = 0.2)
movej(p[-0.569286236307903, 0.119147750190283, 0.351584958707818, -1.24168509249551, -0.985435110652443, 1.54782767660905], a = 0.2, v = 0.2, t = 0.2)
movej(p[-0.569298220886462, 0.119107723801394, 0.351513853728602, -1.24158027227802, -0.986638749164296, 1.54707675364506], a = 0.2, v = 0.2, t = 0.2)
movej(p[-0.56938880303979, 0.119062680050263, 0.351626737491751, -1.23958300089672, -0.986520552568109, 1.54841504369022], a = 0.2, v = 0.2, t = 0.2)
movej(p[-0.5694231520894, 0.118896577420348, 0.351663502952803, -1.23977762363804, -0.985800596661004, 1.55025336975551], a = 0.2, v = 0.2, t = 0.2)
movej(p[-0.56925278588383, 0.119083550144861, 0.351494445872833, -1.24237937012675, -0.984985068532781, 1.54837331694118], a = 0.2, v = 0.2, t = 0.2)
movej(p[-0.569383250957061, 0.118893910386092, 0.351551124233437, -1.24061846803503, -0.986178014728997, 1.55034644103712], a = 0.2, v = 0.2, t = 0.2)
movej(p[-0.569360663929877, 0.118983454104082, 0.351556321229814, -1.24077834996319, -0.98647853590824, 1.54907738178048], a = 0.2, v = 0.2, t = 0.2)
movej(p[-0.569353921696343, 0.119140180421558, 0.351745570123331, -1.23898868078878, -0.986147371871283, 1.54780184604859], a = 0.2, v = 0.2, t = 0.2)
movej(p[-0.569200020571307, 0.119126581613831, 0.351601159576136, -1.24132572435632, -0.986172379054011, 1.54723845457655], a = 0.2, v = 0.2, t = 0.2)
movej(p[-0.569257134784946, 0.119077245145668, 0.351566116466832, -1.24078534559534, -0.986514869988995, 1.54813009237955], a = 0.2, v = 0.2, t = 0.2)
movej(p[-0.56936859290031, 0.11900123728164, 0.351765176490758, -1.23902913341652, -0.985989388255796, 1.54926355284589], a = 0.2, v = 0.2, t = 0.2)
movej(p[-0.569403486941245, 0.118947205932659, 0.35165844571153, -1.24014092247819, -0.985910549787679, 1.5507046824577], a = 0.2, v = 0.2, t = 0.2)
movej(p[-0.569271222437833, 0.119119436307274, 0.351547260329412, -1.2414652641733, -0.986288467880441, 1.54799627148496], a = 0.2, v = 0.2, t = 0.2)
movej(p[-0.56935902561384, 0.119181163892822, 0.351631563873023, -1.24066066870758, -0.984955987682756, 1.54797552753618], a = 0.2, v = 0.2, t = 0.2)
movej(p[-0.569424693598794, 0.119002666533258, 0.351731654723658, -1.24097755348151, -0.984782495120421, 1.55004892734956], a = 0.2, v = 0.2, t = 0.2)
movej(p[-0.569429603181349, 0.118945084923291, 0.351661984542141, -1.23983888897522, -0.987744706115373, 1.54888550349383], a = 0.2, v = 0.2, t = 0.2)
movej(p[-0.569346505508178, 0.119147598114605, 0.351577671707666, -1.24101622534568, -0.985652268592666, 1.54761715093631], a = 0.2, v = 0.2, t = 0.2)
movej(p[-0.569315427523278, 0.11917794594645, 0.351520316080594, -1.24143617433371, -0.986509800586998, 1.54647983325414], a = 0.2, v = 0.2, t = 0.2)
movej(p[-0.56945703585303, 0.118925219852814, 0.351734406137673, -1.23863366315005, -0.987481235899525, 1.54921813233629], a = 0.2, v = 0.2, t = 0.2)
movej(p[-0.569357250001664, 0.11892627455361, 0.351519393948545, -1.24138084373716, -0.986634352287203, 1.54956237535441], a = 0.2, v = 0.2, t = 0.2)
movej(p[-0.569323917554719, 0.119010748052589, 0.351485712559754, -1.24065695290185, -0.988152118453591, 1.5477173046355], a = 0.2, v = 0.2, t = 0.2)
movej(p[-0.569387506895891, 0.118970979099335, 0.351485790318633, -1.24160419521518, -0.986644604573791, 1.54960389875208], a = 0.2, v = 0.2, t = 0.2)
movej(p[-0.569369330970637, 0.118948645817198, 0.351444815689286, -1.24108331423297, -0.98935407686373, 1.54845970764104], a = 0.2, v = 0.2, t = 0.2)
movej(p[-0.569407182346829, 0.119009298349889, 0.351522538810675, -1.24151465232872, -0.985642917738122, 1.54892942413713], a = 0.2, v = 0.2, t = 0.2)
movej(p[-0.569277990324876, 0.119085584615118, 0.351450270233818, -1.24249952455709, -0.98462763524679, 1.54836878629896], a = 0.2, v = 0.2, t = 0.2)
movej(p[-0.569389422436343, 0.118871465115462, 0.351601083543578, -1.23952033866658, -0.987981910335176, 1.54915354794624], a = 0.2, v = 0.2, t = 0.2)
movej(p[-0.569348024634152, 0.118952675029689, 0.351544398697235, -1.24169710630044, -0.984680370787337, 1.54982319874098], a = 0.2, v = 0.2, t = 0.2)
movej(p[-0.569245314188314, 0.119250807525447, 0.351425786769973, -1.24374221316609, -0.983657923477934, 1.54753711516341], a = 0.2, v = 0.2, t = 0.2)
movej(p[-0.569484748049838, 0.1188694428172, 0.351665800988842, -1.23838791794819, -0.98899207982846, 1.54933462319271], a = 0.2, v = 0.2, t = 0.2)
movej(p[-0.569336576256784, 0.119033397225964, 0.351642934384598, -1.24046739202194, -0.98541540459123, 1.54918732729771], a = 0.2, v = 0.2, t = 0.2)
movej(p[-0.569551439756286, 0.118945825577787, 0.351787211697497, -1.23916789070698, -0.984636412465287, 1.55093700206957], a = 0.2, v = 0.2, t = 0.2)
movej(p[-0.569415852722992, 0.119093028084428, 0.351598805226161, -1.24132373379768, -0.985665594140325, 1.54832527721285], a = 0.2, v = 0.2, t = 0.2)
movej(p[-0.569355885287524, 0.119124329603803, 0.351672087840527, -1.23966495115721, -0.986986286955396, 1.54767556246124], a = 0.2, v = 0.2, t = 0.2)
movej(p[-0.569495490290705, 0.119046093771958, 0.351760858205528, -1.23909324933197, -0.985361960930864, 1.54957463405134], a = 0.2, v = 0.2, t = 0.2)
movej(p[-0.569317530599647, 0.119244070026773, 0.351606894213348, -1.24073317262503, -0.985228677612149, 1.54677753163175], a = 0.2, v = 0.2, t = 0.2)
movej(p[-0.56939987423426, 0.119228727447567, 0.351769759344982, -1.23952901646318, -0.985496057015427, 1.54757288998047], a = 0.2, v = 0.2, t = 0.2)
movej(p[-0.569310262514834, 0.119202715485812, 0.351316714085005, -1.24498083437224, -0.984119822835028, 1.54999098648758], a = 0.2, v = 0.2, t = 0.2)
movej(p[-0.569414244554757, 0.118957319752933, 0.351506006397733, -1.24119868526208, -0.986107151175087, 1.54972987218534], a = 0.2, v = 0.2, t = 0.2)
movej(p[-0.569491101490754, 0.118953673769439, 0.3515138656721, -1.2401190567931, -0.987605842131172, 1.54978538837734], a = 0.2, v = 0.2, t = 0.2)
movej(p[-0.569355422600469, 0.118968524101084, 0.35144021992286, -1.24191918474365, -0.985634057650259, 1.54941058978677], a = 0.2, v = 0.2, t = 0.2)
movej(p[-0.569248190485974, 0.11896863355408, 0.351016247044434, -1.24695193591222, -0.983642004772416, 1.55007859019643], a = 0.2, v = 0.2, t = 0.2)
movej(p[-0.569467771698751, 0.118828118123586, 0.351507429011518, -1.23922171679174, -0.988587698157266, 1.54951413814327], a = 0.2, v = 0.2, t = 0.2)
movej(p[-0.569235399613606, 0.118851136266137, 0.350956819686171, -1.24766430735745, -0.985337469405522, 1.55115417109749], a = 0.2, v = 0.2, t = 0.2)
movej(p[-0.569443244238431, 0.118952439259796, 0.351626855845947, -1.23906884974935, -0.987122009373184, 1.54882633423015], a = 0.2, v = 0.2, t = 0.2)
movej(p[-0.569377325976855, 0.118884281086404, 0.351428031133723, -1.24201302653593, -0.987360756156323, 1.5500587000067], a = 0.2, v = 0.2, t = 0.2)
movej(p[-0.569417405076506, 0.118957189220407, 0.351629765413823, -1.23980011857302, -0.986337698297619, 1.54941756247652], a = 0.2, v = 0.2, t = 0.2)
movej(p[-0.569282708856137, 0.119100447434928, 0.351608072046387, -1.24098565252795, -0.986854190887537, 1.54616664091615], a = 0.2, v = 0.2, t = 0.2)
movej(p[-0.569371764175348, 0.118977480089156, 0.351536289862009, -1.24043204013004, -0.987981316213228, 1.54860882694763], a = 0.2, v = 0.2, t = 0.2)
movej(p[-0.56933564428902, 0.118954058586922, 0.351544020776885, -1.24115372411598, -0.986060965414441, 1.54955931786533], a = 0.2, v = 0.2, t = 0.2)
movej(p[-0.569488520447979, 0.118948037828725, 0.351678494419257, -1.23918876684286, -0.986109940199864, 1.54985253656925], a = 0.2, v = 0.2, t = 0.2)
movej(p[-0.569320299806029, 0.119093051195236, 0.351490343391742, -1.24158311825994, -0.986345078920109, 1.54793415235277], a = 0.2, v = 0.2, t = 0.2)
movej(p[-0.569331711962799, 0.119133059193112, 0.351624278797008, -1.24070287437688, -0.986542926966005, 1.54732903752324], a = 0.2, v = 0.2, t = 0.2)
movej(p[-0.56918467461412, 0.119338014618013, 0.351426884516702, -1.24275881211335, -0.985543243429705, 1.54594068928959], a = 0.2, v = 0.2, t = 0.2)
movej(p[-0.569420143017373, 0.118903053589666, 0.35160955904938, -1.24150633213913, -0.98541803154549, 1.55026141671632], a = 0.2, v = 0.2, t = 0.2)
movej(p[-0.569381474790417, 0.118978828914068, 0.35155866338713, -1.2414766994634, -0.985628978742135, 1.55044735155545], a = 0.2, v = 0.2, t = 0.2)
movej(p[-0.569464211908311, 0.118886421024574, 0.351596037191887, -1.24061829899079, -0.986791500353358, 1.55030578421066], a = 0.2, v = 0.2, t = 0.2)
movej(p[-0.569441352412016, 0.119115938869124, 0.351587224561056, -1.24131176558246, -0.985651575504037, 1.54783277072127], a = 0.2, v = 0.2, t = 0.2)
movej(p[-0.569517133269511, 0.118941383115289, 0.351637708622304, -1.23911128231967, -0.986921270459726, 1.54946333132469], a = 0.2, v = 0.2, t = 0.2)
movej(p[-0.569467962584616, 0.118863654108793, 0.351555277285446, -1.24050176654207, -0.986589940599531, 1.55056912076519], a = 0.2, v = 0.2, t = 0.2)
movej(p[-0.569466016426117, 0.118759042572169, 0.351410903122688, -1.2408008971964, -0.988868493937803, 1.55023295325557], a = 0.2, v = 0.2, t = 0.2)
movej(p[-0.569324686113101, 0.119143317915334, 0.351384535087905, -1.24350598787916, -0.985002972366489, 1.54812154859972], a = 0.2, v = 0.2, t = 0.2)
movej(p[-0.569489162968549, 0.118865902789527, 0.351493023714014, -1.24013129394649, -0.987468719864511, 1.5500938279894], a = 0.2, v = 0.2, t = 0.2)
movej(p[-0.569399587170074, 0.119047235318477, 0.351506924083511, -1.24003164759542, -0.987045683773468, 1.54802797994401], a = 0.2, v = 0.2, t = 0.2)
movej(p[-0.569295715209755, 0.119215847002286, 0.351533026496092, -1.24173749552044, -0.98459944766795, 1.54667685797368], a = 0.2, v = 0.2, t = 0.2)
movej(p[-0.569443717908535, 0.119114494653997, 0.351692739340442, -1.24020622069078, -0.984032055691344, 1.54883844094724], a = 0.2, v = 0.2, t = 0.2)
movej(p[-0.569299766278277, 0.119075181030385, 0.35150790731631, -1.24174850865177, -0.986027409837811, 1.54877056651799], a = 0.2, v = 0.2, t = 0.2)
movej(p[-0.569296427025099, 0.119143413935464, 0.351370458343769, -1.24383731950344, -0.984292452993614, 1.54875027028058], a = 0.2, v = 0.2, t = 0.2)
movej(p[-0.569339500497792, 0.118985407464006, 0.351532938468485, -1.24180659243401, -0.986136183477856, 1.54899067480998], a = 0.2, v = 0.2, t = 0.2)
movej(p[-0.569433665309221, 0.11904331584572, 0.351590904903735, -1.24153501830387, -0.984844706219452, 1.54929509597028], a = 0.2, v = 0.2, t = 0.2)
movej(p[-0.569452427493887, 0.118995575255713, 0.351652785243847, -1.23939431227964, -0.987403574584493, 1.54886898758334], a = 0.2, v = 0.2, t = 0.2)
movej(p[-0.569371940477701, 0.119129501407405, 0.351688140669433, -1.24077316907779, -0.985587732238482, 1.5482583835845], a = 0.2, v = 0.2, t = 0.2)
movej(p[-0.569333559120659, 0.119228426600018, 0.351425104060387, -1.24433722052163, -0.981972890040968, 1.55000772345087], a = 0.2, v = 0.2, t = 0.2)
movej(p[-0.569493056622084, 0.119127200247811, 0.351782013744563, -1.23891353855703, -0.985982569199067, 1.54887959387766], a = 0.2, v = 0.2, t = 0.2)
movej(p[-0.569609601853276, 0.118969795756111, 0.351774344645585, -1.23854199616035, -0.985654019251692, 1.55057495270172], a = 0.2, v = 0.2, t = 0.2)
movej(p[-0.569492890863206, 0.118957567838008, 0.351617365306767, -1.24053826292565, -0.986525275019399, 1.54952950894374], a = 0.2, v = 0.2, t = 0.2)
movej(p[-0.56946752271752, 0.118890300849833, 0.351542981037689, -1.24174896863416, -0.986898629656915, 1.54989832602757], a = 0.2, v = 0.2, t = 0.2)
movej(p[-0.569169975429716, 0.119430606140339, 0.351187804103512, -1.24547818718199, -0.984054399652229, 1.54554502022157], a = 0.2, v = 0.2, t = 0.2)
movej(p[-0.569509312852205, 0.119096147780911, 0.351547994580216, -1.23985906221974, -0.986371743603649, 1.54856282684133], a = 0.2, v = 0.2, t = 0.2)
movej(p[-0.569463093081576, 0.118958753082241, 0.351581449468951, -1.24066828291552, -0.986834473997119, 1.54958870597104], a = 0.2, v = 0.2, t = 0.2)
movej(p[-0.56937213234972, 0.119127642631193, 0.351382290071696, -1.24396031792491, -0.983712508068356, 1.54941711185546], a = 0.2, v = 0.2, t = 0.2)
movej(p[-0.569279267771441, 0.119426534861402, 0.35138342797406, -1.24408257682952, -0.982330673401169, 1.5473326345256], a = 0.2, v = 0.2, t = 0.2)
movej(p[-0.569318505092814, 0.119220452634808, 0.351083528443394, -1.24667685150624, -0.982875101506067, 1.54972528809537], a = 0.2, v = 0.2, t = 0.2)
movej(p[-0.569379534143121, 0.119039938818403, 0.351580929807591, -1.24115406865751, -0.985297974205094, 1.54907058382025], a = 0.2, v = 0.2, t = 0.2)
movej(p[-0.569307871523524, 0.119498602891026, 0.35150259573175, -1.24322463103837, -0.982449653052134, 1.54519800175072], a = 0.2, v = 0.2, t = 0.2)
movej(p[-0.569269494365047, 0.119496442993821, 0.351375939746691, -1.2443457825338, -0.98203515575431, 1.54759623875494], a = 0.2, v = 0.2, t = 0.2)
movej(p[-0.569293585366817, 0.119186178700713, 0.35142356003707, -1.24349689386755, -0.985348043906365, 1.54773703552208], a = 0.2, v = 0.2, t = 0.2)
movej(p[-0.569387716368659, 0.119097271299185, 0.351692948099993, -1.24093224802615, -0.985436960253829, 1.54842457477628], a = 0.2, v = 0.2, t = 0.2)
movej(p[-0.569336218022319, 0.119114955710347, 0.351579603307762, -1.2409274121368, -0.986431034913885, 1.54797837517908], a = 0.2, v = 0.2, t = 0.2)
movej(p[-0.569349098751119, 0.11960071584366, 0.35147254127103, -1.24445187361867, -0.980263674272257, 1.54761699330693], a = 0.2, v = 0.2, t = 0.2)
movej(p[-0.569373289543837, 0.119071385358636, 0.351572775662191, -1.24107646134664, -0.987114039797587, 1.54855886976395], a = 0.2, v = 0.2, t = 0.2)
movej(p[-0.569363029718925, 0.119097390358909, 0.351428961177685, -1.24404193503351, -0.982756247573698, 1.55066502704727], a = 0.2, v = 0.2, t = 0.2)
movej(p[-0.569263854210416, 0.119388675314024, 0.351363541123912, -1.24471969435468, -0.983691213439923, 1.54704592286826], a = 0.2, v = 0.2, t = 0.2)
movej(p[-0.569389989186802, 0.119075716512836, 0.351527329726969, -1.24088565414659, -0.98665558056088, 1.54907401710872], a = 0.2, v = 0.2, t = 0.2)
movej(p[-0.569406460716025, 0.119068158461963, 0.351509203652048, -1.24197966264833, -0.985306745437825, 1.54877846027038], a = 0.2, v = 0.2, t = 0.2)
movej(p[-0.569162042953012, 0.119746567084483, 0.351212457046317, -1.24626077492376, -0.982041548448949, 1.54444766914309], a = 0.2, v = 0.2, t = 0.2)
movej(p[-0.569302873483326, 0.119172771169958, 0.351175888341047, -1.24550618014523, -0.984609484115181, 1.54897862449731], a = 0.2, v = 0.2, t = 0.2)
movej(p[-0.569307547585976, 0.119322590731118, 0.351177097414352, -1.24556745144741, -0.983713045941288, 1.54779879792105], a = 0.2, v = 0.2, t = 0.2)
movej(p[-0.569385155707172, 0.119170980299485, 0.351557793942501, -1.2409821801062, -0.986331799772093, 1.54741344710494], a = 0.2, v = 0.2, t = 0.2)
movej(p[-0.569376486204479, 0.119540723711986, 0.351234055377243, -1.24449994648576, -0.983613011240049, 1.54710474276553], a = 0.2, v = 0.2, t = 0.2)
movej(p[-0.569218700572688, 0.119522596844554, 0.351313889712447, -1.24441507411953, -0.983146375870574, 1.54578867318786], a = 0.2, v = 0.2, t = 0.2)
movej(p[-0.569397472914368, 0.11918277660721, 0.351485052664461, -1.2432830800675, -0.983214742237054, 1.54965264714013], a = 0.2, v = 0.2, t = 0.2)
movej(p[-0.569259859877837, 0.119346657202494, 0.35143955384397, -1.24211820466506, -0.985806025545883, 1.54571227562672], a = 0.2, v = 0.2, t = 0.2)
movej(p[-0.569388843936063, 0.119070939061421, 0.351612741168584, -1.24046554560821, -0.985627070316025, 1.5491370578223], a = 0.2, v = 0.2, t = 0.2)
movej(p[-0.569382751466488, 0.119088699700806, 0.351552145694305, -1.24147652157997, -0.986061534415165, 1.54875802539544], a = 0.2, v = 0.2, t = 0.2)
movej(p[-0.569334854746794, 0.119149381867953, 0.351353546100063, -1.24393415138285, -0.983999253130196, 1.54979259090859], a = 0.2, v = 0.2, t = 0.2)
movej(p[-0.569480117726116, 0.118961392837612, 0.351581505770421, -1.24079493013653, -0.986189636157915, 1.55001038722791], a = 0.2, v = 0.2, t = 0.2)
movej(p[-0.569387434656667, 0.119003997925403, 0.351461070247706, -1.24157985650965, -0.987404704311469, 1.54900573002982], a = 0.2, v = 0.2, t = 0.2)
movej(p[-0.569263366835925, 0.119668280235176, 0.351308458817013, -1.24492019553006, -0.983267439047895, 1.54519936357478], a = 0.2, v = 0.2, t = 0.2)
movej(p[-0.569460093686365, 0.11914741501957, 0.351622696614688, -1.23950724273568, -0.986342834731599, 1.54829268119711], a = 0.2, v = 0.2, t = 0.2)
movej(p[-0.569429156188085, 0.119065590664504, 0.351572363860757, -1.24063696945193, -0.986329754459344, 1.54890554384535], a = 0.2, v = 0.2, t = 0.2)
movej(p[-0.569272327498039, 0.11947871509723, 0.351331611030943, -1.24434424698857, -0.983652923850694, 1.54617193527509], a = 0.2, v = 0.2, t = 0.2)
movej(p[-0.569441476759399, 0.119169578208127, 0.351414552282305, -1.24405290862483, -0.982863047324804, 1.55083671427022], a = 0.2, v = 0.2, t = 0.2)
movej(p[-0.569450356036348, 0.118993268124292, 0.351560711109541, -1.23987210240799, -0.987072285127921, 1.54943563714693], a = 0.2, v = 0.2, t = 0.2)
movej(p[-0.569224957850831, 0.119241757215828, 0.351112828927093, -1.24626604882233, -0.985041028632387, 1.54768958548565], a = 0.2, v = 0.2, t = 0.2)
movej(p[-0.569327427534978, 0.119485201756293, 0.35115005740475, -1.24590287189432, -0.982894032336986, 1.54690461504194], a = 0.2, v = 0.2, t = 0.2)
movej(p[-0.569474275024383, 0.119080143461283, 0.351531370730637, -1.23943278691094, -0.987560897959222, 1.54889984950789], a = 0.2, v = 0.2, t = 0.2)
movej(p[-0.569161558003767, 0.119573564922258, 0.3512223941832, -1.24565190775149, -0.984027486709524, 1.54539425055345], a = 0.2, v = 0.2, t = 0.2)
movej(p[-0.569347636788173, 0.11911245242676, 0.351469972539464, -1.24153374533771, -0.985867161810774, 1.54806315405194], a = 0.2, v = 0.2, t = 0.2)
movej(p[-0.569402288291127, 0.119268612946, 0.351548514346521, -1.24072913579555, -0.986093859030341, 1.54596977782278], a = 0.2, v = 0.2, t = 0.2)
movej(p[-0.569363978748412, 0.119409140078056, 0.351354009580273, -1.24460788998295, -0.982466776857085, 1.54819547198221], a = 0.2, v = 0.2, t = 0.2)
movej(p[-0.569149707041455, 0.119668435653663, 0.351180528457184, -1.24683576971558, -0.981761963872155, 1.5455263266104], a = 0.2, v = 0.2, t = 0.2)
movej(p[-0.569393127693815, 0.119255544862204, 0.351382132500627, -1.24506947838406, -0.982628175852397, 1.54929940163494], a = 0.2, v = 0.2, t = 0.2)
movej(p[-0.569142605490921, 0.119882143396855, 0.351275645166966, -1.24594943060706, -0.981501136014769, 1.54299060253688], a = 0.2, v = 0.2, t = 0.2)
movej(p[-0.569284447762664, 0.119377905844973, 0.351237627128891, -1.24524209429365, -0.983627356836263, 1.54761536891747], a = 0.2, v = 0.2, t = 0.2)
movej(p[-0.569465742471257, 0.119086890437244, 0.351146715022435, -1.24502147323017, -0.984283404148946, 1.55250650569428], a = 0.2, v = 0.2, t = 0.2)
movej(p[-0.569522794419202, 0.119001612927129, 0.351501104189178, -1.24105102788103, -0.986379306681768, 1.54994917538235], a = 0.2, v = 0.2, t = 0.2)
movej(p[-0.569390265727643, 0.119508152549076, 0.351372922414685, -1.24459346541285, -0.981866923676061, 1.5476475964035], a = 0.2, v = 0.2, t = 0.2)
movej(p[-0.569315139799675, 0.119330748585491, 0.351020272391785, -1.24695001345421, -0.983413359195153, 1.5488103806981], a = 0.2, v = 0.2, t = 0.2)
movej(p[-0.569235718657514, 0.11917085688924, 0.350959735397742, -1.24697405763961, -0.985443472812563, 1.54858956501081], a = 0.2, v = 0.2, t = 0.2)
movej(p[-0.569208473440622, 0.119489321032645, 0.351285884960859, -1.24433731405495, -0.985348618005361, 1.54527089289327], a = 0.2, v = 0.2, t = 0.2)
movej(p[-0.569294108954935, 0.119501884232801, 0.35127597462836, -1.24355243262351, -0.984033443264952, 1.54615279582985], a = 0.2, v = 0.2, t = 0.2)
movej(p[-0.569199175112292, 0.119394441280457, 0.351063867137892, -1.24731183455867, -0.984312922569003, 1.54694015181131], a = 0.2, v = 0.2, t = 0.2)
movej(p[-0.569214422253282, 0.119421097358419, 0.35111426225868, -1.24539121023916, -0.985643937779055, 1.54605444742605], a = 0.2, v = 0.2, t = 0.2)
movej(p[-0.569324234777314, 0.119468643545526, 0.351227767455289, -1.24554637946979, -0.982276301162463, 1.54742912247707], a = 0.2, v = 0.2, t = 0.2)
movej(p[-0.569256798831341, 0.119170800943668, 0.351187886034694, -1.2456137570186, -0.985540306042036, 1.54781601344155], a = 0.2, v = 0.2, t = 0.2)
movej(p[-0.569266927234687, 0.119550855897802, 0.351425276403672, -1.243536037034, -0.982504910338193, 1.5461477231451], a = 0.2, v = 0.2, t = 0.2)
movej(p[-0.569240627752159, 0.119643602814746, 0.351172888138065, -1.24613893754554, -0.984090682870049, 1.54522835019537], a = 0.2, v = 0.2, t = 0.2)
movej(p[-0.569521930404015, 0.119082432176302, 0.351668533285935, -1.24014738419381, -0.98513347948984, 1.54901217638711], a = 0.2, v = 0.2, t = 0.2)
movej(p[-0.569311078682836, 0.119564214011255, 0.351329810648391, -1.24424955059893, -0.982907520270253, 1.54782131632679], a = 0.2, v = 0.2, t = 0.2)
movej(p[-0.569168930806435, 0.119679157935946, 0.351140885304905, -1.24597379976116, -0.984174294994028, 1.54484679759122], a = 0.2, v = 0.2, t = 0.2)
movej(p[-0.569240177260534, 0.119541847538687, 0.351184406421423, -1.24681225629456, -0.983501967529679, 1.54574094355174], a = 0.2, v = 0.2, t = 0.2)
movej(p[-0.569515860791582, 0.119128649619028, 0.351535326312421, -1.24095151752888, -0.985070485130677, 1.54917562623926], a = 0.2, v = 0.2, t = 0.2)
movej(p[-0.569440374411702, 0.119163279500933, 0.351447661965439, -1.24170379633366, -0.986129280416436, 1.54899813387959], a = 0.2, v = 0.2, t = 0.2)
movej(p[-0.569197070562571, 0.119563531086478, 0.351119700267574, -1.24677189596861, -0.983734291038953, 1.54471528266194], a = 0.2, v = 0.2, t = 0.2)
movej(p[-0.569440379881412, 0.119022639403686, 0.3514462824668, -1.24105654889206, -0.987493993090524, 1.54914589325493], a = 0.2, v = 0.2, t = 0.2)
movej(p[-0.569188757329644, 0.119562459696379, 0.350967626856743, -1.24727434464542, -0.98465865139388, 1.54547993297117], a = 0.2, v = 0.2, t = 0.2)
movej(p[-0.56929220305382, 0.119649777487371, 0.351174827642277, -1.24546829362734, -0.982394966405142, 1.54518974129866], a = 0.2, v = 0.2, t = 0.2)
movej(p[-0.568971117008026, 0.119693247970601, 0.350988941821721, -1.24623181229858, -0.98602926584525, 1.54271636692099], a = 0.2, v = 0.2, t = 0.2)
movej(p[-0.569352846726912, 0.119116233781219, 0.351416524453466, -1.24153962896633, -0.98763451775038, 1.54702678884629], a = 0.2, v = 0.2, t = 0.2)
movej(p[-0.569325300105329, 0.11938728913011, 0.351272862623194, -1.24370640500594, -0.983961366749788, 1.54713941516662], a = 0.2, v = 0.2, t = 0.2)
movej(p[-0.569244216980418, 0.119608245362883, 0.351241619703144, -1.24499511374794, -0.983402178541912, 1.5452085858991], a = 0.2, v = 0.2, t = 0.2)
movej(p[-0.569318215738287, 0.119438810113131, 0.351203877551968, -1.24534888645052, -0.983951021100824, 1.546915805371], a = 0.2, v = 0.2, t = 0.2)
movej(p[-0.569228722572598, 0.119587975886766, 0.351169387911914, -1.2466871698285, -0.982502766983737, 1.54604387612278], a = 0.2, v = 0.2, t = 0.2)
movej(p[-0.569247568068748, 0.119595409810362, 0.351256923584956, -1.24496032163402, -0.984072251454976, 1.54396314094515], a = 0.2, v = 0.2, t = 0.2)
movej(p[-0.569279322810987, 0.119551506949969, 0.351352296092497, -1.24381833376609, -0.983487596431007, 1.54574224177972], a = 0.2, v = 0.2, t = 0.2)
movej(p[-0.569310390301929, 0.119285780186396, 0.351011286549921, -1.24623634405189, -0.985639682679719, 1.54792470623733], a = 0.2, v = 0.2, t = 0.2)
movej(p[-0.569343490122154, 0.119577285878097, 0.351088968553029, -1.2461955005184, -0.984625840864915, 1.54607229390664], a = 0.2, v = 0.2, t = 0.2)
movej(p[-0.569284790067303, 0.119725072734221, 0.351078248071804, -1.24684861207081, -0.982974749577801, 1.54489762407075], a = 0.2, v = 0.2, t = 0.2)
movej(p[-0.569409329487455, 0.119453456770525, 0.351197433939649, -1.24526825816825, -0.984635312036039, 1.54715649129445], a = 0.2, v = 0.2, t = 0.2)
movej(p[-0.569355635264823, 0.119792591273966, 0.351242244976589, -1.24526890172277, -0.982383423807927, 1.54415837088134], a = 0.2, v = 0.2, t = 0.2)
movej(p[-0.569252503898784, 0.119364984289979, 0.350958463408151, -1.24571683953714, -0.986695954404075, 1.54568309285096], a = 0.2, v = 0.2, t = 0.2)
movej(p[-0.569063447276043, 0.119750429667739, 0.350765756080419, -1.2470950935512, -0.985749072072384, 1.54092407469579], a = 0.2, v = 0.2, t = 0.2)
movej(p[-0.569285572168552, 0.119274555311923, 0.350847539878356, -1.24657392870977, -0.98656593059415, 1.54735633548859], a = 0.2, v = 0.2, t = 0.2)
movej(p[-0.569102393253484, 0.119321577935965, 0.35056509062999, -1.24876456762347, -0.987558249846473, 1.54554871457764], a = 0.2, v = 0.2, t = 0.2)
movej(p[-0.569316312357243, 0.118940798396632, 0.350896132288202, -1.24326671665882, -0.990465852091141, 1.54726576344815], a = 0.2, v = 0.2, t = 0.2)
movej(p[-0.569363130741367, 0.119056307958746, 0.350867121773415, -1.24754188765731, -0.985814224587994, 1.55003175343851], a = 0.2, v = 0.2, t = 0.2)
movej(p[-0.569247923934946, 0.11935368162822, 0.35081368066136, -1.24787155161717, -0.984908388599463, 1.54766018290087], a = 0.2, v = 0.2, t = 0.2)
movej(p[-0.569416455341609, 0.119177709967745, 0.351342882531801, -1.24270452316916, -0.985841492925302, 1.54774738465911], a = 0.2, v = 0.2, t = 0.2)
movej(p[-0.56924980165174, 0.119731093637425, 0.351152520135872, -1.24580904301863, -0.983948039037783, 1.54297239250324], a = 0.2, v = 0.2, t = 0.2)
movej(p[-0.569440098623807, 0.119472758526364, 0.351311009608125, -1.24408329713451, -0.983667180165267, 1.54752512749144], a = 0.2, v = 0.2, t = 0.2)
movej(p[-0.569296104040526, 0.119533706291455, 0.351242972413032, -1.24460097580991, -0.984603223812221, 1.54516476290084], a = 0.2, v = 0.2, t = 0.2)
movej(p[-0.569364411668211, 0.119167176276668, 0.351388909886836, -1.24168488680892, -0.987532122200162, 1.54682531022051], a = 0.2, v = 0.2, t = 0.2)
movej(p[-0.569495491757894, 0.119062989616682, 0.351411917493617, -1.24113625488911, -0.987522378219907, 1.54854971112002], a = 0.2, v = 0.2, t = 0.2)
movej(p[-0.569418477984506, 0.119302845136923, 0.351284961997009, -1.24404866491682, -0.984803953239354, 1.54941587167182], a = 0.2, v = 0.2, t = 0.2)
movej(p[-0.569483842957327, 0.119123067396815, 0.351485735213575, -1.2418644639775, -0.98664002253026, 1.54756208959931], a = 0.2, v = 0.2, t = 0.2)
movej(p[-0.569228143660295, 0.11936150721256, 0.350904344661738, -1.24739494686628, -0.985629450780474, 1.54612533022456], a = 0.2, v = 0.2, t = 0.2)
movej(p[-0.569278527771645, 0.119528991290974, 0.351026569147016, -1.24630477682502, -0.984299949432994, 1.54576727495467], a = 0.2, v = 0.2, t = 0.2)
movej(p[-0.569357691159614, 0.119086098901533, 0.351210028350602, -1.24234680693398, -0.98845899694779, 1.54718108616823], a = 0.2, v = 0.2, t = 0.2)
movej(p[-0.569301505550164, 0.119477315561233, 0.351225369878025, -1.24316783508159, -0.986694668962707, 1.54471158785457], a = 0.2, v = 0.2, t = 0.2)
movej(p[-0.569133458122114, 0.11957125023281, 0.35092969686708, -1.24671490785261, -0.985498974302572, 1.54404988636996], a = 0.2, v = 0.2, t = 0.2)
movej(p[-0.569208821841632, 0.118993865273622, 0.35051682152429, -1.24956432074395, -0.986711756381074, 1.54889766918255], a = 0.2, v = 0.2, t = 0.2)
movej(p[-0.569101780324724, 0.119025235829936, 0.350547605478788, -1.24893049422349, -0.989098374285486, 1.54630255172698], a = 0.2, v = 0.2, t = 0.2)
movej(p[-0.568946706060931, 0.119678937358604, 0.350759360110676, -1.24745979027218, -0.986248219475263, 1.54248583565011], a = 0.2, v = 0.2, t = 0.2)
movej(p[-0.569364350497337, 0.119666480350797, 0.351135822376641, -1.24620985912797, -0.984046788930675, 1.54371120831926], a = 0.2, v = 0.2, t = 0.2)
movej(p[-0.569388974235119, 0.119198568637969, 0.351381501111042, -1.24188972368628, -0.988464412905515, 1.54596826641642], a = 0.2, v = 0.2, t = 0.2)
movej(p[-0.569235924267192, 0.119099594317713, 0.350876883640825, -1.24704765411628, -0.986492063407377, 1.54889500568087], a = 0.2, v = 0.2, t = 0.2)
movej(p[-0.569206103928757, 0.119667886458857, 0.351084310374228, -1.24694017617831, -0.983891115806976, 1.54377979907283], a = 0.2, v = 0.2, t = 0.2)
movej(p[-0.569323747807816, 0.119507834176691, 0.351063238955358, -1.24751309461463, -0.983163256724207, 1.54674102811262], a = 0.2, v = 0.2, t = 0.2)
movej(p[-0.569281480956833, 0.119057323916808, 0.350959067466705, -1.24627717194712, -0.984807044293226, 1.5497440038917], a = 0.2, v = 0.2, t = 0.2)
movej(p[-0.569293800153171, 0.119369692661684, 0.351167640870153, -1.24456497156096, -0.984871795329297, 1.54691348446701], a = 0.2, v = 0.2, t = 0.2)
movej(p[-0.569258896686626, 0.119747538854376, 0.351147527623493, -1.24550721228724, -0.984972673269635, 1.54393248073598], a = 0.2, v = 0.2, t = 0.2)
movej(p[-0.569566575806279, 0.118985281891834, 0.351518108818894, -1.24095922690108, -0.986844325844648, 1.54976461267282], a = 0.2, v = 0.2, t = 0.2)
movej(p[-0.569383522991212, 0.119458454444273, 0.351132494059692, -1.24477325846436, -0.986151963571167, 1.54704950961872], a = 0.2, v = 0.2, t = 0.2)
movej(p[-0.569084546170653, 0.119611295185904, 0.350650302875133, -1.24759780048075, -0.988014964409235, 1.54285380731791], a = 0.2, v = 0.2, t = 0.2)
movej(p[-0.569084546170653, 0.119611295185904, 0.350650302875133, -1.24759780048075, -0.988014964409235, 1.54285380731791], a = 0.2, v = 0.2, t = 0.2)
movej(p[-0.569029415518031, 0.119320706321514, 0.350599207933758, -1.24903686377264, -0.988310363727401, 1.54531659078001], a = 0.2, v = 0.2, t = 0.2)
movej(p[-0.569119052015295, 0.119294145582584, 0.350720241175084, -1.24648203585602, -0.987962249255788, 1.5453404306088], a = 0.2, v = 0.2, t = 0.2)
movej(p[-0.569299472766783, 0.119421098358662, 0.351121768266422, -1.24515290532406, -0.985122244961937, 1.5462235805309], a = 0.2, v = 0.2, t = 0.2)
movej(p[-0.569126296852065, 0.119421107974976, 0.350825914649799, -1.24758160594374, -0.987221127753767, 1.54529038108013], a = 0.2, v = 0.2, t = 0.2)
movej(p[-0.569057910100614, 0.119488535454587, 0.350564963797684, -1.24851477877119, -0.987849725325764, 1.54365879781616], a = 0.2, v = 0.2, t = 0.2)
movej(p[-0.569242189013124, 0.118931056128211, 0.350885134194611, -1.24539654137749, -0.987259075470097, 1.54899630153385], a = 0.2, v = 0.2, t = 0.2)
movej(p[-0.569260746251441, 0.119680866699697, 0.351134739234214, -1.24623127944181, -0.983505534296648, 1.54320077653045], a = 0.2, v = 0.2, t = 0.2)
movej(p[-0.56934691319987, 0.118989856455546, 0.35103734098229, -1.24573872648214, -0.986647024436755, 1.55050825368237], a = 0.2, v = 0.2, t = 0.2)
movej(p[-0.56911756251519, 0.119573214718014, 0.350893131166234, -1.24764272910592, -0.984854844551051, 1.54446462942076], a = 0.2, v = 0.2, t = 0.2)
movej(p[-0.569266005024119, 0.119503390597571, 0.351120969757669, -1.24483689231452, -0.985187468765131, 1.54548705934271], a = 0.2, v = 0.2, t = 0.2)
movej(p[-0.569082155122567, 0.119554960936844, 0.350733522375684, -1.24828432333284, -0.986734838302312, 1.54444121498369], a = 0.2, v = 0.2, t = 0.2)
movej(p[-0.569338259278022, 0.119432535322521, 0.350958409237276, -1.24659574948987, -0.985386281528378, 1.54735991171848], a = 0.2, v = 0.2, t = 0.2)
movej(p[-0.569248908094087, 0.119443334988432, 0.350517100509574, -1.24967747076804, -0.98909388253485, 1.54360468279536], a = 0.2, v = 0.2, t = 0.2)
movej(p[-0.56946162006181, 0.119105966813592, 0.350543810496324, -1.24835197599464, -0.988934775878445, 1.54832987792398], a = 0.2, v = 0.2, t = 0.2)
movej(p[-0.569185921627629, 0.119448984056339, 0.35068512533832, -1.24834483886738, -0.985818916581931, 1.54531218495475], a = 0.2, v = 0.2, t = 0.2)
movej(p[-0.569298508717017, 0.119257379107157, 0.350299611731877, -1.25026226646387, -0.990862022903479, 1.542356169568], a = 0.2, v = 0.2, t = 0.2)
movej(p[-0.569204778421711, 0.119532746895475, 0.350534265674735, -1.2491913928937, -0.987955846229929, 1.54270250322275], a = 0.2, v = 0.2, t = 0.2)
movej(p[-0.569166162234531, 0.119736757750248, 0.350388765223799, -1.25067605754455, -0.988255567901848, 1.5398323413527], a = 0.2, v = 0.2, t = 0.2)
movej(p[-0.569220138108965, 0.119393259528594, 0.350336745259365, -1.24966091176414, -0.990982923460354, 1.5420423431483], a = 0.2, v = 0.2, t = 0.2)
movej(p[-0.5692381782143, 0.119354525272616, 0.350292387261063, -1.25098484652583, -0.990159594684993, 1.54301512664281], a = 0.2, v = 0.2, t = 0.2)
movej(p[-0.569225328955107, 0.119172834431985, 0.35018463595031, -1.25195243557191, -0.99075716928769, 1.54467687214042], a = 0.2, v = 0.2, t = 0.2)
movej(p[-0.569282656714227, 0.119575489854474, 0.350414709240317, -1.2505709283218, -0.988053428281933, 1.54266695606443], a = 0.2, v = 0.2, t = 0.2)
movej(p[-0.569269307848619, 0.119792525890591, 0.350417686959869, -1.24812002651528, -0.991051218967035, 1.53905534019804], a = 0.2, v = 0.2, t = 0.2)
movej(p[-0.569255447999977, 0.119349364283004, 0.350538771369092, -1.24842066923532, -0.987789892548932, 1.5461290810084], a = 0.2, v = 0.2, t = 0.2)
movej(p[-0.569333093810642, 0.119622383142762, 0.35063867412332, -1.24858259107588, -0.988401145626707, 1.5422324670584], a = 0.2, v = 0.2, t = 0.2)
movej(p[-0.569556429942309, 0.119100076020969, 0.350674104376157, -1.2470591605017, -0.989891842737435, 1.54880994690804], a = 0.2, v = 0.2, t = 0.2)
movej(p[-0.569329145909828, 0.119547832717499, 0.350713032634416, -1.24849693194681, -0.987514633032879, 1.54314612287139], a = 0.2, v = 0.2, t = 0.2)
movej(p[-0.569225878728744, 0.119319950370388, 0.350255330564084, -1.25145533170639, -0.989246223710354, 1.54369378635855], a = 0.2, v = 0.2, t = 0.2)
movej(p[-0.569147888820266, 0.119288306305335, 0.350502447737349, -1.25031783224886, -0.986270352660888, 1.54692247084588], a = 0.2, v = 0.2, t = 0.2)
movej(p[-0.569299112406034, 0.119756172551794, 0.350932272553445, -1.24632820700482, -0.98640190823714, 1.54258835981827], a = 0.2, v = 0.2, t = 0.2)
movej(p[-0.569437770321183, 0.119465260239436, 0.350369332033421, -1.25092822373915, -0.990423671037996, 1.54207336887193], a = 0.2, v = 0.2, t = 0.2)
movej(p[-0.569250689822416, 0.119504502862015, 0.350438567671312, -1.24917909598753, -0.989871215109202, 1.54306135177127], a = 0.2, v = 0.2, t = 0.2)
movej(p[-0.569193177072227, 0.119547423831079, 0.350403457929355, -1.24874550245309, -0.990133407412776, 1.5432754312126], a = 0.2, v = 0.2, t = 0.2)
movej(p[-0.569424475405713, 0.11913124662022, 0.350693576767227, -1.24549788422448, -0.992400369466206, 1.54438382523384], a = 0.2, v = 0.2, t = 0.2)
movej(p[-0.569504136387314, 0.119377791996188, 0.350425211203864, -1.25035155316057, -0.989299888040703, 1.54367129371322], a = 0.2, v = 0.2, t = 0.2)
movej(p[-0.569345715814048, 0.119504641450688, 0.350466105676095, -1.25097090348736, -0.987779959987221, 1.54369589990541], a = 0.2, v = 0.2, t = 0.2)
movej(p[-0.569527237541344, 0.119433484819607, 0.350462610483297, -1.24922994164779, -0.988083890378064, 1.54440448234916], a = 0.2, v = 0.2, t = 0.2)
movej(p[-0.569119249005363, 0.119446090724783, 0.350346686259499, -1.24974258832811, -0.988296899495748, 1.54436395785246], a = 0.2, v = 0.2, t = 0.2)
movej(p[-0.569134643296276, 0.119533649669605, 0.350085298316034, -1.25399736551966, -0.987535857123067, 1.54258045498864], a = 0.2, v = 0.2, t = 0.2)
movej(p[-0.569362060902282, 0.119567844550286, 0.350379783973773, -1.25053508492445, -0.989078773987413, 1.54120406255593], a = 0.2, v = 0.2, t = 0.2)
movej(p[-0.569230863332545, 0.119437943148684, 0.35033804282433, -1.25103790077553, -0.987991513664928, 1.5440329789262], a = 0.2, v = 0.2, t = 0.2)
movej(p[-0.569194052206971, 0.119599917688139, 0.350613935574511, -1.24867725128757, -0.987464663562588, 1.54237105854559], a = 0.2, v = 0.2, t = 0.2)
movej(p[-0.569326838484317, 0.119309123816692, 0.350432865922505, -1.25112352522999, -0.987267232193388, 1.54540846385186], a = 0.2, v = 0.2, t = 0.2)
movej(p[-0.569485213014594, 0.12013293989179, 0.349692512417368, -1.25838235908837, -0.986472466691233, 1.53938375429304], a = 0.2, v = 0.2, t = 0.2)
movej(p[-0.569565012869691, 0.120220260132018, 0.348816012389545, -1.26362722729474, -0.99018711242332, 1.53541379458811], a = 0.2, v = 0.2, t = 0.2)
movej(p[-0.569741760591243, 0.119753960085775, 0.348399520937292, -1.26265858526074, -0.996138367091726, 1.53493467266122], a = 0.2, v = 0.2, t = 0.2)
movej(p[-0.570010838642921, 0.118193973174384, 0.348616311800551, -1.25527734162321, -1.00687032773295, 1.54202493479863], a = 0.2, v = 0.2, t = 0.2)
movej(p[-0.57106661945813, 0.117126281136704, 0.351952507063558, -1.23146925679996, -1.00315135910596, 1.5562355611816], a = 0.2, v = 0.2, t = 0.2)
movej(p[-0.57003260912292, 0.118255407011765, 0.350484380490354, -1.24500579885238, -0.996634170541955, 1.54813595083583], a = 0.2, v = 0.2, t = 0.2)
movej(p[-0.569894239779852, 0.119089386684161, 0.350397110329762, -1.24992063581042, -0.989614435045709, 1.54640223168411], a = 0.2, v = 0.2, t = 0.2)
movej(p[-0.56992382689396, 0.119305605404445, 0.350516030335132, -1.25111337841088, -0.988259811322996, 1.54536504227781], a = 0.2, v = 0.2, t = 0.2)
movej(p[-0.570042647436305, 0.119239076681993, 0.35056544387382, -1.25033018159983, -0.987660752809192, 1.54560269014585], a = 0.2, v = 0.2, t = 0.2)
movej(p[-0.570213222599068, 0.118858613397247, 0.350818163486847, -1.24505234549793, -0.993930339358611, 1.54492401532813], a = 0.2, v = 0.2, t = 0.2)
movej(p[-0.570209389901368, 0.118921701772228, 0.350321594561751, -1.25056009320641, -0.992539728800656, 1.54479407907828], a = 0.2, v = 0.2, t = 0.2)
movej(p[-0.570357482927782, 0.118575592235234, 0.350066421397157, -1.24913970912351, -0.999414453362498, 1.54360608475773], a = 0.2, v = 0.2, t = 0.2)
movej(p[-0.570187100651865, 0.118762987554019, 0.349667140249905, -1.25411244257981, -0.9970844641918, 1.54283462817043], a = 0.2, v = 0.2, t = 0.2)
movej(p[-0.570285887063065, 0.118765334373792, 0.349829150827952, -1.25126385095594, -0.998452051392777, 1.54192060367075], a = 0.2, v = 0.2, t = 0.2)
movej(p[-0.570041577499062, 0.118886071218903, 0.349626629468166, -1.25285398950483, -0.99799402786433, 1.54040429020213], a = 0.2, v = 0.2, t = 0.2)
movej(p[-0.570054527862649, 0.118651571482071, 0.34958092201244, -1.25163629585836, -1.00270002121102, 1.54055197024181], a = 0.2, v = 0.2, t = 0.2)
movej(p[-0.570317093479622, 0.118519130993457, 0.349994840040266, -1.24773251103532, -1.00053766163402, 1.54376259329593], a = 0.2, v = 0.2, t = 0.2)
movej(p[-0.569692306884079, 0.119201197630671, 0.350251327725019, -1.25310168339817, -0.989234055623359, 1.54542764191352], a = 0.2, v = 0.2, t = 0.2)
movej(p[-0.569938286137211, 0.118465905185453, 0.352045469716901, -1.23803272269159, -0.986019205988339, 1.55368799290844], a = 0.2, v = 0.2, t = 0.2)
movej(p[-0.570070468341118, 0.120242835336252, 0.352262587574647, -1.23937468275012, -0.97857477182921, 1.54509651898629], a = 0.2, v = 0.2, t = 0.2)
movej(p[-0.569794928275447, 0.120348320641674, 0.352045653154717, -1.24112680832358, -0.979205401475806, 1.54169572554101], a = 0.2, v = 0.2, t = 0.2)
movej(p[-0.569922856841384, 0.119235077132687, 0.351885127512793, -1.24165457698501, -0.98200075482596, 1.55396276959962], a = 0.2, v = 0.2, t = 0.2)
movej(p[-0.570179020728123, 0.119705756263872, 0.352115372292533, -1.24155823266575, -0.97954201367182, 1.54837112349937], a = 0.2, v = 0.2, t = 0.2)
movej(p[-0.569923602053392, 0.120937021445876, 0.35222999219562, -1.23789444105825, -0.980998293969911, 1.53695700437512], a = 0.2, v = 0.2, t = 0.2)
movej(p[-0.570496086693678, 0.120115700993052, 0.352222844440108, -1.24066823446172, -0.978276135601104, 1.54824387841585], a = 0.2, v = 0.2, t = 0.2)
movej(p[-0.569928553114092, 0.119596379274382, 0.351901534062808, -1.24089238469882, -0.983589429292087, 1.54755147646441], a = 0.2, v = 0.2, t = 0.2)
movej(p[-0.570043707026896, 0.119553898324854, 0.35168066739422, -1.24476228662696, -0.980689532629325, 1.5499437439595], a = 0.2, v = 0.2, t = 0.2)
movej(p[-0.57017676081745, 0.119611212456755, 0.351926686253464, -1.24170007267033, -0.981336158314292, 1.5487240966685], a = 0.2, v = 0.2, t = 0.2)
movej(p[-0.56999034465079, 0.119554190153599, 0.35176636903745, -1.24330728284751, -0.981310067019778, 1.5494731628128], a = 0.2, v = 0.2, t = 0.2)
movej(p[-0.569767792324881, 0.119255470901548, 0.351922670287242, -1.23864796484961, -0.985732665449903, 1.54801125443572], a = 0.2, v = 0.2, t = 0.2)
movej(p[-0.569693233746043, 0.119732020733899, 0.351643074086253, -1.24328098177705, -0.981160308568092, 1.54735211520616], a = 0.2, v = 0.2, t = 0.2)
movej(p[-0.569793581392335, 0.119601593653383, 0.351758569785531, -1.24361172207242, -0.97976616534559, 1.54867061106705], a = 0.2, v = 0.2, t = 0.2)
movej(p[-0.569624297737221, 0.119788375117164, 0.351777338080587, -1.2418584152242, -0.98244426566689, 1.54582105634558], a = 0.2, v = 0.2, t = 0.2)
movej(p[-0.569634648505374, 0.119712018016966, 0.351614392369235, -1.24443445778122, -0.981165462782918, 1.54689441674204], a = 0.2, v = 0.2, t = 0.2)
movej(p[-0.569693270179008, 0.119539297850748, 0.351514676154095, -1.24463392525694, -0.982371144982432, 1.54897999492084], a = 0.2, v = 0.2, t = 0.2)
movej(p[-0.569701725326657, 0.11948254242256, 0.351677985620598, -1.24274371891917, -0.981439181687825, 1.55116483060889], a = 0.2, v = 0.2, t = 0.2)
movej(p[-0.569777053617807, 0.119541436099664, 0.351726256453921, -1.24248437405616, -0.981240772044037, 1.55036008998329], a = 0.2, v = 0.2, t = 0.2)
movej(p[-0.569755858237832, 0.11966696140739, 0.351848947826837, -1.24144217720831, -0.980482951013537, 1.54940582694349], a = 0.2, v = 0.2, t = 0.2)
movej(p[-0.569800528995161, 0.119767661336301, 0.351863566573601, -1.24200714162434, -0.979585837404834, 1.54828581739843], a = 0.2, v = 0.2, t = 0.2)
movej(p[-0.570068328248986, 0.119839346528416, 0.351819545068834, -1.24217068405726, -0.981273504089092, 1.54558837473903], a = 0.2, v = 0.2, t = 0.2)
movej(p[-0.569979610079475, 0.119416168004119, 0.351579996842014, -1.2444872898766, -0.982687079070152, 1.5506257202402], a = 0.2, v = 0.2, t = 0.2)
movej(p[-0.569832011038218, 0.119620590469671, 0.351823612335359, -1.24220211243581, -0.981565488261015, 1.54887202682344], a = 0.2, v = 0.2, t = 0.2)
movej(p[-0.569772293947307, 0.119499499386249, 0.351730951941615, -1.24225783169148, -0.981383491067566, 1.55048557554392], a = 0.2, v = 0.2, t = 0.2)
movej(p[-0.569690156240658, 0.11953622265172, 0.351721801590821, -1.24090358070335, -0.983621040025196, 1.54658294406369], a = 0.2, v = 0.2, t = 0.2)
movej(p[-0.56971366471653, 0.119684846187891, 0.351757089776637, -1.24177520550558, -0.981131515881907, 1.54777525490424], a = 0.2, v = 0.2, t = 0.2)
movej(p[-0.569640790909915, 0.119666233901378, 0.351739550931173, -1.24298226844887, -0.979991189788586, 1.54867381092746], a = 0.2, v = 0.2, t = 0.2)
movej(p[-0.569668250648055, 0.119571161406171, 0.351711769220707, -1.24368392224975, -0.979589038956943, 1.54985346249408], a = 0.2, v = 0.2, t = 0.2)
movej(p[-0.569430016950776, 0.119684002671785, 0.351612139083424, -1.2421306276107, -0.98416896441227, 1.54542015309384], a = 0.2, v = 0.2, t = 0.2)
movej(p[-0.569492286734724, 0.119613177427102, 0.35161676387775, -1.2423271867407, -0.98310803196572, 1.54682038551841], a = 0.2, v = 0.2, t = 0.2)
movej(p[-0.569704462116971, 0.119251622479165, 0.351952743604506, -1.23805026481639, -0.986030514765959, 1.5489515958783], a = 0.2, v = 0.2, t = 0.2)
movej(p[-0.569540006190494, 0.119647842398724, 0.35161278854337, -1.24309946972669, -0.982011149959633, 1.54793225781305], a = 0.2, v = 0.2, t = 0.2)
movej(p[-0.569583139059414, 0.11963258566197, 0.351690269493302, -1.24332864049213, -0.980597671540486, 1.54845373758368], a = 0.2, v = 0.2, t = 0.2)
movej(p[-0.56950554563398, 0.119723529504692, 0.35164996840398, -1.24389041628397, -0.980468758806781, 1.54799771909], a = 0.2, v = 0.2, t = 0.2)
movej(p[-0.569716531717464, 0.119590283268784, 0.351783080248654, -1.24241534685922, -0.980883292839352, 1.54999333066471], a = 0.2, v = 0.2, t = 0.2)
movej(p[-0.56972286045733, 0.119282841647104, 0.351952811613789, -1.23874380603859, -0.985087730283994, 1.54894658736894], a = 0.2, v = 0.2, t = 0.2)
movej(p[-0.569691328626076, 0.119631695276398, 0.351817290770572, -1.24284264158959, -0.979689877222613, 1.54876098569385], a = 0.2, v = 0.2, t = 0.2)
movej(p[-0.569740688257913, 0.11956104282098, 0.351820754480774, -1.24173896334155, -0.981023649377581, 1.54999708906266], a = 0.2, v = 0.2, t = 0.2)
movej(p[-0.569677837813459, 0.1194902035784, 0.351535588698565, -1.24418043574841, -0.981846024814713, 1.550501852495], a = 0.2, v = 0.2, t = 0.2)
movej(p[-0.569716878109848, 0.119614462046753, 0.35157201531384, -1.24316613766638, -0.982373224226913, 1.54832556652935], a = 0.2, v = 0.2, t = 0.2)
movej(p[-0.569607102446437, 0.119578587397749, 0.351447719202551, -1.24501432539801, -0.980297113492873, 1.54924846704214], a = 0.2, v = 0.2, t = 0.2)
movej(p[-0.569713714439129, 0.119451970824904, 0.351585646308282, -1.24356300300628, -0.981280787834144, 1.55068059449159], a = 0.2, v = 0.2, t = 0.2)
movej(p[-0.569602649300571, 0.119577868958221, 0.351702237067026, -1.24323190948452, -0.982013905896484, 1.54760738657858], a = 0.2, v = 0.2, t = 0.2)
movej(p[-0.569553254792417, 0.119601485340864, 0.351559655900545, -1.24341804429754, -0.982476759535948, 1.54819266555694], a = 0.2, v = 0.2, t = 0.2)
movej(p[-0.569550869626349, 0.119693555144833, 0.351444824884787, -1.24626560918683, -0.980863380533022, 1.54760943440052], a = 0.2, v = 0.2, t = 0.2)
movej(p[-0.569691648287048, 0.119628051558563, 0.351573538865682, -1.24418645030426, -0.981950059336916, 1.5477988801592], a = 0.2, v = 0.2, t = 0.2)
movej(p[-0.56958020437119, 0.119541416790098, 0.351531757524018, -1.24378442256348, -0.982415159961275, 1.54850600302775], a = 0.2, v = 0.2, t = 0.2)
movej(p[-0.569555368013554, 0.119432039806173, 0.351727998245396, -1.24218991883118, -0.98267958387895, 1.54831617682248], a = 0.2, v = 0.2, t = 0.2)
movej(p[-0.569513833121987, 0.119669124118601, 0.351494472868652, -1.24446087634873, -0.982761238062312, 1.54773910319995], a = 0.2, v = 0.2, t = 0.2)
movej(p[-0.569587769704128, 0.11976565513519, 0.351620361250394, -1.24319326653979, -0.981294881446814, 1.54658263373489], a = 0.2, v = 0.2, t = 0.2)
movej(p[-0.569440233315789, 0.119729139428063, 0.351723504244577, -1.24191122767179, -0.980803867666283, 1.54790819623929], a = 0.2, v = 0.2, t = 0.2)
movej(p[-0.569662816191896, 0.119669380323467, 0.351763557742325, -1.24200308682508, -0.981196697882064, 1.54775744841586], a = 0.2, v = 0.2, t = 0.2)
movej(p[-0.569693041463994, 0.119495976960552, 0.351643630945251, -1.24229440788394, -0.981053732159161, 1.55079376561627], a = 0.2, v = 0.2, t = 0.2)
movej(p[-0.569629774843585, 0.119760027893539, 0.351728919218368, -1.24246644085343, -0.979887902098432, 1.54784090543954], a = 0.2, v = 0.2, t = 0.2)
movej(p[-0.569538027896972, 0.11976624615739, 0.351610884261758, -1.24331797974848, -0.981623419274464, 1.54683081564286], a = 0.2, v = 0.2, t = 0.2)
movej(p[-0.56974223940283, 0.119408491455635, 0.351667660702713, -1.24221321734427, -0.98321940847396, 1.55121123363383], a = 0.2, v = 0.2, t = 0.2)
movej(p[-0.56948923763732, 0.119725924193852, 0.351458080924689, -1.24603960188942, -0.980154458602884, 1.54751304944489], a = 0.2, v = 0.2, t = 0.2)
movej(p[-0.569654625880529, 0.119590059980746, 0.351555986617093, -1.24331922104159, -0.982627122130507, 1.54797789555652], a = 0.2, v = 0.2, t = 0.2)
movej(p[-0.569596473165129, 0.119628899168129, 0.351623717623397, -1.2434928876206, -0.982313032366422, 1.54706257012407], a = 0.2, v = 0.2, t = 0.2)
movej(p[-0.569454395253745, 0.119691386192994, 0.351378528270406, -1.24539945728231, -0.982578537027817, 1.54635708385393], a = 0.2, v = 0.2, t = 0.2)
movej(p[-0.569423246770559, 0.119692658274124, 0.351459944815437, -1.24508172576918, -0.981273336899577, 1.54682163023687], a = 0.2, v = 0.2, t = 0.2)
movej(p[-0.569501066390056, 0.119649622447457, 0.351570824590168, -1.24353302752848, -0.982118203588701, 1.5473315981027], a = 0.2, v = 0.2, t = 0.2)
movej(p[-0.56952959277711, 0.119672890204861, 0.351390140371967, -1.2452223328974, -0.980646593603617, 1.54885033657782], a = 0.2, v = 0.2, t = 0.2)
movej(p[-0.569560303175801, 0.119532135203037, 0.351469448258545, -1.24516065130974, -0.98086806783527, 1.54868077401823], a = 0.2, v = 0.2, t = 0.2)
movej(p[-0.569465606102225, 0.119577451951571, 0.351623953748928, -1.24341331007808, -0.981900808355471, 1.54754778546252], a = 0.2, v = 0.2, t = 0.2)
movej(p[-0.569569361516756, 0.11967324081273, 0.351614749508961, -1.24359566255133, -0.981621929540075, 1.54614200418477], a = 0.2, v = 0.2, t = 0.2)
movej(p[-0.569637620108147, 0.119539726164576, 0.351539045523402, -1.2441321007396, -0.981289203609259, 1.54940639222522], a = 0.2, v = 0.2, t = 0.2)
movej(p[-0.569644274154701, 0.119462069933882, 0.351580797092221, -1.24335602120525, -0.982138065572531, 1.54962107529215], a = 0.2, v = 0.2, t = 0.2)
movej(p[-0.569511028957247, 0.119671191801072, 0.351522566842193, -1.24366539572813, -0.981731216902589, 1.54705455307001], a = 0.2, v = 0.2, t = 0.2)
movej(p[-0.569508664717323, 0.119679108669547, 0.35165651979499, -1.24296955663711, -0.981720798349341, 1.54632621791529], a = 0.2, v = 0.2, t = 0.2)
movej(p[-0.569493547487849, 0.119641083361771, 0.351457288207782, -1.24476469975633, -0.98171158297336, 1.54892914193228], a = 0.2, v = 0.2, t = 0.2)
movej(p[-0.569722588111749, 0.119480319896458, 0.351566894826308, -1.2439874433099, -0.980465081598793, 1.55059581721628], a = 0.2, v = 0.2, t = 0.2)
movej(p[-0.569676320830259, 0.119575144465539, 0.351492302737167, -1.24443533942947, -0.981324202749144, 1.54960606400101], a = 0.2, v = 0.2, t = 0.2)
movej(p[-0.569626935608263, 0.119630645158274, 0.351500252765738, -1.24431515970147, -0.981976115921749, 1.54807931878509], a = 0.2, v = 0.2, t = 0.2)
movej(p[-0.569580076670066, 0.119587095916459, 0.351443169200254, -1.24492805920864, -0.982055339491432, 1.54775916041182], a = 0.2, v = 0.2, t = 0.2)
movej(p[-0.569673790841381, 0.119598544566954, 0.351483273096531, -1.24438046193931, -0.982348110477467, 1.54833137449459], a = 0.2, v = 0.2, t = 0.2)
movej(p[-0.569613678668483, 0.119539320963105, 0.35140910456266, -1.24529363685464, -0.982617701401177, 1.54713442772735], a = 0.2, v = 0.2, t = 0.2)
movej(p[-0.569733534613063, 0.11934665186116, 0.351568326764957, -1.24269980927307, -0.98329069704298, 1.55132807974792], a = 0.2, v = 0.2, t = 0.2)
movej(p[-0.569574237867625, 0.119590587243585, 0.351655904079907, -1.24285950723708, -0.983270439006448, 1.54591916005836], a = 0.2, v = 0.2, t = 0.2)
movej(p[-0.56960904404463, 0.119621331124751, 0.3518450800134, -1.24089324889584, -0.980446718689613, 1.5467662653473], a = 0.2, v = 0.2, t = 0.2)
movej(p[-0.569524139405723, 0.11968278500528, 0.351603134042448, -1.24325499883013, -0.981907245947495, 1.54740912464344], a = 0.2, v = 0.2, t = 0.2)
movej(p[-0.569633149414938, 0.119334072409339, 0.351443800545271, -1.24431759961802, -0.981187070986169, 1.55126406599423], a = 0.2, v = 0.2, t = 0.2)
movej(p[-0.569598224952157, 0.119660870414396, 0.351588197760583, -1.2435941605494, -0.981128457714107, 1.54779540615364], a = 0.2, v = 0.2, t = 0.2)
movej(p[-0.569585222213499, 0.119655073638663, 0.351683027851685, -1.24205135759933, -0.981821985088404, 1.54712098394207], a = 0.2, v = 0.2, t = 0.2)
movej(p[-0.569502995043032, 0.119588860332056, 0.3515209589143, -1.2432925150687, -0.982271692483754, 1.54952949917], a = 0.2, v = 0.2, t = 0.2)
movej(p[-0.569690997937991, 0.119591925565231, 0.351430305421083, -1.24597470419277, -0.981271672715639, 1.54868272903704], a = 0.2, v = 0.2, t = 0.2)
movej(p[-0.569564026152794, 0.119709046927413, 0.351656725169083, -1.24324846862594, -0.981374506986406, 1.54712688453047], a = 0.2, v = 0.2, t = 0.2)
movej(p[-0.569661660302572, 0.119587405693335, 0.351719537134257, -1.2427574834584, -0.980827054929844, 1.54898805560611], a = 0.2, v = 0.2, t = 0.2)
movej(p[-0.569743606708847, 0.1193754435897, 0.351829119765734, -1.24007662157111, -0.983290603811692, 1.55114331851666], a = 0.2, v = 0.2, t = 0.2)
movej(p[-0.569718208549377, 0.11955596515995, 0.351647097030422, -1.2421228852334, -0.984987203617597, 1.54652050956757], a = 0.2, v = 0.2, t = 0.2)
movej(p[-0.569749120674692, 0.11973872620332, 0.351529473259292, -1.24477398141486, -0.982174682964054, 1.54691427695896], a = 0.2, v = 0.2, t = 0.2)
movej(p[-0.569749402716581, 0.119733456254955, 0.351526448677238, -1.24478202469713, -0.982217042956916, 1.54693097839684], a = 0.2, v = 0.2, t = 0.2)
movej(p[-0.569593004562167, 0.119622828401457, 0.351499334929321, -1.24379464351179, -0.982368338182866, 1.54829837646585], a = 0.2, v = 0.2, t = 0.2)
movej(p[-0.569630563585598, 0.119735975374658, 0.351484071501977, -1.24414329605107, -0.981002470322837, 1.54778253071605], a = 0.2, v = 0.2, t = 0.2)
movej(p[-0.569566808291757, 0.119675643243278, 0.351507752642793, -1.2437993710715, -0.982111800167962, 1.54729522645502], a = 0.2, v = 0.2, t = 0.2)
movej(p[-0.569568310423668, 0.119668228867451, 0.351456934726358, -1.24380721088736, -0.983743721796741, 1.54679170254414], a = 0.2, v = 0.2, t = 0.2)
movej(p[-0.569499353000213, 0.119634471102274, 0.351461514796305, -1.24508577751861, -0.982017873914406, 1.54750688446839], a = 0.2, v = 0.2, t = 0.2)
movej(p[-0.569571904578385, 0.119706865361849, 0.35169475977414, -1.24213054510492, -0.981674425613143, 1.54663872106898], a = 0.2, v = 0.2, t = 0.2)
movej(p[-0.569619608329844, 0.11960926543483, 0.351574168247313, -1.24377337858327, -0.981126096096444, 1.54818779220702], a = 0.2, v = 0.2, t = 0.2)
movej(p[-0.569461153319055, 0.119696501039809, 0.351571318900093, -1.24282421581441, -0.981811922681727, 1.54723169761072], a = 0.2, v = 0.2, t = 0.2)
movej(p[-0.569538005434491, 0.119784105497303, 0.3516238169132, -1.24345786190066, -0.980255487254748, 1.54734037103182], a = 0.2, v = 0.2, t = 0.2)
movej(p[-0.569810566932582, 0.119665756689712, 0.351679575316157, -1.24298136977523, -0.981121952429199, 1.54877229417905], a = 0.2, v = 0.2, t = 0.2)
movej(p[-0.569518610829048, 0.119831376516803, 0.351543043464623, -1.24508942915676, -0.979847773084935, 1.54671059687963], a = 0.2, v = 0.2, t = 0.2)
movej(p[-0.569418647749259, 0.119947168478768, 0.351551807837024, -1.24506015060014, -0.980154422986724, 1.54514997649661], a = 0.2, v = 0.2, t = 0.2)
movej(p[-0.569536020940885, 0.119803233372415, 0.351485674645307, -1.24562199751502, -0.979908030762887, 1.54769783366379], a = 0.2, v = 0.2, t = 0.2)
movej(p[-0.569547804152526, 0.119692665223862, 0.351545137999139, -1.24433944327529, -0.982492681390467, 1.54724491112857], a = 0.2, v = 0.2, t = 0.2)
movej(p[-0.569454284147849, 0.119740777829049, 0.35139806065232, -1.24709347790579, -0.980900742074074, 1.54743399769842], a = 0.2, v = 0.2, t = 0.2)
movej(p[-0.569624508869413, 0.119754922180858, 0.351546316011347, -1.24408792332725, -0.980842721744558, 1.5474005178647], a = 0.2, v = 0.2, t = 0.2)
movej(p[-0.569716209495642, 0.119600962008932, 0.351571299818298, -1.24337358193878, -0.98098713757282, 1.54915002698229], a = 0.2, v = 0.2, t = 0.2)
movej(p[-0.569763632610248, 0.119663942679565, 0.351659659273523, -1.24193500966891, -0.981913088098692, 1.54936065088992], a = 0.2, v = 0.2, t = 0.2)
movej(p[-0.569779825529322, 0.119695221247415, 0.351624021504722, -1.24362260513523, -0.980098734669171, 1.54866381498091], a = 0.2, v = 0.2, t = 0.2)
movej(p[-0.569691882105889, 0.119604404153426, 0.351741610533607, -1.24136005310534, -0.981159929682383, 1.5490783788401], a = 0.2, v = 0.2, t = 0.2)
movej(p[-0.569577607445491, 0.119650634117981, 0.351485661198058, -1.24327148518595, -0.983300393444811, 1.54818276578888], a = 0.2, v = 0.2, t = 0.2)
movej(p[-0.569680877924831, 0.119799060554315, 0.351771574071314, -1.24208151627985, -0.980620784064367, 1.5463104134616], a = 0.2, v = 0.2, t = 0.2)
movej(p[-0.569592074252735, 0.119707729436689, 0.351540012794812, -1.24461957805226, -0.981736450966239, 1.54656393798318], a = 0.2, v = 0.2, t = 0.2)
movej(p[-0.569497865810253, 0.119885138796691, 0.351457029794451, -1.24557338608296, -0.981447528855926, 1.54524452545334], a = 0.2, v = 0.2, t = 0.2)
movej(p[-0.56952232290373, 0.119860857961074, 0.351593298762307, -1.24309171494035, -0.98218296108452, 1.54486965573919], a = 0.2, v = 0.2, t = 0.2)
movej(p[-0.569625720965076, 0.119735798857103, 0.35177251612035, -1.24161466444189, -0.981003178026226, 1.54788497572038], a = 0.2, v = 0.2, t = 0.2)
movej(p[-0.569623003036159, 0.119645063522399, 0.351553531801508, -1.24397585547451, -0.980522909515576, 1.54925420675744], a = 0.2, v = 0.2, t = 0.2)
movej(p[-0.569677144875453, 0.119786387901134, 0.351793359346242, -1.24124913707227, -0.980629900786631, 1.54682709525316], a = 0.2, v = 0.2, t = 0.2)
movej(p[-0.569770946151171, 0.119695406287096, 0.351734139361602, -1.2420599297774, -0.980118172671372, 1.54888287530697], a = 0.2, v = 0.2, t = 0.2)
movej(p[-0.569617250526275, 0.119632345791754, 0.351652394827748, -1.24291020194773, -0.98251481362029, 1.54852750408483], a = 0.2, v = 0.2, t = 0.2)
movej(p[-0.569540085382016, 0.119681753065753, 0.351530302724041, -1.24358155116751, -0.982668832122769, 1.54825851746482], a = 0.2, v = 0.2, t = 0.2)
movej(p[-0.569662172705662, 0.119754530404474, 0.351738331770988, -1.24279742508111, -0.980388504353747, 1.54754388864222], a = 0.2, v = 0.2, t = 0.2)
movej(p[-0.569656591903703, 0.119776697407588, 0.351651756840307, -1.24347434507673, -0.980965147304641, 1.54758147966821], a = 0.2, v = 0.2, t = 0.2)
movej(p[-0.569448133455945, 0.119777101484045, 0.35160565345344, -1.24214981510579, -0.983493067525448, 1.54515047081328], a = 0.2, v = 0.2, t = 0.2)
movej(p[-0.569553451624268, 0.11984022238903, 0.351516523858047, -1.24432039975837, -0.980842026424599, 1.54534719185645], a = 0.2, v = 0.2, t = 0.2)
movej(p[-0.569707591191569, 0.119581452681059, 0.351686099953145, -1.24106409723031, -0.984230019490814, 1.5494832724089], a = 0.2, v = 0.2, t = 0.2)
movej(p[-0.569751375327684, 0.119615332361866, 0.351612861666347, -1.24250615984926, -0.981735019584914, 1.54912832079926], a = 0.2, v = 0.2, t = 0.2)
movej(p[-0.569474174520685, 0.11957947469566, 0.351417319214758, -1.24493125834143, -0.981015217757596, 1.55043382311276], a = 0.2, v = 0.2, t = 0.2)
movej(p[-0.569434257644204, 0.119667253305831, 0.351402161095865, -1.24458389688618, -0.983200000660779, 1.54639922260677], a = 0.2, v = 0.2, t = 0.2)
movej(p[-0.569639349262755, 0.119648489470962, 0.351611925240802, -1.24307210063155, -0.980253993280149, 1.54911077455138], a = 0.2, v = 0.2, t = 0.2)
movej(p[-0.56965743707369, 0.119744580486039, 0.351475954994361, -1.24472839123079, -0.981567213237768, 1.54720066748565], a = 0.2, v = 0.2, t = 0.2)
movej(p[-0.569636539302137, 0.119774189455757, 0.351549429017365, -1.24493049395801, -0.980329057995397, 1.54669219425201], a = 0.2, v = 0.2, t = 0.2)
movej(p[-0.569668230715509, 0.119609513754548, 0.351649400101933, -1.24267480462232, -0.981541939807308, 1.54930153449485], a = 0.2, v = 0.2, t = 0.2)
movej(p[-0.569707415969318, 0.119738727087541, 0.351786934572015, -1.24222099211186, -0.980333598190588, 1.54872973954593], a = 0.2, v = 0.2, t = 0.2)
movej(p[-0.569671139986562, 0.119842642776326, 0.351769239016092, -1.24235032175674, -0.97984591437764, 1.54726119219946], a = 0.2, v = 0.2, t = 0.2)
movej(p[-0.569590244590948, 0.11987525023291, 0.351594459329791, -1.24391048109004, -0.981166517821129, 1.54591153171667], a = 0.2, v = 0.2, t = 0.2)
movej(p[-0.569765789284372, 0.119658113698925, 0.351780623655642, -1.24257242362293, -0.979603450445247, 1.54957241061096], a = 0.2, v = 0.2, t = 0.2)
movej(p[-0.569532307389016, 0.119702554505994, 0.351423677666439, -1.24497635011647, -0.981364230754259, 1.54847751273108], a = 0.2, v = 0.2, t = 0.2)
movej(p[-0.569643075739693, 0.119674402192216, 0.351611122590929, -1.24425848760033, -0.980616210051724, 1.54851000087419], a = 0.2, v = 0.2, t = 0.2)
movej(p[-0.569783918633914, 0.119539565297944, 0.351719933349085, -1.24190546721266, -0.982099882928156, 1.5495918250285], a = 0.2, v = 0.2, t = 0.2)
movej(p[-0.569615423595743, 0.119739988683746, 0.351658290599832, -1.24215150856227, -0.982355292378769, 1.54717025032652], a = 0.2, v = 0.2, t = 0.2)
movej(p[-0.569624514855125, 0.119738454903035, 0.351647693122794, -1.2423148409732, -0.982247815463287, 1.54733819439651], a = 0.2, v = 0.2, t = 0.2)
movej(p[-0.569536958739805, 0.119765242927984, 0.351575899401694, -1.24375473888755, -0.980796248707958, 1.54754225926058], a = 0.2, v = 0.2, t = 0.2)
movej(p[-0.569562617434571, 0.119681765557314, 0.351520122525043, -1.2439475003451, -0.980745991457385, 1.54845652032618], a = 0.2, v = 0.2, t = 0.2)
movej(p[-0.569458060621425, 0.119945543363407, 0.351886075625642, -1.24007500115507, -0.981797308854403, 1.54357794001268], a = 0.2, v = 0.2, t = 0.2)
movej(p[-0.569544736589623, 0.11966200260705, 0.351769216967335, -1.24154067796218, -0.982850237920515, 1.5459681313358], a = 0.2, v = 0.2, t = 0.2)
movej(p[-0.569572730306981, 0.119615429889867, 0.351600615562232, -1.24272706466562, -0.982913639793488, 1.54792636228035], a = 0.2, v = 0.2, t = 0.2)
movej(p[-0.569490953728341, 0.119668886716425, 0.351517034051835, -1.24371421065518, -0.981657886541134, 1.5473721142605], a = 0.2, v = 0.2, t = 0.2)
movej(p[-0.569490953728341, 0.119668886716425, 0.351517034051835, -1.24371421065518, -0.981657886541134, 1.5473721142605], a = 0.2, v = 0.2, t = 0.2)
movej(p[-0.569601762392778, 0.119683856536885, 0.351751401145005, -1.24125066679408, -0.983217548718692, 1.54806653849496], a = 0.2, v = 0.2, t = 0.2)
