def moving():
set_payload_mass(0)
set_tcp(p[0,0,0,0,0,0])
movej(p[-0.4806, -0.2416, 0.3753, -0.907, -1.753, 1.533], a = 0.2, v = 0.2, t = 0.2)
movej(p[-0.480619967177756, -0.241618747108967, 0.375518046853375, -0.907, -1.753, 1.533], a = 0.2, v = 0.2, t = 0.2)
movej(p[-0.480639934355511, -0.241637494217933, 0.375736093706751, -0.907, -1.753, 1.533], a = 0.2, v = 0.2, t = 0.2)
movej(p[-0.480659901533267, -0.2416562413269, 0.375954140560126, -0.907, -1.753, 1.533], a = 0.2, v = 0.2, t = 0.2)
movej(p[-0.480679868711022, -0.241674988435867, 0.376172187413501, -0.907, -1.753, 1.533], a = 0.2, v = 0.2, t = 0.2)
movej(p[-0.480699835888778, -0.241693735544833, 0.376390234266877, -0.907, -1.753, 1.533], a = 0.2, v = 0.2, t = 0.2)
movej(p[-0.480719803066533, -0.2417124826538, 0.376608281120252, -0.907, -1.753, 1.533], a = 0.2, v = 0.2, t = 0.2)
movej(p[-0.480739770244289, -0.241731229762766, 0.376826327973627, -0.907, -1.753, 1.533], a = 0.2, v = 0.2, t = 0.2)
movej(p[-0.480759737422044, -0.241749976871733, 0.377044374827002, -0.907, -1.753, 1.533], a = 0.2, v = 0.2, t = 0.2)
movej(p[-0.4807797045998, -0.2417687239807, 0.377262421680378, -0.907, -1.753, 1.533], a = 0.2, v = 0.2, t = 0.2)
movej(p[-0.480799671777556, -0.241787471089666, 0.377480468533753, -0.907, -1.753, 1.533], a = 0.2, v = 0.2, t = 0.2)
movej(p[-0.480747262061397, -0.241738263801999, 0.376908140594646, -0.907, -1.753, 1.533], a = 0.2, v = 0.2, t = 0.2)
movej(p[-0.480718037373955, -0.241710824851602, 0.376588999291069, -0.907, -1.753, 1.533], a = 0.2, v = 0.2, t = 0.2)
movej(p[-0.480692459584268, -0.24168680995995, 0.376309683073935, -0.907, -1.753, 1.533], a = 0.2, v = 0.2, t = 0.2)
movej(p[-0.480683449601578, -0.241678350520698, 0.3762112916839, -0.907, -1.753, 1.533], a = 0.2, v = 0.2, t = 0.2)
movej(p[-0.480680644295613, -0.241675716629355, 0.376180657002021, -0.907, -1.753, 1.533], a = 0.2, v = 0.2, t = 0.2)
movej(p[-0.480677921498646, -0.241673160205405, 0.376150923340197, -0.907, -1.753, 1.533], a = 0.2, v = 0.2, t = 0.2)
movej(p[-0.48066783889897, -0.241663693690051, 0.376040818689443, -0.907, -1.753, 1.533], a = 0.2, v = 0.2, t = 0.2)
movej(p[-0.480677211921255, -0.24167249398583, 0.376143174567722, -0.907, -1.753, 1.533], a = 0.2, v = 0.2, t = 0.2)
movej(p[-0.4807388296417, -0.241730346634493, 0.376816056344997, -0.907, -1.753, 1.533], a = 0.2, v = 0.2, t = 0.2)
movej(p[-0.480820101005705, -0.241806652016031, 0.377703561099438, -0.907, -1.753, 1.533], a = 0.2, v = 0.2, t = 0.2)
movej(p[-0.480908550652623, -0.241889697060709, 0.378669454598687, -0.907, -1.753, 1.533], a = 0.2, v = 0.2, t = 0.2)
movej(p[-0.481026984069773, -0.242000893755795, 0.379962778786021, -0.907, -1.753, 1.533], a = 0.2, v = 0.2, t = 0.2)
movej(p[-0.481125367800168, -0.242093265874521, 0.381037155099925, -0.907, -1.753, 1.533], a = 0.2, v = 0.2, t = 0.2)
movej(p[-0.481146374591311, -0.242112989072632, 0.381266554805997, -0.907, -1.753, 1.533], a = 0.2, v = 0.2, t = 0.2)
movej(p[-0.481045053540551, -0.242017859114736, 0.380160102178125, -0.907, -1.753, 1.533], a = 0.2, v = 0.2, t = 0.2)
movej(p[-0.480905992873654, -0.241887295571544, 0.378641522976974, -0.907, -1.753, 1.533], a = 0.2, v = 0.2, t = 0.2)
movej(p[-0.480804259277899, -0.241791778276685, 0.377530565248826, -0.907, -1.753, 1.533], a = 0.2, v = 0.2, t = 0.2)
movej(p[-0.480728648031225, -0.241720787158268, 0.376704870470177, -0.907, -1.753, 1.533], a = 0.2, v = 0.2, t = 0.2)
movej(p[-0.48070295472894, -0.241696663812267, 0.376424292824966, -0.907, -1.753, 1.533], a = 0.2, v = 0.2, t = 0.2)
movej(p[-0.480691551985279, -0.241685957818634, 0.376299771853327, -0.907, -1.753, 1.533], a = 0.2, v = 0.2, t = 0.2)
movej(p[-0.480677938000446, -0.241673175698884, 0.376151103544208, -0.907, -1.753, 1.533], a = 0.2, v = 0.2, t = 0.2)
movej(p[-0.480676436336664, -0.241671765792342, 0.376134704979202, -0.907, -1.753, 1.533], a = 0.2, v = 0.2, t = 0.2)
movej(p[-0.480701700592155, -0.241695486307902, 0.376410597320126, -0.907, -1.753, 1.533], a = 0.2, v = 0.2, t = 0.2)
movej(p[-0.480776008196645, -0.241765253441519, 0.377222055981902, -0.907, -1.753, 1.533], a = 0.2, v = 0.2, t = 0.2)
movej(p[-0.480869606405099, -0.241853132451485, 0.3782441731326, -0.907, -1.753, 1.533], a = 0.2, v = 0.2, t = 0.2)
movej(p[-0.480980168463746, -0.241956938757333, 0.379451540006661, -0.907, -1.753, 1.533], a = 0.2, v = 0.2, t = 0.2)
movej(p[-0.481084278318671, -0.242054687113094, 0.380588447112401, -0.907, -1.753, 1.533], a = 0.2, v = 0.2, t = 0.2)
movej(p[-0.481140433943384, -0.242107411420378, 0.381201681362017, -0.907, -1.753, 1.533], a = 0.2, v = 0.2, t = 0.2)
movej(p[-0.48109340381396, -0.242063255006696, 0.380688099930514, -0.907, -1.753, 1.533], a = 0.2, v = 0.2, t = 0.2)
movej(p[-0.480966835009509, -0.241944420026718, 0.37930593516573, -0.907, -1.753, 1.533], a = 0.2, v = 0.2, t = 0.2)
movej(p[-0.48084257645703, -0.241827754133727, 0.377948998962493, -0.907, -1.753, 1.533], a = 0.2, v = 0.2, t = 0.2)
movej(p[-0.480748186162186, -0.241739131436794, 0.376918232019265, -0.907, -1.753, 1.533], a = 0.2, v = 0.2, t = 0.2)
movej(p[-0.480712624783621, -0.241705742990659, 0.376529892375443, -0.907, -1.753, 1.533], a = 0.2, v = 0.2, t = 0.2)
movej(p[-0.480694109764248, -0.241688359307799, 0.376327703475041, -0.907, -1.753, 1.533], a = 0.2, v = 0.2, t = 0.2)
movej(p[-0.480683235078181, -0.241678149105477, 0.376208949031756, -0.907, -1.753, 1.533], a = 0.2, v = 0.2, t = 0.2)
movej(p[-0.480674439618889, -0.241669891081445, 0.376112900293864, -0.907, -1.753, 1.533], a = 0.2, v = 0.2, t = 0.2)
movej(p[-0.480681931435997, -0.241676925120677, 0.376194712914883, -0.907, -1.753, 1.533], a = 0.2, v = 0.2, t = 0.2)
movej(p[-0.480734935216948, -0.24172669017357, 0.376773528198388, -0.907, -1.753, 1.533], a = 0.2, v = 0.2, t = 0.2)
movej(p[-0.480814325375776, -0.241801229298561, 0.377640489695569, -0.907, -1.753, 1.533], a = 0.2, v = 0.2, t = 0.2)
movej(p[-0.480933930420712, -0.241913526030619, 0.378946608367688, -0.907, -1.753, 1.533], a = 0.2, v = 0.2, t = 0.2)
movej(p[-0.481038931372826, -0.242012111034218, 0.380093246490024, -0.907, -1.753, 1.533], a = 0.2, v = 0.2, t = 0.2)
movej(p[-0.481114509615901, -0.242083071165678, 0.380918580860652, -0.907, -1.753, 1.533], a = 0.2, v = 0.2, t = 0.2)
movej(p[-0.481143288754749, -0.242110091792156, 0.38123285665593, -0.907, -1.753, 1.533], a = 0.2, v = 0.2, t = 0.2)
movej(p[-0.481075631375577, -0.242046568530368, 0.380494020210608, -0.907, -1.753, 1.533], a = 0.2, v = 0.2, t = 0.2)
movej(p[-0.480930201013958, -0.241910024504481, 0.37890588226119, -0.907, -1.753, 1.533], a = 0.2, v = 0.2, t = 0.2)
movej(p[-0.48080255959252, -0.241790182448401, 0.377512004235687, -0.907, -1.753, 1.533], a = 0.2, v = 0.2, t = 0.2)
movej(p[-0.480744176224835, -0.241735366521522, 0.376874442444579, -0.907, -1.753, 1.533], a = 0.2, v = 0.2, t = 0.2)
movej(p[-0.480710413542448, -0.241703666864542, 0.376505745037962, -0.907, -1.753, 1.533], a = 0.2, v = 0.2, t = 0.2)
movej(p[-0.480689984314298, -0.241684485938178, 0.376282652472277, -0.907, -1.753, 1.533], a = 0.2, v = 0.2, t = 0.2)
movej(p[-0.480678548567038, -0.241673748957588, 0.376157771092617, -0.907, -1.753, 1.533], a = 0.2, v = 0.2, t = 0.2)
movej(p[-0.480676667361861, -0.24167198270104, 0.376137227835357, -0.907, -1.753, 1.533], a = 0.2, v = 0.2, t = 0.2)
movej(p[-0.480699604863581, -0.241693518636134, 0.376387711410722, -0.907, -1.753, 1.533], a = 0.2, v = 0.2, t = 0.2)
movej(p[-0.480773499923076, -0.241762898432789, 0.377194664972221, -0.907, -1.753, 1.533], a = 0.2, v = 0.2, t = 0.2)
movej(p[-0.480892593412218, -0.241874714867014, 0.378495197319998, -0.907, -1.753, 1.533], a = 0.2, v = 0.2, t = 0.2)
movej(p[-0.481008172018003, -0.241983231190322, 0.37975734621342, -0.907, -1.753, 1.533], a = 0.2, v = 0.2, t = 0.2)
movej(p[-0.481082908669288, -0.24205340115438, 0.380573490179483, -0.907, -1.753, 1.533], a = 0.2, v = 0.2, t = 0.2)
movej(p[-0.481152381246438, -0.242118628698801, 0.38133214906602, -0.907, -1.753, 1.533], a = 0.2, v = 0.2, t = 0.2)
movej(p[-0.481130318340108, -0.242097913918067, 0.381091216303241, -0.907, -1.753, 1.533], a = 0.2, v = 0.2, t = 0.2)
movej(p[-0.480981802141926, -0.241958472611703, 0.379469380203756, -0.907, -1.753, 1.533], a = 0.2, v = 0.2, t = 0.2)
movej(p[-0.480830678659376, -0.241816583335739, 0.377819071870523, -0.907, -1.753, 1.533], a = 0.2, v = 0.2, t = 0.2)
movej(p[-0.480755578968495, -0.241746072515155, 0.376998963416217, -0.907, -1.753, 1.533], a = 0.2, v = 0.2, t = 0.2)
movej(p[-0.480717822850558, -0.241710623436382, 0.376586656638925, -0.907, -1.753, 1.533], a = 0.2, v = 0.2, t = 0.2)
movej(p[-0.480688763181113, -0.24168333942077, 0.376269317375459, -0.907, -1.753, 1.533], a = 0.2, v = 0.2, t = 0.2)
movej(p[-0.480681007335208, -0.241676057485882, 0.376184621490264, -0.907, -1.753, 1.533], a = 0.2, v = 0.2, t = 0.2)
movej(p[-0.480679060122832, -0.241674229255421, 0.37616335741696, -0.907, -1.753, 1.533], a = 0.2, v = 0.2, t = 0.2)
movej(p[-0.480697690654804, -0.24169172139263, 0.37636680774544, -0.907, -1.753, 1.533], a = 0.2, v = 0.2, t = 0.2)
movej(p[-0.480758763815856, -0.241749062756502, 0.37703374279035, -0.907, -1.753, 1.533], a = 0.2, v = 0.2, t = 0.2)
movej(p[-0.480867395163926, -0.241851056325368, 0.378220025795118, -0.907, -1.753, 1.533], a = 0.2, v = 0.2, t = 0.2)
movej(p[-0.480972313607042, -0.241949563861575, 0.3793657628974, -0.907, -1.753, 1.533], a = 0.2, v = 0.2, t = 0.2)
movej(p[-0.481056093244616, -0.242028224251842, 0.380280658661521, -0.907, -1.753, 1.533], a = 0.2, v = 0.2, t = 0.2)
movej(p[-0.481136457009632, -0.242103677492063, 0.381158252195353, -0.907, -1.753, 1.533], a = 0.2, v = 0.2, t = 0.2)
movej(p[-0.481140252423586, -0.242107240992115, 0.381199699117896, -0.907, -1.753, 1.533], a = 0.2, v = 0.2, t = 0.2)
movej(p[-0.481019574761663, -0.241993937183955, 0.379881867185058, -0.907, -1.753, 1.533], a = 0.2, v = 0.2, t = 0.2)
movej(p[-0.48086462286156, -0.241848453420983, 0.378189751521261, -0.907, -1.753, 1.533], a = 0.2, v = 0.2, t = 0.2)
movej(p[-0.480773450417677, -0.241762851952354, 0.377194124360188, -0.907, -1.753, 1.533], a = 0.2, v = 0.2, t = 0.2)
movej(p[-0.480722327841902, -0.241714853156008, 0.376635852333943, -0.907, -1.753, 1.533], a = 0.2, v = 0.2, t = 0.2)
movej(p[-0.480687789574925, -0.241682425305539, 0.376258685338807, -0.907, -1.753, 1.533], a = 0.2, v = 0.2, t = 0.2)
movej(p[-0.480680990833408, -0.241676041992404, 0.376184441286253, -0.907, -1.753, 1.533], a = 0.2, v = 0.2, t = 0.2)
movej(p[-0.480680495779415, -0.241675577188049, 0.376179035165921, -0.907, -1.753, 1.533], a = 0.2, v = 0.2, t = 0.2)
movej(p[-0.480691419970881, -0.241685833870806, 0.376298330221239, -0.907, -1.753, 1.533], a = 0.2, v = 0.2, t = 0.2)
movej(p[-0.480754143311913, -0.241744724582527, 0.376983285667255, -0.907, -1.753, 1.533], a = 0.2, v = 0.2, t = 0.2)
movej(p[-0.480861008967405, -0.241845060349194, 0.378150286842841, -0.907, -1.753, 1.533], a = 0.2, v = 0.2, t = 0.2)
movej(p[-0.480959359694201, -0.241937401480964, 0.379224302748722, -0.907, -1.753, 1.533], a = 0.2, v = 0.2, t = 0.2)
movej(p[-0.481043815905567, -0.242016697103849, 0.380146586877296, -0.907, -1.753, 1.533], a = 0.2, v = 0.2, t = 0.2)
movej(p[-0.48112683646035, -0.242094644794106, 0.381053193256909, -0.907, -1.753, 1.533], a = 0.2, v = 0.2, t = 0.2)
movej(p[-0.481147397702898, -0.242113949668299, 0.381277727454682, -0.907, -1.753, 1.533], a = 0.2, v = 0.2, t = 0.2)
movej(p[-0.481029129303746, -0.242002907907998, 0.379986205307458, -0.907, -1.753, 1.533], a = 0.2, v = 0.2, t = 0.2)
movej(p[-0.480894738646192, -0.241876729019217, 0.378518623841435, -0.907, -1.753, 1.533], a = 0.2, v = 0.2, t = 0.2)
movej(p[-0.480794044663824, -0.241782187813503, 0.377419018965984, -0.907, -1.753, 1.533], a = 0.2, v = 0.2, t = 0.2)
movej(p[-0.480730776763399, -0.241722785816992, 0.376728116787603, -0.907, -1.753, 1.533], a = 0.2, v = 0.2, t = 0.2)
movej(p[-0.480689307740507, -0.24168385070556, 0.376275264107824, -0.907, -1.753, 1.533], a = 0.2, v = 0.2, t = 0.2)
movej(p[-0.480680924826209, -0.24167598001849, 0.376183720470209, -0.907, -1.753, 1.533], a = 0.2, v = 0.2, t = 0.2)
movej(p[-0.480677129412256, -0.241672416518438, 0.376142273547666, -0.907, -1.753, 1.533], a = 0.2, v = 0.2, t = 0.2)
movej(p[-0.480671287775127, -0.241666931827054, 0.376078481327753, -0.907, -1.753, 1.533], a = 0.2, v = 0.2, t = 0.2)
movej(p[-0.480692410078869, -0.241686763479515, 0.376309142461902, -0.907, -1.753, 1.533], a = 0.2, v = 0.2, t = 0.2)
movej(p[-0.480782526407565, -0.241771373365521, 0.377293236566268, -0.907, -1.753, 1.533], a = 0.2, v = 0.2, t = 0.2)
movej(p[-0.480884144490721, -0.24186678220603, 0.378402932866338, -0.907, -1.753, 1.533], a = 0.2, v = 0.2, t = 0.2)
movej(p[-0.48097162053145, -0.241948913135478, 0.379358194328935, -0.907, -1.753, 1.533], a = 0.2, v = 0.2, t = 0.2)
movej(p[-0.481080383893919, -0.242051030652172, 0.380545918965792, -0.907, -1.753, 1.533], a = 0.2, v = 0.2, t = 0.2)
movej(p[-0.481156869735983, -0.242122842924949, 0.381381164557027, -0.907, -1.753, 1.533], a = 0.2, v = 0.2, t = 0.2)
movej(p[-0.481115648240087, -0.242084140215694, 0.380931014937414, -0.907, -1.753, 1.533], a = 0.2, v = 0.2, t = 0.2)
movej(p[-0.48098229719592, -0.241958937416058, 0.379474786324087, -0.907, -1.753, 1.533], a = 0.2, v = 0.2, t = 0.2)
movej(p[-0.48085810465064, -0.241842333496981, 0.378118570936895, -0.907, -1.753, 1.533], a = 0.2, v = 0.2, t = 0.2)
movej(p[-0.480767922314744, -0.241757661637062, 0.377133756016485, -0.907, -1.753, 1.533], a = 0.2, v = 0.2, t = 0.2)
movej(p[-0.480707476222084, -0.241700909025372, 0.376473668723995, -0.907, -1.753, 1.533], a = 0.2, v = 0.2, t = 0.2)
movej(p[-0.480689918307099, -0.241684423964264, 0.376281931656233, -0.907, -1.753, 1.533], a = 0.2, v = 0.2, t = 0.2)
movej(p[-0.480682162461194, -0.241677142029376, 0.376197235771038, -0.907, -1.753, 1.533], a = 0.2, v = 0.2, t = 0.2)
movej(p[-0.480670033638343, -0.24166575432269, 0.376064785822913, -0.907, -1.753, 1.533], a = 0.2, v = 0.2, t = 0.2)
movej(p[-0.480669951129344, -0.241665676855297, 0.376063884802858, -0.907, -1.753, 1.533], a = 0.2, v = 0.2, t = 0.2)
movej(p[-0.480691271454683, -0.2416856944295, 0.37629670838514, -0.907, -1.753, 1.533], a = 0.2, v = 0.2, t = 0.2)
movej(p[-0.480763037782004, -0.24175307556743, 0.377080415629213, -0.907, -1.753, 1.533], a = 0.2, v = 0.2, t = 0.2)
movej(p[-0.480839919667263, -0.241825259683691, 0.377919986116714, -0.907, -1.753, 1.533], a = 0.2, v = 0.2, t = 0.2)
movej(p[-0.480943270439398, -0.241922295339441, 0.379048603837945, -0.907, -1.753, 1.533], a = 0.2, v = 0.2, t = 0.2)
movej(p[-0.481034508890481, -0.242007958781984, 0.380044951815062, -0.907, -1.753, 1.533], a = 0.2, v = 0.2, t = 0.2)
movej(p[-0.481078123147347, -0.242048908045619, 0.380521231016278, -0.907, -1.753, 1.533], a = 0.2, v = 0.2, t = 0.2)
movej(p[-0.481023749717012, -0.241997857034012, 0.379927458799855, -0.907, -1.753, 1.533], a = 0.2, v = 0.2, t = 0.2)
movej(p[-0.480899705687931, -0.241881392556241, 0.378572865248762, -0.907, -1.753, 1.533], a = 0.2, v = 0.2, t = 0.2)
movej(p[-0.480799770788354, -0.241787564050537, 0.377481549757819, -0.907, -1.753, 1.533], a = 0.2, v = 0.2, t = 0.2)
movej(p[-0.480722756888697, -0.241715255986449, 0.37664053763823, -0.907, -1.753, 1.533], a = 0.2, v = 0.2, t = 0.2)
movej(p[-0.480698317723196, -0.241692310144813, 0.37637365549786, -0.907, -1.753, 1.533], a = 0.2, v = 0.2, t = 0.2)
movej(p[-0.480685066777959, -0.241679868881589, 0.376228951676983, -0.907, -1.753, 1.533], a = 0.2, v = 0.2, t = 0.2)
movej(p[-0.480671337280527, -0.24166697830749, 0.376079021939786, -0.907, -1.753, 1.533], a = 0.2, v = 0.2, t = 0.2)
movej(p[-0.480669802613145, -0.241665537413991, 0.376062262966758, -0.907, -1.753, 1.533], a = 0.2, v = 0.2, t = 0.2)
movej(p[-0.480669918125744, -0.24166564586834, 0.376063524394836, -0.907, -1.753, 1.533], a = 0.2, v = 0.2, t = 0.2)
movej(p[-0.4806898192963, -0.241684331003393, 0.376280850432167, -0.907, -1.753, 1.533], a = 0.2, v = 0.2, t = 0.2)
movej(p[-0.480750826450154, -0.241741610393351, 0.376947064661033, -0.907, -1.753, 1.533], a = 0.2, v = 0.2, t = 0.2)
movej(p[-0.480842097904836, -0.241827304822851, 0.377943773046173, -0.907, -1.753, 1.533], a = 0.2, v = 0.2, t = 0.2)
movej(p[-0.480929854476162, -0.241909699141433, 0.378902097976958, -0.907, -1.753, 1.533], a = 0.2, v = 0.2, t = 0.2)
movej(p[-0.480996587754545, -0.241972354768426, 0.37963084299766, -0.907, -1.753, 1.533], a = 0.2, v = 0.2, t = 0.2)
movej(p[-0.481071241896831, -0.242042447265091, 0.380446085943668, -0.907, -1.753, 1.533], a = 0.2, v = 0.2, t = 0.2)
movej(p[-0.481072281510218, -0.242043423354236, 0.380457438796364, -0.907, -1.753, 1.533], a = 0.2, v = 0.2, t = 0.2)
movej(p[-0.480963138606354, -0.241940949487537, 0.379265569467254, -0.907, -1.753, 1.533], a = 0.2, v = 0.2, t = 0.2)
movej(p[-0.480838748039477, -0.241824159646718, 0.377907191631929, -0.907, -1.753, 1.533], a = 0.2, v = 0.2, t = 0.2)
movej(p[-0.480761882656018, -0.241751991023936, 0.377067801348439, -0.907, -1.753, 1.533], a = 0.2, v = 0.2, t = 0.2)
movej(p[-0.480717938363156, -0.241710731890731, 0.376587918067003, -0.907, -1.753, 1.533], a = 0.2, v = 0.2, t = 0.2)
movej(p[-0.480685198792357, -0.241679992829417, 0.376230393309072, -0.907, -1.753, 1.533], a = 0.2, v = 0.2, t = 0.2)
movej(p[-0.480675248207079, -0.241670650261891, 0.376121730290406, -0.907, -1.753, 1.533], a = 0.2, v = 0.2, t = 0.2)
movej(p[-0.480670396677938, -0.241666095179216, 0.376068750311156, -0.907, -1.753, 1.533], a = 0.2, v = 0.2, t = 0.2)
movej(p[-0.480668251443964, -0.241664081027013, 0.376045323789719, -0.907, -1.753, 1.533], a = 0.2, v = 0.2, t = 0.2)
movej(p[-0.480657063223701, -0.2416535764486, 0.375923145470225, -0.907, -1.753, 1.533], a = 0.2, v = 0.2, t = 0.2)
movej(p[-0.480657261245299, -0.241653762370342, 0.375925307918357, -0.907, -1.753, 1.533], a = 0.2, v = 0.2, t = 0.2)
movej(p[-0.480682921543985, -0.241677854729386, 0.376205525155546, -0.907, -1.753, 1.533], a = 0.2, v = 0.2, t = 0.2)
movej(p[-0.480739258688495, -0.241730749464933, 0.376820741649284, -0.907, -1.753, 1.533], a = 0.2, v = 0.2, t = 0.2)
movej(p[-0.480809028298041, -0.241796255891967, 0.377582644208021, -0.907, -1.753, 1.533], a = 0.2, v = 0.2, t = 0.2)
movej(p[-0.480896223808173, -0.241878123432281, 0.37853484220243, -0.907, -1.753, 1.533], a = 0.2, v = 0.2, t = 0.2)
movej(p[-0.480969458795677, -0.241946883489797, 0.379334587603487, -0.907, -1.753, 1.533], a = 0.2, v = 0.2, t = 0.2)
movej(p[-0.481030795985526, -0.242004472749325, 0.380004405912575, -0.907, -1.753, 1.533], a = 0.2, v = 0.2, t = 0.2)
movej(p[-0.481071505925628, -0.242042695160747, 0.380448969207845, -0.907, -1.753, 1.533], a = 0.2, v = 0.2, t = 0.2)
movej(p[-0.480992379795596, -0.241968403931412, 0.379584890974841, -0.907, -1.753, 1.533], a = 0.2, v = 0.2, t = 0.2)
movej(p[-0.480868995838507, -0.241852559192781, 0.378237505584191, -0.907, -1.753, 1.533], a = 0.2, v = 0.2, t = 0.2)
movej(p[-0.480761173078627, -0.241751324804361, 0.377060052575964, -0.907, -1.753, 1.533], a = 0.2, v = 0.2, t = 0.2)
movej(p[-0.480715298075188, -0.241708252934173, 0.376559085425234, -0.907, -1.753, 1.533], a = 0.2, v = 0.2, t = 0.2)
movej(p[-0.480689588271103, -0.241684114094694, 0.376278327576012, -0.907, -1.753, 1.533], a = 0.2, v = 0.2, t = 0.2)
movej(p[-0.480670776219334, -0.241666451529221, 0.37607289500341, -0.907, -1.753, 1.533], a = 0.2, v = 0.2, t = 0.2)
movej(p[-0.480665825679394, -0.241661803485676, 0.376018833800094, -0.907, -1.753, 1.533], a = 0.2, v = 0.2, t = 0.2)
movej(p[-0.480663036875228, -0.241659185087812, 0.375988379322226, -0.907, -1.753, 1.533], a = 0.2, v = 0.2, t = 0.2)
movej(p[-0.480663152387827, -0.241659293542161, 0.375989640750304, -0.907, -1.753, 1.533], a = 0.2, v = 0.2, t = 0.2)
movej(p[-0.480655429545521, -0.241652042594231, 0.37590530527313, -0.907, -1.753, 1.533], a = 0.2, v = 0.2, t = 0.2)
movej(p[-0.480669109537554, -0.241664886687894, 0.376054694398294, -0.907, -1.753, 1.533], a = 0.2, v = 0.2, t = 0.2)
movej(p[-0.480733879101761, -0.241725698590947, 0.376761995141681, -0.907, -1.753, 1.533], a = 0.2, v = 0.2, t = 0.2)
movej(p[-0.480804506804896, -0.241792010678862, 0.377533268308992, -0.907, -1.753, 1.533], a = 0.2, v = 0.2, t = 0.2)
movej(p[-0.48088754386148, -0.241869973862598, 0.378440054892615, -0.907, -1.753, 1.533], a = 0.2, v = 0.2, t = 0.2)
movej(p[-0.48098068001954, -0.241957419055166, 0.379457126331004, -0.907, -1.753, 1.533], a = 0.2, v = 0.2, t = 0.2)
movej(p[-0.481051340726274, -0.242023762130038, 0.380228759906337, -0.907, -1.753, 1.533], a = 0.2, v = 0.2, t = 0.2)
movej(p[-0.481056142750016, -0.242028270732277, 0.380281199273554, -0.907, -1.753, 1.533], a = 0.2, v = 0.2, t = 0.2)
movej(p[-0.480956636897234, -0.241934845057014, 0.379194569086898, -0.907, -1.753, 1.533], a = 0.2, v = 0.2, t = 0.2)
movej(p[-0.48084998576514, -0.241834710705567, 0.378029910563457, -0.907, -1.753, 1.533], a = 0.2, v = 0.2, t = 0.2)
movej(p[-0.480765942098769, -0.241755802419643, 0.377112131535159, -0.907, -1.753, 1.533], a = 0.2, v = 0.2, t = 0.2)
movej(p[-0.480708053785077, -0.241701451297119, 0.376479975864381, -0.907, -1.753, 1.533], a = 0.2, v = 0.2, t = 0.2)
movej(p[-0.48068579285715, -0.241680550594643, 0.37623688065347, -0.907, -1.753, 1.533], a = 0.2, v = 0.2, t = 0.2)
movej(p[-0.480675050185481, -0.241670464340149, 0.376119567842273, -0.907, -1.753, 1.533], a = 0.2, v = 0.2, t = 0.2)
movej(p[-0.480660017045865, -0.241656349781249, 0.375955401988203, -0.907, -1.753, 1.533], a = 0.2, v = 0.2, t = 0.2)
movej(p[-0.480660693619657, -0.241656985013867, 0.375962790352657, -0.907, -1.753, 1.533], a = 0.2, v = 0.2, t = 0.2)
movej(p[-0.480659488988272, -0.241655853989938, 0.37594963545985, -0.907, -1.753, 1.533], a = 0.2, v = 0.2, t = 0.2)
movej(p[-0.48066369694722, -0.241659804826951, 0.375995587482668, -0.907, -1.753, 1.533], a = 0.2, v = 0.2, t = 0.2)
movej(p[-0.480706601626695, -0.241700087871012, 0.376464117911409, -0.907, -1.753, 1.533], a = 0.2, v = 0.2, t = 0.2)
movej(p[-0.480789341650882, -0.241777772172135, 0.377367660822833, -0.907, -1.753, 1.533], a = 0.2, v = 0.2, t = 0.2)
movej(p[-0.480870464498689, -0.241853938112366, 0.378253543741174, -0.907, -1.753, 1.533], a = 0.2, v = 0.2, t = 0.2)
movej(p[-0.480932049215535, -0.241911759774072, 0.378926065110428, -0.907, -1.753, 1.533], a = 0.2, v = 0.2, t = 0.2)
movej(p[-0.481023386677417, -0.241997516177485, 0.379923494311612, -0.907, -1.753, 1.533], a = 0.2, v = 0.2, t = 0.2)
movej(p[-0.481103568922635, -0.242072798989443, 0.380799105601323, -0.907, -1.753, 1.533], a = 0.2, v = 0.2, t = 0.2)
movej(p[-0.481061604845749, -0.242033399073656, 0.380340846801213, -0.907, -1.753, 1.533], a = 0.2, v = 0.2, t = 0.2)
movej(p[-0.480925167965019, -0.241905298993543, 0.378850920037818, -0.907, -1.753, 1.533], a = 0.2, v = 0.2, t = 0.2)
movej(p[-0.480828203389406, -0.241814259313967, 0.377792041268865, -0.907, -1.753, 1.533], a = 0.2, v = 0.2, t = 0.2)
movej(p[-0.480748945244977, -0.241739844136804, 0.376926521403773, -0.907, -1.753, 1.533], a = 0.2, v = 0.2, t = 0.2)
movej(p[-0.480691832515876, -0.241686221207768, 0.376302835321515, -0.907, -1.753, 1.533], a = 0.2, v = 0.2, t = 0.2)
movej(p[-0.480677772982448, -0.241673020764099, 0.376149301504097, -0.907, -1.753, 1.533], a = 0.2, v = 0.2, t = 0.2)
movej(p[-0.480669984132943, -0.241665707842254, 0.37606424521088, -0.907, -1.753, 1.533], a = 0.2, v = 0.2, t = 0.2)
movej(p[-0.480665842181194, -0.241661818979154, 0.376019014004105, -0.907, -1.753, 1.533], a = 0.2, v = 0.2, t = 0.2)
movej(p[-0.480656271137311, -0.241652832761633, 0.375914495677694, -0.907, -1.753, 1.533], a = 0.2, v = 0.2, t = 0.2)
movej(p[-0.480657261245299, -0.241653762370342, 0.375925307918357, -0.907, -1.753, 1.533], a = 0.2, v = 0.2, t = 0.2)
movej(p[-0.480663366911224, -0.241659494957382, 0.375991983402447, -0.907, -1.753, 1.533], a = 0.2, v = 0.2, t = 0.2)
movej(p[-0.480704621410719, -0.241698228653594, 0.376442493430082, -0.907, -1.753, 1.533], a = 0.2, v = 0.2, t = 0.2)
movej(p[-0.480783103970558, -0.241771915637268, 0.377299543706655, -0.907, -1.753, 1.533], a = 0.2, v = 0.2, t = 0.2)
movej(p[-0.480866801099134, -0.241850498560143, 0.378213538450721, -0.907, -1.753, 1.533], a = 0.2, v = 0.2, t = 0.2)
movej(p[-0.480937527813068, -0.241916903608929, 0.378985892842098, -0.907, -1.753, 1.533], a = 0.2, v = 0.2, t = 0.2)
movej(p[-0.480998716486719, -0.24197435342715, 0.379654089315086, -0.907, -1.753, 1.533], a = 0.2, v = 0.2, t = 0.2)
movej(p[-0.481059410106376, -0.242031338441017, 0.380316879667742, -0.907, -1.753, 1.533], a = 0.2, v = 0.2, t = 0.2)
movej(p[-0.481025795940187, -0.241999778225344, 0.379949804097225, -0.907, -1.753, 1.533], a = 0.2, v = 0.2, t = 0.2)
movej(p[-0.480894161083199, -0.24187618674747, 0.378512316701048, -0.907, -1.753, 1.533], a = 0.2, v = 0.2, t = 0.2)
movej(p[-0.480799902802753, -0.241787687998365, 0.377482991389908, -0.907, -1.753, 1.533], a = 0.2, v = 0.2, t = 0.2)
movej(p[-0.480732393939779, -0.241724304177884, 0.376745776780686, -0.907, -1.753, 1.533], a = 0.2, v = 0.2, t = 0.2)
movej(p[-0.480699571859981, -0.241693487649177, 0.3763873510027, -0.907, -1.753, 1.533], a = 0.2, v = 0.2, t = 0.2)
movej(p[-0.480668333952963, -0.241664158494406, 0.376046224809775, -0.907, -1.753, 1.533], a = 0.2, v = 0.2, t = 0.2)
movej(p[-0.480662541821234, -0.241658720283457, 0.375982973201895, -0.907, -1.753, 1.533], a = 0.2, v = 0.2, t = 0.2)
movej(p[-0.480660875139455, -0.24165715544213, 0.375964772596778, -0.907, -1.753, 1.533], a = 0.2, v = 0.2, t = 0.2)
movej(p[-0.48064980243179, -0.241646759318067, 0.375843855705361, -0.907, -1.753, 1.533], a = 0.2, v = 0.2, t = 0.2)
movej(p[-0.48065064402358, -0.24164754948547, 0.375853046109925, -0.907, -1.753, 1.533], a = 0.2, v = 0.2, t = 0.2)
movej(p[-0.480652822261153, -0.24164959462463, 0.375876833039384, -0.907, -1.753, 1.533], a = 0.2, v = 0.2, t = 0.2)
movej(p[-0.480695743442428, -0.241689893162169, 0.376345543672135, -0.907, -1.753, 1.533], a = 0.2, v = 0.2, t = 0.2)
movej(p[-0.480756998123278, -0.241747404954305, 0.377014460961167, -0.907, -1.753, 1.533], a = 0.2, v = 0.2, t = 0.2)
movej(p[-0.480840497230256, -0.241825801955438, 0.3779262932571, -0.907, -1.753, 1.533], a = 0.2, v = 0.2, t = 0.2)
movej(p[-0.480925184466819, -0.241905314487022, 0.378851100241829, -0.907, -1.753, 1.533], a = 0.2, v = 0.2, t = 0.2)
movej(p[-0.480980878041137, -0.241957604976908, 0.379459288779137, -0.907, -1.753, 1.533], a = 0.2, v = 0.2, t = 0.2)
movej(p[-0.481037924763039, -0.24201116593203, 0.38008225404535, -0.907, -1.753, 1.533], a = 0.2, v = 0.2, t = 0.2)
movej(p[-0.481045664107144, -0.24201843237344, 0.380166769726534, -0.907, -1.753, 1.533], a = 0.2, v = 0.2, t = 0.2)
movej(p[-0.48092587754241, -0.241905965213118, 0.378858668810294, -0.907, -1.753, 1.533], a = 0.2, v = 0.2, t = 0.2)
movej(p[-0.480807592641459, -0.241794907959339, 0.377566966459059, -0.907, -1.753, 1.533], a = 0.2, v = 0.2, t = 0.2)
movej(p[-0.480741948481862, -0.241733274901926, 0.376850114903086, -0.907, -1.753, 1.533], a = 0.2, v = 0.2, t = 0.2)
movej(p[-0.480702063631751, -0.241695827164429, 0.376414561808369, -0.907, -1.753, 1.533], a = 0.2, v = 0.2, t = 0.2)
movej(p[-0.480682145959394, -0.241677126535897, 0.376197055567027, -0.907, -1.753, 1.533], a = 0.2, v = 0.2, t = 0.2)
movej(p[-0.480660710121457, -0.241657000507346, 0.375962970556668, -0.907, -1.753, 1.533], a = 0.2, v = 0.2, t = 0.2)
movej(p[-0.480658861919879, -0.241655265237755, 0.37594278770743, -0.907, -1.753, 1.533], a = 0.2, v = 0.2, t = 0.2)
movej(p[-0.480659175454076, -0.241655559613847, 0.37594621158364, -0.907, -1.753, 1.533], a = 0.2, v = 0.2, t = 0.2)
movej(p[-0.480652805759354, -0.241649579131151, 0.375876652835373, -0.907, -1.753, 1.533], a = 0.2, v = 0.2, t = 0.2)
movej(p[-0.480699159314986, -0.241693100312215, 0.376382845902423, -0.907, -1.753, 1.533], a = 0.2, v = 0.2, t = 0.2)
movej(p[-0.480780067639396, -0.241769064837226, 0.377266386168621, -0.907, -1.753, 1.533], a = 0.2, v = 0.2, t = 0.2)
movej(p[-0.480865563464149, -0.241849336549256, 0.378200023149891, -0.907, -1.753, 1.533], a = 0.2, v = 0.2, t = 0.2)
movej(p[-0.480936719224878, -0.241916144428483, 0.378977062845556, -0.907, -1.753, 1.533], a = 0.2, v = 0.2, t = 0.2)
movej(p[-0.481027561632766, -0.242001436027542, 0.379969085926408, -0.907, -1.753, 1.533], a = 0.2, v = 0.2, t = 0.2)
movej(p[-0.481093304803161, -0.242063162045825, 0.380687018706447, -0.907, -1.753, 1.533], a = 0.2, v = 0.2, t = 0.2)
movej(p[-0.481032528674505, -0.242006099564566, 0.380023327333735, -0.907, -1.753, 1.533], a = 0.2, v = 0.2, t = 0.2)
movej(p[-0.480906751956445, -0.241888008271554, 0.378649812361482, -0.907, -1.753, 1.533], a = 0.2, v = 0.2, t = 0.2)
movej(p[-0.480801998531327, -0.241789655670133, 0.377505877299312, -0.907, -1.753, 1.533], a = 0.2, v = 0.2, t = 0.2)
movej(p[-0.480732443445179, -0.241724350658319, 0.376746317392719, -0.907, -1.753, 1.533], a = 0.2, v = 0.2, t = 0.2)
movej(p[-0.480683796139374, -0.241678675883746, 0.376215075968132, -0.907, -1.753, 1.533], a = 0.2, v = 0.2, t = 0.2)
movej(p[-0.480671700320122, -0.241667319164017, 0.37608298642803, -0.907, -1.753, 1.533], a = 0.2, v = 0.2, t = 0.2)
movej(p[-0.480666221722589, -0.24166217532916, 0.37602315869636, -0.907, -1.753, 1.533], a = 0.2, v = 0.2, t = 0.2)
movej(p[-0.480658927927079, -0.241655327211669, 0.375943508523474, -0.907, -1.753, 1.533], a = 0.2, v = 0.2, t = 0.2)
movej(p[-0.480651172081174, -0.241648045276781, 0.375858812638278, -0.907, -1.753, 1.533], a = 0.2, v = 0.2, t = 0.2)
movej(p[-0.480653350318747, -0.241650090415941, 0.375882599567738, -0.907, -1.753, 1.533], a = 0.2, v = 0.2, t = 0.2)
movej(p[-0.480692393577069, -0.241686747986037, 0.376308962257891, -0.907, -1.753, 1.533], a = 0.2, v = 0.2, t = 0.2)
movej(p[-0.480763912377393, -0.24175389672179, 0.377089966441799, -0.907, -1.753, 1.533], a = 0.2, v = 0.2, t = 0.2)
movej(p[-0.48085569538787, -0.241840071449122, 0.378092261151281, -0.907, -1.753, 1.533], a = 0.2, v = 0.2, t = 0.2)
movej(p[-0.480949128578326, -0.241927795524303, 0.379112576261869, -0.907, -1.753, 1.533], a = 0.2, v = 0.2, t = 0.2)
movej(p[-0.481015300795516, -0.241989924373028, 0.379835194346195, -0.907, -1.753, 1.533], a = 0.2, v = 0.2, t = 0.2)
movej(p[-0.481070251788843, -0.242041517656382, 0.380435273703005, -0.907, -1.753, 1.533], a = 0.2, v = 0.2, t = 0.2)
movej(p[-0.481058618019985, -0.24203059475405, 0.380308229875212, -0.907, -1.753, 1.533], a = 0.2, v = 0.2, t = 0.2)
movej(p[-0.480924656409225, -0.24190481869571, 0.378845333713476, -0.907, -1.753, 1.533], a = 0.2, v = 0.2, t = 0.2)
movej(p[-0.480792130455048, -0.241780390569999, 0.377398115300701, -0.907, -1.753, 1.533], a = 0.2, v = 0.2, t = 0.2)
movej(p[-0.480728516016827, -0.24172066321044, 0.376703428838088, -0.907, -1.753, 1.533], a = 0.2, v = 0.2, t = 0.2)
movej(p[-0.480693268172458, -0.241687569140396, 0.376318513070477, -0.907, -1.753, 1.533], a = 0.2, v = 0.2, t = 0.2)
movej(p[-0.480671634312923, -0.241667257190103, 0.376082265611985, -0.907, -1.753, 1.533], a = 0.2, v = 0.2, t = 0.2)
movej(p[-0.480659422981073, -0.241655792016024, 0.375948914643805, -0.907, -1.753, 1.533], a = 0.2, v = 0.2, t = 0.2)
movej(p[-0.480657096227301, -0.241653607435557, 0.375923505878247, -0.907, -1.753, 1.533], a = 0.2, v = 0.2, t = 0.2)
movej(p[-0.480657376757898, -0.241653870824692, 0.375926569346435, -0.907, -1.753, 1.533], a = 0.2, v = 0.2, t = 0.2)
movej(p[-0.480647574688818, -0.241644667698472, 0.375819528163869, -0.907, -1.753, 1.533], a = 0.2, v = 0.2, t = 0.2)
movej(p[-0.480663152387827, -0.241659293542161, 0.375989640750304, -0.907, -1.753, 1.533], a = 0.2, v = 0.2, t = 0.2)
movej(p[-0.480727063858444, -0.241719299784333, 0.376687570885116, -0.907, -1.753, 1.533], a = 0.2, v = 0.2, t = 0.2)
movej(p[-0.480790513278668, -0.241778872209107, 0.377380455307618, -0.907, -1.753, 1.533], a = 0.2, v = 0.2, t = 0.2)
movej(p[-0.48087120707968, -0.241854635318898, 0.378261652921672, -0.907, -1.753, 1.533], a = 0.2, v = 0.2, t = 0.2)
movej(p[-0.480960316798589, -0.241938300102716, 0.379234754581363, -0.907, -1.753, 1.533], a = 0.2, v = 0.2, t = 0.2)
movej(p[-0.48102964085954, -0.242003388205831, 0.379991791631801, -0.907, -1.753, 1.533], a = 0.2, v = 0.2, t = 0.2)
movej(p[-0.481068106554869, -0.242039503504179, 0.380411847181568, -0.907, -1.753, 1.533], a = 0.2, v = 0.2, t = 0.2)
movej(p[-0.481008238025202, -0.241983293164236, 0.379758067029464, -0.907, -1.753, 1.533], a = 0.2, v = 0.2, t = 0.2)
movej(p[-0.480897510948558, -0.241879331923603, 0.378548898115292, -0.907, -1.753, 1.533], a = 0.2, v = 0.2, t = 0.2)
movej(p[-0.480783929060548, -0.241772690311192, 0.377308553907208, -0.907, -1.753, 1.533], a = 0.2, v = 0.2, t = 0.2)
movej(p[-0.48071597464898, -0.241708888166791, 0.376566473789687, -0.907, -1.753, 1.533], a = 0.2, v = 0.2, t = 0.2)
movej(p[-0.480689439754905, -0.241683974653388, 0.376276705739913, -0.907, -1.753, 1.533], a = 0.2, v = 0.2, t = 0.2)
movej(p[-0.480672789438909, -0.241668341733597, 0.376094879892759, -0.907, -1.753, 1.533], a = 0.2, v = 0.2, t = 0.2)
movej(p[-0.480654950993327, -0.241651593283354, 0.37590007935681, -0.907, -1.753, 1.533], a = 0.2, v = 0.2, t = 0.2)
movej(p[-0.480654538448332, -0.241651205946392, 0.375895574256533, -0.907, -1.753, 1.533], a = 0.2, v = 0.2, t = 0.2)
movej(p[-0.480655924599515, -0.241652507398585, 0.375910711393462, -0.907, -1.753, 1.533], a = 0.2, v = 0.2, t = 0.2)
movej(p[-0.48065308628995, -0.241649842520286, 0.375879716303561, -0.907, -1.753, 1.533], a = 0.2, v = 0.2, t = 0.2)
movej(p[-0.480691783010476, -0.241686174727333, 0.376302294709482, -0.907, -1.753, 1.533], a = 0.2, v = 0.2, t = 0.2)
movej(p[-0.48076665167616, -0.241756468639218, 0.377119880307634, -0.907, -1.753, 1.533], a = 0.2, v = 0.2, t = 0.2)
movej(p[-0.48084180087244, -0.241827025940238, 0.377940529373974, -0.907, -1.753, 1.533], a = 0.2, v = 0.2, t = 0.2)
movej(p[-0.480903105058689, -0.241884584212809, 0.378609987275039, -0.907, -1.753, 1.533], a = 0.2, v = 0.2, t = 0.2)
movej(p[-0.480961653444372, -0.241939555074473, 0.379249351106259, -0.907, -1.753, 1.533], a = 0.2, v = 0.2, t = 0.2)
movej(p[-0.48091119094059, -0.241892176017267, 0.378698287240456, -0.907, -1.753, 1.533], a = 0.2, v = 0.2, t = 0.2)
movej(p[-0.480799209727161, -0.241787037272269, 0.377475422821443, -0.907, -1.753, 1.533], a = 0.2, v = 0.2, t = 0.2)
movej(p[-0.480724473075876, -0.241716867308211, 0.37665927885538, -0.907, -1.753, 1.533], a = 0.2, v = 0.2, t = 0.2)
movej(p[-0.480691832515876, -0.241686221207768, 0.376302835321515, -0.907, -1.753, 1.533], a = 0.2, v = 0.2, t = 0.2)
movej(p[-0.480674423117089, -0.241669875587967, 0.376112720089853, -0.907, -1.753, 1.533], a = 0.2, v = 0.2, t = 0.2)
movej(p[-0.480654818978929, -0.241651469335527, 0.375898637724721, -0.907, -1.753, 1.533], a = 0.2, v = 0.2, t = 0.2)
movej(p[-0.480654109401538, -0.241650803115952, 0.375890888952246, -0.907, -1.753, 1.533], a = 0.2, v = 0.2, t = 0.2)
movej(p[-0.480656254635511, -0.241652817268155, 0.375914315473683, -0.907, -1.753, 1.533], a = 0.2, v = 0.2, t = 0.2)
movej(p[-0.480687921589324, -0.241682549253367, 0.376260126970896, -0.907, -1.753, 1.533], a = 0.2, v = 0.2, t = 0.2)
movej(p[-0.480755859499092, -0.241746335904289, 0.377002026884405, -0.907, -1.753, 1.533], a = 0.2, v = 0.2, t = 0.2)
movej(p[-0.480859045253229, -0.241843216625255, 0.378128842565525, -0.907, -1.753, 1.533], a = 0.2, v = 0.2, t = 0.2)
movej(p[-0.48095533325505, -0.241933621072214, 0.379180332970025, -0.907, -1.753, 1.533], a = 0.2, v = 0.2, t = 0.2)
movej(p[-0.481028766264151, -0.242002567051471, 0.379982240819215, -0.907, -1.753, 1.533], a = 0.2, v = 0.2, t = 0.2)
movej(p[-0.481090020945001, -0.242060078843607, 0.380651158108248, -0.907, -1.753, 1.533], a = 0.2, v = 0.2, t = 0.2)
movej(p[-0.481049377012099, -0.242021918406099, 0.380207315629022, -0.907, -1.753, 1.533], a = 0.2, v = 0.2, t = 0.2)
movej(p[-0.480927973270985, -0.241907932884886, 0.378881554719698, -0.907, -1.753, 1.533], a = 0.2, v = 0.2, t = 0.2)
movej(p[-0.480820018496706, -0.241806574548638, 0.377702660079383, -0.907, -1.753, 1.533], a = 0.2, v = 0.2, t = 0.2)
movej(p[-0.48075356574892, -0.24174418231078, 0.376976978526868, -0.907, -1.753, 1.533], a = 0.2, v = 0.2, t = 0.2)
movej(p[-0.480708334315674, -0.241701714686253, 0.376483039332569, -0.907, -1.753, 1.533], a = 0.2, v = 0.2, t = 0.2)
movej(p[-0.480671617811123, -0.241667241696624, 0.376082085407974, -0.907, -1.753, 1.533], a = 0.2, v = 0.2, t = 0.2)
movej(p[-0.480665264618201, -0.241661276707407, 0.376012706863718, -0.907, -1.753, 1.533], a = 0.2, v = 0.2, t = 0.2)
movej(p[-0.480662459312235, -0.241658642816065, 0.375982072181839, -0.907, -1.753, 1.533], a = 0.2, v = 0.2, t = 0.2)
movej(p[-0.480667690382771, -0.241663554248745, 0.376039196853343, -0.907, -1.753, 1.533], a = 0.2, v = 0.2, t = 0.2)
movej(p[-0.480707921770679, -0.241701327349291, 0.376478534232293, -0.907, -1.753, 1.533], a = 0.2, v = 0.2, t = 0.2)
movej(p[-0.480793632118829, -0.241781800476541, 0.377414513865707, -0.907, -1.753, 1.533], a = 0.2, v = 0.2, t = 0.2)
movej(p[-0.480895877270378, -0.241877798069233, 0.378531057918198, -0.907, -1.753, 1.533], a = 0.2, v = 0.2, t = 0.2)
movej(p[-0.481006637350622, -0.241981790296823, 0.379740587240392, -0.907, -1.753, 1.533], a = 0.2, v = 0.2, t = 0.2)
movej(p[-0.481104955073818, -0.242074100441636, 0.380814242738251, -0.907, -1.753, 1.533], a = 0.2, v = 0.2, t = 0.2)
movej(p[-0.481131572476892, -0.242099091422432, 0.381104911808081, -0.907, -1.753, 1.533], a = 0.2, v = 0.2, t = 0.2)
movej(p[-0.481016934473696, -0.241991458227398, 0.37985303454329, -0.907, -1.753, 1.533], a = 0.2, v = 0.2, t = 0.2)
movej(p[-0.480900811308517, -0.2418824306193, 0.378584938917503, -0.907, -1.753, 1.533], a = 0.2, v = 0.2, t = 0.2)
movej(p[-0.480803962245503, -0.241791499394072, 0.377527321576627, -0.907, -1.753, 1.533], a = 0.2, v = 0.2, t = 0.2)
movej(p[-0.480735199245745, -0.241726938069226, 0.376776411462565, -0.907, -1.753, 1.533], a = 0.2, v = 0.2, t = 0.2)
movej(p[-0.480684406705967, -0.24167924914245, 0.376221743516541, -0.907, -1.753, 1.533], a = 0.2, v = 0.2, t = 0.2)
movej(p[-0.480672195374116, -0.241667783968371, 0.376088392548361, -0.907, -1.753, 1.533], a = 0.2, v = 0.2, t = 0.2)
movej(p[-0.480665182109202, -0.241661199240015, 0.376011805843663, -0.907, -1.753, 1.533], a = 0.2, v = 0.2, t = 0.2)
movej(p[-0.480656683682306, -0.241653220098595, 0.37591900077797, -0.907, -1.753, 1.533], a = 0.2, v = 0.2, t = 0.2)
movej(p[-0.480651650633368, -0.241648494587657, 0.375864038554599, -0.907, -1.753, 1.533], a = 0.2, v = 0.2, t = 0.2)
movej(p[-0.480673565023499, -0.241669069927085, 0.376103349481279, -0.907, -1.753, 1.533], a = 0.2, v = 0.2, t = 0.2)
movej(p[-0.480746519480406, -0.241737566595467, 0.376900031414148, -0.907, -1.753, 1.533], a = 0.2, v = 0.2, t = 0.2)
movej(p[-0.480830299117981, -0.241816226985734, 0.377814927178269, -0.907, -1.753, 1.533], a = 0.2, v = 0.2, t = 0.2)
movej(p[-0.480941719270217, -0.241920838952464, 0.379031664660905, -0.907, -1.753, 1.533], a = 0.2, v = 0.2, t = 0.2)
movej(p[-0.481049030474303, -0.24202159304305, 0.380203531344789, -0.907, -1.753, 1.533], a = 0.2, v = 0.2, t = 0.2)
movej(p[-0.481110664696548, -0.242079461185191, 0.380876593326076, -0.907, -1.753, 1.533], a = 0.2, v = 0.2, t = 0.2)
movej(p[-0.481078799721138, -0.242049543278237, 0.380528619380731, -0.907, -1.753, 1.533], a = 0.2, v = 0.2, t = 0.2)
movej(p[-0.480969920846071, -0.241947317307194, 0.379339633315797, -0.907, -1.753, 1.533], a = 0.2, v = 0.2, t = 0.2)
movej(p[-0.480843880099214, -0.241828978118527, 0.377963235079367, -0.907, -1.753, 1.533], a = 0.2, v = 0.2, t = 0.2)
movej(p[-0.480739258688495, -0.241730749464933, 0.376820741649284, -0.907, -1.753, 1.533], a = 0.2, v = 0.2, t = 0.2)
movej(p[-0.480698680762792, -0.241692651001339, 0.376377619986103, -0.907, -1.753, 1.533], a = 0.2, v = 0.2, t = 0.2)
movej(p[-0.480678598072438, -0.241673795438023, 0.37615831170465, -0.907, -1.753, 1.533], a = 0.2, v = 0.2, t = 0.2)
movej(p[-0.480665462639799, -0.241661462629149, 0.376014869311851, -0.907, -1.753, 1.533], a = 0.2, v = 0.2, t = 0.2)
movej(p[-0.480650743034379, -0.241647642446341, 0.375854127333991, -0.907, -1.753, 1.533], a = 0.2, v = 0.2, t = 0.2)
movej(p[-0.480652970777352, -0.241649734065936, 0.375878454875483, -0.907, -1.753, 1.533], a = 0.2, v = 0.2, t = 0.2)
movej(p[-0.480682971049384, -0.241677901209822, 0.376206065767579, -0.907, -1.753, 1.533], a = 0.2, v = 0.2, t = 0.2)
movej(p[-0.480745116827423, -0.241736249649796, 0.376884714073209, -0.907, -1.753, 1.533], a = 0.2, v = 0.2, t = 0.2)
movej(p[-0.480852461035109, -0.241837034727339, 0.378056941165115, -0.907, -1.753, 1.533], a = 0.2, v = 0.2, t = 0.2)
movej(p[-0.480958633615009, -0.241936719767911, 0.379216373772236, -0.907, -1.753, 1.533], a = 0.2, v = 0.2, t = 0.2)
movej(p[-0.481035482496669, -0.242008872897214, 0.380055583851714, -0.907, -1.753, 1.533], a = 0.2, v = 0.2, t = 0.2)
movej(p[-0.481103601926235, -0.2420728299764, 0.380799466009345, -0.907, -1.753, 1.533], a = 0.2, v = 0.2, t = 0.2)
movej(p[-0.481064542166113, -0.242036156912826, 0.38037292311518, -0.907, -1.753, 1.533], a = 0.2, v = 0.2, t = 0.2)
movej(p[-0.480947230871349, -0.241926013774278, 0.379091852800598, -0.907, -1.753, 1.533], a = 0.2, v = 0.2, t = 0.2)
movej(p[-0.480811949116605, -0.241798998237659, 0.377614540317977, -0.907, -1.753, 1.533], a = 0.2, v = 0.2, t = 0.2)
movej(p[-0.480747146548799, -0.241738155347649, 0.376906879166568, -0.907, -1.753, 1.533], a = 0.2, v = 0.2, t = 0.2)
movej(p[-0.48070373031353, -0.241697392005756, 0.376432762413485, -0.907, -1.753, 1.533], a = 0.2, v = 0.2, t = 0.2)
movej(p[-0.480679918216422, -0.241675034916302, 0.376172728025534, -0.907, -1.753, 1.533], a = 0.2, v = 0.2, t = 0.2)
movej(p[-0.48065800382629, -0.241654459576874, 0.375933417098855, -0.907, -1.753, 1.533], a = 0.2, v = 0.2, t = 0.2)
movej(p[-0.480655017000526, -0.241651655257268, 0.375900800172854, -0.907, -1.753, 1.533], a = 0.2, v = 0.2, t = 0.2)
movej(p[-0.480658894923479, -0.241655296224712, 0.375943148115452, -0.907, -1.753, 1.533], a = 0.2, v = 0.2, t = 0.2)
movej(p[-0.480689109718909, -0.241683664783818, 0.376273101659691, -0.907, -1.753, 1.533], a = 0.2, v = 0.2, t = 0.2)
movej(p[-0.480781932342773, -0.241770815600295, 0.37728674922187, -0.907, -1.753, 1.533], a = 0.2, v = 0.2, t = 0.2)
movej(p[-0.480880035542572, -0.241862924329887, 0.378358062067586, -0.907, -1.753, 1.533], a = 0.2, v = 0.2, t = 0.2)
movej(p[-0.480966174937517, -0.241943800287578, 0.379298727005287, -0.907, -1.753, 1.533], a = 0.2, v = 0.2, t = 0.2)
movej(p[-0.481036423099257, -0.242009756025488, 0.380065855480344, -0.907, -1.753, 1.533], a = 0.2, v = 0.2, t = 0.2)
movej(p[-0.481097397249511, -0.242067004428489, 0.380731709301189, -0.907, -1.753, 1.533], a = 0.2, v = 0.2, t = 0.2)
movej(p[-0.481025333889793, -0.241999344407946, 0.379944758384916, -0.907, -1.753, 1.533], a = 0.2, v = 0.2, t = 0.2)
movej(p[-0.480889408564857, -0.241871724625667, 0.378460417945864, -0.907, -1.753, 1.533], a = 0.2, v = 0.2, t = 0.2)
movej(p[-0.480788929105887, -0.241777384835173, 0.377363155722557, -0.907, -1.753, 1.533], a = 0.2, v = 0.2, t = 0.2)
movej(p[-0.480723020917494, -0.241715503882104, 0.376643420902407, -0.907, -1.753, 1.533], a = 0.2, v = 0.2, t = 0.2)
movej(p[-0.480685281301356, -0.24168007029681, 0.376231294329127, -0.907, -1.753, 1.533], a = 0.2, v = 0.2, t = 0.2)
movej(p[-0.480659819024268, -0.241656163859507, 0.375953239540071, -0.907, -1.753, 1.533], a = 0.2, v = 0.2, t = 0.2)
movej(p[-0.480655363538322, -0.241651980620317, 0.375904584457086, -0.907, -1.753, 1.533], a = 0.2, v = 0.2, t = 0.2)
movej(p[-0.480654026892539, -0.241650725648559, 0.375889987932191, -0.907, -1.753, 1.533], a = 0.2, v = 0.2, t = 0.2)
movej(p[-0.480651254590173, -0.241648122744174, 0.375859713658334, -0.907, -1.753, 1.533], a = 0.2, v = 0.2, t = 0.2)
movej(p[-0.480714638003197, -0.241707633195034, 0.376551877264792, -0.907, -1.753, 1.533], a = 0.2, v = 0.2, t = 0.2)
movej(p[-0.4808123451598, -0.241799370081143, 0.377618865214242, -0.907, -1.753, 1.533], a = 0.2, v = 0.2, t = 0.2)
movej(p[-0.480900002720327, -0.241881671438854, 0.378576108920961, -0.907, -1.753, 1.533], a = 0.2, v = 0.2, t = 0.2)
movej(p[-0.48098142260053, -0.241958116261698, 0.379465235511501, -0.907, -1.753, 1.533], a = 0.2, v = 0.2, t = 0.2)
movej(p[-0.481067132948681, -0.242038589388948, 0.380401215144916, -0.907, -1.753, 1.533], a = 0.2, v = 0.2, t = 0.2)
movej(p[-0.481121011325022, -0.242089175596201, 0.380989581241007, -0.907, -1.753, 1.533], a = 0.2, v = 0.2, t = 0.2)
movej(p[-0.48106069724676, -0.242032546932339, 0.380330935580605, -0.907, -1.753, 1.533], a = 0.2, v = 0.2, t = 0.2)
movej(p[-0.480941521248619, -0.241920653030722, 0.379029502212773, -0.907, -1.753, 1.533], a = 0.2, v = 0.2, t = 0.2)
movej(p[-0.480830002085584, -0.241815948103121, 0.37781168350607, -0.907, -1.753, 1.533], a = 0.2, v = 0.2, t = 0.2)
movej(p[-0.48074455576623, -0.241735722871527, 0.376878587136833, -0.907, -1.753, 1.533], a = 0.2, v = 0.2, t = 0.2)
movej(p[-0.48068825162532, -0.241682859122937, 0.376263731051117, -0.907, -1.753, 1.533], a = 0.2, v = 0.2, t = 0.2)
movej(p[-0.480671832334521, -0.241667443111844, 0.376084428060118, -0.907, -1.753, 1.533], a = 0.2, v = 0.2, t = 0.2)
movej(p[-0.480663449420223, -0.241659572424774, 0.375992884422503, -0.907, -1.753, 1.533], a = 0.2, v = 0.2, t = 0.2)
movej(p[-0.480651749644166, -0.241648587548528, 0.375865119778665, -0.907, -1.753, 1.533], a = 0.2, v = 0.2, t = 0.2)
movej(p[-0.480651089572175, -0.241647967809389, 0.375857911618223, -0.907, -1.753, 1.533], a = 0.2, v = 0.2, t = 0.2)
movej(p[-0.480659720013469, -0.241656070898637, 0.375952158316004, -0.907, -1.753, 1.533], a = 0.2, v = 0.2, t = 0.2)
movej(p[-0.480724390566877, -0.241716789840819, 0.376658377835325, -0.907, -1.753, 1.533], a = 0.2, v = 0.2, t = 0.2)
movej(p[-0.480795414313208, -0.241783473772217, 0.377433975898901, -0.907, -1.753, 1.533], a = 0.2, v = 0.2, t = 0.2)
movej(p[-0.48089980469873, -0.241881485517112, 0.378573946472828, -0.907, -1.753, 1.533], a = 0.2, v = 0.2, t = 0.2)
movej(p[-0.480998567970521, -0.241974213985844, 0.379652467478986, -0.907, -1.753, 1.533], a = 0.2, v = 0.2, t = 0.2)
movej(p[-0.481060350708964, -0.242032221569291, 0.380327151296372, -0.907, -1.753, 1.533], a = 0.2, v = 0.2, t = 0.2)
movej(p[-0.481113948554708, -0.24208254438741, 0.380912453924276, -0.907, -1.753, 1.533], a = 0.2, v = 0.2, t = 0.2)
movej(p[-0.481035812532665, -0.242009182766784, 0.380059187931935, -0.907, -1.753, 1.533], a = 0.2, v = 0.2, t = 0.2)
movej(p[-0.480896652854968, -0.241878526262722, 0.378539527506717, -0.907, -1.753, 1.533], a = 0.2, v = 0.2, t = 0.2)
movej(p[-0.480773417414077, -0.241762820965397, 0.377193763952166, -0.907, -1.753, 1.533], a = 0.2, v = 0.2, t = 0.2)
movej(p[-0.480718664442347, -0.241711413603784, 0.376595847043489, -0.907, -1.753, 1.533], a = 0.2, v = 0.2, t = 0.2)
movej(p[-0.480689175726108, -0.241683726757732, 0.376273822475736, -0.907, -1.753, 1.533], a = 0.2, v = 0.2, t = 0.2)
movej(p[-0.480663861965218, -0.241659959761736, 0.375997389522779, -0.907, -1.753, 1.533], a = 0.2, v = 0.2, t = 0.2)
movej(p[-0.480657063223701, -0.2416535764486, 0.375923145470225, -0.907, -1.753, 1.533], a = 0.2, v = 0.2, t = 0.2)
movej(p[-0.480657541775896, -0.241654025759477, 0.375928371386545, -0.907, -1.753, 1.533], a = 0.2, v = 0.2, t = 0.2)
movej(p[-0.480677855491447, -0.241673098231491, 0.376150202524153, -0.907, -1.753, 1.533], a = 0.2, v = 0.2, t = 0.2)
movej(p[-0.480736486386129, -0.241728146560548, 0.376790467375427, -0.907, -1.753, 1.533], a = 0.2, v = 0.2, t = 0.2)
movej(p[-0.480835134145321, -0.24182076657493, 0.377867726953508, -0.907, -1.753, 1.533], a = 0.2, v = 0.2, t = 0.2)
movej(p[-0.480945448676971, -0.241924340478601, 0.379072390767404, -0.907, -1.753, 1.533], a = 0.2, v = 0.2, t = 0.2)
movej(p[-0.481030036902735, -0.242003760049314, 0.379996116528066, -0.907, -1.753, 1.533], a = 0.2, v = 0.2, t = 0.2)
movej(p[-0.481111968338732, -0.242080685169992, 0.380890829442949, -0.907, -1.753, 1.533], a = 0.2, v = 0.2, t = 0.2)
movej(p[-0.481122678006801, -0.242090740437528, 0.381007781846123, -0.907, -1.753, 1.533], a = 0.2, v = 0.2, t = 0.2)
movej(p[-0.480996769274343, -0.241972525196689, 0.379632825241782, -0.907, -1.753, 1.533], a = 0.2, v = 0.2, t = 0.2)
movej(p[-0.480854408247485, -0.2418388629578, 0.378078205238419, -0.907, -1.753, 1.533], a = 0.2, v = 0.2, t = 0.2)
movej(p[-0.480773862962671, -0.241763239289316, 0.377198629460465, -0.907, -1.753, 1.533], a = 0.2, v = 0.2, t = 0.2)
movej(p[-0.480719357517939, -0.241712064329881, 0.376603415611953, -0.907, -1.753, 1.533], a = 0.2, v = 0.2, t = 0.2)
movej(p[-0.480684769745562, -0.241679589998977, 0.376225708004784, -0.907, -1.753, 1.533], a = 0.2, v = 0.2, t = 0.2)
movej(p[-0.480661931254642, -0.241658147024754, 0.375976305653486, -0.907, -1.753, 1.533], a = 0.2, v = 0.2, t = 0.2)
movej(p[-0.480658119338889, -0.241654568031224, 0.375934678526932, -0.907, -1.753, 1.533], a = 0.2, v = 0.2, t = 0.2)
movej(p[-0.480659010436078, -0.241655404679062, 0.375944409543529, -0.907, -1.753, 1.533], a = 0.2, v = 0.2, t = 0.2)
movej(p[-0.480669951129344, -0.241665676855297, 0.376063884802858, -0.907, -1.753, 1.533], a = 0.2, v = 0.2, t = 0.2)
movej(p[-0.480750215883561, -0.241741037134647, 0.376940397112624, -0.907, -1.753, 1.533], a = 0.2, v = 0.2, t = 0.2)
movej(p[-0.480840266205059, -0.241825585046739, 0.377923770400946, -0.907, -1.753, 1.533], a = 0.2, v = 0.2, t = 0.2)
movej(p[-0.480928435321379, -0.241908366702283, 0.378886600432007, -0.907, -1.753, 1.533], a = 0.2, v = 0.2, t = 0.2)
movej(p[-0.481003072961865, -0.24197844370547, 0.379701663174004, -0.907, -1.753, 1.533], a = 0.2, v = 0.2, t = 0.2)
movej(p[-0.481089525891007, -0.242059614039252, 0.380645751987916, -0.907, -1.753, 1.533], a = 0.2, v = 0.2, t = 0.2)
movej(p[-0.481114097070906, -0.242082683828716, 0.380914075760375, -0.907, -1.753, 1.533], a = 0.2, v = 0.2, t = 0.2)
movej(p[-0.481022924627022, -0.241997082360087, 0.379918448599302, -0.907, -1.753, 1.533], a = 0.2, v = 0.2, t = 0.2)
movej(p[-0.480921719088861, -0.24190206085654, 0.378813257399508, -0.907, -1.753, 1.533], a = 0.2, v = 0.2, t = 0.2)
movej(p[-0.480825348578041, -0.241811578942189, 0.377760865974953, -0.907, -1.753, 1.533], a = 0.2, v = 0.2, t = 0.2)
movej(p[-0.480752377619335, -0.241743066780329, 0.376964003838072, -0.907, -1.753, 1.533], a = 0.2, v = 0.2, t = 0.2)
movej(p[-0.480691882021275, -0.241686267688203, 0.376303375933549, -0.907, -1.753, 1.533], a = 0.2, v = 0.2, t = 0.2)
movej(p[-0.480673466012701, -0.241668976966214, 0.376102268257212, -0.907, -1.753, 1.533], a = 0.2, v = 0.2, t = 0.2)
movej(p[-0.48066618871899, -0.241662144342203, 0.376022798288337, -0.907, -1.753, 1.533], a = 0.2, v = 0.2, t = 0.2)
movej(p[-0.480658267855087, -0.24165470747253, 0.375936300363032, -0.907, -1.753, 1.533], a = 0.2, v = 0.2, t = 0.2)
movej(p[-0.480658432873085, -0.241654862407315, 0.375938102403142, -0.907, -1.753, 1.533], a = 0.2, v = 0.2, t = 0.2)
movej(p[-0.48071026502625, -0.241703527423236, 0.376504123201863, -0.907, -1.753, 1.533], a = 0.2, v = 0.2, t = 0.2)
movej(p[-0.480786602352116, -0.241775200254706, 0.377337746956998, -0.907, -1.753, 1.533], a = 0.2, v = 0.2, t = 0.2)
movej(p[-0.480862428122187, -0.241846392788344, 0.378165784387791, -0.907, -1.753, 1.533], a = 0.2, v = 0.2, t = 0.2)
movej(p[-0.480963617158548, -0.241941398798413, 0.379270795383574, -0.907, -1.753, 1.533], a = 0.2, v = 0.2, t = 0.2)
movej(p[-0.481057710420996, -0.242029742612733, 0.380298318654604, -0.907, -1.753, 1.533], a = 0.2, v = 0.2, t = 0.2)
movej(p[-0.481109245541766, -0.242078128746042, 0.380861095781125, -0.907, -1.753, 1.533], a = 0.2, v = 0.2, t = 0.2)
movej(p[-0.481040086498812, -0.242013195577712, 0.380105860770798, -0.907, -1.753, 1.533], a = 0.2, v = 0.2, t = 0.2)
movej(p[-0.480923369268841, -0.241903610204389, 0.378831277800613, -0.907, -1.753, 1.533], a = 0.2, v = 0.2, t = 0.2)
movej(p[-0.480813533289386, -0.241800485611594, 0.377631839903038, -0.907, -1.753, 1.533], a = 0.2, v = 0.2, t = 0.2)
movej(p[-0.480726667815249, -0.241718927940849, 0.37668324598885, -0.907, -1.753, 1.533], a = 0.2, v = 0.2, t = 0.2)
movej(p[-0.480691172443884, -0.241685601468629, 0.376295627161073, -0.907, -1.753, 1.533], a = 0.2, v = 0.2, t = 0.2)
movej(p[-0.4806735155181, -0.24166902344665, 0.376102808869245, -0.907, -1.753, 1.533], a = 0.2, v = 0.2, t = 0.2)
movej(p[-0.480665858682994, -0.241661834472633, 0.376019194208116, -0.907, -1.753, 1.533], a = 0.2, v = 0.2, t = 0.2)
movej(p[-0.480651700138767, -0.241648541068093, 0.375864579166632, -0.907, -1.753, 1.533], a = 0.2, v = 0.2, t = 0.2)
movej(p[-0.480658069833489, -0.241654521550788, 0.375934137914899, -0.907, -1.753, 1.533], a = 0.2, v = 0.2, t = 0.2)
movej(p[-0.480714307967201, -0.241707323325464, 0.376548273184571, -0.907, -1.753, 1.533], a = 0.2, v = 0.2, t = 0.2)
movej(p[-0.48077810392522, -0.241767221113287, 0.377244941891305, -0.907, -1.753, 1.533], a = 0.2, v = 0.2, t = 0.2)
movej(p[-0.480875118006232, -0.241858307273299, 0.378304361272292, -0.907, -1.753, 1.533], a = 0.2, v = 0.2, t = 0.2)
movej(p[-0.480984310415495, -0.241960827620433, 0.379496771213436, -0.907, -1.753, 1.533], a = 0.2, v = 0.2, t = 0.2)
movej(p[-0.481072991087609, -0.24204408957381, 0.38046518756884, -0.907, -1.753, 1.533], a = 0.2, v = 0.2, t = 0.2)
movej(p[-0.481106935289794, -0.242075959659054, 0.380835867219578, -0.907, -1.753, 1.533], a = 0.2, v = 0.2, t = 0.2)
movej(p[-0.481038964376426, -0.242012142021175, 0.380093606898047, -0.907, -1.753, 1.533], a = 0.2, v = 0.2, t = 0.2)
movej(p[-0.480918897281096, -0.241899411471719, 0.378782442513618, -0.907, -1.753, 1.533], a = 0.2, v = 0.2, t = 0.2)
movej(p[-0.480805183378688, -0.24179264591148, 0.377540656673445, -0.907, -1.753, 1.533], a = 0.2, v = 0.2, t = 0.2)
movej(p[-0.48072338395709, -0.241715844738631, 0.376647385390651, -0.907, -1.753, 1.533], a = 0.2, v = 0.2, t = 0.2)
movej(p[-0.48069151898168, -0.241685926831677, 0.376299411445305, -0.907, -1.753, 1.533], a = 0.2, v = 0.2, t = 0.2)
movej(p[-0.480674192091892, -0.241669658679268, 0.376110197233699, -0.907, -1.753, 1.533], a = 0.2, v = 0.2, t = 0.2)
movej(p[-0.480655941101315, -0.241652522892064, 0.375910891597473, -0.907, -1.753, 1.533], a = 0.2, v = 0.2, t = 0.2)
movej(p[-0.480652723250355, -0.241649501663759, 0.375875751815317, -0.907, -1.753, 1.533], a = 0.2, v = 0.2, t = 0.2)
movej(p[-0.480653300813348, -0.241650043935506, 0.375882058955704, -0.907, -1.753, 1.533], a = 0.2, v = 0.2, t = 0.2)
movej(p[-0.480680495779415, -0.241675577188049, 0.376179035165921, -0.907, -1.753, 1.533], a = 0.2, v = 0.2, t = 0.2)
movej(p[-0.480729704146412, -0.241721778740891, 0.376716403526884, -0.907, -1.753, 1.533], a = 0.2, v = 0.2, t = 0.2)
movej(p[-0.480835447679518, -0.241821060951021, 0.377871150829718, -0.907, -1.753, 1.533], a = 0.2, v = 0.2, t = 0.2)
movej(p[-0.480932379251531, -0.241912069643641, 0.378929669190649, -0.907, -1.753, 1.533], a = 0.2, v = 0.2, t = 0.2)
movej(p[-0.48099369993958, -0.241969643409691, 0.379599307295726, -0.907, -1.753, 1.533], a = 0.2, v = 0.2, t = 0.2)
movej(p[-0.481071456420228, -0.242042648680311, 0.380448428595812, -0.907, -1.753, 1.533], a = 0.2, v = 0.2, t = 0.2)
movej(p[-0.481157612316973, -0.242123540131481, 0.381389273737525, -0.907, -1.753, 1.533], a = 0.2, v = 0.2, t = 0.2)
movej(p[-0.481200236465852, -0.242163559786407, 0.381854740698077, -0.907, -1.753, 1.533], a = 0.2, v = 0.2, t = 0.2)
movej(p[-0.481062792975334, -0.242034514604107, 0.380353821490008, -0.907, -1.753, 1.533], a = 0.2, v = 0.2, t = 0.2)
movej(p[-0.480927643234989, -0.241907623015316, 0.378877950639476, -0.907, -1.753, 1.533], a = 0.2, v = 0.2, t = 0.2)
movej(p[-0.480829127490195, -0.241815126948762, 0.377802132693484, -0.907, -1.753, 1.533], a = 0.2, v = 0.2, t = 0.2)
movej(p[-0.480742575550255, -0.241733863654109, 0.376856962655506, -0.907, -1.753, 1.533], a = 0.2, v = 0.2, t = 0.2)
movej(p[-0.480694604818242, -0.241688824112153, 0.376333109595372, -0.907, -1.753, 1.533], a = 0.2, v = 0.2, t = 0.2)
movej(p[-0.480673697037898, -0.241669193874913, 0.376104791113367, -0.907, -1.753, 1.533], a = 0.2, v = 0.2, t = 0.2)
movej(p[-0.480663498925623, -0.24165961890521, 0.375993425034536, -0.907, -1.753, 1.533], a = 0.2, v = 0.2, t = 0.2)
movej(p[-0.480649340381396, -0.24164632550067, 0.375838809993051, -0.907, -1.753, 1.533], a = 0.2, v = 0.2, t = 0.2)
movej(p[-0.480650446001982, -0.241647363563728, 0.375850883661792, -0.907, -1.753, 1.533], a = 0.2, v = 0.2, t = 0.2)
movej(p[-0.480649323879596, -0.241646310007191, 0.37583862978904, -0.907, -1.753, 1.533], a = 0.2, v = 0.2, t = 0.2)
movej(p[-0.480650082962387, -0.241647022707201, 0.375846919173549, -0.907, -1.753, 1.533], a = 0.2, v = 0.2, t = 0.2)
movej(p[-0.480669357064551, -0.241665119090072, 0.37605739745846, -0.907, -1.753, 1.533], a = 0.2, v = 0.2, t = 0.2)
movej(p[-0.480751536027545, -0.241742276612926, 0.376954813433509, -0.907, -1.753, 1.533], a = 0.2, v = 0.2, t = 0.2)
movej(p[-0.48085079435333, -0.241835469886012, 0.378038740559998, -0.907, -1.753, 1.533], a = 0.2, v = 0.2, t = 0.2)
movej(p[-0.480922115132057, -0.241902432700024, 0.378817582295773, -0.907, -1.753, 1.533], a = 0.2, v = 0.2, t = 0.2)
movej(p[-0.481018485642877, -0.241992914614375, 0.379869973720329, -0.907, -1.753, 1.533], a = 0.2, v = 0.2, t = 0.2)
movej(p[-0.481097644776508, -0.242067236830667, 0.380734412361354, -0.907, -1.753, 1.533], a = 0.2, v = 0.2, t = 0.2)
movej(p[-0.481063766581522, -0.242035428719337, 0.380364453526661, -0.907, -1.753, 1.533], a = 0.2, v = 0.2, t = 0.2)
movej(p[-0.480925283477618, -0.241905407447893, 0.378852181465896, -0.907, -1.753, 1.533], a = 0.2, v = 0.2, t = 0.2)
movej(p[-0.480826107660832, -0.241812291642199, 0.377769155359461, -0.907, -1.753, 1.533], a = 0.2, v = 0.2, t = 0.2)
movej(p[-0.480755826495492, -0.241746304917332, 0.377001666476383, -0.907, -1.753, 1.533], a = 0.2, v = 0.2, t = 0.2)
movej(p[-0.480702542183945, -0.241696276475305, 0.376419787724689, -0.907, -1.753, 1.533], a = 0.2, v = 0.2, t = 0.2)
movej(p[-0.480669654096947, -0.241665397972684, 0.376060641130659, -0.907, -1.753, 1.533], a = 0.2, v = 0.2, t = 0.2)
movej(p[-0.480660165562063, -0.241656489222556, 0.375957023824303, -0.907, -1.753, 1.533], a = 0.2, v = 0.2, t = 0.2)
movej(p[-0.480660743125056, -0.241657031494303, 0.37596333096469, -0.907, -1.753, 1.533], a = 0.2, v = 0.2, t = 0.2)
movej(p[-0.480687839080325, -0.241682471785975, 0.37625922595084, -0.907, -1.753, 1.533], a = 0.2, v = 0.2, t = 0.2)
movej(p[-0.480786602352116, -0.241775200254706, 0.377337746956998, -0.907, -1.753, 1.533], a = 0.2, v = 0.2, t = 0.2)
movej(p[-0.480908138107628, -0.241889309723747, 0.378664949498411, -0.907, -1.753, 1.533], a = 0.2, v = 0.2, t = 0.2)
movej(p[-0.481012165453554, -0.241986980612115, 0.379800955584095, -0.907, -1.753, 1.533], a = 0.2, v = 0.2, t = 0.2)
movej(p[-0.481085647968054, -0.242055973071808, 0.380603404045318, -0.907, -1.753, 1.533], a = 0.2, v = 0.2, t = 0.2)
movej(p[-0.481155797118996, -0.242121835848847, 0.381369451296309, -0.907, -1.753, 1.533], a = 0.2, v = 0.2, t = 0.2)
movej(p[-0.481075086816184, -0.242046057245578, 0.380488073478244, -0.907, -1.753, 1.533], a = 0.2, v = 0.2, t = 0.2)
movej(p[-0.480935432084494, -0.241914935937161, 0.378963006932694, -0.907, -1.753, 1.533], a = 0.2, v = 0.2, t = 0.2)
movej(p[-0.480844061619012, -0.24182914854679, 0.377965217323488, -0.907, -1.753, 1.533], a = 0.2, v = 0.2, t = 0.2)
movej(p[-0.480780199653794, -0.241769188785054, 0.377267827800709, -0.907, -1.753, 1.533], a = 0.2, v = 0.2, t = 0.2)
movej(p[-0.480744456755432, -0.241735629910656, 0.376877505912766, -0.907, -1.753, 1.533], a = 0.2, v = 0.2, t = 0.2)
movej(p[-0.480724506079476, -0.241716898295168, 0.376659639263402, -0.907, -1.753, 1.533], a = 0.2, v = 0.2, t = 0.2)
movej(p[-0.480741057384673, -0.241732438254088, 0.376840383886489, -0.907, -1.753, 1.533], a = 0.2, v = 0.2, t = 0.2)
movej(p[-0.480855431359073, -0.241839823553467, 0.378089377887104, -0.907, -1.753, 1.533], a = 0.2, v = 0.2, t = 0.2)
movej(p[-0.480979937438549, -0.241956721848635, 0.379449017150507, -0.907, -1.753, 1.533], a = 0.2, v = 0.2, t = 0.2)
movej(p[-0.481095648058732, -0.24206536211977, 0.380712607676017, -0.907, -1.753, 1.533], a = 0.2, v = 0.2, t = 0.2)
movej(p[-0.481201490602636, -0.242164737290772, 0.381868436202917, -0.907, -1.753, 1.533], a = 0.2, v = 0.2, t = 0.2)
movej(p[-0.481341623886521, -0.242296307910065, 0.383398728664787, -0.907, -1.753, 1.533], a = 0.2, v = 0.2, t = 0.2)
movej(p[-0.481478192781649, -0.242424531938005, 0.38489009706027, -0.907, -1.753, 1.533], a = 0.2, v = 0.2, t = 0.2)
movej(p[-0.481508589096877, -0.242453070925374, 0.385222032848631, -0.907, -1.753, 1.533], a = 0.2, v = 0.2, t = 0.2)
movej(p[-0.481305831482759, -0.242262702555231, 0.383007866164811, -0.907, -1.753, 1.533], a = 0.2, v = 0.2, t = 0.2)
movej(p[-0.481133618700067, -0.242101012613764, 0.381127257105452, -0.907, -1.753, 1.533], a = 0.2, v = 0.2, t = 0.2)
movej(p[-0.481012049940956, -0.241986872157766, 0.379799694156018, -0.907, -1.753, 1.533], a = 0.2, v = 0.2, t = 0.2)
movej(p[-0.480927379206192, -0.24190737511966, 0.3788750673753, -0.907, -1.753, 1.533], a = 0.2, v = 0.2, t = 0.2)
movej(p[-0.480854903301479, -0.241839327762155, 0.378083611358751, -0.907, -1.753, 1.533], a = 0.2, v = 0.2, t = 0.2)
movej(p[-0.480785810265725, -0.241774456567739, 0.377329097164468, -0.907, -1.753, 1.533], a = 0.2, v = 0.2, t = 0.2)
movej(p[-0.480746436971407, -0.241737489128074, 0.376899130394093, -0.907, -1.753, 1.533], a = 0.2, v = 0.2, t = 0.2)
movej(p[-0.480713928425805, -0.241706966975459, 0.376544128492317, -0.907, -1.753, 1.533], a = 0.2, v = 0.2, t = 0.2)
movej(p[-0.480692443082468, -0.241686794466472, 0.376309502869924, -0.907, -1.753, 1.533], a = 0.2, v = 0.2, t = 0.2)
movej(p[-0.480672822442508, -0.241668372720553, 0.376095240300781, -0.907, -1.753, 1.533], a = 0.2, v = 0.2, t = 0.2)
movej(p[-0.480684175680769, -0.241679032233751, 0.376219220660386, -0.907, -1.753, 1.533], a = 0.2, v = 0.2, t = 0.2)
movej(p[-0.480773565930275, -0.241762960406703, 0.377195385788266, -0.907, -1.753, 1.533], a = 0.2, v = 0.2, t = 0.2)
movej(p[-0.480860513913411, -0.24184459554484, 0.378144880722509, -0.907, -1.753, 1.533], a = 0.2, v = 0.2, t = 0.2)
movej(p[-0.480977247645182, -0.241954196411642, 0.379419643896705, -0.907, -1.753, 1.533], a = 0.2, v = 0.2, t = 0.2)
movej(p[-0.481063271527528, -0.242034963914983, 0.380359047406329, -0.907, -1.753, 1.533], a = 0.2, v = 0.2, t = 0.2)
movej(p[-0.481051159206477, -0.242023591701775, 0.380226777662215, -0.907, -1.753, 1.533], a = 0.2, v = 0.2, t = 0.2)
movej(p[-0.480899507666333, -0.241881206634499, 0.378570702800629, -0.907, -1.753, 1.533], a = 0.2, v = 0.2, t = 0.2)
movej(p[-0.480792576003642, -0.241780808893918, 0.377402980809, -0.907, -1.753, 1.533], a = 0.2, v = 0.2, t = 0.2)
movej(p[-0.480724671097474, -0.241717053229953, 0.376661441303513, -0.907, -1.753, 1.533], a = 0.2, v = 0.2, t = 0.2)
movej(p[-0.480683878648373, -0.241678753351138, 0.376215976988187, -0.907, -1.753, 1.533], a = 0.2, v = 0.2, t = 0.2)
movej(p[-0.480666007199192, -0.241661973913939, 0.376020816044216, -0.907, -1.753, 1.533], a = 0.2, v = 0.2, t = 0.2)
movej(p[-0.480660050049465, -0.241656380768206, 0.375955762396225, -0.907, -1.753, 1.533], a = 0.2, v = 0.2, t = 0.2)
movej(p[-0.480662327297837, -0.241658518868237, 0.375980630549751, -0.907, -1.753, 1.533], a = 0.2, v = 0.2, t = 0.2)
movej(p[-0.480692690609465, -0.241687026868649, 0.37631220593009, -0.907, -1.753, 1.533], a = 0.2, v = 0.2, t = 0.2)
movej(p[-0.480792361480245, -0.241780607478698, 0.377400638156856, -0.907, -1.753, 1.533], a = 0.2, v = 0.2, t = 0.2)
movej(p[-0.480886438240893, -0.24186893579954, 0.378427981223875, -0.907, -1.753, 1.533], a = 0.2, v = 0.2, t = 0.2)
movej(p[-0.480972247599843, -0.241949501887661, 0.379365042081355, -0.907, -1.753, 1.533], a = 0.2, v = 0.2, t = 0.2)
movej(p[-0.481055928226618, -0.242028069317057, 0.38027885662141, -0.907, -1.753, 1.533], a = 0.2, v = 0.2, t = 0.2)
movej(p[-0.481095681062332, -0.242065393106727, 0.380712968084039, -0.907, -1.753, 1.533], a = 0.2, v = 0.2, t = 0.2)
movej(p[-0.480992742835192, -0.241968744787939, 0.379588855463084, -0.907, -1.753, 1.533], a = 0.2, v = 0.2, t = 0.2)
movej(p[-0.480843764586616, -0.241828869664178, 0.377961973651289, -0.907, -1.753, 1.533], a = 0.2, v = 0.2, t = 0.2)
movej(p[-0.480761899157818, -0.241752006517415, 0.37706798155245, -0.907, -1.753, 1.533], a = 0.2, v = 0.2, t = 0.2)
movej(p[-0.480709901986655, -0.241703186566709, 0.376500158713619, -0.907, -1.753, 1.533], a = 0.2, v = 0.2, t = 0.2)
movej(p[-0.48068498426896, -0.241679791414197, 0.376228050656928, -0.907, -1.753, 1.533], a = 0.2, v = 0.2, t = 0.2)
movej(p[-0.480660974150254, -0.241657248403001, 0.375965853820844, -0.907, -1.753, 1.533], a = 0.2, v = 0.2, t = 0.2)
movej(p[-0.480657937819091, -0.24165439760296, 0.375932696282811, -0.907, -1.753, 1.533], a = 0.2, v = 0.2, t = 0.2)
movej(p[-0.48066372995082, -0.241659835813908, 0.37599594789069, -0.907, -1.753, 1.533], a = 0.2, v = 0.2, t = 0.2)
movej(p[-0.480702245151548, -0.241695997592692, 0.37641654405249, -0.907, -1.753, 1.533], a = 0.2, v = 0.2, t = 0.2)
movej(p[-0.480786470337717, -0.241775076306878, 0.37733630532491, -0.907, -1.753, 1.533], a = 0.2, v = 0.2, t = 0.2)
movej(p[-0.480883599931328, -0.24186627092124, 0.378396986133973, -0.907, -1.753, 1.533], a = 0.2, v = 0.2, t = 0.2)
movej(p[-0.480961438920975, -0.241939353659253, 0.379247008454115, -0.907, -1.753, 1.533], a = 0.2, v = 0.2, t = 0.2)
movej(p[-0.481020333844454, -0.241994649883965, 0.379890156569567, -0.907, -1.753, 1.533], a = 0.2, v = 0.2, t = 0.2)
movej(p[-0.48103615907046, -0.242009508129832, 0.380062972216167, -0.907, -1.753, 1.533], a = 0.2, v = 0.2, t = 0.2)
movej(p[-0.480929771967163, -0.241909621674041, 0.378901196956902, -0.907, -1.753, 1.533], a = 0.2, v = 0.2, t = 0.2)
movej(p[-0.48082298882067, -0.241809363374765, 0.377735096801372, -0.907, -1.753, 1.533], a = 0.2, v = 0.2, t = 0.2)
movej(p[-0.480734275144956, -0.241726070434431, 0.376766320037946, -0.907, -1.753, 1.533], a = 0.2, v = 0.2, t = 0.2)
movej(p[-0.48069965436898, -0.24169356511657, 0.376388252022755, -0.907, -1.753, 1.533], a = 0.2, v = 0.2, t = 0.2)
movej(p[-0.480681023837008, -0.24167607297936, 0.376184801694275, -0.907, -1.753, 1.533], a = 0.2, v = 0.2, t = 0.2)
movej(p[-0.480664852073206, -0.241660889370445, 0.376008201763442, -0.907, -1.753, 1.533], a = 0.2, v = 0.2, t = 0.2)
movej(p[-0.480655132513125, -0.241651763711618, 0.375902061600931, -0.907, -1.753, 1.533], a = 0.2, v = 0.2, t = 0.2)
movej(p[-0.480654307423135, -0.241650989037694, 0.375893051400379, -0.907, -1.753, 1.533], a = 0.2, v = 0.2, t = 0.2)
movej(p[-0.480654224914136, -0.241650911570301, 0.375892150380323, -0.907, -1.753, 1.533], a = 0.2, v = 0.2, t = 0.2)
movej(p[-0.48064407630726, -0.241641383081033, 0.375781324913525, -0.907, -1.753, 1.533], a = 0.2, v = 0.2, t = 0.2)
movej(p[-0.480661766236644, -0.241657992089969, 0.375974503613375, -0.907, -1.753, 1.533], a = 0.2, v = 0.2, t = 0.2)
movej(p[-0.480717212283965, -0.241710050177678, 0.376579989090516, -0.907, -1.753, 1.533], a = 0.2, v = 0.2, t = 0.2)
movej(p[-0.480787146911509, -0.241775711539496, 0.377343693689363, -0.907, -1.753, 1.533], a = 0.2, v = 0.2, t = 0.2)
movej(p[-0.480863170703178, -0.241847089994876, 0.378173893568289, -0.907, -1.753, 1.533], a = 0.2, v = 0.2, t = 0.2)
movej(p[-0.480961917473169, -0.241939802970129, 0.379252234370436, -0.907, -1.753, 1.533], a = 0.2, v = 0.2, t = 0.2)
movej(p[-0.481055532183423, -0.242027697473574, 0.380274531725145, -0.907, -1.753, 1.533], a = 0.2, v = 0.2, t = 0.2)
movej(p[-0.481100235559076, -0.242069669306789, 0.38076270439109, -0.907, -1.753, 1.533], a = 0.2, v = 0.2, t = 0.2)
movej(p[-0.480999228042512, -0.241974833724983, 0.379659675639429, -0.907, -1.753, 1.533], a = 0.2, v = 0.2, t = 0.2)
movej(p[-0.480881982754948, -0.241864752560349, 0.37837932614089, -0.907, -1.753, 1.533], a = 0.2, v = 0.2, t = 0.2)
movej(p[-0.480784952172136, -0.241773650906858, 0.377319726555893, -0.907, -1.753, 1.533], a = 0.2, v = 0.2, t = 0.2)
movej(p[-0.480711717184632, -0.241704890849342, 0.376519981154835, -0.907, -1.753, 1.533], a = 0.2, v = 0.2, t = 0.2)
movej(p[-0.480682244970193, -0.241677219496768, 0.376198136791093, -0.907, -1.753, 1.533], a = 0.2, v = 0.2, t = 0.2)
movej(p[-0.480669621093348, -0.241665366985727, 0.376060280722637, -0.907, -1.753, 1.533], a = 0.2, v = 0.2, t = 0.2)
movej(p[-0.480663548431022, -0.241659665385645, 0.375993965646569, -0.907, -1.753, 1.533], a = 0.2, v = 0.2, t = 0.2)
movej(p[-0.480650891550577, -0.241647781887647, 0.37585574917009, -0.907, -1.753, 1.533], a = 0.2, v = 0.2, t = 0.2)
movej(p[-0.480652426217958, -0.241649222781146, 0.375872508143118, -0.907, -1.753, 1.533], a = 0.2, v = 0.2, t = 0.2)
movej(p[-0.480652558232357, -0.241649346728974, 0.375873949775207, -0.907, -1.753, 1.533], a = 0.2, v = 0.2, t = 0.2)
movej(p[-0.480673647532498, -0.241669147394478, 0.376104250501334, -0.907, -1.753, 1.533], a = 0.2, v = 0.2, t = 0.2)
movej(p[-0.480729357608616, -0.241721453377843, 0.376712619242652, -0.907, -1.753, 1.533], a = 0.2, v = 0.2, t = 0.2)
movej(p[-0.480815959053956, -0.241802763152931, 0.377658329892663, -0.907, -1.753, 1.533], a = 0.2, v = 0.2, t = 0.2)
movej(p[-0.480902758520893, -0.241884258849761, 0.378606202990807, -0.907, -1.753, 1.533], a = 0.2, v = 0.2, t = 0.2)
movej(p[-0.480968221160692, -0.24194572147891, 0.379321072302658, -0.907, -1.753, 1.533], a = 0.2, v = 0.2, t = 0.2)
movej(p[-0.481034145850885, -0.242007617925457, 0.380040987326819, -0.907, -1.753, 1.533], a = 0.2, v = 0.2, t = 0.2)
movej(p[-0.481060185690966, -0.242032066634506, 0.380325349256262, -0.907, -1.753, 1.533], a = 0.2, v = 0.2, t = 0.2)
movej(p[-0.480957676510621, -0.241935821146158, 0.379205921939595, -0.907, -1.753, 1.533], a = 0.2, v = 0.2, t = 0.2)
movej(p[-0.480821124117293, -0.241807612611697, 0.377714733748123, -0.907, -1.753, 1.533], a = 0.2, v = 0.2, t = 0.2)
movej(p[-0.480749836342166, -0.241740680784642, 0.37693625242037, -0.907, -1.753, 1.533], a = 0.2, v = 0.2, t = 0.2)
movej(p[-0.48071105711264, -0.241704271110203, 0.376512772994393, -0.907, -1.753, 1.533], a = 0.2, v = 0.2, t = 0.2)
movej(p[-0.480682872038585, -0.241677808248951, 0.376204984543513, -0.907, -1.753, 1.533], a = 0.2, v = 0.2, t = 0.2)
movej(p[-0.480663498925623, -0.24165961890521, 0.375993425034536, -0.907, -1.753, 1.533], a = 0.2, v = 0.2, t = 0.2)
movej(p[-0.480659191955875, -0.241655575107325, 0.375946391787651, -0.907, -1.753, 1.533], a = 0.2, v = 0.2, t = 0.2)
movej(p[-0.480656832198504, -0.241653359539902, 0.37592062261407, -0.907, -1.753, 1.533], a = 0.2, v = 0.2, t = 0.2)
movej(p[-0.480646172035835, -0.241643350752801, 0.375804210822929, -0.907, -1.753, 1.533], a = 0.2, v = 0.2, t = 0.2)
movej(p[-0.480649587908393, -0.241646557902847, 0.375841513053217, -0.907, -1.753, 1.533], a = 0.2, v = 0.2, t = 0.2)
movej(p[-0.48068493476356, -0.241679744933761, 0.376227510044895, -0.907, -1.753, 1.533], a = 0.2, v = 0.2, t = 0.2)
movej(p[-0.480753483239921, -0.241744104843387, 0.376976077506813, -0.907, -1.753, 1.533], a = 0.2, v = 0.2, t = 0.2)
movej(p[-0.480813764314583, -0.241800702520292, 0.377634362759193, -0.907, -1.753, 1.533], a = 0.2, v = 0.2, t = 0.2)
movej(p[-0.480902114950701, -0.2418836546041, 0.378599175034376, -0.907, -1.753, 1.533], a = 0.2, v = 0.2, t = 0.2)
movej(p[-0.480976241035394, -0.241953251309454, 0.37940865145203, -0.907, -1.753, 1.533], a = 0.2, v = 0.2, t = 0.2)
movej(p[-0.481026191983382, -0.242000150068827, 0.379954128993491, -0.907, -1.753, 1.533], a = 0.2, v = 0.2, t = 0.2)
movej(p[-0.481054459566436, -0.242026690397472, 0.380262818464426, -0.907, -1.753, 1.533], a = 0.2, v = 0.2, t = 0.2)
movej(p[-0.480952197913088, -0.241930677311302, 0.379146094207925, -0.907, -1.753, 1.533], a = 0.2, v = 0.2, t = 0.2)
movej(p[-0.48083848401068, -0.241823911751063, 0.377904308367752, -0.907, -1.753, 1.533], a = 0.2, v = 0.2, t = 0.2)
movej(p[-0.480741618445866, -0.241732965032357, 0.376846510822865, -0.907, -1.753, 1.533], a = 0.2, v = 0.2, t = 0.2)
movej(p[-0.480702393667746, -0.241696137033998, 0.37641816588859, -0.907, -1.753, 1.533], a = 0.2, v = 0.2, t = 0.2)
movej(p[-0.480679406660628, -0.241674554618469, 0.376167141701192, -0.907, -1.753, 1.533], a = 0.2, v = 0.2, t = 0.2)
movej(p[-0.480664291012013, -0.241660362592177, 0.376002074827066, -0.907, -1.753, 1.533], a = 0.2, v = 0.2, t = 0.2)
movej(p[-0.480652211694561, -0.241649021365926, 0.375870165490975, -0.907, -1.753, 1.533], a = 0.2, v = 0.2, t = 0.2)
movej(p[-0.480653581343944, -0.24165030732464, 0.375885122423892, -0.907, -1.753, 1.533], a = 0.2, v = 0.2, t = 0.2)
movej(p[-0.480694819341639, -0.241689025527374, 0.376335452247516, -0.907, -1.753, 1.533], a = 0.2, v = 0.2, t = 0.2)
movej(p[-0.480759341378849, -0.241749605028249, 0.377040049930737, -0.907, -1.753, 1.533], a = 0.2, v = 0.2, t = 0.2)
movej(p[-0.480851949479316, -0.241836554429506, 0.378051354840772, -0.907, -1.753, 1.533], a = 0.2, v = 0.2, t = 0.2)
movej(p[-0.480945465178771, -0.24192435597208, 0.379072570971415, -0.907, -1.753, 1.533], a = 0.2, v = 0.2, t = 0.2)
movej(p[-0.481020152324656, -0.241994479455702, 0.379888174325445, -0.907, -1.753, 1.533], a = 0.2, v = 0.2, t = 0.2)
movej(p[-0.48105251235406, -0.242024862167011, 0.380241554391122, -0.907, -1.753, 1.533], a = 0.2, v = 0.2, t = 0.2)
movej(p[-0.480966455468114, -0.241944063676712, 0.379301790473475, -0.907, -1.753, 1.533], a = 0.2, v = 0.2, t = 0.2)
movej(p[-0.480844292644209, -0.241829365455489, 0.377967740179643, -0.907, -1.753, 1.533], a = 0.2, v = 0.2, t = 0.2)
movej(p[-0.480745710892216, -0.241736807415021, 0.376891201417607, -0.907, -1.753, 1.533], a = 0.2, v = 0.2, t = 0.2)
movej(p[-0.480700281437372, -0.241694153868752, 0.376395099775175, -0.907, -1.753, 1.533], a = 0.2, v = 0.2, t = 0.2)
movej(p[-0.480678268036442, -0.241673485568454, 0.376154707624429, -0.907, -1.753, 1.533], a = 0.2, v = 0.2, t = 0.2)
movej(p[-0.48066696430358, -0.241662872535691, 0.376031267876857, -0.907, -1.753, 1.533], a = 0.2, v = 0.2, t = 0.2)
movej(p[-0.48065145261177, -0.241648308665916, 0.375861876106466, -0.907, -1.753, 1.533], a = 0.2, v = 0.2, t = 0.2)
movej(p[-0.48065064402358, -0.24164754948547, 0.375853046109925, -0.907, -1.753, 1.533], a = 0.2, v = 0.2, t = 0.2)
movej(p[-0.480660858637655, -0.241657139948652, 0.375964592392767, -0.907, -1.753, 1.533], a = 0.2, v = 0.2, t = 0.2)
movej(p[-0.480708004279678, -0.241701404816683, 0.376479435252348, -0.907, -1.753, 1.533], a = 0.2, v = 0.2, t = 0.2)
movej(p[-0.480795678342004, -0.241783721667873, 0.377436859163078, -0.907, -1.753, 1.533], a = 0.2, v = 0.2, t = 0.2)
movej(p[-0.480894540624594, -0.241876543097476, 0.378516461393302, -0.907, -1.753, 1.533], a = 0.2, v = 0.2, t = 0.2)
movej(p[-0.480976686583988, -0.241953669633373, 0.379413516960329, -0.907, -1.753, 1.533], a = 0.2, v = 0.2, t = 0.2)
movej(p[-0.481033353764495, -0.24200687423849, 0.380032337534288, -0.907, -1.753, 1.533], a = 0.2, v = 0.2, t = 0.2)
movej(p[-0.481060565232362, -0.242032422984511, 0.380329493948516, -0.907, -1.753, 1.533], a = 0.2, v = 0.2, t = 0.2)
movej(p[-0.480958369586213, -0.241936471872255, 0.379213490508059, -0.907, -1.753, 1.533], a = 0.2, v = 0.2, t = 0.2)
movej(p[-0.48082133864069, -0.241807814026917, 0.377717076400267, -0.907, -1.753, 1.533], a = 0.2, v = 0.2, t = 0.2)
movej(p[-0.480737905540912, -0.241729478999698, 0.376805964920378, -0.907, -1.753, 1.533], a = 0.2, v = 0.2, t = 0.2)
movej(p[-0.48069637051082, -0.241690481914351, 0.376352391424555, -0.907, -1.753, 1.533], a = 0.2, v = 0.2, t = 0.2)
movej(p[-0.480673598027099, -0.241669100914042, 0.376103709889301, -0.907, -1.753, 1.533], a = 0.2, v = 0.2, t = 0.2)
movej(p[-0.480652591235956, -0.241649377715931, 0.375874310183229, -0.907, -1.753, 1.533], a = 0.2, v = 0.2, t = 0.2)
movej(p[-0.480651287593772, -0.241648153731131, 0.375860074066356, -0.907, -1.753, 1.533], a = 0.2, v = 0.2, t = 0.2)
movej(p[-0.480650891550577, -0.241647781887647, 0.37585574917009, -0.907, -1.753, 1.533], a = 0.2, v = 0.2, t = 0.2)
movej(p[-0.480648762818403, -0.241645783228923, 0.375832502852665, -0.907, -1.753, 1.533], a = 0.2, v = 0.2, t = 0.2)
movej(p[-0.480642376621881, -0.241639787252749, 0.375762763900387, -0.907, -1.753, 1.533], a = 0.2, v = 0.2, t = 0.2)
movej(p[-0.480676914888858, -0.241672215103218, 0.376139930895523, -0.907, -1.753, 1.533], a = 0.2, v = 0.2, t = 0.2)
movej(p[-0.480746833014602, -0.241737860971558, 0.376903455290358, -0.907, -1.753, 1.533], a = 0.2, v = 0.2, t = 0.2)
movej(p[-0.480806090977677, -0.241793498052797, 0.377550567894053, -0.907, -1.753, 1.533], a = 0.2, v = 0.2, t = 0.2)
movej(p[-0.48088097614516, -0.241863807458161, 0.378368333696216, -0.907, -1.753, 1.533], a = 0.2, v = 0.2, t = 0.2)
movej(p[-0.480961141888579, -0.24193907477664, 0.379243764781916, -0.907, -1.753, 1.533], a = 0.2, v = 0.2, t = 0.2)
movej(p[-0.481020251335455, -0.241994572416573, 0.379889255549511, -0.907, -1.753, 1.533], a = 0.2, v = 0.2, t = 0.2)
movej(p[-0.48100596077683, -0.241981155064205, 0.379733198875939, -0.907, -1.753, 1.533], a = 0.2, v = 0.2, t = 0.2)
movej(p[-0.480906438422248, -0.241887713895463, 0.378646388485272, -0.907, -1.753, 1.533], a = 0.2, v = 0.2, t = 0.2)
movej(p[-0.480801932524128, -0.241789593696219, 0.377505156483267, -0.907, -1.753, 1.533], a = 0.2, v = 0.2, t = 0.2)
movej(p[-0.480719885575532, -0.241712560121192, 0.376609182140307, -0.907, -1.753, 1.533], a = 0.2, v = 0.2, t = 0.2)
movej(p[-0.480688548657716, -0.24168313800555, 0.376266974723316, -0.907, -1.753, 1.533], a = 0.2, v = 0.2, t = 0.2)
movej(p[-0.480669753107746, -0.241665490933555, 0.376061722354725, -0.907, -1.753, 1.533], a = 0.2, v = 0.2, t = 0.2)
movej(p[-0.480660545103459, -0.241656845572561, 0.375961168516557, -0.907, -1.753, 1.533], a = 0.2, v = 0.2, t = 0.2)
movej(p[-0.480644736379252, -0.241642002820172, 0.375788533073967, -0.907, -1.753, 1.533], a = 0.2, v = 0.2, t = 0.2)
movej(p[-0.480643845282063, -0.241641166172334, 0.37577880205737, -0.907, -1.753, 1.533], a = 0.2, v = 0.2, t = 0.2)
movej(p[-0.480645379949444, -0.241642607065833, 0.375795561030398, -0.907, -1.753, 1.533], a = 0.2, v = 0.2, t = 0.2)
movej(p[-0.480647013627624, -0.241644140920203, 0.375813401227493, -0.907, -1.753, 1.533], a = 0.2, v = 0.2, t = 0.2)
movej(p[-0.480708235304875, -0.241701621725382, 0.376481958108503, -0.907, -1.753, 1.533], a = 0.2, v = 0.2, t = 0.2)
movej(p[-0.480778631982813, -0.241767716904598, 0.377250708419659, -0.907, -1.753, 1.533], a = 0.2, v = 0.2, t = 0.2)
movej(p[-0.480852130999113, -0.24183672485777, 0.378053337084894, -0.907, -1.753, 1.533], a = 0.2, v = 0.2, t = 0.2)
movej(p[-0.480910563872198, -0.241891587265084, 0.378691439488036, -0.907, -1.753, 1.533], a = 0.2, v = 0.2, t = 0.2)
movej(p[-0.480982528221117, -0.241959154324757, 0.379477309180242, -0.907, -1.753, 1.533], a = 0.2, v = 0.2, t = 0.2)
movej(p[-0.481034244861684, -0.242007710886328, 0.380042068550885, -0.907, -1.753, 1.533], a = 0.2, v = 0.2, t = 0.2)
movej(p[-0.480946884333553, -0.241925688411229, 0.379088068516365, -0.907, -1.753, 1.533], a = 0.2, v = 0.2, t = 0.2)
movej(p[-0.480838451007081, -0.241823880764106, 0.37790394795973, -0.907, -1.753, 1.533], a = 0.2, v = 0.2, t = 0.2)
movej(p[-0.480760612017434, -0.241750798026093, 0.377053925639588, -0.907, -1.753, 1.533], a = 0.2, v = 0.2, t = 0.2)
movej(p[-0.480709670961457, -0.24170296965801, 0.376497635857465, -0.907, -1.753, 1.533], a = 0.2, v = 0.2, t = 0.2)
movej(p[-0.480669637595147, -0.241665382479206, 0.376060460926648, -0.907, -1.753, 1.533], a = 0.2, v = 0.2, t = 0.2)
movej(p[-0.480659356973873, -0.24165573004211, 0.375948193827761, -0.907, -1.753, 1.533], a = 0.2, v = 0.2, t = 0.2)
movej(p[-0.48065476947353, -0.241651422855091, 0.375898097112688, -0.907, -1.753, 1.533], a = 0.2, v = 0.2, t = 0.2)
movej(p[-0.480648663807604, -0.241645690268052, 0.375831421628598, -0.907, -1.753, 1.533], a = 0.2, v = 0.2, t = 0.2)
movej(p[-0.480665231614601, -0.24166124572045, 0.376012346455696, -0.907, -1.753, 1.533], a = 0.2, v = 0.2, t = 0.2)
movej(p[-0.480738169569709, -0.241729726895353, 0.376808848184555, -0.907, -1.753, 1.533], a = 0.2, v = 0.2, t = 0.2)
movej(p[-0.480813302264189, -0.241800268702895, 0.377629317046884, -0.907, -1.753, 1.533], a = 0.2, v = 0.2, t = 0.2)
movej(p[-0.480880646109164, -0.241863497588591, 0.378364729615995, -0.907, -1.753, 1.533], a = 0.2, v = 0.2, t = 0.2)
movej(p[-0.480971306997254, -0.241948618759387, 0.379354770452725, -0.907, -1.753, 1.533], a = 0.2, v = 0.2, t = 0.2)
movej(p[-0.481052248325263, -0.242024614271355, 0.380238671126945, -0.907, -1.753, 1.533], a = 0.2, v = 0.2, t = 0.2)
movej(p[-0.481071571932827, -0.242042757134661, 0.380449690023889, -0.907, -1.753, 1.533], a = 0.2, v = 0.2, t = 0.2)
movej(p[-0.480945349666172, -0.24192424751773, 0.379071309543337, -0.907, -1.753, 1.533], a = 0.2, v = 0.2, t = 0.2)
movej(p[-0.480841965890438, -0.241827180875023, 0.377942331414084, -0.907, -1.753, 1.533], a = 0.2, v = 0.2, t = 0.2)
movej(p[-0.480757212646675, -0.241747606369525, 0.377016803613311, -0.907, -1.753, 1.533], a = 0.2, v = 0.2, t = 0.2)
movej(p[-0.480693400186857, -0.241687693088224, 0.376319954702565, -0.907, -1.753, 1.533], a = 0.2, v = 0.2, t = 0.2)
movej(p[-0.480669357064551, -0.241665119090072, 0.37605739745846, -0.907, -1.753, 1.533], a = 0.2, v = 0.2, t = 0.2)
movej(p[-0.480657904815491, -0.241654366616003, 0.375932335874788, -0.907, -1.753, 1.533], a = 0.2, v = 0.2, t = 0.2)
movej(p[-0.480653003780951, -0.241649765052893, 0.375878815283505, -0.907, -1.753, 1.533], a = 0.2, v = 0.2, t = 0.2)
movej(p[-0.480639538312316, -0.24163712237445, 0.375731768810485, -0.907, -1.753, 1.533], a = 0.2, v = 0.2, t = 0.2)
movej(p[-0.480639868348312, -0.241637432244019, 0.375735372890706, -0.907, -1.753, 1.533], a = 0.2, v = 0.2, t = 0.2)
movej(p[-0.480654472441133, -0.241651143972478, 0.375894853440489, -0.907, -1.753, 1.533], a = 0.2, v = 0.2, t = 0.2)
movej(p[-0.480703053739738, -0.241696756773138, 0.376425374049032, -0.907, -1.753, 1.533], a = 0.2, v = 0.2, t = 0.2)
movej(p[-0.480776140211044, -0.241765377389347, 0.37722349761399, -0.907, -1.753, 1.533], a = 0.2, v = 0.2, t = 0.2)
movej(p[-0.480869457888901, -0.241852993010179, 0.3782425512965, -0.907, -1.753, 1.533], a = 0.2, v = 0.2, t = 0.2)
movej(p[-0.480955135233452, -0.241933435150472, 0.379178170521892, -0.907, -1.753, 1.533], a = 0.2, v = 0.2, t = 0.2)
movej(p[-0.481020911407447, -0.241995192155712, 0.379896463709954, -0.907, -1.753, 1.533], a = 0.2, v = 0.2, t = 0.2)
movej(p[-0.481080532410117, -0.242051170093478, 0.380547540801891, -0.907, -1.753, 1.533], a = 0.2, v = 0.2, t = 0.2)
movej(p[-0.481011175345566, -0.241986051003406, 0.379790143343432, -0.907, -1.753, 1.533], a = 0.2, v = 0.2, t = 0.2)
movej(p[-0.480867510676525, -0.241851164779717, 0.378221287223196, -0.907, -1.753, 1.533], a = 0.2, v = 0.2, t = 0.2)
movej(p[-0.480753153203925, -0.241743794973818, 0.376972473426592, -0.907, -1.753, 1.533], a = 0.2, v = 0.2, t = 0.2)
movej(p[-0.480701585079556, -0.241695377853553, 0.376409335892048, -0.907, -1.753, 1.533], a = 0.2, v = 0.2, t = 0.2)
movej(p[-0.480675413225077, -0.241670805196676, 0.376123532330517, -0.907, -1.753, 1.533], a = 0.2, v = 0.2, t = 0.2)
movej(p[-0.480651122575774, -0.241647998796346, 0.375858272026245, -0.907, -1.753, 1.533], a = 0.2, v = 0.2, t = 0.2)
movej(p[-0.480646716595228, -0.241643862037591, 0.375810157555294, -0.907, -1.753, 1.533], a = 0.2, v = 0.2, t = 0.2)
movej(p[-0.480648861829202, -0.241645876189794, 0.375833584076731, -0.907, -1.753, 1.533], a = 0.2, v = 0.2, t = 0.2)
movej(p[-0.480697905178201, -0.24169192280785, 0.376369150397583, -0.907, -1.753, 1.533], a = 0.2, v = 0.2, t = 0.2)
movej(p[-0.480765579059173, -0.241755461563117, 0.377108167046916, -0.907, -1.753, 1.533], a = 0.2, v = 0.2, t = 0.2)
movej(p[-0.480858533697435, -0.241842736327422, 0.378123256241182, -0.907, -1.753, 1.533], a = 0.2, v = 0.2, t = 0.2)
movej(p[-0.480955663291046, -0.241933930941783, 0.379183937050246, -0.907, -1.753, 1.533], a = 0.2, v = 0.2, t = 0.2)
movej(p[-0.481025086362796, -0.241999112005769, 0.37994205532475, -0.907, -1.753, 1.533], a = 0.2, v = 0.2, t = 0.2)
movej(p[-0.481085812986052, -0.242056128006593, 0.380605206085429, -0.907, -1.753, 1.533], a = 0.2, v = 0.2, t = 0.2)
movej(p[-0.481037545221643, -0.242010809582025, 0.380078109353096, -0.907, -1.753, 1.533], a = 0.2, v = 0.2, t = 0.2)
movej(p[-0.480908814681419, -0.241889944956365, 0.378672337862864, -0.907, -1.753, 1.533], a = 0.2, v = 0.2, t = 0.2)
movej(p[-0.480779968628597, -0.241768971876355, 0.377265304944555, -0.907, -1.753, 1.533], a = 0.2, v = 0.2, t = 0.2)
movej(p[-0.480718862463945, -0.241711599525526, 0.376598009491622, -0.907, -1.753, 1.533], a = 0.2, v = 0.2, t = 0.2)
movej(p[-0.480682707020587, -0.241677653314166, 0.376203182503403, -0.907, -1.753, 1.533], a = 0.2, v = 0.2, t = 0.2)
movej(p[-0.480661551713246, -0.241657790674748, 0.375972160961231, -0.907, -1.753, 1.533], a = 0.2, v = 0.2, t = 0.2)
movej(p[-0.48064653507543, -0.241643691609327, 0.375808175311172, -0.907, -1.753, 1.533], a = 0.2, v = 0.2, t = 0.2)
movej(p[-0.480645908007038, -0.241643102857145, 0.375801327558752, -0.907, -1.753, 1.533], a = 0.2, v = 0.2, t = 0.2)
movej(p[-0.480666535256785, -0.241662469705251, 0.37602658257257, -0.907, -1.753, 1.533], a = 0.2, v = 0.2, t = 0.2)
movej(p[-0.480731156304794, -0.241723142166997, 0.376732261479857, -0.907, -1.753, 1.533], a = 0.2, v = 0.2, t = 0.2)
movej(p[-0.480830843677374, -0.241816738270524, 0.377820873910634, -0.907, -1.753, 1.533], a = 0.2, v = 0.2, t = 0.2)
movej(p[-0.480929804970762, -0.241909652660998, 0.378901557364925, -0.907, -1.753, 1.533], a = 0.2, v = 0.2, t = 0.2)
movej(p[-0.481012445984151, -0.24198724400125, 0.379804019052283, -0.907, -1.753, 1.533], a = 0.2, v = 0.2, t = 0.2)
movej(p[-0.481077974631148, -0.242048768604313, 0.380519609180178, -0.907, -1.753, 1.533], a = 0.2, v = 0.2, t = 0.2)
movej(p[-0.481077925125749, -0.242048722123877, 0.380519068568145, -0.907, -1.753, 1.533], a = 0.2, v = 0.2, t = 0.2)
movej(p[-0.480954326645262, -0.241932675970026, 0.379169340525351, -0.907, -1.753, 1.533], a = 0.2, v = 0.2, t = 0.2)
movej(p[-0.480820645565099, -0.241807163300821, 0.377709507831803, -0.907, -1.753, 1.533], a = 0.2, v = 0.2, t = 0.2)
movej(p[-0.480742014489061, -0.24173333687584, 0.37685083571913, -0.907, -1.753, 1.533], a = 0.2, v = 0.2, t = 0.2)
movej(p[-0.480692393577069, -0.241686747986037, 0.376308962257891, -0.907, -1.753, 1.533], a = 0.2, v = 0.2, t = 0.2)
movej(p[-0.480669505580749, -0.241665258531378, 0.376059019294559, -0.907, -1.753, 1.533], a = 0.2, v = 0.2, t = 0.2)
movej(p[-0.48064656807903, -0.241643722596284, 0.375808535719194, -0.907, -1.753, 1.533], a = 0.2, v = 0.2, t = 0.2)
movej(p[-0.480643564751467, -0.2416409027832, 0.375775738589183, -0.907, -1.753, 1.533], a = 0.2, v = 0.2, t = 0.2)
movej(p[-0.480642954184874, -0.241640329524496, 0.375769071040774, -0.907, -1.753, 1.533], a = 0.2, v = 0.2, t = 0.2)
movej(p[-0.480635066324571, -0.24163292364178, 0.37568293352349, -0.907, -1.753, 1.533], a = 0.2, v = 0.2, t = 0.2)
movej(p[-0.480670594699536, -0.241666281100958, 0.376070912759289, -0.907, -1.753, 1.533], a = 0.2, v = 0.2, t = 0.2)
movej(p[-0.480744357744633, -0.241735536949785, 0.3768764246887, -0.907, -1.753, 1.533], a = 0.2, v = 0.2, t = 0.2)
movej(p[-0.480821866698284, -0.241808309818228, 0.377722842928621, -0.907, -1.753, 1.533], a = 0.2, v = 0.2, t = 0.2)
movej(p[-0.480890893726839, -0.24187311903873, 0.378476636306859, -0.907, -1.753, 1.533], a = 0.2, v = 0.2, t = 0.2)
movej(p[-0.480983402816506, -0.241959975479116, 0.379486859992828, -0.907, -1.753, 1.533], a = 0.2, v = 0.2, t = 0.2)
movej(p[-0.481058073460592, -0.24203008346926, 0.380302283142847, -0.907, -1.753, 1.533], a = 0.2, v = 0.2, t = 0.2)
movej(p[-0.481041555158994, -0.242014574497297, 0.380121898927782, -0.907, -1.753, 1.533], a = 0.2, v = 0.2, t = 0.2)
movej(p[-0.480951075790702, -0.241929623754765, 0.379133840335173, -0.907, -1.753, 1.533], a = 0.2, v = 0.2, t = 0.2)
movej(p[-0.480850695342531, -0.241835376925141, 0.378037659335932, -0.907, -1.753, 1.533], a = 0.2, v = 0.2, t = 0.2)
movej(p[-0.480763070785604, -0.241753106554387, 0.377080776037235, -0.907, -1.753, 1.533], a = 0.2, v = 0.2, t = 0.2)
movej(p[-0.480695413406432, -0.241689583292599, 0.376341939591914, -0.907, -1.753, 1.533], a = 0.2, v = 0.2, t = 0.2)
movej(p[-0.480673994070294, -0.241669472757526, 0.376108034785566, -0.907, -1.753, 1.533], a = 0.2, v = 0.2, t = 0.2)
movej(p[-0.480660495598059, -0.241656799092125, 0.375960627904524, -0.907, -1.753, 1.533], a = 0.2, v = 0.2, t = 0.2)
movej(p[-0.48064983543539, -0.241646790305024, 0.375844216113383, -0.907, -1.753, 1.533], a = 0.2, v = 0.2, t = 0.2)
movej(p[-0.480639274283519, -0.241636874478794, 0.375728885546308, -0.907, -1.753, 1.533], a = 0.2, v = 0.2, t = 0.2)
movej(p[-0.480639455803317, -0.241637044907057, 0.37573086779043, -0.907, -1.753, 1.533], a = 0.2, v = 0.2, t = 0.2)
movej(p[-0.480667987415168, -0.241663833131357, 0.376042440525542, -0.907, -1.753, 1.533], a = 0.2, v = 0.2, t = 0.2)
movej(p[-0.480721964802307, -0.241714512299481, 0.3766318878457, -0.907, -1.753, 1.533], a = 0.2, v = 0.2, t = 0.2)
movej(p[-0.480803582704108, -0.241791143044067, 0.377523176884373, -0.907, -1.753, 1.533], a = 0.2, v = 0.2, t = 0.2)
movej(p[-0.480893550516606, -0.241875613488766, 0.378505649152639, -0.907, -1.753, 1.533], a = 0.2, v = 0.2, t = 0.2)
movej(p[-0.4809675445869, -0.241945086246292, 0.379313683938205, -0.907, -1.753, 1.533], a = 0.2, v = 0.2, t = 0.2)
movej(p[-0.481024591308802, -0.241998647201414, 0.379936649204419, -0.907, -1.753, 1.533], a = 0.2, v = 0.2, t = 0.2)
movej(p[-0.48104439346856, -0.242017239375596, 0.380152894017683, -0.907, -1.753, 1.533], a = 0.2, v = 0.2, t = 0.2)
movej(p[-0.480952775476081, -0.241931219583049, 0.379152401348312, -0.907, -1.753, 1.533], a = 0.2, v = 0.2, t = 0.2)
movej(p[-0.480817477219538, -0.241804188552951, 0.37767490866168, -0.907, -1.753, 1.533], a = 0.2, v = 0.2, t = 0.2)
movej(p[-0.480744275235634, -0.241735459482393, 0.376875523668645, -0.907, -1.753, 1.533], a = 0.2, v = 0.2, t = 0.2)
movej(p[-0.480698317723196, -0.241692310144813, 0.37637365549786, -0.907, -1.753, 1.533], a = 0.2, v = 0.2, t = 0.2)
movej(p[-0.480671733323722, -0.241667350150974, 0.376083346836052, -0.907, -1.753, 1.533], a = 0.2, v = 0.2, t = 0.2)
movej(p[-0.480646205039434, -0.241643381739757, 0.375804571230951, -0.907, -1.753, 1.533], a = 0.2, v = 0.2, t = 0.2)
movej(p[-0.480642294112882, -0.241639709785357, 0.375761862880331, -0.907, -1.753, 1.533], a = 0.2, v = 0.2, t = 0.2)
movej(p[-0.480641733051689, -0.241639183007088, 0.375755735943956, -0.907, -1.753, 1.533], a = 0.2, v = 0.2, t = 0.2)
movej(p[-0.480635297349768, -0.241633140550479, 0.375685456379644, -0.907, -1.753, 1.533], a = 0.2, v = 0.2, t = 0.2)
movej(p[-0.48067676637266, -0.241672075661911, 0.376138309059423, -0.907, -1.753, 1.533], a = 0.2, v = 0.2, t = 0.2)
movej(p[-0.480760678024633, -0.241750860000007, 0.377054646455632, -0.907, -1.753, 1.533], a = 0.2, v = 0.2, t = 0.2)
movej(p[-0.480852807572905, -0.241837360090387, 0.378060725449347, -0.907, -1.753, 1.533], a = 0.2, v = 0.2, t = 0.2)
movej(p[-0.480945267157173, -0.241924170050338, 0.379070408523282, -0.907, -1.753, 1.533], a = 0.2, v = 0.2, t = 0.2)
movej(p[-0.481044178945162, -0.242017037960376, 0.38015055136554, -0.907, -1.753, 1.533], a = 0.2, v = 0.2, t = 0.2)
movej(p[-0.481114460110502, -0.242083024685243, 0.380918040248618, -0.907, -1.753, 1.533], a = 0.2, v = 0.2, t = 0.2)
movej(p[-0.481065169234505, -0.242036745665009, 0.3803797708676, -0.907, -1.753, 1.533], a = 0.2, v = 0.2, t = 0.2)
movej(p[-0.480916504520125, -0.241897164917339, 0.378756312932015, -0.907, -1.753, 1.533], a = 0.2, v = 0.2, t = 0.2)
movej(p[-0.48079688297339, -0.241784852691802, 0.377450014055885, -0.907, -1.753, 1.533], a = 0.2, v = 0.2, t = 0.2)
movej(p[-0.480724803111872, -0.241717177177781, 0.376662882935601, -0.907, -1.753, 1.533], a = 0.2, v = 0.2, t = 0.2)
movej(p[-0.480668895014157, -0.241664685272674, 0.37605235174615, -0.907, -1.753, 1.533], a = 0.2, v = 0.2, t = 0.2)
movej(p[-0.480656601173307, -0.241653142631203, 0.375918099757915, -0.907, -1.753, 1.533], a = 0.2, v = 0.2, t = 0.2)
movej(p[-0.480648927836401, -0.241645938163707, 0.375834304892775, -0.907, -1.753, 1.533], a = 0.2, v = 0.2, t = 0.2)
movej(p[-0.480641782557089, -0.241639229487524, 0.375756276555989, -0.907, -1.753, 1.533], a = 0.2, v = 0.2, t = 0.2)
movej(p[-0.480633399642791, -0.241631358800453, 0.375664732918373, -0.907, -1.753, 1.533], a = 0.2, v = 0.2, t = 0.2)
movej(p[-0.480663333907625, -0.241659463970425, 0.375991622994425, -0.907, -1.753, 1.533], a = 0.2, v = 0.2, t = 0.2)
movej(p[-0.480742295019658, -0.241733600264975, 0.376853899187318, -0.907, -1.753, 1.533], a = 0.2, v = 0.2, t = 0.2)
movej(p[-0.480818318811327, -0.241804978720354, 0.377684099066244, -0.907, -1.753, 1.533], a = 0.2, v = 0.2, t = 0.2)
movej(p[-0.480921422056465, -0.241901781973927, 0.378810013727309, -0.907, -1.753, 1.533], a = 0.2, v = 0.2, t = 0.2)
movej(p[-0.481021819006436, -0.241996044297029, 0.379906374930561, -0.907, -1.753, 1.533], a = 0.2, v = 0.2, t = 0.2)
movej(p[-0.481079839334526, -0.242050519367382, 0.380539972233427, -0.907, -1.753, 1.533], a = 0.2, v = 0.2, t = 0.2)
movej(p[-0.481078106645547, -0.242048892552141, 0.380521050812267, -0.907, -1.753, 1.533], a = 0.2, v = 0.2, t = 0.2)
movej(p[-0.480975036404009, -0.241952120285525, 0.379395496559223, -0.907, -1.753, 1.533], a = 0.2, v = 0.2, t = 0.2)
movej(p[-0.480846734910579, -0.241831658490305, 0.377994410373279, -0.907, -1.753, 1.533], a = 0.2, v = 0.2, t = 0.2)
movej(p[-0.480740265298283, -0.241731694567121, 0.376831734093959, -0.907, -1.753, 1.533], a = 0.2, v = 0.2, t = 0.2)
movej(p[-0.480694109764248, -0.241688359307799, 0.376327703475041, -0.907, -1.753, 1.533], a = 0.2, v = 0.2, t = 0.2)
movej(p[-0.480671172262529, -0.241666823372705, 0.376077219899676, -0.907, -1.753, 1.533], a = 0.2, v = 0.2, t = 0.2)
movej(p[-0.480653993888939, -0.241650694661602, 0.375889627524169, -0.907, -1.753, 1.533], a = 0.2, v = 0.2, t = 0.2)
movej(p[-0.480639736333914, -0.241637308296191, 0.375733931258618, -0.907, -1.753, 1.533], a = 0.2, v = 0.2, t = 0.2)
movej(p[-0.480639769337513, -0.241637339283148, 0.37573429166664, -0.907, -1.753, 1.533], a = 0.2, v = 0.2, t = 0.2)
movej(p[-0.480671287775127, -0.241666931827054, 0.376078481327753, -0.907, -1.753, 1.533], a = 0.2, v = 0.2, t = 0.2)
movej(p[-0.48073473719535, -0.241726504251829, 0.376771365750256, -0.907, -1.753, 1.533], a = 0.2, v = 0.2, t = 0.2)
movej(p[-0.480838616025079, -0.241824035698891, 0.37790574999984, -0.907, -1.753, 1.533], a = 0.2, v = 0.2, t = 0.2)
movej(p[-0.480945349666172, -0.24192424751773, 0.379071309543337, -0.907, -1.753, 1.533], a = 0.2, v = 0.2, t = 0.2)
movej(p[-0.48102969036494, -0.242003434686266, 0.379992332243834, -0.907, -1.753, 1.533], a = 0.2, v = 0.2, t = 0.2)
movej(p[-0.481097100217114, -0.242066725545877, 0.38072846562899, -0.907, -1.753, 1.533], a = 0.2, v = 0.2, t = 0.2)
movej(p[-0.48109335430856, -0.242063208526261, 0.38068755931848, -0.907, -1.753, 1.533], a = 0.2, v = 0.2, t = 0.2)
movej(p[-0.480968996745283, -0.241946449672399, 0.379329541891178, -0.907, -1.753, 1.533], a = 0.2, v = 0.2, t = 0.2)
movej(p[-0.480823681896262, -0.241810014100862, 0.377742665369837, -0.907, -1.753, 1.533], a = 0.2, v = 0.2, t = 0.2)
movej(p[-0.480749638320568, -0.2417404948629, 0.376934089972237, -0.907, -1.753, 1.533], a = 0.2, v = 0.2, t = 0.2)
movej(p[-0.480699984404976, -0.24169387498614, 0.376391856102976, -0.907, -1.753, 1.533], a = 0.2, v = 0.2, t = 0.2)
movej(p[-0.480670743215734, -0.241666420542264, 0.376072534595388, -0.907, -1.753, 1.533], a = 0.2, v = 0.2, t = 0.2)
movej(p[-0.480646205039434, -0.241643381739757, 0.375804571230951, -0.907, -1.753, 1.533], a = 0.2, v = 0.2, t = 0.2)
movej(p[-0.480642855174075, -0.241640236563625, 0.375767989816707, -0.907, -1.753, 1.533], a = 0.2, v = 0.2, t = 0.2)
movej(p[-0.480641782557089, -0.241639229487524, 0.375756276555989, -0.907, -1.753, 1.533], a = 0.2, v = 0.2, t = 0.2)
movej(p[-0.480659406479273, -0.241655776522545, 0.375948734439794, -0.907, -1.753, 1.533], a = 0.2, v = 0.2, t = 0.2)
movej(p[-0.480750710937555, -0.241741501939002, 0.376945803232956, -0.907, -1.753, 1.533], a = 0.2, v = 0.2, t = 0.2)
movej(p[-0.48085808814884, -0.241842318003503, 0.378118390732884, -0.907, -1.753, 1.533], a = 0.2, v = 0.2, t = 0.2)
movej(p[-0.480955663291046, -0.241933930941783, 0.379183937050246, -0.907, -1.753, 1.533], a = 0.2, v = 0.2, t = 0.2)
movej(p[-0.481034640904879, -0.242008082729812, 0.38004639344715, -0.907, -1.753, 1.533], a = 0.2, v = 0.2, t = 0.2)
movej(p[-0.481117166405669, -0.242085565615714, 0.380947593706431, -0.907, -1.753, 1.533], a = 0.2, v = 0.2, t = 0.2)
movej(p[-0.481109889111958, -0.242078732991703, 0.380868123737556, -0.907, -1.753, 1.533], a = 0.2, v = 0.2, t = 0.2)
movej(p[-0.480979359875556, -0.241956179576888, 0.37944271001012, -0.907, -1.753, 1.533], a = 0.2, v = 0.2, t = 0.2)
movej(p[-0.480853715171894, -0.241838212231704, 0.378070636669955, -0.907, -1.753, 1.533], a = 0.2, v = 0.2, t = 0.2)
movej(p[-0.480762080677616, -0.241752176945678, 0.377069963796572, -0.907, -1.753, 1.533], a = 0.2, v = 0.2, t = 0.2)
movej(p[-0.480705264980911, -0.241698832899255, 0.376449521386513, -0.907, -1.753, 1.533], a = 0.2, v = 0.2, t = 0.2)
movej(p[-0.480662244788838, -0.241658441400845, 0.375979729529696, -0.907, -1.753, 1.533], a = 0.2, v = 0.2, t = 0.2)
movej(p[-0.480648944338201, -0.241645953657186, 0.375834485096786, -0.907, -1.753, 1.533], a = 0.2, v = 0.2, t = 0.2)
movej(p[-0.480643614256866, -0.241640949263635, 0.375776279201216, -0.907, -1.753, 1.533], a = 0.2, v = 0.2, t = 0.2)
movej(p[-0.480635346855167, -0.241633187030914, 0.375685996991678, -0.907, -1.753, 1.533], a = 0.2, v = 0.2, t = 0.2)
movej(p[-0.480641419517493, -0.241638888630997, 0.375752312067745, -0.907, -1.753, 1.533], a = 0.2, v = 0.2, t = 0.2)
movej(p[-0.480694885348838, -0.241689087501288, 0.37633617306356, -0.907, -1.753, 1.533], a = 0.2, v = 0.2, t = 0.2)
movej(p[-0.480784737648738, -0.241773449491638, 0.377317383903749, -0.907, -1.753, 1.533], a = 0.2, v = 0.2, t = 0.2)
movej(p[-0.480868995838507, -0.241852559192781, 0.378237505584191, -0.907, -1.753, 1.533], a = 0.2, v = 0.2, t = 0.2)
movej(p[-0.480972544632239, -0.241949780770273, 0.379368285753554, -0.907, -1.753, 1.533], a = 0.2, v = 0.2, t = 0.2)
movej(p[-0.481062099899743, -0.24203386387801, 0.380346252921544, -0.907, -1.753, 1.533], a = 0.2, v = 0.2, t = 0.2)
movej(p[-0.481098024317903, -0.242067593180672, 0.380738557053609, -0.907, -1.753, 1.533], a = 0.2, v = 0.2, t = 0.2)
movej(p[-0.481014838745121, -0.24198949055563, 0.379830148633886, -0.907, -1.753, 1.533], a = 0.2, v = 0.2, t = 0.2)
movej(p[-0.480892494401419, -0.241874621906143, 0.378494116095932, -0.907, -1.753, 1.533], a = 0.2, v = 0.2, t = 0.2)
movej(p[-0.480787724474502, -0.241776253811243, 0.37735000082975, -0.907, -1.753, 1.533], a = 0.2, v = 0.2, t = 0.2)
movej(p[-0.480704703919718, -0.241698306120986, 0.376443394450137, -0.907, -1.753, 1.533], a = 0.2, v = 0.2, t = 0.2)
movej(p[-0.480675363719677, -0.24167075871624, 0.376122991718483, -0.907, -1.753, 1.533], a = 0.2, v = 0.2, t = 0.2)
movej(p[-0.480657096227301, -0.241653607435557, 0.375923505878247, -0.907, -1.753, 1.533], a = 0.2, v = 0.2, t = 0.2)
movej(p[-0.480648003735612, -0.241645070528912, 0.375824213468156, -0.907, -1.753, 1.533], a = 0.2, v = 0.2, t = 0.2)
movej(p[-0.480633234624793, -0.241631203865668, 0.375662930878263, -0.907, -1.753, 1.533], a = 0.2, v = 0.2, t = 0.2)
