movej(p[0.445891467372596, 0.0574429333447517, 0.342000274180059, -1.222, 0.971, -1.041], a = 0.2, v = 0.2, t = 0.1)
movej(p[0.445882439642339, 0.0574493611742939, 0.342002542945534, -1.222, 0.971, -1.041], a = 0.2, v = 0.2, t = 0.1)
movej(p[0.445873801111567, 0.0574543529719751, 0.342003426098417, -1.222, 0.971, -1.041], a = 0.2, v = 0.2, t = 0.1)
movej(p[0.445864990961149, 0.0574569692443684, 0.342005309422438, -1.222, 0.971, -1.041], a = 0.2, v = 0.2, t = 0.1)
movej(p[0.445855822063032, 0.0574576628984417, 0.342008945547897, -1.222, 0.971, -1.041], a = 0.2, v = 0.2, t = 0.1)
movej(p[0.445845013414331, 0.0574577567572766, 0.342012348951012, -1.222, 0.971, -1.041], a = 0.2, v = 0.2, t = 0.1)
movej(p[0.44583244974059, 0.0574573982507554, 0.342014984391434, -1.222, 0.971, -1.041], a = 0.2, v = 0.2, t = 0.1)
movej(p[0.445818389018213, 0.0574571641589187, 0.342017177566814, -1.222, 0.971, -1.041], a = 0.2, v = 0.2, t = 0.1)
movej(p[0.445804888992373, 0.0574574837661743, 0.342020688043493, -1.222, 0.971, -1.041], a = 0.2, v = 0.2, t = 0.1)
movej(p[0.445793729304531, 0.0574584742616705, 0.342025966325595, -1.222, 0.971, -1.041], a = 0.2, v = 0.2, t = 0.1)
movej(p[0.445785832603236, 0.057460446149767, 0.342032430928212, -1.222, 0.971, -1.041], a = 0.2, v = 0.2, t = 0.1)
movej(p[0.445780677408986, 0.0574626979247007, 0.342037019842559, -1.222, 0.971, -1.041], a = 0.2, v = 0.2, t = 0.1)
movej(p[0.445777376667893, 0.057465018116125, 0.342038282799801, -1.222, 0.971, -1.041], a = 0.2, v = 0.2, t = 0.1)
movej(p[0.445775755268962, 0.057466290347238, 0.342035171021611, -1.222, 0.971, -1.041], a = 0.2, v = 0.2, t = 0.1)
movej(p[0.445774879712397, 0.0574671623507079, 0.342027715901045, -1.222, 0.971, -1.041], a = 0.2, v = 0.2, t = 0.1)
movej(p[0.445775057484996, 0.0574673564670508, 0.342017865352393, -1.222, 0.971, -1.041], a = 0.2, v = 0.2, t = 0.1)
movej(p[0.445776155677373, 0.0574656520092632, 0.34200926017987, -1.222, 0.971, -1.041], a = 0.2, v = 0.2, t = 0.1)
movej(p[0.445779353058743, 0.0574610088501667, 0.342003239729805, -1.222, 0.971, -1.041], a = 0.2, v = 0.2, t = 0.1)
movej(p[0.445785504123174, 0.0574541143775137, 0.341996260719546, -1.222, 0.971, -1.041], a = 0.2, v = 0.2, t = 0.1)
movej(p[0.445795310182906, 0.057448017510895, 0.341986238516396, -1.222, 0.971, -1.041], a = 0.2, v = 0.2, t = 0.1)
movej(p[0.445807960016481, 0.0574441889890223, 0.3419750004171, -1.222, 0.971, -1.041], a = 0.2, v = 0.2, t = 0.1)
movej(p[0.445822799717332, 0.0574427953336823, 0.34196460890819, -1.222, 0.971, -1.041], a = 0.2, v = 0.2, t = 0.1)
movej(p[0.445839390098753, 0.0574438677587448, 0.341955169173934, -1.222, 0.971, -1.041], a = 0.2, v = 0.2, t = 0.1)
movej(p[0.445857729661194, 0.0574462769036911, 0.341947294339582, -1.222, 0.971, -1.041], a = 0.2, v = 0.2, t = 0.1)
movej(p[0.445876819542274, 0.0574487657153619, 0.341942787178633, -1.222, 0.971, -1.041], a = 0.2, v = 0.2, t = 0.1)
movej(p[0.445894928493538, 0.0574500246251699, 0.341943698790525, -1.222, 0.971, -1.041], a = 0.2, v = 0.2, t = 0.1)
movej(p[0.445911150784184, 0.05744901831825, 0.34195021245605, -1.222, 0.971, -1.041], a = 0.2, v = 0.2, t = 0.1)
movej(p[0.445926421876122, 0.0574462350642107, 0.341958827952668, -1.222, 0.971, -1.041], a = 0.2, v = 0.2, t = 0.1)
movej(p[0.44594047767609, 0.0574432802029234, 0.341966628645395, -1.222, 0.971, -1.041], a = 0.2, v = 0.2, t = 0.1)
movej(p[0.445952984786042, 0.0574417682443998, 0.341971534459912, -1.222, 0.971, -1.041], a = 0.2, v = 0.2, t = 0.1)
movej(p[0.445963327797575, 0.0574426370212191, 0.341973372446654, -1.222, 0.971, -1.041], a = 0.2, v = 0.2, t = 0.1)
movej(p[0.445971470301897, 0.0574455264030481, 0.341970332542211, -1.222, 0.971, -1.041], a = 0.2, v = 0.2, t = 0.1)
movej(p[0.445977746085208, 0.0574498798638603, 0.341964169702867, -1.222, 0.971, -1.041], a = 0.2, v = 0.2, t = 0.1)
movej(p[0.445981946293583, 0.057453996319786, 0.34195817604203, -1.222, 0.971, -1.041], a = 0.2, v = 0.2, t = 0.1)
movej(p[0.445985448917319, 0.0574574294837101, 0.34195247796995, -1.222, 0.971, -1.041], a = 0.2, v = 0.2, t = 0.1)
movej(p[0.445988732247862, 0.0574609193624396, 0.34194788453126, -1.222, 0.971, -1.041], a = 0.2, v = 0.2, t = 0.1)
movej(p[0.445991694231728, 0.0574638132886624, 0.34194625910098, -1.222, 0.971, -1.041], a = 0.2, v = 0.2, t = 0.1)
movej(p[0.445994017014206, 0.0574661445252926, 0.341949255140921, -1.222, 0.971, -1.041], a = 0.2, v = 0.2, t = 0.1)
movej(p[0.445995095197784, 0.0574678302601806, 0.34195356630446, -1.222, 0.971, -1.041], a = 0.2, v = 0.2, t = 0.1)
movej(p[0.445996460399183, 0.0574697216133706, 0.341955888855698, -1.222, 0.971, -1.041], a = 0.2, v = 0.2, t = 0.1)
movej(p[0.445998605242563, 0.0574706255239859, 0.341954958822649, -1.222, 0.971, -1.041], a = 0.2, v = 0.2, t = 0.1)
movej(p[0.446001576668364, 0.0574699988039311, 0.341952702668469, -1.222, 0.971, -1.041], a = 0.2, v = 0.2, t = 0.1)
movej(p[0.446004887324606, 0.0574684518768601, 0.341950346800925, -1.222, 0.971, -1.041], a = 0.2, v = 0.2, t = 0.1)
movej(p[0.446008697789758, 0.0574660554830335, 0.341945764959598, -1.222, 0.971, -1.041], a = 0.2, v = 0.2, t = 0.1)
movej(p[0.446013821540068, 0.0574630048971793, 0.341938633604417, -1.222, 0.971, -1.041], a = 0.2, v = 0.2, t = 0.1)
movej(p[0.446020930343288, 0.0574602009658166, 0.341927214591076, -1.222, 0.971, -1.041], a = 0.2, v = 0.2, t = 0.1)
movej(p[0.446029475953072, 0.0574582028329191, 0.341914911835842, -1.222, 0.971, -1.041], a = 0.2, v = 0.2, t = 0.1)
movej(p[0.446039325524065, 0.0574564018823347, 0.34190200366315, -1.222, 0.971, -1.041], a = 0.2, v = 0.2, t = 0.1)
movej(p[0.446048327328008, 0.0574546675304391, 0.341890903262469, -1.222, 0.971, -1.041], a = 0.2, v = 0.2, t = 0.1)
movej(p[0.446055350577944, 0.0574525585056943, 0.341883263629954, -1.222, 0.971, -1.041], a = 0.2, v = 0.2, t = 0.1)
movej(p[0.446059917571285, 0.0574519104975259, 0.341880132663772, -1.222, 0.971, -1.041], a = 0.2, v = 0.2, t = 0.1)
movej(p[0.446063919326531, 0.0574525511397861, 0.341879931433921, -1.222, 0.971, -1.041], a = 0.2, v = 0.2, t = 0.1)
movej(p[0.44606787432215, 0.057454499797544, 0.341880602069883, -1.222, 0.971, -1.041], a = 0.2, v = 0.2, t = 0.1)
movej(p[0.446070570157005, 0.057456417863509, 0.341878698378105, -1.222, 0.971, -1.041], a = 0.2, v = 0.2, t = 0.1)
movej(p[0.446070321341272, 0.0574572390636511, 0.34187309246952, -1.222, 0.971, -1.041], a = 0.2, v = 0.2, t = 0.1)
movej(p[0.446066698469424, 0.0574572846854244, 0.341864006898089, -1.222, 0.971, -1.041], a = 0.2, v = 0.2, t = 0.1)
movej(p[0.446060585661004, 0.0574573408867783, 0.341853577748621, -1.222, 0.971, -1.041], a = 0.2, v = 0.2, t = 0.1)
movej(p[0.446053658888321, 0.0574584435699788, 0.341841617656984, -1.222, 0.971, -1.041], a = 0.2, v = 0.2, t = 0.1)
movej(p[0.446046974991963, 0.0574609080276282, 0.341829924095723, -1.222, 0.971, -1.041], a = 0.2, v = 0.2, t = 0.1)
movej(p[0.446040367881654, 0.0574639997829457, 0.341819939497463, -1.222, 0.971, -1.041], a = 0.2, v = 0.2, t = 0.1)
movej(p[0.446033439655376, 0.0574654621867912, 0.341813221114798, -1.222, 0.971, -1.041], a = 0.2, v = 0.2, t = 0.1)
movej(p[0.446026377603362, 0.0574651574329713, 0.341806179426615, -1.222, 0.971, -1.041], a = 0.2, v = 0.2, t = 0.1)
movej(p[0.446020338685016, 0.0574629434119569, 0.341795892237195, -1.222, 0.971, -1.041], a = 0.2, v = 0.2, t = 0.1)
movej(p[0.446017698943132, 0.057460299791265, 0.341781214881663, -1.222, 0.971, -1.041], a = 0.2, v = 0.2, t = 0.1)
movej(p[0.446020163844697, 0.057457424841876, 0.341766157785054, -1.222, 0.971, -1.041], a = 0.2, v = 0.2, t = 0.1)
movej(p[0.446027962446961, 0.0574546465263635, 0.341755098502318, -1.222, 0.971, -1.041], a = 0.2, v = 0.2, t = 0.1)
movej(p[0.446038468894408, 0.057452054532462, 0.341750143096113, -1.222, 0.971, -1.041], a = 0.2, v = 0.2, t = 0.1)
movej(p[0.446049797684354, 0.0574496610801452, 0.341748897385726, -1.222, 0.971, -1.041], a = 0.2, v = 0.2, t = 0.1)
movej(p[0.446060461382909, 0.0574456251518991, 0.341749572948683, -1.222, 0.971, -1.041], a = 0.2, v = 0.2, t = 0.1)
movej(p[0.446070775174338, 0.0574405255866972, 0.341751747829627, -1.222, 0.971, -1.041], a = 0.2, v = 0.2, t = 0.1)
movej(p[0.446081033661042, 0.0574357339204804, 0.341757408794421, -1.222, 0.971, -1.041], a = 0.2, v = 0.2, t = 0.1)
movej(p[0.446091914738751, 0.0574343616764887, 0.34176661538724, -1.222, 0.971, -1.041], a = 0.2, v = 0.2, t = 0.1)
movej(p[0.446102894249638, 0.0574357376416357, 0.341780633633977, -1.222, 0.971, -1.041], a = 0.2, v = 0.2, t = 0.1)
movej(p[0.446115263933412, 0.0574379141470086, 0.341796244718652, -1.222, 0.971, -1.041], a = 0.2, v = 0.2, t = 0.1)
movej(p[0.446128976437218, 0.057439327433848, 0.341811805945231, -1.222, 0.971, -1.041], a = 0.2, v = 0.2, t = 0.1)
movej(p[0.446143905924771, 0.0574391592228547, 0.34182626523662, -1.222, 0.971, -1.041], a = 0.2, v = 0.2, t = 0.1)
movej(p[0.44615835950698, 0.0574377218588223, 0.341839602762139, -1.222, 0.971, -1.041], a = 0.2, v = 0.2, t = 0.1)
movej(p[0.446171476888535, 0.0574323342511802, 0.341850217863694, -1.222, 0.971, -1.041], a = 0.2, v = 0.2, t = 0.1)
movej(p[0.446182590983213, 0.057420783422535, 0.341858060972907, -1.222, 0.971, -1.041], a = 0.2, v = 0.2, t = 0.1)
movej(p[0.446190232368656, 0.0574042086735567, 0.341862048451034, -1.222, 0.971, -1.041], a = 0.2, v = 0.2, t = 0.1)
movej(p[0.446193343994298, 0.0573862068705817, 0.34186285782642, -1.222, 0.971, -1.041], a = 0.2, v = 0.2, t = 0.1)
movej(p[0.446191753594961, 0.0573697431413711, 0.341861826222122, -1.222, 0.971, -1.041], a = 0.2, v = 0.2, t = 0.1)
movej(p[0.446186132619808, 0.0573552766438568, 0.341859817079519, -1.222, 0.971, -1.041], a = 0.2, v = 0.2, t = 0.1)
movej(p[0.446177485545922, 0.0573422445569441, 0.34185462101698, -1.222, 0.971, -1.041], a = 0.2, v = 0.2, t = 0.1)
movej(p[0.446165887212474, 0.0573292855944078, 0.341846579572072, -1.222, 0.971, -1.041], a = 0.2, v = 0.2, t = 0.1)
movej(p[0.446151600436179, 0.0573158832220031, 0.341837552724836, -1.222, 0.971, -1.041], a = 0.2, v = 0.2, t = 0.1)
movej(p[0.44613331796894, 0.0573014446057297, 0.341828698601459, -1.222, 0.971, -1.041], a = 0.2, v = 0.2, t = 0.1)
movej(p[0.446110110602745, 0.0572851447696308, 0.341819163936366, -1.222, 0.971, -1.041], a = 0.2, v = 0.2, t = 0.1)
movej(p[0.446082624273651, 0.0572679244896313, 0.341809284086484, -1.222, 0.971, -1.041], a = 0.2, v = 0.2, t = 0.1)
movej(p[0.446051833812212, 0.0572509557270706, 0.341801045015814, -1.222, 0.971, -1.041], a = 0.2, v = 0.2, t = 0.1)
movej(p[0.446018965084998, 0.0572371499634984, 0.341794981953593, -1.222, 0.971, -1.041], a = 0.2, v = 0.2, t = 0.1)
movej(p[0.445986886004489, 0.0572271203275295, 0.341789486017815, -1.222, 0.971, -1.041], a = 0.2, v = 0.2, t = 0.1)
movej(p[0.445958049173504, 0.0572215682495999, 0.341782661337503, -1.222, 0.971, -1.041], a = 0.2, v = 0.2, t = 0.1)
movej(p[0.445932372931725, 0.0572195333587026, 0.341774584005506, -1.222, 0.971, -1.041], a = 0.2, v = 0.2, t = 0.1)
movej(p[0.445909855810417, 0.0572191454135729, 0.341767094215417, -1.222, 0.971, -1.041], a = 0.2, v = 0.2, t = 0.1)
movej(p[0.445893217207177, 0.0572193926692647, 0.341761213828708, -1.222, 0.971, -1.041], a = 0.2, v = 0.2, t = 0.1)
movej(p[0.445884460988351, 0.0572195366811729, 0.341756089934345, -1.222, 0.971, -1.041], a = 0.2, v = 0.2, t = 0.1)
movej(p[0.445881992172002, 0.0572190587144036, 0.341753390774735, -1.222, 0.971, -1.041], a = 0.2, v = 0.2, t = 0.1)
movej(p[0.445883186879917, 0.0572178764883798, 0.341752715147895, -1.222, 0.971, -1.041], a = 0.2, v = 0.2, t = 0.1)
movej(p[0.445886501095466, 0.0572180516707005, 0.341752883217667, -1.222, 0.971, -1.041], a = 0.2, v = 0.2, t = 0.1)
movej(p[0.445891722998363, 0.0572212123302277, 0.341752681162009, -1.222, 0.971, -1.041], a = 0.2, v = 0.2, t = 0.1)
movej(p[0.445898903000142, 0.0572268420994211, 0.341754456260677, -1.222, 0.971, -1.041], a = 0.2, v = 0.2, t = 0.1)
movej(p[0.445907763632419, 0.0572328300827282, 0.341758501996651, -1.222, 0.971, -1.041], a = 0.2, v = 0.2, t = 0.1)
movej(p[0.445916862339183, 0.0572382598755001, 0.341764369273419, -1.222, 0.971, -1.041], a = 0.2, v = 0.2, t = 0.1)
movej(p[0.445925393561874, 0.057243586935004, 0.341769849089605, -1.222, 0.971, -1.041], a = 0.2, v = 0.2, t = 0.1)
movej(p[0.445933176833985, 0.0572491321244128, 0.341773082594308, -1.222, 0.971, -1.041], a = 0.2, v = 0.2, t = 0.1)
movej(p[0.445941295335744, 0.0572539068758171, 0.341771976816656, -1.222, 0.971, -1.041], a = 0.2, v = 0.2, t = 0.1)
movej(p[0.445950657334477, 0.0572580397687563, 0.341764907773037, -1.222, 0.971, -1.041], a = 0.2, v = 0.2, t = 0.1)
movej(p[0.44596119984028, 0.0572622368216137, 0.341750220758851, -1.222, 0.971, -1.041], a = 0.2, v = 0.2, t = 0.1)
movej(p[0.445972049257876, 0.0572671758305462, 0.341730830249121, -1.222, 0.971, -1.041], a = 0.2, v = 0.2, t = 0.1)
movej(p[0.445980963907521, 0.0572716739585705, 0.341712188009396, -1.222, 0.971, -1.041], a = 0.2, v = 0.2, t = 0.1)
movej(p[0.445986417054193, 0.0572749319534486, 0.341697472034173, -1.222, 0.971, -1.041], a = 0.2, v = 0.2, t = 0.1)
movej(p[0.445986795967606, 0.0572761296901308, 0.341685473374354, -1.222, 0.971, -1.041], a = 0.2, v = 0.2, t = 0.1)
movej(p[0.445980399038629, 0.0572741133654787, 0.341674455283069, -1.222, 0.971, -1.041], a = 0.2, v = 0.2, t = 0.1)
movej(p[0.445967476360428, 0.0572681626902021, 0.341663009608783, -1.222, 0.971, -1.041], a = 0.2, v = 0.2, t = 0.1)
movej(p[0.445950104401441, 0.0572579837758964, 0.341652025464778, -1.222, 0.971, -1.041], a = 0.2, v = 0.2, t = 0.1)
movej(p[0.445931065424837, 0.0572460314459351, 0.341639867069022, -1.222, 0.971, -1.041], a = 0.2, v = 0.2, t = 0.1)
movej(p[0.445911401308003, 0.0572348128162301, 0.34162728476098, -1.222, 0.971, -1.041], a = 0.2, v = 0.2, t = 0.1)
movej(p[0.445891053146595, 0.0572276478309526, 0.341614051659669, -1.222, 0.971, -1.041], a = 0.2, v = 0.2, t = 0.1)
movej(p[0.445868849577178, 0.0572251721608061, 0.341600832332211, -1.222, 0.971, -1.041], a = 0.2, v = 0.2, t = 0.1)
movej(p[0.445844841989565, 0.0572254549139098, 0.341588065478538, -1.222, 0.971, -1.041], a = 0.2, v = 0.2, t = 0.1)
movej(p[0.445819677800571, 0.0572261422486051, 0.34157843753996, -1.222, 0.971, -1.041], a = 0.2, v = 0.2, t = 0.1)
movej(p[0.445795006592841, 0.0572264453043635, 0.34157320818356, -1.222, 0.971, -1.041], a = 0.2, v = 0.2, t = 0.1)
movej(p[0.445772482303715, 0.0572277091131946, 0.341572967921971, -1.222, 0.971, -1.041], a = 0.2, v = 0.2, t = 0.1)
movej(p[0.445754456006051, 0.0572317482537113, 0.341574138995158, -1.222, 0.971, -1.041], a = 0.2, v = 0.2, t = 0.1)
movej(p[0.445742089965566, 0.0572386962052175, 0.341575057496969, -1.222, 0.971, -1.041], a = 0.2, v = 0.2, t = 0.1)
movej(p[0.44573448466247, 0.0572469020708839, 0.3415772740656, -1.222, 0.971, -1.041], a = 0.2, v = 0.2, t = 0.1)
movej(p[0.445730093765955, 0.0572530329261007, 0.341582048713974, -1.222, 0.971, -1.041], a = 0.2, v = 0.2, t = 0.1)
movej(p[0.445727963489059, 0.0572567026565326, 0.341587686479215, -1.222, 0.971, -1.041], a = 0.2, v = 0.2, t = 0.1)
movej(p[0.445728540352056, 0.0572590905880353, 0.3415915985944, -1.222, 0.971, -1.041], a = 0.2, v = 0.2, t = 0.1)
movej(p[0.445732920575619, 0.0572604520406277, 0.341593458033663, -1.222, 0.971, -1.041], a = 0.2, v = 0.2, t = 0.1)
movej(p[0.445740665302506, 0.057261535178218, 0.341593511018624, -1.222, 0.971, -1.041], a = 0.2, v = 0.2, t = 0.1)
movej(p[0.445750882648099, 0.0572631297066645, 0.341594210276843, -1.222, 0.971, -1.041], a = 0.2, v = 0.2, t = 0.1)
movej(p[0.445760951291399, 0.0572656260675369, 0.341597242443313, -1.222, 0.971, -1.041], a = 0.2, v = 0.2, t = 0.1)
movej(p[0.445770319259019, 0.0572681112837905, 0.341602768636925, -1.222, 0.971, -1.041], a = 0.2, v = 0.2, t = 0.1)
movej(p[0.445779599284016, 0.0572705193967751, 0.341608613846495, -1.222, 0.971, -1.041], a = 0.2, v = 0.2, t = 0.1)
movej(p[0.445789229090576, 0.0572739447792403, 0.341614989216098, -1.222, 0.971, -1.041], a = 0.2, v = 0.2, t = 0.1)
movej(p[0.445800887645816, 0.0572793494905682, 0.341622352527526, -1.222, 0.971, -1.041], a = 0.2, v = 0.2, t = 0.1)
movej(p[0.445814973172005, 0.0572862614956715, 0.341629082815665, -1.222, 0.971, -1.041], a = 0.2, v = 0.2, t = 0.1)
movej(p[0.44583056556917, 0.0572930163821968, 0.341630702405944, -1.222, 0.971, -1.041], a = 0.2, v = 0.2, t = 0.1)
movej(p[0.445846271905938, 0.0572968295499743, 0.341626050670479, -1.222, 0.971, -1.041], a = 0.2, v = 0.2, t = 0.1)
movej(p[0.445861319977739, 0.0572976455153278, 0.341617831130247, -1.222, 0.971, -1.041], a = 0.2, v = 0.2, t = 0.1)
movej(p[0.445876294406324, 0.0572970875478919, 0.341610035480763, -1.222, 0.971, -1.041], a = 0.2, v = 0.2, t = 0.1)
movej(p[0.445889621944333, 0.0572949679422156, 0.341603701431236, -1.222, 0.971, -1.041], a = 0.2, v = 0.2, t = 0.1)
movej(p[0.445899864375976, 0.0572884704943408, 0.341598865045689, -1.222, 0.971, -1.041], a = 0.2, v = 0.2, t = 0.1)
movej(p[0.445906945851958, 0.0572788462568585, 0.341594396267356, -1.222, 0.971, -1.041], a = 0.2, v = 0.2, t = 0.1)
movej(p[0.445911287525815, 0.0572685815851109, 0.34159007699577, -1.222, 0.971, -1.041], a = 0.2, v = 0.2, t = 0.1)
movej(p[0.445912706331815, 0.057259352914401, 0.341583905172339, -1.222, 0.971, -1.041], a = 0.2, v = 0.2, t = 0.1)
movej(p[0.445908934865228, 0.0572506739277531, 0.341576476901575, -1.222, 0.971, -1.041], a = 0.2, v = 0.2, t = 0.1)
movej(p[0.44589927002629, 0.05724240916473, 0.341568194013282, -1.222, 0.971, -1.041], a = 0.2, v = 0.2, t = 0.1)
movej(p[0.44588532994473, 0.0572346549004865, 0.341558092893288, -1.222, 0.971, -1.041], a = 0.2, v = 0.2, t = 0.1)
movej(p[0.445868903078089, 0.057228382358499, 0.341546573393543, -1.222, 0.971, -1.041], a = 0.2, v = 0.2, t = 0.1)
movej(p[0.445850996695155, 0.0572253420378049, 0.341533301834995, -1.222, 0.971, -1.041], a = 0.2, v = 0.2, t = 0.1)
movej(p[0.445832740681444, 0.057226431004874, 0.341521322701257, -1.222, 0.971, -1.041], a = 0.2, v = 0.2, t = 0.1)
movej(p[0.445816345206689, 0.0572300816311813, 0.341510299905191, -1.222, 0.971, -1.041], a = 0.2, v = 0.2, t = 0.1)
movej(p[0.445802631908648, 0.0572347368362303, 0.341499431377149, -1.222, 0.971, -1.041], a = 0.2, v = 0.2, t = 0.1)
movej(p[0.445792756775186, 0.0572384563006646, 0.341487992487673, -1.222, 0.971, -1.041], a = 0.2, v = 0.2, t = 0.1)
movej(p[0.44578603058244, 0.057240490356485, 0.341474129072435, -1.222, 0.971, -1.041], a = 0.2, v = 0.2, t = 0.1)
movej(p[0.445781094534803, 0.0572394405801937, 0.341459702790431, -1.222, 0.971, -1.041], a = 0.2, v = 0.2, t = 0.1)
movej(p[0.445777724760405, 0.0572361812748704, 0.341444745272512, -1.222, 0.971, -1.041], a = 0.2, v = 0.2, t = 0.1)
movej(p[0.445776055847644, 0.0572314232891422, 0.341429509038364, -1.222, 0.971, -1.041], a = 0.2, v = 0.2, t = 0.1)
movej(p[0.445776786123007, 0.0572264005828688, 0.341413797405044, -1.222, 0.971, -1.041], a = 0.2, v = 0.2, t = 0.1)
movej(p[0.445780737706126, 0.0572218857635952, 0.341399557184021, -1.222, 0.971, -1.041], a = 0.2, v = 0.2, t = 0.1)
movej(p[0.445788578211802, 0.0572184874858197, 0.341390383020086, -1.222, 0.971, -1.041], a = 0.2, v = 0.2, t = 0.1)
movej(p[0.445799139497534, 0.0572168286174538, 0.341385547819943, -1.222, 0.971, -1.041], a = 0.2, v = 0.2, t = 0.1)
movej(p[0.445810136125833, 0.0572163943403679, 0.341383528510787, -1.222, 0.971, -1.041], a = 0.2, v = 0.2, t = 0.1)
movej(p[0.445819076195115, 0.0572163660420813, 0.341383485366407, -1.222, 0.971, -1.041], a = 0.2, v = 0.2, t = 0.1)
movej(p[0.445826841155136, 0.0572154820066244, 0.341383055629064, -1.222, 0.971, -1.041], a = 0.2, v = 0.2, t = 0.1)
movej(p[0.445834207802452, 0.0572135659007012, 0.341380277025922, -1.222, 0.971, -1.041], a = 0.2, v = 0.2, t = 0.1)
movej(p[0.445840039005304, 0.0572120437567644, 0.341375636063724, -1.222, 0.971, -1.041], a = 0.2, v = 0.2, t = 0.1)
movej(p[0.445844041283476, 0.0572121339196932, 0.341371226374269, -1.222, 0.971, -1.041], a = 0.2, v = 0.2, t = 0.1)
movej(p[0.445847818205143, 0.0572135368219001, 0.341368349050318, -1.222, 0.971, -1.041], a = 0.2, v = 0.2, t = 0.1)
movej(p[0.445854526461204, 0.0572145832201085, 0.341365356138457, -1.222, 0.971, -1.041], a = 0.2, v = 0.2, t = 0.1)
movej(p[0.445864184699315, 0.0572147419744296, 0.341361893077434, -1.222, 0.971, -1.041], a = 0.2, v = 0.2, t = 0.1)
movej(p[0.445874514800737, 0.0572144525229966, 0.341358195339413, -1.222, 0.971, -1.041], a = 0.2, v = 0.2, t = 0.1)
movej(p[0.44588200128123, 0.0572154445008798, 0.341356099191826, -1.222, 0.971, -1.041], a = 0.2, v = 0.2, t = 0.1)
movej(p[0.445886805488115, 0.0572182139420197, 0.34135533053912, -1.222, 0.971, -1.041], a = 0.2, v = 0.2, t = 0.1)
movej(p[0.445890346006096, 0.05722183281595, 0.341356158204456, -1.222, 0.971, -1.041], a = 0.2, v = 0.2, t = 0.1)
movej(p[0.445893289890527, 0.057224376316943, 0.341356168010113, -1.222, 0.971, -1.041], a = 0.2, v = 0.2, t = 0.1)
movej(p[0.445894720995592, 0.0572249955341807, 0.341354610278651, -1.222, 0.971, -1.041], a = 0.2, v = 0.2, t = 0.1)
movej(p[0.44589392714147, 0.0572235328262203, 0.341351979444172, -1.222, 0.971, -1.041], a = 0.2, v = 0.2, t = 0.1)
movej(p[0.445891278414226, 0.0572204128058883, 0.3413487880935, -1.222, 0.971, -1.041], a = 0.2, v = 0.2, t = 0.1)
movej(p[0.445886967823281, 0.0572146249527222, 0.341345049521655, -1.222, 0.971, -1.041], a = 0.2, v = 0.2, t = 0.1)
movej(p[0.445879902108678, 0.0572078392215711, 0.341340231500808, -1.222, 0.971, -1.041], a = 0.2, v = 0.2, t = 0.1)
movej(p[0.445869036460454, 0.0572004308966586, 0.341337618460117, -1.222, 0.971, -1.041], a = 0.2, v = 0.2, t = 0.1)
movej(p[0.445854627760529, 0.05719305215451, 0.341340114200445, -1.222, 0.971, -1.041], a = 0.2, v = 0.2, t = 0.1)
movej(p[0.445839784355483, 0.0571865507769908, 0.341348245140305, -1.222, 0.971, -1.041], a = 0.2, v = 0.2, t = 0.1)
movej(p[0.445826570595947, 0.0571812711469952, 0.34135879916281, -1.222, 0.971, -1.041], a = 0.2, v = 0.2, t = 0.1)
movej(p[0.445815239480378, 0.0571771347453957, 0.341369889526184, -1.222, 0.971, -1.041], a = 0.2, v = 0.2, t = 0.1)
movej(p[0.445804769581485, 0.057171793896679, 0.341381735481365, -1.222, 0.971, -1.041], a = 0.2, v = 0.2, t = 0.1)
movej(p[0.4457932733075, 0.0571650364569152, 0.341395234297694, -1.222, 0.971, -1.041], a = 0.2, v = 0.2, t = 0.1)
movej(p[0.445779584084385, 0.0571567888222113, 0.34141086108093, -1.222, 0.971, -1.041], a = 0.2, v = 0.2, t = 0.1)
movej(p[0.44576423562609, 0.0571480678432623, 0.341426880716355, -1.222, 0.971, -1.041], a = 0.2, v = 0.2, t = 0.1)
movej(p[0.445748603119682, 0.0571401240057515, 0.341442291498879, -1.222, 0.971, -1.041], a = 0.2, v = 0.2, t = 0.1)
movej(p[0.445734447471164, 0.0571338492675828, 0.341456423347801, -1.222, 0.971, -1.041], a = 0.2, v = 0.2, t = 0.1)
movej(p[0.445721901584007, 0.0571289984230733, 0.341469643544811, -1.222, 0.971, -1.041], a = 0.2, v = 0.2, t = 0.1)
movej(p[0.445712811914348, 0.0571264427866113, 0.341480707758373, -1.222, 0.971, -1.041], a = 0.2, v = 0.2, t = 0.1)
movej(p[0.445709016018176, 0.0571266661715763, 0.341489208745811, -1.222, 0.971, -1.041], a = 0.2, v = 0.2, t = 0.1)
movej(p[0.445711685268629, 0.0571292067304371, 0.341495873588847, -1.222, 0.971, -1.041], a = 0.2, v = 0.2, t = 0.1)
movej(p[0.445719976875011, 0.0571326668410897, 0.341501878202146, -1.222, 0.971, -1.041], a = 0.2, v = 0.2, t = 0.1)
movej(p[0.445732161010351, 0.0571359723751198, 0.34150696287665, -1.222, 0.971, -1.041], a = 0.2, v = 0.2, t = 0.1)
movej(p[0.445746283798579, 0.0571384776741184, 0.341510745398372, -1.222, 0.971, -1.041], a = 0.2, v = 0.2, t = 0.1)
movej(p[0.44576121048394, 0.0571403881547951, 0.341512300709828, -1.222, 0.971, -1.041], a = 0.2, v = 0.2, t = 0.1)
movej(p[0.445775413238537, 0.0571414075957817, 0.34151382959175, -1.222, 0.971, -1.041], a = 0.2, v = 0.2, t = 0.1)
movej(p[0.445788806201827, 0.0571423895398242, 0.341517007882359, -1.222, 0.971, -1.041], a = 0.2, v = 0.2, t = 0.1)
movej(p[0.44580013692958, 0.0571425978736313, 0.341523180821661, -1.222, 0.971, -1.041], a = 0.2, v = 0.2, t = 0.1)
movej(p[0.44580902106733, 0.0571427772853219, 0.341530815024755, -1.222, 0.971, -1.041], a = 0.2, v = 0.2, t = 0.1)
movej(p[0.445815526805417, 0.0571440399887676, 0.341537784620436, -1.222, 0.971, -1.041], a = 0.2, v = 0.2, t = 0.1)
movej(p[0.445821291099748, 0.0571476179479811, 0.341543201376175, -1.222, 0.971, -1.041], a = 0.2, v = 0.2, t = 0.1)
movej(p[0.445827436009398, 0.0571517311051476, 0.341548394073596, -1.222, 0.971, -1.041], a = 0.2, v = 0.2, t = 0.1)
movej(p[0.445834799748571, 0.057152562723673, 0.341554882404354, -1.222, 0.971, -1.041], a = 0.2, v = 0.2, t = 0.1)
movej(p[0.445843033751159, 0.0571495321829422, 0.341562593599155, -1.222, 0.971, -1.041], a = 0.2, v = 0.2, t = 0.1)
movej(p[0.445852766985602, 0.0571448068460336, 0.341570455670599, -1.222, 0.971, -1.041], a = 0.2, v = 0.2, t = 0.1)
movej(p[0.445862703728084, 0.0571408377831318, 0.341579094453124, -1.222, 0.971, -1.041], a = 0.2, v = 0.2, t = 0.1)
movej(p[0.445872652459201, 0.057137554322976, 0.341590303647902, -1.222, 0.971, -1.041], a = 0.2, v = 0.2, t = 0.1)
movej(p[0.445882680213994, 0.0571347778291879, 0.341603518824823, -1.222, 0.971, -1.041], a = 0.2, v = 0.2, t = 0.1)
movej(p[0.445893032044823, 0.0571307321013024, 0.341618498063968, -1.222, 0.971, -1.041], a = 0.2, v = 0.2, t = 0.1)
movej(p[0.445903472349444, 0.057125863096267, 0.341633514182953, -1.222, 0.971, -1.041], a = 0.2, v = 0.2, t = 0.1)
movej(p[0.445913351708412, 0.0571208980076853, 0.341646921309109, -1.222, 0.971, -1.041], a = 0.2, v = 0.2, t = 0.1)
movej(p[0.445921904481436, 0.057116774570729, 0.341654828239062, -1.222, 0.971, -1.041], a = 0.2, v = 0.2, t = 0.1)
movej(p[0.445928661830481, 0.0571140799724417, 0.341655285196343, -1.222, 0.971, -1.041], a = 0.2, v = 0.2, t = 0.1)
movej(p[0.445931985958763, 0.0571131046820401, 0.341650309048657, -1.222, 0.971, -1.041], a = 0.2, v = 0.2, t = 0.1)
movej(p[0.445931024967374, 0.057114586317039, 0.34164389882009, -1.222, 0.971, -1.041], a = 0.2, v = 0.2, t = 0.1)
movej(p[0.445926900458782, 0.0571172881340231, 0.341636710668112, -1.222, 0.971, -1.041], a = 0.2, v = 0.2, t = 0.1)
movej(p[0.445921192744393, 0.0571203601388898, 0.341627278673596, -1.222, 0.971, -1.041], a = 0.2, v = 0.2, t = 0.1)
movej(p[0.44591434004284, 0.0571239649417402, 0.341616057782017, -1.222, 0.971, -1.041], a = 0.2, v = 0.2, t = 0.1)
movej(p[0.445904789965056, 0.0571278319777329, 0.341605842904977, -1.222, 0.971, -1.041], a = 0.2, v = 0.2, t = 0.1)
movej(p[0.44589190759761, 0.0571310612286767, 0.341597373302368, -1.222, 0.971, -1.041], a = 0.2, v = 0.2, t = 0.1)
movej(p[0.445877199510328, 0.0571325167117718, 0.341588470938049, -1.222, 0.971, -1.041], a = 0.2, v = 0.2, t = 0.1)
movej(p[0.445862928577837, 0.0571314787163648, 0.341576667785277, -1.222, 0.971, -1.041], a = 0.2, v = 0.2, t = 0.1)
movej(p[0.445848920391479, 0.0571281945482184, 0.341562552940377, -1.222, 0.971, -1.041], a = 0.2, v = 0.2, t = 0.1)
movej(p[0.445834542055795, 0.0571239443611065, 0.341545883859224, -1.222, 0.971, -1.041], a = 0.2, v = 0.2, t = 0.1)
movej(p[0.445818790985241, 0.0571189673269022, 0.341525758213697, -1.222, 0.971, -1.041], a = 0.2, v = 0.2, t = 0.1)
movej(p[0.445801750676045, 0.0571137722159699, 0.341503052520249, -1.222, 0.971, -1.041], a = 0.2, v = 0.2, t = 0.1)
movej(p[0.445783590426177, 0.0571089853431666, 0.341479356462466, -1.222, 0.971, -1.041], a = 0.2, v = 0.2, t = 0.1)
movej(p[0.44576424816887, 0.0571068937163263, 0.341458589378669, -1.222, 0.971, -1.041], a = 0.2, v = 0.2, t = 0.1)
movej(p[0.445744528348443, 0.0571068668317566, 0.341441522217905, -1.222, 0.971, -1.041], a = 0.2, v = 0.2, t = 0.1)
movej(p[0.445723966321665, 0.0571076612220917, 0.341430256466452, -1.222, 0.971, -1.041], a = 0.2, v = 0.2, t = 0.1)
movej(p[0.445701123963089, 0.0571073809173267, 0.341427482174668, -1.222, 0.971, -1.041], a = 0.2, v = 0.2, t = 0.1)
movej(p[0.445677650619444, 0.0571069440872931, 0.341432809869165, -1.222, 0.971, -1.041], a = 0.2, v = 0.2, t = 0.1)
movej(p[0.445655977213413, 0.0571073801898791, 0.341442016110069, -1.222, 0.971, -1.041], a = 0.2, v = 0.2, t = 0.1)
movej(p[0.445639525921466, 0.0571085395793457, 0.341449984366487, -1.222, 0.971, -1.041], a = 0.2, v = 0.2, t = 0.1)
movej(p[0.445629049599352, 0.0571101261369064, 0.341455681368423, -1.222, 0.971, -1.041], a = 0.2, v = 0.2, t = 0.1)
movej(p[0.44562421781632, 0.0571121383491764, 0.341461078451016, -1.222, 0.971, -1.041], a = 0.2, v = 0.2, t = 0.1)
movej(p[0.445622007843485, 0.057114530595446, 0.341469182942786, -1.222, 0.971, -1.041], a = 0.2, v = 0.2, t = 0.1)
movej(p[0.445621740848929, 0.0571179928460671, 0.341480878867569, -1.222, 0.971, -1.041], a = 0.2, v = 0.2, t = 0.1)
movej(p[0.445623517959599, 0.0571223062890925, 0.341496384096137, -1.222, 0.971, -1.041], a = 0.2, v = 0.2, t = 0.1)
movej(p[0.445627546984993, 0.0571263277587537, 0.341514866467904, -1.222, 0.971, -1.041], a = 0.2, v = 0.2, t = 0.1)
movej(p[0.44563404649718, 0.0571287275913913, 0.34153444032919, -1.222, 0.971, -1.041], a = 0.2, v = 0.2, t = 0.1)
movej(p[0.445642959390056, 0.0571296814305544, 0.341553438094544, -1.222, 0.971, -1.041], a = 0.2, v = 0.2, t = 0.1)
movej(p[0.445653622821529, 0.0571306292333564, 0.341569616585668, -1.222, 0.971, -1.041], a = 0.2, v = 0.2, t = 0.1)
movej(p[0.445664591565504, 0.0571336479626896, 0.341584129975721, -1.222, 0.971, -1.041], a = 0.2, v = 0.2, t = 0.1)
movej(p[0.445674538984188, 0.0571390745585585, 0.341599512323422, -1.222, 0.971, -1.041], a = 0.2, v = 0.2, t = 0.1)
movej(p[0.445683358500352, 0.0571467196156838, 0.341616591269355, -1.222, 0.971, -1.041], a = 0.2, v = 0.2, t = 0.1)
movej(p[0.445689932742604, 0.0571548068011102, 0.341634102837095, -1.222, 0.971, -1.041], a = 0.2, v = 0.2, t = 0.1)
movej(p[0.445693743052649, 0.0571625433207957, 0.341649835396884, -1.222, 0.971, -1.041], a = 0.2, v = 0.2, t = 0.1)
movej(p[0.445696486260485, 0.057169559890461, 0.341662539721734, -1.222, 0.971, -1.041], a = 0.2, v = 0.2, t = 0.1)
movej(p[0.445698946255398, 0.0571745198403196, 0.341673545092079, -1.222, 0.971, -1.041], a = 0.2, v = 0.2, t = 0.1)
movej(p[0.44570148230973, 0.0571777896618999, 0.341685295523742, -1.222, 0.971, -1.041], a = 0.2, v = 0.2, t = 0.1)
movej(p[0.445703935161375, 0.0571815938778117, 0.3416989972355, -1.222, 0.971, -1.041], a = 0.2, v = 0.2, t = 0.1)
movej(p[0.445707433817567, 0.0571865881630215, 0.34171520697236, -1.222, 0.971, -1.041], a = 0.2, v = 0.2, t = 0.1)
movej(p[0.445712091429726, 0.0571911290030942, 0.341732302904783, -1.222, 0.971, -1.041], a = 0.2, v = 0.2, t = 0.1)
movej(p[0.44571664248009, 0.0571939799035076, 0.341748190025586, -1.222, 0.971, -1.041], a = 0.2, v = 0.2, t = 0.1)
movej(p[0.445720438557043, 0.0571970706102332, 0.341761714620394, -1.222, 0.971, -1.041], a = 0.2, v = 0.2, t = 0.1)
movej(p[0.445722115513506, 0.0572008166600708, 0.341771911642098, -1.222, 0.971, -1.041], a = 0.2, v = 0.2, t = 0.1)
movej(p[0.445720073654313, 0.0572048168935936, 0.341779051149, -1.222, 0.971, -1.041], a = 0.2, v = 0.2, t = 0.1)
movej(p[0.445713603000044, 0.0572084189361301, 0.341784403222794, -1.222, 0.971, -1.041], a = 0.2, v = 0.2, t = 0.1)
movej(p[0.445703375697769, 0.0572106861253154, 0.341787339793475, -1.222, 0.971, -1.041], a = 0.2, v = 0.2, t = 0.1)
movej(p[0.445690691885417, 0.057211210802683, 0.341788202184847, -1.222, 0.971, -1.041], a = 0.2, v = 0.2, t = 0.1)
movej(p[0.445675711688263, 0.0572108164830008, 0.341785604978805, -1.222, 0.971, -1.041], a = 0.2, v = 0.2, t = 0.1)
movej(p[0.445658376834924, 0.0572113434511475, 0.341780422446481, -1.222, 0.971, -1.041], a = 0.2, v = 0.2, t = 0.1)
movej(p[0.445639344512137, 0.0572121918207437, 0.341770684173978, -1.222, 0.971, -1.041], a = 0.2, v = 0.2, t = 0.1)
movej(p[0.445619288801279, 0.0572131113175879, 0.341757726431523, -1.222, 0.971, -1.041], a = 0.2, v = 0.2, t = 0.1)
movej(p[0.445597850697879, 0.0572139153697639, 0.341743303974286, -1.222, 0.971, -1.041], a = 0.2, v = 0.2, t = 0.1)
movej(p[0.445576258170547, 0.0572142567309973, 0.341729006045523, -1.222, 0.971, -1.041], a = 0.2, v = 0.2, t = 0.1)
movej(p[0.445555712252047, 0.0572144853846575, 0.341714621266571, -1.222, 0.971, -1.041], a = 0.2, v = 0.2, t = 0.1)
movej(p[0.445535479716139, 0.0572136965664433, 0.341699866353405, -1.222, 0.971, -1.041], a = 0.2, v = 0.2, t = 0.1)
movej(p[0.445514431740966, 0.0572119143856923, 0.341686061968344, -1.222, 0.971, -1.041], a = 0.2, v = 0.2, t = 0.1)
movej(p[0.445491822871, 0.0572079069852309, 0.341674555688085, -1.222, 0.971, -1.041], a = 0.2, v = 0.2, t = 0.1)
movej(p[0.445470633697823, 0.0572029910395904, 0.341666093904614, -1.222, 0.971, -1.041], a = 0.2, v = 0.2, t = 0.1)
movej(p[0.445454494358574, 0.0571992497891462, 0.341659190825248, -1.222, 0.971, -1.041], a = 0.2, v = 0.2, t = 0.1)
movej(p[0.445443696712838, 0.0571969991020639, 0.341652559245933, -1.222, 0.971, -1.041], a = 0.2, v = 0.2, t = 0.1)
movej(p[0.445437952755315, 0.057196415850676, 0.341644523640742, -1.222, 0.971, -1.041], a = 0.2, v = 0.2, t = 0.1)
movej(p[0.445437425597093, 0.0571969651562529, 0.34163366476568, -1.222, 0.971, -1.041], a = 0.2, v = 0.2, t = 0.1)
movej(p[0.445441822734535, 0.0571976593744794, 0.341619737579268, -1.222, 0.971, -1.041], a = 0.2, v = 0.2, t = 0.1)
movej(p[0.44545118434473, 0.0571967712743567, 0.341604246116369, -1.222, 0.971, -1.041], a = 0.2, v = 0.2, t = 0.1)
movej(p[0.445462787627536, 0.0571931170691229, 0.341591669297088, -1.222, 0.971, -1.041], a = 0.2, v = 0.2, t = 0.1)
movej(p[0.445476401182645, 0.0571877796573444, 0.341583577152823, -1.222, 0.971, -1.041], a = 0.2, v = 0.2, t = 0.1)
movej(p[0.445492927661172, 0.0571821993184344, 0.341580183571803, -1.222, 0.971, -1.041], a = 0.2, v = 0.2, t = 0.1)
movej(p[0.445512486331072, 0.0571789460398273, 0.341578608005861, -1.222, 0.971, -1.041], a = 0.2, v = 0.2, t = 0.1)
movej(p[0.445534340784762, 0.0571786511828141, 0.341579193598976, -1.222, 0.971, -1.041], a = 0.2, v = 0.2, t = 0.1)
movej(p[0.445557525118372, 0.0571813411545564, 0.341583375514336, -1.222, 0.971, -1.041], a = 0.2, v = 0.2, t = 0.1)
movej(p[0.445580919005266, 0.0571857647889805, 0.341592311379121, -1.222, 0.971, -1.041], a = 0.2, v = 0.2, t = 0.1)
movej(p[0.445602204476067, 0.0571908665169436, 0.34160248782632, -1.222, 0.971, -1.041], a = 0.2, v = 0.2, t = 0.1)
movej(p[0.445618830151714, 0.0571964908485271, 0.341611172438545, -1.222, 0.971, -1.041], a = 0.2, v = 0.2, t = 0.1)
movej(p[0.445630352394707, 0.0572004526992859, 0.34161997601986, -1.222, 0.971, -1.041], a = 0.2, v = 0.2, t = 0.1)
movej(p[0.445638401671785, 0.0572019640951627, 0.341628687788166, -1.222, 0.971, -1.041], a = 0.2, v = 0.2, t = 0.1)
movej(p[0.445643921762597, 0.0572008059837423, 0.341636884704438, -1.222, 0.971, -1.041], a = 0.2, v = 0.2, t = 0.1)
movej(p[0.445647538882366, 0.0571992342271632, 0.34164386270156, -1.222, 0.971, -1.041], a = 0.2, v = 0.2, t = 0.1)
movej(p[0.445649552389648, 0.0571980092518662, 0.341651546444199, -1.222, 0.971, -1.041], a = 0.2, v = 0.2, t = 0.1)
movej(p[0.445652002612104, 0.0571981857417977, 0.341658999585297, -1.222, 0.971, -1.041], a = 0.2, v = 0.2, t = 0.1)
movej(p[0.445655807670503, 0.057200001787853, 0.341663940801777, -1.222, 0.971, -1.041], a = 0.2, v = 0.2, t = 0.1)
movej(p[0.445662027909984, 0.0572026090148659, 0.341665151361608, -1.222, 0.971, -1.041], a = 0.2, v = 0.2, t = 0.1)
movej(p[0.445669528706917, 0.0572043917163111, 0.341664771355125, -1.222, 0.971, -1.041], a = 0.2, v = 0.2, t = 0.1)
movej(p[0.445677669029561, 0.057204624779483, 0.341666009873924, -1.222, 0.971, -1.041], a = 0.2, v = 0.2, t = 0.1)
movej(p[0.44568587392116, 0.0572043633815608, 0.341669865427318, -1.222, 0.971, -1.041], a = 0.2, v = 0.2, t = 0.1)
movej(p[0.445693824665004, 0.0572039130756663, 0.34167405866651, -1.222, 0.971, -1.041], a = 0.2, v = 0.2, t = 0.1)
movej(p[0.445700482462756, 0.0572027038467984, 0.341677810957497, -1.222, 0.971, -1.041], a = 0.2, v = 0.2, t = 0.1)
movej(p[0.445705878851001, 0.0572000022356908, 0.341680344004739, -1.222, 0.971, -1.041], a = 0.2, v = 0.2, t = 0.1)
movej(p[0.445710302623809, 0.057196428913759, 0.341680425180563, -1.222, 0.971, -1.041], a = 0.2, v = 0.2, t = 0.1)
movej(p[0.445713770110122, 0.0571922821495481, 0.34167417174029, -1.222, 0.971, -1.041], a = 0.2, v = 0.2, t = 0.1)
movej(p[0.44571751275593, 0.05718813712364, 0.341662633480604, -1.222, 0.971, -1.041], a = 0.2, v = 0.2, t = 0.1)
movej(p[0.445722051969179, 0.0571839538555024, 0.341648298942705, -1.222, 0.971, -1.041], a = 0.2, v = 0.2, t = 0.1)
movej(p[0.445726604416026, 0.0571790564114172, 0.341635508620655, -1.222, 0.971, -1.041], a = 0.2, v = 0.2, t = 0.1)
movej(p[0.445729533923944, 0.0571721558466563, 0.341626055869398, -1.222, 0.971, -1.041], a = 0.2, v = 0.2, t = 0.1)
movej(p[0.445730146831268, 0.0571618062046478, 0.341619556600292, -1.222, 0.971, -1.041], a = 0.2, v = 0.2, t = 0.1)
movej(p[0.44572906706351, 0.0571491041317232, 0.341614549142453, -1.222, 0.971, -1.041], a = 0.2, v = 0.2, t = 0.1)
movej(p[0.445725825940998, 0.0571360899454544, 0.341610564993407, -1.222, 0.971, -1.041], a = 0.2, v = 0.2, t = 0.1)
movej(p[0.445720530933955, 0.0571259310768191, 0.341607011153025, -1.222, 0.971, -1.041], a = 0.2, v = 0.2, t = 0.1)
movej(p[0.445713538086682, 0.0571180848114905, 0.341604421818474, -1.222, 0.971, -1.041], a = 0.2, v = 0.2, t = 0.1)
movej(p[0.445704650518619, 0.0571123681494269, 0.341600914444131, -1.222, 0.971, -1.041], a = 0.2, v = 0.2, t = 0.1)
movej(p[0.445692856106603, 0.0571073717447462, 0.341598717567607, -1.222, 0.971, -1.041], a = 0.2, v = 0.2, t = 0.1)
movej(p[0.44567919373397, 0.057103775846762, 0.341598285387411, -1.222, 0.971, -1.041], a = 0.2, v = 0.2, t = 0.1)
movej(p[0.445663472776311, 0.057101470625753, 0.341598955860666, -1.222, 0.971, -1.041], a = 0.2, v = 0.2, t = 0.1)
movej(p[0.445642298252967, 0.0571008897010246, 0.341597065242622, -1.222, 0.971, -1.041], a = 0.2, v = 0.2, t = 0.1)
movej(p[0.445617444425902, 0.0571016517181127, 0.341591157667469, -1.222, 0.971, -1.041], a = 0.2, v = 0.2, t = 0.1)
movej(p[0.445592147448422, 0.057101660378071, 0.341582181681205, -1.222, 0.971, -1.041], a = 0.2, v = 0.2, t = 0.1)
movej(p[0.445571481569706, 0.0571003360670912, 0.341569222316009, -1.222, 0.971, -1.041], a = 0.2, v = 0.2, t = 0.1)
movej(p[0.445554419522284, 0.0570996893882468, 0.341553951238959, -1.222, 0.971, -1.041], a = 0.2, v = 0.2, t = 0.1)
movej(p[0.445541234158694, 0.0570999222928781, 0.341537731054237, -1.222, 0.971, -1.041], a = 0.2, v = 0.2, t = 0.1)
movej(p[0.445532454836624, 0.0570999476378278, 0.341522977596519, -1.222, 0.971, -1.041], a = 0.2, v = 0.2, t = 0.1)
movej(p[0.445527055115624, 0.0571007616231837, 0.341510335712603, -1.222, 0.971, -1.041], a = 0.2, v = 0.2, t = 0.1)
movej(p[0.445523520244335, 0.0571047201080161, 0.341498484538239, -1.222, 0.971, -1.041], a = 0.2, v = 0.2, t = 0.1)
movej(p[0.445522059025289, 0.0571125249436393, 0.341488455005159, -1.222, 0.971, -1.041], a = 0.2, v = 0.2, t = 0.1)
movej(p[0.445522498753792, 0.0571210401467254, 0.34148144186968, -1.222, 0.971, -1.041], a = 0.2, v = 0.2, t = 0.1)
movej(p[0.445524308782034, 0.0571284331221283, 0.341477488616658, -1.222, 0.971, -1.041], a = 0.2, v = 0.2, t = 0.1)
movej(p[0.445527418475692, 0.0571346715340576, 0.341475133579514, -1.222, 0.971, -1.041], a = 0.2, v = 0.2, t = 0.1)
movej(p[0.44553347171345, 0.0571400459964605, 0.341471139776875, -1.222, 0.971, -1.041], a = 0.2, v = 0.2, t = 0.1)
movej(p[0.445541400840392, 0.0571440147023772, 0.341466529805043, -1.222, 0.971, -1.041], a = 0.2, v = 0.2, t = 0.1)
movej(p[0.445545864306231, 0.0571466005528636, 0.341461903100496, -1.222, 0.971, -1.041], a = 0.2, v = 0.2, t = 0.1)
movej(p[0.445546351212131, 0.0571481209285502, 0.341459871235733, -1.222, 0.971, -1.041], a = 0.2, v = 0.2, t = 0.1)
movej(p[0.445544097121563, 0.0571490234924154, 0.341458405045711, -1.222, 0.971, -1.041], a = 0.2, v = 0.2, t = 0.1)
movej(p[0.445543579649562, 0.057149725720218, 0.341453844581717, -1.222, 0.971, -1.041], a = 0.2, v = 0.2, t = 0.1)
movej(p[0.445544427877592, 0.0571500560746287, 0.341444867001967, -1.222, 0.971, -1.041], a = 0.2, v = 0.2, t = 0.1)
movej(p[0.445547773194184, 0.0571500396949658, 0.34143562409752, -1.222, 0.971, -1.041], a = 0.2, v = 0.2, t = 0.1)
movej(p[0.445556452829001, 0.057149256371539, 0.341432746279275, -1.222, 0.971, -1.041], a = 0.2, v = 0.2, t = 0.1)
movej(p[0.445570526762749, 0.0571483599943905, 0.341437477804489, -1.222, 0.971, -1.041], a = 0.2, v = 0.2, t = 0.1)
movej(p[0.445588413698069, 0.0571474174150835, 0.341446005227671, -1.222, 0.971, -1.041], a = 0.2, v = 0.2, t = 0.1)
movej(p[0.445607592443053, 0.0571468304709897, 0.34145590513633, -1.222, 0.971, -1.041], a = 0.2, v = 0.2, t = 0.1)
movej(p[0.445625236819787, 0.0571469022647901, 0.341465048269291, -1.222, 0.971, -1.041], a = 0.2, v = 0.2, t = 0.1)
movej(p[0.445640356129026, 0.0571488098857866, 0.34147479815315, -1.222, 0.971, -1.041], a = 0.2, v = 0.2, t = 0.1)
movej(p[0.445652189196854, 0.0571525507387937, 0.341485677333154, -1.222, 0.971, -1.041], a = 0.2, v = 0.2, t = 0.1)
movej(p[0.445662141558144, 0.0571580190867026, 0.341496470919439, -1.222, 0.971, -1.041], a = 0.2, v = 0.2, t = 0.1)
movej(p[0.44567138988126, 0.0571631132104271, 0.341506554977354, -1.222, 0.971, -1.041], a = 0.2, v = 0.2, t = 0.1)
movej(p[0.445680484600663, 0.0571650329483095, 0.341514819791353, -1.222, 0.971, -1.041], a = 0.2, v = 0.2, t = 0.1)
movej(p[0.445690182571877, 0.0571632922011006, 0.341521285934135, -1.222, 0.971, -1.041], a = 0.2, v = 0.2, t = 0.1)
movej(p[0.445699789004462, 0.0571604627961052, 0.341525607428017, -1.222, 0.971, -1.041], a = 0.2, v = 0.2, t = 0.1)
movej(p[0.445707164716295, 0.0571595504024966, 0.341527963701741, -1.222, 0.971, -1.041], a = 0.2, v = 0.2, t = 0.1)
movej(p[0.44571094533293, 0.0571599089464842, 0.341528713937748, -1.222, 0.971, -1.041], a = 0.2, v = 0.2, t = 0.1)
movej(p[0.445711360749772, 0.0571594809188927, 0.341528099948149, -1.222, 0.971, -1.041], a = 0.2, v = 0.2, t = 0.1)
movej(p[0.445710522977646, 0.0571569848660568, 0.341529749321092, -1.222, 0.971, -1.041], a = 0.2, v = 0.2, t = 0.1)
movej(p[0.445709929590329, 0.0571533098263118, 0.341538536180563, -1.222, 0.971, -1.041], a = 0.2, v = 0.2, t = 0.1)
movej(p[0.445709433674004, 0.0571487079107236, 0.341552939215831, -1.222, 0.971, -1.041], a = 0.2, v = 0.2, t = 0.1)
movej(p[0.445708542294408, 0.0571444877267353, 0.341563451074826, -1.222, 0.971, -1.041], a = 0.2, v = 0.2, t = 0.1)
movej(p[0.44570828668503, 0.0571412967710286, 0.341565552461635, -1.222, 0.971, -1.041], a = 0.2, v = 0.2, t = 0.1)
movej(p[0.445709029012467, 0.0571389712988952, 0.341563546119109, -1.222, 0.971, -1.041], a = 0.2, v = 0.2, t = 0.1)
movej(p[0.445709775511251, 0.0571360813907434, 0.341567828352223, -1.222, 0.971, -1.041], a = 0.2, v = 0.2, t = 0.1)
movej(p[0.445708820034348, 0.0571325266948945, 0.341577828498337, -1.222, 0.971, -1.041], a = 0.2, v = 0.2, t = 0.1)
movej(p[0.445705185790564, 0.0571291273955689, 0.341590152192151, -1.222, 0.971, -1.041], a = 0.2, v = 0.2, t = 0.1)
movej(p[0.445699263309088, 0.0571263333945696, 0.341601776434603, -1.222, 0.971, -1.041], a = 0.2, v = 0.2, t = 0.1)
movej(p[0.445691465225774, 0.0571236531158925, 0.341611951229237, -1.222, 0.971, -1.041], a = 0.2, v = 0.2, t = 0.1)
movej(p[0.445682838404459, 0.057120135698141, 0.341618600198507, -1.222, 0.971, -1.041], a = 0.2, v = 0.2, t = 0.1)
movej(p[0.445673499885726, 0.0571161466498619, 0.341621329355099, -1.222, 0.971, -1.041], a = 0.2, v = 0.2, t = 0.1)
movej(p[0.445664393247516, 0.0571130055907458, 0.341620226872381, -1.222, 0.971, -1.041], a = 0.2, v = 0.2, t = 0.1)
movej(p[0.445656536312017, 0.0571135293515685, 0.341615757199893, -1.222, 0.971, -1.041], a = 0.2, v = 0.2, t = 0.1)
movej(p[0.445650238668099, 0.0571181274487683, 0.341608323132888, -1.222, 0.971, -1.041], a = 0.2, v = 0.2, t = 0.1)
movej(p[0.445645556364571, 0.0571254466361208, 0.341597566195165, -1.222, 0.971, -1.041], a = 0.2, v = 0.2, t = 0.1)
movej(p[0.44564002479937, 0.0571326880334, 0.341586425432855, -1.222, 0.971, -1.041], a = 0.2, v = 0.2, t = 0.1)
movej(p[0.445632886702654, 0.0571388462847779, 0.341575139324568, -1.222, 0.971, -1.041], a = 0.2, v = 0.2, t = 0.1)
movej(p[0.445624302168809, 0.0571432775468494, 0.341565202515568, -1.222, 0.971, -1.041], a = 0.2, v = 0.2, t = 0.1)
movej(p[0.445615773481108, 0.0571474126866575, 0.341555671765447, -1.222, 0.971, -1.041], a = 0.2, v = 0.2, t = 0.1)
movej(p[0.445607657092299, 0.057151221303452, 0.341544423774124, -1.222, 0.971, -1.041], a = 0.2, v = 0.2, t = 0.1)
movej(p[0.445601061785289, 0.0571543320398185, 0.341528949195043, -1.222, 0.971, -1.041], a = 0.2, v = 0.2, t = 0.1)
movej(p[0.445596596820766, 0.0571549117530483, 0.341511491554499, -1.222, 0.971, -1.041], a = 0.2, v = 0.2, t = 0.1)
movej(p[0.445596495866142, 0.0571519002736161, 0.341495357364318, -1.222, 0.971, -1.041], a = 0.2, v = 0.2, t = 0.1)
movej(p[0.445601617702031, 0.0571442106496144, 0.341484089312098, -1.222, 0.971, -1.041], a = 0.2, v = 0.2, t = 0.1)
movej(p[0.445611793378715, 0.0571335489635398, 0.341478139985406, -1.222, 0.971, -1.041], a = 0.2, v = 0.2, t = 0.1)
movej(p[0.445623858466887, 0.0571216289450749, 0.3414758060837, -1.222, 0.971, -1.041], a = 0.2, v = 0.2, t = 0.1)
movej(p[0.445635221976463, 0.0571132585948624, 0.341476184451848, -1.222, 0.971, -1.041], a = 0.2, v = 0.2, t = 0.1)
movej(p[0.445646457706202, 0.0571084333192249, 0.341475650832842, -1.222, 0.971, -1.041], a = 0.2, v = 0.2, t = 0.1)
movej(p[0.445659205676153, 0.0571077131225671, 0.341474674318687, -1.222, 0.971, -1.041], a = 0.2, v = 0.2, t = 0.1)
movej(p[0.445673618378113, 0.0571099577484178, 0.341474301778732, -1.222, 0.971, -1.041], a = 0.2, v = 0.2, t = 0.1)
movej(p[0.445689818291963, 0.0571159678806983, 0.341473938457617, -1.222, 0.971, -1.041], a = 0.2, v = 0.2, t = 0.1)
movej(p[0.445706144358599, 0.0571249127951828, 0.341471786406258, -1.222, 0.971, -1.041], a = 0.2, v = 0.2, t = 0.1)
movej(p[0.445721579134399, 0.0571351279272607, 0.341467343076018, -1.222, 0.971, -1.041], a = 0.2, v = 0.2, t = 0.1)
movej(p[0.445734732615255, 0.0571431552256956, 0.341462222556493, -1.222, 0.971, -1.041], a = 0.2, v = 0.2, t = 0.1)
movej(p[0.445745858592684, 0.0571476761053537, 0.341458829551429, -1.222, 0.971, -1.041], a = 0.2, v = 0.2, t = 0.1)
movej(p[0.445755075384099, 0.0571490539667326, 0.341456742945561, -1.222, 0.971, -1.041], a = 0.2, v = 0.2, t = 0.1)
movej(p[0.445762090305318, 0.0571495453696157, 0.34145549253583, -1.222, 0.971, -1.041], a = 0.2, v = 0.2, t = 0.1)
movej(p[0.44576635943563, 0.0571499950803187, 0.341453124016955, -1.222, 0.971, -1.041], a = 0.2, v = 0.2, t = 0.1)
movej(p[0.445766687496994, 0.0571491879922485, 0.341448303795529, -1.222, 0.971, -1.041], a = 0.2, v = 0.2, t = 0.1)
movej(p[0.445765186378216, 0.0571467122935178, 0.341440309061312, -1.222, 0.971, -1.041], a = 0.2, v = 0.2, t = 0.1)
movej(p[0.445764662022729, 0.0571434374728486, 0.341430728425899, -1.222, 0.971, -1.041], a = 0.2, v = 0.2, t = 0.1)
movej(p[0.445766087443884, 0.05714012532488, 0.341425257655171, -1.222, 0.971, -1.041], a = 0.2, v = 0.2, t = 0.1)
movej(p[0.445766906478921, 0.0571350903728289, 0.341426649713521, -1.222, 0.971, -1.041], a = 0.2, v = 0.2, t = 0.1)
movej(p[0.445767285180689, 0.0571271789527273, 0.341434822103071, -1.222, 0.971, -1.041], a = 0.2, v = 0.2, t = 0.1)
movej(p[0.445766386325115, 0.0571175600069932, 0.341447423294428, -1.222, 0.971, -1.041], a = 0.2, v = 0.2, t = 0.1)
movej(p[0.445765966950581, 0.0571098033168887, 0.341462715197011, -1.222, 0.971, -1.041], a = 0.2, v = 0.2, t = 0.1)
movej(p[0.445766353677196, 0.057106011833763, 0.341477605646542, -1.222, 0.971, -1.041], a = 0.2, v = 0.2, t = 0.1)
movej(p[0.445768821398226, 0.0571053104904229, 0.341487088128308, -1.222, 0.971, -1.041], a = 0.2, v = 0.2, t = 0.1)
movej(p[0.445772139080522, 0.0571046024551713, 0.341492369274326, -1.222, 0.971, -1.041], a = 0.2, v = 0.2, t = 0.1)
movej(p[0.445774976811102, 0.0571028486474398, 0.34149495164409, -1.222, 0.971, -1.041], a = 0.2, v = 0.2, t = 0.1)
movej(p[0.445778068714051, 0.0571007828735356, 0.341498158468427, -1.222, 0.971, -1.041], a = 0.2, v = 0.2, t = 0.1)
movej(p[0.445781588367108, 0.0571010987255925, 0.34150233505182, -1.222, 0.971, -1.041], a = 0.2, v = 0.2, t = 0.1)
movej(p[0.445780679097423, 0.0571037982619738, 0.34150863074479, -1.222, 0.971, -1.041], a = 0.2, v = 0.2, t = 0.1)
movej(p[0.445774679344154, 0.0571073942547753, 0.341515812923949, -1.222, 0.971, -1.041], a = 0.2, v = 0.2, t = 0.1)
movej(p[0.445764886423301, 0.0571101234281825, 0.341522655603738, -1.222, 0.971, -1.041], a = 0.2, v = 0.2, t = 0.1)
movej(p[0.445753785104567, 0.0571115376617537, 0.341526899980579, -1.222, 0.971, -1.041], a = 0.2, v = 0.2, t = 0.1)
movej(p[0.445741195857419, 0.0571121061136905, 0.341528203373322, -1.222, 0.971, -1.041], a = 0.2, v = 0.2, t = 0.1)
movej(p[0.445727078727953, 0.057111937690025, 0.341527863204088, -1.222, 0.971, -1.041], a = 0.2, v = 0.2, t = 0.1)
movej(p[0.445713958823907, 0.0571112362975533, 0.341526471529405, -1.222, 0.971, -1.041], a = 0.2, v = 0.2, t = 0.1)
movej(p[0.445701207466248, 0.057109605248974, 0.341525171359269, -1.222, 0.971, -1.041], a = 0.2, v = 0.2, t = 0.1)
movej(p[0.445687219193633, 0.0571071110168672, 0.341521264921958, -1.222, 0.971, -1.041], a = 0.2, v = 0.2, t = 0.1)
movej(p[0.445671643857422, 0.0571038417775895, 0.341511813147234, -1.222, 0.971, -1.041], a = 0.2, v = 0.2, t = 0.1)
movej(p[0.445654261516281, 0.0571007320932183, 0.341497852201364, -1.222, 0.971, -1.041], a = 0.2, v = 0.2, t = 0.1)
movej(p[0.445635972642508, 0.0571003471496228, 0.341482605409356, -1.222, 0.971, -1.041], a = 0.2, v = 0.2, t = 0.1)
movej(p[0.445617626874912, 0.0571033453554303, 0.341468758520634, -1.222, 0.971, -1.041], a = 0.2, v = 0.2, t = 0.1)
movej(p[0.445601062444388, 0.0571074560718107, 0.341456011281158, -1.222, 0.971, -1.041], a = 0.2, v = 0.2, t = 0.1)
movej(p[0.445585628285129, 0.0571096883189623, 0.341443926349938, -1.222, 0.971, -1.041], a = 0.2, v = 0.2, t = 0.1)
movej(p[0.445570331231701, 0.0571099867784443, 0.341432421505986, -1.222, 0.971, -1.041], a = 0.2, v = 0.2, t = 0.1)
movej(p[0.445555480125564, 0.0571094079317371, 0.341420702079037, -1.222, 0.971, -1.041], a = 0.2, v = 0.2, t = 0.1)
movej(p[0.445543671237294, 0.0571090294101062, 0.341408698852296, -1.222, 0.971, -1.041], a = 0.2, v = 0.2, t = 0.1)
movej(p[0.445535704939782, 0.0571088228756669, 0.341396388996022, -1.222, 0.971, -1.041], a = 0.2, v = 0.2, t = 0.1)
movej(p[0.445532725620541, 0.0571082325768581, 0.341387727682832, -1.222, 0.971, -1.041], a = 0.2, v = 0.2, t = 0.1)
movej(p[0.445533974767306, 0.0571079796427737, 0.341384270737257, -1.222, 0.971, -1.041], a = 0.2, v = 0.2, t = 0.1)
movej(p[0.445538798770963, 0.057108135486969, 0.341387873032401, -1.222, 0.971, -1.041], a = 0.2, v = 0.2, t = 0.1)
movej(p[0.445547034453437, 0.0571099551790042, 0.341396945355151, -1.222, 0.971, -1.041], a = 0.2, v = 0.2, t = 0.1)
movej(p[0.445558595095391, 0.0571128334750492, 0.341410040274452, -1.222, 0.971, -1.041], a = 0.2, v = 0.2, t = 0.1)
movej(p[0.445573107211404, 0.0571165687807002, 0.341424962677929, -1.222, 0.971, -1.041], a = 0.2, v = 0.2, t = 0.1)
movej(p[0.445589365318297, 0.0571214639639547, 0.341439936255563, -1.222, 0.971, -1.041], a = 0.2, v = 0.2, t = 0.1)
movej(p[0.445606725453033, 0.0571274212101775, 0.341454999084991, -1.222, 0.971, -1.041], a = 0.2, v = 0.2, t = 0.1)
movej(p[0.445624241740084, 0.0571343473606206, 0.341470217211124, -1.222, 0.971, -1.041], a = 0.2, v = 0.2, t = 0.1)
movej(p[0.44564169894692, 0.0571408680798846, 0.341484437334708, -1.222, 0.971, -1.041], a = 0.2, v = 0.2, t = 0.1)
movej(p[0.445659276982252, 0.0571470685327722, 0.341494850035552, -1.222, 0.971, -1.041], a = 0.2, v = 0.2, t = 0.1)
movej(p[0.445676309967487, 0.0571524518135874, 0.341501182690417, -1.222, 0.971, -1.041], a = 0.2, v = 0.2, t = 0.1)
movej(p[0.44569162810463, 0.0571570761229145, 0.341504065228138, -1.222, 0.971, -1.041], a = 0.2, v = 0.2, t = 0.1)
movej(p[0.445703794190534, 0.0571611045230187, 0.341505076322784, -1.222, 0.971, -1.041], a = 0.2, v = 0.2, t = 0.1)
movej(p[0.44571267513059, 0.0571663615348189, 0.341506382517511, -1.222, 0.971, -1.041], a = 0.2, v = 0.2, t = 0.1)
movej(p[0.445718257337764, 0.0571722203570646, 0.341509049243959, -1.222, 0.971, -1.041], a = 0.2, v = 0.2, t = 0.1)
movej(p[0.445720144328115, 0.0571773507073307, 0.341512171165092, -1.222, 0.971, -1.041], a = 0.2, v = 0.2, t = 0.1)
movej(p[0.445719081260406, 0.0571813055448285, 0.341514422556976, -1.222, 0.971, -1.041], a = 0.2, v = 0.2, t = 0.1)
movej(p[0.445714946565972, 0.0571849117533131, 0.341512380849038, -1.222, 0.971, -1.041], a = 0.2, v = 0.2, t = 0.1)
movej(p[0.445708998857914, 0.0571868028974681, 0.341506062059626, -1.222, 0.971, -1.041], a = 0.2, v = 0.2, t = 0.1)
movej(p[0.445701585508123, 0.05718513474872, 0.341498131640808, -1.222, 0.971, -1.041], a = 0.2, v = 0.2, t = 0.1)
movej(p[0.445693362037733, 0.0571799009917583, 0.341493416248691, -1.222, 0.971, -1.041], a = 0.2, v = 0.2, t = 0.1)
movej(p[0.44568377991216, 0.0571738434717464, 0.341495185376951, -1.222, 0.971, -1.041], a = 0.2, v = 0.2, t = 0.1)
movej(p[0.4456730247667, 0.0571693824315757, 0.341504316166333, -1.222, 0.971, -1.041], a = 0.2, v = 0.2, t = 0.1)
movej(p[0.445661390969982, 0.057167746612547, 0.341518854750687, -1.222, 0.971, -1.041], a = 0.2, v = 0.2, t = 0.1)
movej(p[0.445650656771484, 0.0571671222132289, 0.341536543941683, -1.222, 0.971, -1.041], a = 0.2, v = 0.2, t = 0.1)
movej(p[0.445642637265911, 0.0571635291388206, 0.341555528486889, -1.222, 0.971, -1.041], a = 0.2, v = 0.2, t = 0.1)
movej(p[0.445636508351633, 0.0571575407178846, 0.341572975041663, -1.222, 0.971, -1.041], a = 0.2, v = 0.2, t = 0.1)
movej(p[0.445630224902602, 0.057150146842327, 0.341586525852949, -1.222, 0.971, -1.041], a = 0.2, v = 0.2, t = 0.1)
movej(p[0.445621027394611, 0.0571415106104695, 0.341593254815131, -1.222, 0.971, -1.041], a = 0.2, v = 0.2, t = 0.1)
movej(p[0.445610798524722, 0.0571322315115379, 0.341596038633519, -1.222, 0.971, -1.041], a = 0.2, v = 0.2, t = 0.1)
movej(p[0.445603925284487, 0.0571264908584483, 0.341597587612786, -1.222, 0.971, -1.041], a = 0.2, v = 0.2, t = 0.1)
movej(p[0.445603063275064, 0.0571273883058715, 0.341600135704009, -1.222, 0.971, -1.041], a = 0.2, v = 0.2, t = 0.1)
movej(p[0.445608088439439, 0.0571335798976382, 0.341602635895882, -1.222, 0.971, -1.041], a = 0.2, v = 0.2, t = 0.1)
movej(p[0.445618492776426, 0.057141934280231, 0.341605701666966, -1.222, 0.971, -1.041], a = 0.2, v = 0.2, t = 0.1)
movej(p[0.445634699132572, 0.0571520544394129, 0.341609391732629, -1.222, 0.971, -1.041], a = 0.2, v = 0.2, t = 0.1)
movej(p[0.445655517284758, 0.0571634451650001, 0.341612400510318, -1.222, 0.971, -1.041], a = 0.2, v = 0.2, t = 0.1)
movej(p[0.445678643606824, 0.057176381256761, 0.341614917043973, -1.222, 0.971, -1.041], a = 0.2, v = 0.2, t = 0.1)
movej(p[0.445700657390322, 0.0571894132431701, 0.341615514056815, -1.222, 0.971, -1.041], a = 0.2, v = 0.2, t = 0.1)
movej(p[0.445722246368416, 0.0571995620349207, 0.341614253926709, -1.222, 0.971, -1.041], a = 0.2, v = 0.2, t = 0.1)
movej(p[0.445742954131865, 0.0572048019236307, 0.341611583776856, -1.222, 0.971, -1.041], a = 0.2, v = 0.2, t = 0.1)
movej(p[0.445761034985573, 0.0572061814159446, 0.341608560846794, -1.222, 0.971, -1.041], a = 0.2, v = 0.2, t = 0.1)
movej(p[0.445774179670104, 0.0572049689910926, 0.341608091491339, -1.222, 0.971, -1.041], a = 0.2, v = 0.2, t = 0.1)
movej(p[0.445782088376183, 0.0572031103363735, 0.341608942981674, -1.222, 0.971, -1.041], a = 0.2, v = 0.2, t = 0.1)
movej(p[0.445785250936986, 0.0572012934212336, 0.341609177433258, -1.222, 0.971, -1.041], a = 0.2, v = 0.2, t = 0.1)
movej(p[0.445785084034627, 0.0572011643489185, 0.341604297374145, -1.222, 0.971, -1.041], a = 0.2, v = 0.2, t = 0.1)
movej(p[0.445781450396883, 0.0572018330988774, 0.34159335883095, -1.222, 0.971, -1.041], a = 0.2, v = 0.2, t = 0.1)
movej(p[0.445772213937108, 0.0572015392591711, 0.341574364256013, -1.222, 0.971, -1.041], a = 0.2, v = 0.2, t = 0.1)
movej(p[0.445759057891101, 0.0572007684505171, 0.341552909150362, -1.222, 0.971, -1.041], a = 0.2, v = 0.2, t = 0.1)
movej(p[0.445743776982358, 0.0572002187732535, 0.341536812014781, -1.222, 0.971, -1.041], a = 0.2, v = 0.2, t = 0.1)
movej(p[0.445731220879281, 0.0571991467984008, 0.341533011093915, -1.222, 0.971, -1.041], a = 0.2, v = 0.2, t = 0.1)
movej(p[0.445722279791412, 0.0571960731780058, 0.341538116606856, -1.222, 0.971, -1.041], a = 0.2, v = 0.2, t = 0.1)
movej(p[0.445717879076606, 0.057191054991647, 0.341543354990659, -1.222, 0.971, -1.041], a = 0.2, v = 0.2, t = 0.1)
movej(p[0.445717798224884, 0.0571853158958858, 0.34154408221335, -1.222, 0.971, -1.041], a = 0.2, v = 0.2, t = 0.1)
movej(p[0.445719717866761, 0.0571797588223393, 0.341540242617973, -1.222, 0.971, -1.041], a = 0.2, v = 0.2, t = 0.1)
movej(p[0.445721422723838, 0.0571738875056015, 0.341534117453803, -1.222, 0.971, -1.041], a = 0.2, v = 0.2, t = 0.1)
movej(p[0.445721577864641, 0.0571680613906179, 0.341528755819115, -1.222, 0.971, -1.041], a = 0.2, v = 0.2, t = 0.1)
movej(p[0.445719667689969, 0.0571630531614042, 0.341527628149454, -1.222, 0.971, -1.041], a = 0.2, v = 0.2, t = 0.1)
movej(p[0.445715326468361, 0.0571595778675502, 0.341528834399668, -1.222, 0.971, -1.041], a = 0.2, v = 0.2, t = 0.1)
movej(p[0.445709436637324, 0.05715720294326, 0.341528565900188, -1.222, 0.971, -1.041], a = 0.2, v = 0.2, t = 0.1)
movej(p[0.445701964321637, 0.0571549546648545, 0.341525198474095, -1.222, 0.971, -1.041], a = 0.2, v = 0.2, t = 0.1)
movej(p[0.445691667665224, 0.0571512521076787, 0.341518725819071, -1.222, 0.971, -1.041], a = 0.2, v = 0.2, t = 0.1)
movej(p[0.445676590200306, 0.0571441707165198, 0.341509990828978, -1.222, 0.971, -1.041], a = 0.2, v = 0.2, t = 0.1)
movej(p[0.445657929902395, 0.0571345819192893, 0.341498809914413, -1.222, 0.971, -1.041], a = 0.2, v = 0.2, t = 0.1)
movej(p[0.445637660273409, 0.0571252292206724, 0.341485859882005, -1.222, 0.971, -1.041], a = 0.2, v = 0.2, t = 0.1)
movej(p[0.44561966772014, 0.057119132454502, 0.341471949060817, -1.222, 0.971, -1.041], a = 0.2, v = 0.2, t = 0.1)
movej(p[0.445604887398197, 0.0571159860247293, 0.341458715364473, -1.222, 0.971, -1.041], a = 0.2, v = 0.2, t = 0.1)
movej(p[0.445592385156419, 0.0571144840745009, 0.341445945472811, -1.222, 0.971, -1.041], a = 0.2, v = 0.2, t = 0.1)
movej(p[0.445577322677032, 0.0571120837777893, 0.341432632406244, -1.222, 0.971, -1.041], a = 0.2, v = 0.2, t = 0.1)
movej(p[0.445557020275102, 0.0571079820975366, 0.341418308099456, -1.222, 0.971, -1.041], a = 0.2, v = 0.2, t = 0.1)
movej(p[0.44553189484562, 0.0571016979657955, 0.341403066898597, -1.222, 0.971, -1.041], a = 0.2, v = 0.2, t = 0.1)
movej(p[0.445507657725601, 0.0570942479692302, 0.34138469810897, -1.222, 0.971, -1.041], a = 0.2, v = 0.2, t = 0.1)
movej(p[0.445486946490501, 0.0570876518732964, 0.341366005442438, -1.222, 0.971, -1.041], a = 0.2, v = 0.2, t = 0.1)
movej(p[0.445471604052961, 0.0570848948272875, 0.341349378435713, -1.222, 0.971, -1.041], a = 0.2, v = 0.2, t = 0.1)
movej(p[0.445463081186608, 0.0570865000870463, 0.341340760122466, -1.222, 0.971, -1.041], a = 0.2, v = 0.2, t = 0.1)
movej(p[0.445461424551486, 0.0570924784702731, 0.341337870226436, -1.222, 0.971, -1.041], a = 0.2, v = 0.2, t = 0.1)
movej(p[0.445465722588666, 0.0570993439980305, 0.341341610168817, -1.222, 0.971, -1.041], a = 0.2, v = 0.2, t = 0.1)
movej(p[0.445473429065954, 0.0571047482864097, 0.341354519006251, -1.222, 0.971, -1.041], a = 0.2, v = 0.2, t = 0.1)
movej(p[0.445482734922738, 0.0571074850942844, 0.341375316139255, -1.222, 0.971, -1.041], a = 0.2, v = 0.2, t = 0.1)
movej(p[0.445492652955463, 0.0571094863888294, 0.341399231131582, -1.222, 0.971, -1.041], a = 0.2, v = 0.2, t = 0.1)
movej(p[0.445503876842143, 0.0571121083611042, 0.341417054176305, -1.222, 0.971, -1.041], a = 0.2, v = 0.2, t = 0.1)
movej(p[0.445517776230731, 0.0571146926600547, 0.341427134416868, -1.222, 0.971, -1.041], a = 0.2, v = 0.2, t = 0.1)
movej(p[0.445533910162336, 0.0571161446180791, 0.34143237784417, -1.222, 0.971, -1.041], a = 0.2, v = 0.2, t = 0.1)
movej(p[0.445550856755559, 0.0571175518084536, 0.341436749292714, -1.222, 0.971, -1.041], a = 0.2, v = 0.2, t = 0.1)
movej(p[0.445567710254235, 0.0571192865322747, 0.341441276767688, -1.222, 0.971, -1.041], a = 0.2, v = 0.2, t = 0.1)
movej(p[0.445584370057481, 0.0571204412338997, 0.341447951267891, -1.222, 0.971, -1.041], a = 0.2, v = 0.2, t = 0.1)
movej(p[0.445600914906098, 0.0571207406617188, 0.341458178199114, -1.222, 0.971, -1.041], a = 0.2, v = 0.2, t = 0.1)
movej(p[0.445617208309996, 0.0571213328285149, 0.341473902295555, -1.222, 0.971, -1.041], a = 0.2, v = 0.2, t = 0.1)
movej(p[0.445633351753629, 0.057123906815664, 0.341493428549543, -1.222, 0.971, -1.041], a = 0.2, v = 0.2, t = 0.1)
movej(p[0.445648366314568, 0.0571285968067199, 0.34151388336496, -1.222, 0.971, -1.041], a = 0.2, v = 0.2, t = 0.1)
movej(p[0.445661094108307, 0.0571325582150654, 0.341530503577788, -1.222, 0.971, -1.041], a = 0.2, v = 0.2, t = 0.1)
movej(p[0.445670521497816, 0.0571345998698408, 0.341543248042541, -1.222, 0.971, -1.041], a = 0.2, v = 0.2, t = 0.1)
movej(p[0.445677434784811, 0.0571357355410189, 0.341553921093458, -1.222, 0.971, -1.041], a = 0.2, v = 0.2, t = 0.1)
movej(p[0.445683184212404, 0.0571387611590779, 0.341564417900007, -1.222, 0.971, -1.041], a = 0.2, v = 0.2, t = 0.1)
movej(p[0.445688916723297, 0.057143260229883, 0.341573555418201, -1.222, 0.971, -1.041], a = 0.2, v = 0.2, t = 0.1)
movej(p[0.445693526320247, 0.0571481599687827, 0.341580878593993, -1.222, 0.971, -1.041], a = 0.2, v = 0.2, t = 0.1)
movej(p[0.445695238992584, 0.05715292357163, 0.341586422944395, -1.222, 0.971, -1.041], a = 0.2, v = 0.2, t = 0.1)
movej(p[0.445694982834038, 0.0571585332953408, 0.341590682254161, -1.222, 0.971, -1.041], a = 0.2, v = 0.2, t = 0.1)
movej(p[0.44569369683499, 0.057163095120522, 0.341595973455014, -1.222, 0.971, -1.041], a = 0.2, v = 0.2, t = 0.1)
movej(p[0.445691251965015, 0.0571657579684001, 0.341602047850209, -1.222, 0.971, -1.041], a = 0.2, v = 0.2, t = 0.1)
movej(p[0.445688108356792, 0.0571652327527428, 0.341609455498476, -1.222, 0.971, -1.041], a = 0.2, v = 0.2, t = 0.1)
movej(p[0.445683705671796, 0.0571640384157783, 0.341616363253397, -1.222, 0.971, -1.041], a = 0.2, v = 0.2, t = 0.1)
movej(p[0.445679610911627, 0.057163120482568, 0.341620975055298, -1.222, 0.971, -1.041], a = 0.2, v = 0.2, t = 0.1)
movej(p[0.445673977396043, 0.0571630919280504, 0.341623248362318, -1.222, 0.971, -1.041], a = 0.2, v = 0.2, t = 0.1)
movej(p[0.445666258561086, 0.0571629614746763, 0.34162364663714, -1.222, 0.971, -1.041], a = 0.2, v = 0.2, t = 0.1)
movej(p[0.445657205635559, 0.0571625672868245, 0.341624685600244, -1.222, 0.971, -1.041], a = 0.2, v = 0.2, t = 0.1)
movej(p[0.445646620204485, 0.0571631244944123, 0.341626337166373, -1.222, 0.971, -1.041], a = 0.2, v = 0.2, t = 0.1)
movej(p[0.445633550969337, 0.0571638290902019, 0.34162800944578, -1.222, 0.971, -1.041], a = 0.2, v = 0.2, t = 0.1)
movej(p[0.445618331559116, 0.0571628350747187, 0.341628518251981, -1.222, 0.971, -1.041], a = 0.2, v = 0.2, t = 0.1)
movej(p[0.445602277686709, 0.0571580822422169, 0.341625744366988, -1.222, 0.971, -1.041], a = 0.2, v = 0.2, t = 0.1)
movej(p[0.445588607354968, 0.0571490538603486, 0.341614568168711, -1.222, 0.971, -1.041], a = 0.2, v = 0.2, t = 0.1)
movej(p[0.445575852739916, 0.0571389331780134, 0.341597663666354, -1.222, 0.971, -1.041], a = 0.2, v = 0.2, t = 0.1)
movej(p[0.445563852801586, 0.0571315486315676, 0.341577192609716, -1.222, 0.971, -1.041], a = 0.2, v = 0.2, t = 0.1)
movej(p[0.445551503614528, 0.0571299706222328, 0.341560309276883, -1.222, 0.971, -1.041], a = 0.2, v = 0.2, t = 0.1)
movej(p[0.445538428403941, 0.0571322178783802, 0.341547503367235, -1.222, 0.971, -1.041], a = 0.2, v = 0.2, t = 0.1)
movej(p[0.445524477641451, 0.0571364243694721, 0.341539118945153, -1.222, 0.971, -1.041], a = 0.2, v = 0.2, t = 0.1)
movej(p[0.445508974100026, 0.0571410850410878, 0.341534870107266, -1.222, 0.971, -1.041], a = 0.2, v = 0.2, t = 0.1)
movej(p[0.445494305220419, 0.0571471764982966, 0.341530373095575, -1.222, 0.971, -1.041], a = 0.2, v = 0.2, t = 0.1)
movej(p[0.44548238063411, 0.0571541840200434, 0.341523877403054, -1.222, 0.971, -1.041], a = 0.2, v = 0.2, t = 0.1)
movej(p[0.445474725021817, 0.057161039700086, 0.341513742727304, -1.222, 0.971, -1.041], a = 0.2, v = 0.2, t = 0.1)
movej(p[0.445471910431538, 0.0571668492982486, 0.341501454086705, -1.222, 0.971, -1.041], a = 0.2, v = 0.2, t = 0.1)
movej(p[0.445473955300351, 0.0571718244482477, 0.341487089681287, -1.222, 0.971, -1.041], a = 0.2, v = 0.2, t = 0.1)
movej(p[0.445481442276584, 0.0571777272361772, 0.341473163868724, -1.222, 0.971, -1.041], a = 0.2, v = 0.2, t = 0.1)
movej(p[0.445492534501281, 0.0571853072498842, 0.341461724554344, -1.222, 0.971, -1.041], a = 0.2, v = 0.2, t = 0.1)
movej(p[0.445505920877337, 0.0571954079469938, 0.34145304750185, -1.222, 0.971, -1.041], a = 0.2, v = 0.2, t = 0.1)
movej(p[0.445521904564887, 0.057205418303992, 0.341444574952819, -1.222, 0.971, -1.041], a = 0.2, v = 0.2, t = 0.1)
movej(p[0.445541135228429, 0.0572123704427064, 0.341436648840277, -1.222, 0.971, -1.041], a = 0.2, v = 0.2, t = 0.1)
movej(p[0.445562641333921, 0.0572145740655199, 0.341430821391516, -1.222, 0.971, -1.041], a = 0.2, v = 0.2, t = 0.1)
movej(p[0.445585024822279, 0.0572144715737709, 0.341424480659276, -1.222, 0.971, -1.041], a = 0.2, v = 0.2, t = 0.1)
movej(p[0.445606147502555, 0.0572129335096436, 0.341417394954603, -1.222, 0.971, -1.041], a = 0.2, v = 0.2, t = 0.1)
movej(p[0.445624667258814, 0.0572088672236415, 0.341411057118045, -1.222, 0.971, -1.041], a = 0.2, v = 0.2, t = 0.1)
movej(p[0.445641155868472, 0.0572022643893433, 0.341407150528126, -1.222, 0.971, -1.041], a = 0.2, v = 0.2, t = 0.1)
movej(p[0.445655859083239, 0.0571942675629768, 0.34140470497592, -1.222, 0.971, -1.041], a = 0.2, v = 0.2, t = 0.1)
movej(p[0.445669307518599, 0.0571869888365618, 0.341402172394403, -1.222, 0.971, -1.041], a = 0.2, v = 0.2, t = 0.1)
movej(p[0.445679239991319, 0.0571809925760366, 0.341400015964399, -1.222, 0.971, -1.041], a = 0.2, v = 0.2, t = 0.1)
movej(p[0.445685307470779, 0.0571782014867079, 0.341399458343229, -1.222, 0.971, -1.041], a = 0.2, v = 0.2, t = 0.1)
movej(p[0.445687160905511, 0.057178608067082, 0.341399760593277, -1.222, 0.971, -1.041], a = 0.2, v = 0.2, t = 0.1)
movej(p[0.445687176741454, 0.0571810124443099, 0.34140113418287, -1.222, 0.971, -1.041], a = 0.2, v = 0.2, t = 0.1)
movej(p[0.445686864977623, 0.0571836066091833, 0.341403486269799, -1.222, 0.971, -1.041], a = 0.2, v = 0.2, t = 0.1)
movej(p[0.445687281291279, 0.057185811087719, 0.341407109521837, -1.222, 0.971, -1.041], a = 0.2, v = 0.2, t = 0.1)
movej(p[0.445687750360955, 0.0571871516517859, 0.341410784548316, -1.222, 0.971, -1.041], a = 0.2, v = 0.2, t = 0.1)
movej(p[0.445688612207439, 0.0571872248417112, 0.341412891384065, -1.222, 0.971, -1.041], a = 0.2, v = 0.2, t = 0.1)
movej(p[0.445688373558139, 0.0571871150697116, 0.341413624343559, -1.222, 0.971, -1.041], a = 0.2, v = 0.2, t = 0.1)
movej(p[0.445685799160458, 0.057187164803447, 0.3414155431797, -1.222, 0.971, -1.041], a = 0.2, v = 0.2, t = 0.1)
movej(p[0.445679100074157, 0.0571881862271308, 0.341418976067171, -1.222, 0.971, -1.041], a = 0.2, v = 0.2, t = 0.1)
movej(p[0.445667889086609, 0.0571895181194615, 0.341423141136562, -1.222, 0.971, -1.041], a = 0.2, v = 0.2, t = 0.1)
movej(p[0.445651222208512, 0.0571923663626658, 0.341426044821659, -1.222, 0.971, -1.041], a = 0.2, v = 0.2, t = 0.1)
movej(p[0.445630531293525, 0.0571959993584696, 0.341428772846673, -1.222, 0.971, -1.041], a = 0.2, v = 0.2, t = 0.1)
movej(p[0.445608531474414, 0.0572000092423843, 0.341430038367552, -1.222, 0.971, -1.041], a = 0.2, v = 0.2, t = 0.1)
movej(p[0.44558938676434, 0.0572041828288138, 0.341429511397459, -1.222, 0.971, -1.041], a = 0.2, v = 0.2, t = 0.1)
movej(p[0.445576108611653, 0.0572093085208597, 0.341426747601647, -1.222, 0.971, -1.041], a = 0.2, v = 0.2, t = 0.1)
movej(p[0.445568695959889, 0.0572157664101236, 0.341423568658257, -1.222, 0.971, -1.041], a = 0.2, v = 0.2, t = 0.1)
movej(p[0.445564359691585, 0.0572219718840003, 0.34142200137776, -1.222, 0.971, -1.041], a = 0.2, v = 0.2, t = 0.1)
movej(p[0.445558460917426, 0.0572258289092581, 0.341422682906623, -1.222, 0.971, -1.041], a = 0.2, v = 0.2, t = 0.1)
movej(p[0.445551740034919, 0.0572257288472129, 0.341427716663759, -1.222, 0.971, -1.041], a = 0.2, v = 0.2, t = 0.1)
movej(p[0.445546249128889, 0.0572234726936889, 0.341438448072113, -1.222, 0.971, -1.041], a = 0.2, v = 0.2, t = 0.1)
movej(p[0.445543796012121, 0.0572210722648573, 0.341452007223212, -1.222, 0.971, -1.041], a = 0.2, v = 0.2, t = 0.1)
movej(p[0.4455418181402, 0.0572179980249378, 0.341464013114207, -1.222, 0.971, -1.041], a = 0.2, v = 0.2, t = 0.1)
movej(p[0.44553841758073, 0.0572108034320417, 0.34146824294415, -1.222, 0.971, -1.041], a = 0.2, v = 0.2, t = 0.1)
movej(p[0.445533889827723, 0.0571978649699701, 0.341465512246266, -1.222, 0.971, -1.041], a = 0.2, v = 0.2, t = 0.1)
movej(p[0.445529946426062, 0.0571825680652111, 0.341457984571251, -1.222, 0.971, -1.041], a = 0.2, v = 0.2, t = 0.1)
movej(p[0.445526460153535, 0.0571697270695206, 0.341450217493645, -1.222, 0.971, -1.041], a = 0.2, v = 0.2, t = 0.1)
movej(p[0.44552244965191, 0.0571611237184461, 0.341443967356366, -1.222, 0.971, -1.041], a = 0.2, v = 0.2, t = 0.1)
movej(p[0.445518672096778, 0.0571537813283816, 0.341438580176365, -1.222, 0.971, -1.041], a = 0.2, v = 0.2, t = 0.1)
movej(p[0.445516011088453, 0.0571448819454165, 0.341430735968213, -1.222, 0.971, -1.041], a = 0.2, v = 0.2, t = 0.1)
movej(p[0.445516011135151, 0.057135860247988, 0.341421057768147, -1.222, 0.971, -1.041], a = 0.2, v = 0.2, t = 0.1)
movej(p[0.445520923842497, 0.0571309098362154, 0.341414747796767, -1.222, 0.971, -1.041], a = 0.2, v = 0.2, t = 0.1)
movej(p[0.445531062781027, 0.0571304321097908, 0.341419372611136, -1.222, 0.971, -1.041], a = 0.2, v = 0.2, t = 0.1)
movej(p[0.445544380984806, 0.0571323030594181, 0.341436592671722, -1.222, 0.971, -1.041], a = 0.2, v = 0.2, t = 0.1)
movej(p[0.445559400990249, 0.0571340720181549, 0.341462219666229, -1.222, 0.971, -1.041], a = 0.2, v = 0.2, t = 0.1)
movej(p[0.445574601719154, 0.0571353148729, 0.34149185506511, -1.222, 0.971, -1.041], a = 0.2, v = 0.2, t = 0.1)
movej(p[0.44558923443678, 0.0571377169099988, 0.341518547784692, -1.222, 0.971, -1.041], a = 0.2, v = 0.2, t = 0.1)
movej(p[0.445602959907816, 0.0571410048477147, 0.341537555961364, -1.222, 0.971, -1.041], a = 0.2, v = 0.2, t = 0.1)
movej(p[0.445616614145818, 0.0571458831071408, 0.341544991630974, -1.222, 0.971, -1.041], a = 0.2, v = 0.2, t = 0.1)
movej(p[0.445629096733707, 0.0571519531736867, 0.341543791360288, -1.222, 0.971, -1.041], a = 0.2, v = 0.2, t = 0.1)
movej(p[0.445638845552853, 0.0571601425560509, 0.341535784340384, -1.222, 0.971, -1.041], a = 0.2, v = 0.2, t = 0.1)
movej(p[0.445645723703124, 0.057169063664223, 0.341526626667381, -1.222, 0.971, -1.041], a = 0.2, v = 0.2, t = 0.1)
movej(p[0.445651161837279, 0.0571776351687764, 0.34151872420627, -1.222, 0.971, -1.041], a = 0.2, v = 0.2, t = 0.1)
movej(p[0.445653380222854, 0.0571861370094028, 0.341513055964267, -1.222, 0.971, -1.041], a = 0.2, v = 0.2, t = 0.1)
movej(p[0.445650949396006, 0.0571964929554279, 0.34150590553199, -1.222, 0.971, -1.041], a = 0.2, v = 0.2, t = 0.1)
movej(p[0.445644395634484, 0.0572076425614548, 0.341496226477265, -1.222, 0.971, -1.041], a = 0.2, v = 0.2, t = 0.1)
movej(p[0.445636031984519, 0.0572169809218913, 0.341486846165297, -1.222, 0.971, -1.041], a = 0.2, v = 0.2, t = 0.1)
movej(p[0.445628840538766, 0.0572230431378854, 0.341481522074461, -1.222, 0.971, -1.041], a = 0.2, v = 0.2, t = 0.1)
movej(p[0.445625512345339, 0.0572268561636815, 0.341479075315014, -1.222, 0.971, -1.041], a = 0.2, v = 0.2, t = 0.1)
movej(p[0.445626342402063, 0.0572290358696163, 0.34147654246309, -1.222, 0.971, -1.041], a = 0.2, v = 0.2, t = 0.1)
movej(p[0.445630395640218, 0.0572296202077983, 0.341473940551802, -1.222, 0.971, -1.041], a = 0.2, v = 0.2, t = 0.1)
movej(p[0.44563606407411, 0.0572294197583675, 0.341470155495497, -1.222, 0.971, -1.041], a = 0.2, v = 0.2, t = 0.1)
movej(p[0.445641964590292, 0.0572299189191857, 0.341465789876266, -1.222, 0.971, -1.041], a = 0.2, v = 0.2, t = 0.1)
movej(p[0.445646534909783, 0.0572319822355353, 0.341461989255476, -1.222, 0.971, -1.041], a = 0.2, v = 0.2, t = 0.1)
movej(p[0.445648562273652, 0.0572348616162729, 0.341461268070124, -1.222, 0.971, -1.041], a = 0.2, v = 0.2, t = 0.1)
movej(p[0.445648451002652, 0.057237174059572, 0.34146446735985, -1.222, 0.971, -1.041], a = 0.2, v = 0.2, t = 0.1)
movej(p[0.445646630735743, 0.0572374313001391, 0.341469510038768, -1.222, 0.971, -1.041], a = 0.2, v = 0.2, t = 0.1)
movej(p[0.445642790805049, 0.0572363711177871, 0.341474489109128, -1.222, 0.971, -1.041], a = 0.2, v = 0.2, t = 0.1)
movej(p[0.445634649756898, 0.0572348874437124, 0.341478764844299, -1.222, 0.971, -1.041], a = 0.2, v = 0.2, t = 0.1)
movej(p[0.445622923178641, 0.057234047600343, 0.341482377413673, -1.222, 0.971, -1.041], a = 0.2, v = 0.2, t = 0.1)
movej(p[0.445609990817753, 0.0572330851064495, 0.341484030343005, -1.222, 0.971, -1.041], a = 0.2, v = 0.2, t = 0.1)
movej(p[0.445596306138413, 0.0572326982203886, 0.341482842512831, -1.222, 0.971, -1.041], a = 0.2, v = 0.2, t = 0.1)
movej(p[0.44558020796425, 0.0572325740042567, 0.341480279925859, -1.222, 0.971, -1.041], a = 0.2, v = 0.2, t = 0.1)
movej(p[0.445561757789154, 0.0572336582246048, 0.341477669360946, -1.222, 0.971, -1.041], a = 0.2, v = 0.2, t = 0.1)
movej(p[0.445542725154034, 0.0572357833730565, 0.341474101627289, -1.222, 0.971, -1.041], a = 0.2, v = 0.2, t = 0.1)
movej(p[0.445525471982495, 0.0572397795490036, 0.341469959793923, -1.222, 0.971, -1.041], a = 0.2, v = 0.2, t = 0.1)
movej(p[0.445509002595778, 0.0572434664247304, 0.341466291817841, -1.222, 0.971, -1.041], a = 0.2, v = 0.2, t = 0.1)
movej(p[0.445492615105803, 0.0572455175739838, 0.341462215951054, -1.222, 0.971, -1.041], a = 0.2, v = 0.2, t = 0.1)
movej(p[0.445474666895082, 0.0572457190128716, 0.341456309371477, -1.222, 0.971, -1.041], a = 0.2, v = 0.2, t = 0.1)
movej(p[0.445454437979172, 0.0572449259807231, 0.341447790480051, -1.222, 0.971, -1.041], a = 0.2, v = 0.2, t = 0.1)
movej(p[0.445434496078104, 0.057243400249252, 0.341438469391528, -1.222, 0.971, -1.041], a = 0.2, v = 0.2, t = 0.1)
movej(p[0.445417961514198, 0.0572400015216871, 0.341430644949287, -1.222, 0.971, -1.041], a = 0.2, v = 0.2, t = 0.1)
movej(p[0.44540572467239, 0.0572351503268173, 0.341427360116887, -1.222, 0.971, -1.041], a = 0.2, v = 0.2, t = 0.1)
movej(p[0.445398244452038, 0.0572299836287853, 0.341431460894487, -1.222, 0.971, -1.041], a = 0.2, v = 0.2, t = 0.1)
movej(p[0.445394609658242, 0.0572259810431866, 0.341443684177294, -1.222, 0.971, -1.041], a = 0.2, v = 0.2, t = 0.1)
movej(p[0.445396010225929, 0.0572238919935506, 0.341460029682663, -1.222, 0.971, -1.041], a = 0.2, v = 0.2, t = 0.1)
movej(p[0.445404056776272, 0.057223399754507, 0.341477826370819, -1.222, 0.971, -1.041], a = 0.2, v = 0.2, t = 0.1)
movej(p[0.44541874963732, 0.0572233840353492, 0.34149304950194, -1.222, 0.971, -1.041], a = 0.2, v = 0.2, t = 0.1)
movej(p[0.445438839796965, 0.0572236106050139, 0.341503532086049, -1.222, 0.971, -1.041], a = 0.2, v = 0.2, t = 0.1)
movej(p[0.445461207940482, 0.0572249564971702, 0.341509181426978, -1.222, 0.971, -1.041], a = 0.2, v = 0.2, t = 0.1)
movej(p[0.445483291773458, 0.0572277390913643, 0.341509542729634, -1.222, 0.971, -1.041], a = 0.2, v = 0.2, t = 0.1)
movej(p[0.445502624277824, 0.0572305965706742, 0.341508650276296, -1.222, 0.971, -1.041], a = 0.2, v = 0.2, t = 0.1)
movej(p[0.445519128454291, 0.0572320726985555, 0.341508446731176, -1.222, 0.971, -1.041], a = 0.2, v = 0.2, t = 0.1)
movej(p[0.445534111954185, 0.0572319908137061, 0.341510010025067, -1.222, 0.971, -1.041], a = 0.2, v = 0.2, t = 0.1)
movej(p[0.445549410454648, 0.0572312271116227, 0.341512798789439, -1.222, 0.971, -1.041], a = 0.2, v = 0.2, t = 0.1)
movej(p[0.445564592166258, 0.0572314343047462, 0.341515467721174, -1.222, 0.971, -1.041], a = 0.2, v = 0.2, t = 0.1)
movej(p[0.445577647429878, 0.0572340209023127, 0.341517603549313, -1.222, 0.971, -1.041], a = 0.2, v = 0.2, t = 0.1)
movej(p[0.445587227933677, 0.0572380062652795, 0.341516374090906, -1.222, 0.971, -1.041], a = 0.2, v = 0.2, t = 0.1)
movej(p[0.445593790579143, 0.057241976385228, 0.341512289933088, -1.222, 0.971, -1.041], a = 0.2, v = 0.2, t = 0.1)
movej(p[0.445598168576408, 0.0572452097782037, 0.341505539213511, -1.222, 0.971, -1.041], a = 0.2, v = 0.2, t = 0.1)
movej(p[0.445602207582175, 0.0572492254491553, 0.341498316622201, -1.222, 0.971, -1.041], a = 0.2, v = 0.2, t = 0.1)
movej(p[0.445605602782471, 0.0572528653695127, 0.34149036780847, -1.222, 0.971, -1.041], a = 0.2, v = 0.2, t = 0.1)
movej(p[0.445607559228682, 0.0572564792654128, 0.341482197998334, -1.222, 0.971, -1.041], a = 0.2, v = 0.2, t = 0.1)
movej(p[0.445606917323412, 0.0572590080506093, 0.341476079313095, -1.222, 0.971, -1.041], a = 0.2, v = 0.2, t = 0.1)
movej(p[0.445604428193095, 0.0572606528519445, 0.341473838174137, -1.222, 0.971, -1.041], a = 0.2, v = 0.2, t = 0.1)
movej(p[0.445601135314458, 0.0572610454786927, 0.341476933390531, -1.222, 0.971, -1.041], a = 0.2, v = 0.2, t = 0.1)
movej(p[0.445597473120008, 0.0572618542500459, 0.341483021762867, -1.222, 0.971, -1.041], a = 0.2, v = 0.2, t = 0.1)
movej(p[0.445593187729151, 0.0572649999836553, 0.341490599110573, -1.222, 0.971, -1.041], a = 0.2, v = 0.2, t = 0.1)
movej(p[0.445588156823051, 0.0572711276233278, 0.34149810391689, -1.222, 0.971, -1.041], a = 0.2, v = 0.2, t = 0.1)
movej(p[0.445582870753839, 0.0572797925772152, 0.341502667307671, -1.222, 0.971, -1.041], a = 0.2, v = 0.2, t = 0.1)
movej(p[0.445576515398097, 0.0572905005867448, 0.341503007005048, -1.222, 0.971, -1.041], a = 0.2, v = 0.2, t = 0.1)
movej(p[0.445567211126328, 0.0573033105965999, 0.341499200632973, -1.222, 0.971, -1.041], a = 0.2, v = 0.2, t = 0.1)
movej(p[0.445553159608641, 0.0573156240313921, 0.341494761311933, -1.222, 0.971, -1.041], a = 0.2, v = 0.2, t = 0.1)
movej(p[0.445533619578328, 0.0573261932109186, 0.341488591343981, -1.222, 0.971, -1.041], a = 0.2, v = 0.2, t = 0.1)
movej(p[0.445509192629448, 0.0573315684024034, 0.341477774082179, -1.222, 0.971, -1.041], a = 0.2, v = 0.2, t = 0.1)
movej(p[0.445482703872838, 0.0573295749414035, 0.341461670646008, -1.222, 0.971, -1.041], a = 0.2, v = 0.2, t = 0.1)
movej(p[0.445456404143933, 0.0573217503586845, 0.341444378423051, -1.222, 0.971, -1.041], a = 0.2, v = 0.2, t = 0.1)
movej(p[0.445434047717605, 0.0573139423315817, 0.341429779105718, -1.222, 0.971, -1.041], a = 0.2, v = 0.2, t = 0.1)
movej(p[0.445415128439689, 0.0573087918268251, 0.341417377354032, -1.222, 0.971, -1.041], a = 0.2, v = 0.2, t = 0.1)
movej(p[0.445398319030935, 0.0573072207033048, 0.341405627602408, -1.222, 0.971, -1.041], a = 0.2, v = 0.2, t = 0.1)
movej(p[0.445381559433751, 0.0573077798962483, 0.341395112694729, -1.222, 0.971, -1.041], a = 0.2, v = 0.2, t = 0.1)
movej(p[0.445364661406339, 0.0573086272451013, 0.341384317515319, -1.222, 0.971, -1.041], a = 0.2, v = 0.2, t = 0.1)
movej(p[0.445347492630737, 0.0573060893199745, 0.341371984867373, -1.222, 0.971, -1.041], a = 0.2, v = 0.2, t = 0.1)
movej(p[0.445330283135145, 0.0572953655615203, 0.341359432156666, -1.222, 0.971, -1.041], a = 0.2, v = 0.2, t = 0.1)
movej(p[0.445313864470498, 0.0572797166901481, 0.341351055881062, -1.222, 0.971, -1.041], a = 0.2, v = 0.2, t = 0.1)
movej(p[0.445297348885384, 0.057264287415157, 0.341348329103917, -1.222, 0.971, -1.041], a = 0.2, v = 0.2, t = 0.1)
movej(p[0.445280499855482, 0.0572535568475439, 0.341349612770957, -1.222, 0.971, -1.041], a = 0.2, v = 0.2, t = 0.1)
movej(p[0.445264960278343, 0.0572471529374103, 0.341351881257531, -1.222, 0.971, -1.041], a = 0.2, v = 0.2, t = 0.1)
movej(p[0.445254279814559, 0.0572441617702555, 0.341351314919814, -1.222, 0.971, -1.041], a = 0.2, v = 0.2, t = 0.1)
movej(p[0.4452501273644, 0.0572440376222517, 0.341346440381278, -1.222, 0.971, -1.041], a = 0.2, v = 0.2, t = 0.1)
movej(p[0.445250890104754, 0.0572471317009685, 0.341341416980433, -1.222, 0.971, -1.041], a = 0.2, v = 0.2, t = 0.1)
movej(p[0.44525439982198, 0.0572523348026086, 0.341338480706891, -1.222, 0.971, -1.041], a = 0.2, v = 0.2, t = 0.1)
movej(p[0.445260090139655, 0.0572576413329217, 0.341337778078395, -1.222, 0.971, -1.041], a = 0.2, v = 0.2, t = 0.1)
movej(p[0.445268191490899, 0.0572612869785798, 0.341339399167456, -1.222, 0.971, -1.041], a = 0.2, v = 0.2, t = 0.1)
movej(p[0.445278532542095, 0.0572623781443986, 0.341342777730807, -1.222, 0.971, -1.041], a = 0.2, v = 0.2, t = 0.1)
movej(p[0.44529152623161, 0.0572618495717771, 0.341346226017453, -1.222, 0.971, -1.041], a = 0.2, v = 0.2, t = 0.1)
movej(p[0.445305791560799, 0.0572605201744436, 0.341345276251767, -1.222, 0.971, -1.041], a = 0.2, v = 0.2, t = 0.1)
movej(p[0.445320441305488, 0.0572592233248212, 0.341338601734961, -1.222, 0.971, -1.041], a = 0.2, v = 0.2, t = 0.1)
movej(p[0.445334335561968, 0.0572578739194423, 0.341326288391021, -1.222, 0.971, -1.041], a = 0.2, v = 0.2, t = 0.1)
movej(p[0.445346787376643, 0.0572549899108601, 0.341312644768672, -1.222, 0.971, -1.041], a = 0.2, v = 0.2, t = 0.1)
movej(p[0.445356957396006, 0.0572484676180259, 0.341300335202866, -1.222, 0.971, -1.041], a = 0.2, v = 0.2, t = 0.1)
movej(p[0.445364453137225, 0.0572384180106593, 0.341289827843095, -1.222, 0.971, -1.041], a = 0.2, v = 0.2, t = 0.1)
movej(p[0.445371816298753, 0.0572280665271345, 0.341279015413805, -1.222, 0.971, -1.041], a = 0.2, v = 0.2, t = 0.1)
movej(p[0.445379916261513, 0.0572182538889036, 0.34126547321187, -1.222, 0.971, -1.041], a = 0.2, v = 0.2, t = 0.1)
movej(p[0.445387384111483, 0.0572066037852517, 0.341243159554512, -1.222, 0.971, -1.041], a = 0.2, v = 0.2, t = 0.1)
movej(p[0.445391217008006, 0.0571908920278415, 0.341215467494958, -1.222, 0.971, -1.041], a = 0.2, v = 0.2, t = 0.1)
movej(p[0.445390634118919, 0.0571723004244169, 0.341187542784621, -1.222, 0.971, -1.041], a = 0.2, v = 0.2, t = 0.1)
movej(p[0.445388825028899, 0.057156201774471, 0.341166350431985, -1.222, 0.971, -1.041], a = 0.2, v = 0.2, t = 0.1)
movej(p[0.445387857387047, 0.0571445368893196, 0.341150334650873, -1.222, 0.971, -1.041], a = 0.2, v = 0.2, t = 0.1)
movej(p[0.44538650575193, 0.0571367601629655, 0.341138144011893, -1.222, 0.971, -1.041], a = 0.2, v = 0.2, t = 0.1)
movej(p[0.445383780482697, 0.0571329105857074, 0.341128747114185, -1.222, 0.971, -1.041], a = 0.2, v = 0.2, t = 0.1)
movej(p[0.445378960794719, 0.057131480516406, 0.341121924326881, -1.222, 0.971, -1.041], a = 0.2, v = 0.2, t = 0.1)
movej(p[0.445370786332615, 0.0571318493823422, 0.34111796914582, -1.222, 0.971, -1.041], a = 0.2, v = 0.2, t = 0.1)
movej(p[0.445358321211957, 0.0571317876952655, 0.341117784842547, -1.222, 0.971, -1.041], a = 0.2, v = 0.2, t = 0.1)
movej(p[0.445340670795859, 0.0571308071388038, 0.341121532730297, -1.222, 0.971, -1.041], a = 0.2, v = 0.2, t = 0.1)
movej(p[0.44532029919169, 0.0571296093805885, 0.341127175246211, -1.222, 0.971, -1.041], a = 0.2, v = 0.2, t = 0.1)
movej(p[0.445299785253525, 0.0571267474860542, 0.341132671541932, -1.222, 0.971, -1.041], a = 0.2, v = 0.2, t = 0.1)
movej(p[0.445280527525843, 0.0571232932212681, 0.341136757104967, -1.222, 0.971, -1.041], a = 0.2, v = 0.2, t = 0.1)
movej(p[0.445263575558412, 0.0571197212835197, 0.341139401723264, -1.222, 0.971, -1.041], a = 0.2, v = 0.2, t = 0.1)
movej(p[0.445250533531665, 0.0571153371620947, 0.341142259532853, -1.222, 0.971, -1.041], a = 0.2, v = 0.2, t = 0.1)
movej(p[0.445243405942964, 0.0571105273130474, 0.3411437837797, -1.222, 0.971, -1.041], a = 0.2, v = 0.2, t = 0.1)
movej(p[0.445239841406276, 0.0571056109757453, 0.34114704851487, -1.222, 0.971, -1.041], a = 0.2, v = 0.2, t = 0.1)
movej(p[0.445237950460236, 0.0571007095964577, 0.341155697266812, -1.222, 0.971, -1.041], a = 0.2, v = 0.2, t = 0.1)
movej(p[0.445238049221828, 0.0570950934748362, 0.341172636184431, -1.222, 0.971, -1.041], a = 0.2, v = 0.2, t = 0.1)
movej(p[0.445242248335966, 0.0570906081076506, 0.341192534918327, -1.222, 0.971, -1.041], a = 0.2, v = 0.2, t = 0.1)
movej(p[0.445250277877796, 0.0570924814381904, 0.341207390601168, -1.222, 0.971, -1.041], a = 0.2, v = 0.2, t = 0.1)
movej(p[0.445260019659708, 0.0571026472622981, 0.341214390558625, -1.222, 0.971, -1.041], a = 0.2, v = 0.2, t = 0.1)
movej(p[0.445271106279293, 0.057119457937701, 0.341218034437283, -1.222, 0.971, -1.041], a = 0.2, v = 0.2, t = 0.1)
movej(p[0.445283196473562, 0.057139011092769, 0.341223346267422, -1.222, 0.971, -1.041], a = 0.2, v = 0.2, t = 0.1)
movej(p[0.445297082529601, 0.0571558595832953, 0.341230875536222, -1.222, 0.971, -1.041], a = 0.2, v = 0.2, t = 0.1)
movej(p[0.44531187778695, 0.057167285703857, 0.341238164923912, -1.222, 0.971, -1.041], a = 0.2, v = 0.2, t = 0.1)
movej(p[0.445327593117482, 0.057174230669944, 0.341245127942318, -1.222, 0.971, -1.041], a = 0.2, v = 0.2, t = 0.1)
movej(p[0.445344072359364, 0.0571803668232135, 0.341253004461285, -1.222, 0.971, -1.041], a = 0.2, v = 0.2, t = 0.1)
movej(p[0.445362245149971, 0.0571869873929034, 0.341261672016566, -1.222, 0.971, -1.041], a = 0.2, v = 0.2, t = 0.1)
movej(p[0.445381101636276, 0.057194395475588, 0.341270029627538, -1.222, 0.971, -1.041], a = 0.2, v = 0.2, t = 0.1)
movej(p[0.44539730175582, 0.0572031159384812, 0.341277022657688, -1.222, 0.971, -1.041], a = 0.2, v = 0.2, t = 0.1)
movej(p[0.445409167112409, 0.057213313623402, 0.341281925821287, -1.222, 0.971, -1.041], a = 0.2, v = 0.2, t = 0.1)
movej(p[0.445415900592914, 0.0572243401839831, 0.341285848636991, -1.222, 0.971, -1.041], a = 0.2, v = 0.2, t = 0.1)
movej(p[0.445418856839336, 0.0572344169919876, 0.341289824506773, -1.222, 0.971, -1.041], a = 0.2, v = 0.2, t = 0.1)
movej(p[0.445418525991133, 0.0572432921218489, 0.341294485210519, -1.222, 0.971, -1.041], a = 0.2, v = 0.2, t = 0.1)
movej(p[0.445414795054935, 0.0572505587650382, 0.341300478467551, -1.222, 0.971, -1.041], a = 0.2, v = 0.2, t = 0.1)
movej(p[0.445408180887667, 0.0572558048341446, 0.341307744178891, -1.222, 0.971, -1.041], a = 0.2, v = 0.2, t = 0.1)
movej(p[0.445401030853863, 0.0572593800438546, 0.341315994595737, -1.222, 0.971, -1.041], a = 0.2, v = 0.2, t = 0.1)
movej(p[0.445395246526186, 0.0572613667158434, 0.341323998753203, -1.222, 0.971, -1.041], a = 0.2, v = 0.2, t = 0.1)
movej(p[0.445392348756001, 0.0572627937744694, 0.341329778427643, -1.222, 0.971, -1.041], a = 0.2, v = 0.2, t = 0.1)
movej(p[0.445391128083872, 0.0572656207560071, 0.341333675293555, -1.222, 0.971, -1.041], a = 0.2, v = 0.2, t = 0.1)
movej(p[0.445389335528183, 0.0572705719059567, 0.341337991982944, -1.222, 0.971, -1.041], a = 0.2, v = 0.2, t = 0.1)
movej(p[0.445383656625477, 0.0572748902376515, 0.341347406580621, -1.222, 0.971, -1.041], a = 0.2, v = 0.2, t = 0.1)
movej(p[0.4453735921653, 0.0572757627589413, 0.341360205301571, -1.222, 0.971, -1.041], a = 0.2, v = 0.2, t = 0.1)
movej(p[0.445362176877485, 0.0572738655772234, 0.341370959264358, -1.222, 0.971, -1.041], a = 0.2, v = 0.2, t = 0.1)
movej(p[0.445352248841175, 0.0572704498386058, 0.341373949691038, -1.222, 0.971, -1.041], a = 0.2, v = 0.2, t = 0.1)
movej(p[0.445343011855307, 0.0572654941983921, 0.341369162219456, -1.222, 0.971, -1.041], a = 0.2, v = 0.2, t = 0.1)
movej(p[0.445333305896228, 0.0572607772128145, 0.341359464687274, -1.222, 0.971, -1.041], a = 0.2, v = 0.2, t = 0.1)
movej(p[0.445323706401851, 0.0572585268034739, 0.341347346930943, -1.222, 0.971, -1.041], a = 0.2, v = 0.2, t = 0.1)
movej(p[0.445314890033498, 0.0572571994714551, 0.341332831722237, -1.222, 0.971, -1.041], a = 0.2, v = 0.2, t = 0.1)
movej(p[0.445306031094793, 0.0572480023168861, 0.341314224963361, -1.222, 0.971, -1.041], a = 0.2, v = 0.2, t = 0.1)
movej(p[0.445292707812562, 0.0572291977788941, 0.341292403905241, -1.222, 0.971, -1.041], a = 0.2, v = 0.2, t = 0.1)
movej(p[0.445273329658872, 0.0572045420640033, 0.341269735180601, -1.222, 0.971, -1.041], a = 0.2, v = 0.2, t = 0.1)
movej(p[0.445247246334662, 0.0571810071329603, 0.341247246380545, -1.222, 0.971, -1.041], a = 0.2, v = 0.2, t = 0.1)
movej(p[0.445218333268975, 0.0571628005064026, 0.341226550844409, -1.222, 0.971, -1.041], a = 0.2, v = 0.2, t = 0.1)
movej(p[0.445190656855619, 0.0571509359426554, 0.341209703944046, -1.222, 0.971, -1.041], a = 0.2, v = 0.2, t = 0.1)
movej(p[0.445169781119383, 0.0571458840104401, 0.341199685901298, -1.222, 0.971, -1.041], a = 0.2, v = 0.2, t = 0.1)
movej(p[0.445154874151935, 0.0571441809010341, 0.341195512479577, -1.222, 0.971, -1.041], a = 0.2, v = 0.2, t = 0.1)
movej(p[0.445143182162871, 0.0571449013125626, 0.341193817758377, -1.222, 0.971, -1.041], a = 0.2, v = 0.2, t = 0.1)
movej(p[0.445132738195655, 0.0571471147105678, 0.341193259658857, -1.222, 0.971, -1.041], a = 0.2, v = 0.2, t = 0.1)
movej(p[0.445123259291374, 0.0571490883514577, 0.341193737156778, -1.222, 0.971, -1.041], a = 0.2, v = 0.2, t = 0.1)
movej(p[0.445114769450708, 0.0571497261136875, 0.341193922039986, -1.222, 0.971, -1.041], a = 0.2, v = 0.2, t = 0.1)
movej(p[0.445106239189365, 0.0571499623132551, 0.341194421724079, -1.222, 0.971, -1.041], a = 0.2, v = 0.2, t = 0.1)
movej(p[0.445097319933406, 0.0571507960903322, 0.341195220236398, -1.222, 0.971, -1.041], a = 0.2, v = 0.2, t = 0.1)
movej(p[0.445088387886505, 0.0571520730273197, 0.341196144429604, -1.222, 0.971, -1.041], a = 0.2, v = 0.2, t = 0.1)
movej(p[0.445080693240526, 0.0571514378291503, 0.341193254432452, -1.222, 0.971, -1.041], a = 0.2, v = 0.2, t = 0.1)
movej(p[0.445077970215192, 0.0571480488934879, 0.341186098574075, -1.222, 0.971, -1.041], a = 0.2, v = 0.2, t = 0.1)
movej(p[0.445081042088354, 0.0571420836526303, 0.341177608522321, -1.222, 0.971, -1.041], a = 0.2, v = 0.2, t = 0.1)
movej(p[0.44508613394469, 0.0571352044041477, 0.341171190058613, -1.222, 0.971, -1.041], a = 0.2, v = 0.2, t = 0.1)
movej(p[0.445090694295541, 0.0571294630051743, 0.341166487784701, -1.222, 0.971, -1.041], a = 0.2, v = 0.2, t = 0.1)
movej(p[0.445095876112283, 0.0571261071114046, 0.341162708792473, -1.222, 0.971, -1.041], a = 0.2, v = 0.2, t = 0.1)
movej(p[0.445103755476465, 0.0571270581443539, 0.341159946835665, -1.222, 0.971, -1.041], a = 0.2, v = 0.2, t = 0.1)
movej(p[0.445113657800592, 0.0571313212120379, 0.341159910150399, -1.222, 0.971, -1.041], a = 0.2, v = 0.2, t = 0.1)
movej(p[0.445124081322161, 0.0571352599828569, 0.34116206784791, -1.222, 0.971, -1.041], a = 0.2, v = 0.2, t = 0.1)
movej(p[0.445138360284095, 0.0571357813770721, 0.34116839415079, -1.222, 0.971, -1.041], a = 0.2, v = 0.2, t = 0.1)
movej(p[0.445155678094902, 0.0571351376475903, 0.341177636973909, -1.222, 0.971, -1.041], a = 0.2, v = 0.2, t = 0.1)
movej(p[0.445173773350898, 0.0571362787987201, 0.341188158406109, -1.222, 0.971, -1.041], a = 0.2, v = 0.2, t = 0.1)
movej(p[0.445185908429456, 0.0571402360175771, 0.34119316134128, -1.222, 0.971, -1.041], a = 0.2, v = 0.2, t = 0.1)
movej(p[0.445193426029603, 0.0571444866467512, 0.341188628899924, -1.222, 0.971, -1.041], a = 0.2, v = 0.2, t = 0.1)
movej(p[0.445198286030501, 0.0571460233803703, 0.341174744213321, -1.222, 0.971, -1.041], a = 0.2, v = 0.2, t = 0.1)
movej(p[0.445202561825259, 0.0571452550110737, 0.341157584061754, -1.222, 0.971, -1.041], a = 0.2, v = 0.2, t = 0.1)
movej(p[0.445204400075749, 0.0571430715524977, 0.341143013702122, -1.222, 0.971, -1.041], a = 0.2, v = 0.2, t = 0.1)
movej(p[0.445203144669149, 0.0571419508703779, 0.341133471865934, -1.222, 0.971, -1.041], a = 0.2, v = 0.2, t = 0.1)
movej(p[0.445199397763015, 0.0571425211364056, 0.341128508855952, -1.222, 0.971, -1.041], a = 0.2, v = 0.2, t = 0.1)
movej(p[0.445194380421755, 0.0571440542417747, 0.341126608707377, -1.222, 0.971, -1.041], a = 0.2, v = 0.2, t = 0.1)
movej(p[0.445187949411288, 0.0571448076035505, 0.34112646625596, -1.222, 0.971, -1.041], a = 0.2, v = 0.2, t = 0.1)
movej(p[0.44518128486431, 0.0571442299431087, 0.341127864122547, -1.222, 0.971, -1.041], a = 0.2, v = 0.2, t = 0.1)
movej(p[0.44517458197209, 0.057141409444859, 0.341130689854048, -1.222, 0.971, -1.041], a = 0.2, v = 0.2, t = 0.1)
movej(p[0.4451673770602, 0.0571356913114957, 0.34113376183948, -1.222, 0.971, -1.041], a = 0.2, v = 0.2, t = 0.1)
movej(p[0.44515645154278, 0.0571259293352199, 0.34113346007418, -1.222, 0.971, -1.041], a = 0.2, v = 0.2, t = 0.1)
movej(p[0.445143022627473, 0.0571143634147002, 0.341127251722288, -1.222, 0.971, -1.041], a = 0.2, v = 0.2, t = 0.1)
movej(p[0.445130011439834, 0.0571030540607417, 0.341115683272337, -1.222, 0.971, -1.041], a = 0.2, v = 0.2, t = 0.1)
movej(p[0.445120466160915, 0.0570930600148367, 0.341101391897952, -1.222, 0.971, -1.041], a = 0.2, v = 0.2, t = 0.1)
movej(p[0.445113210661329, 0.057084035349924, 0.341087233381011, -1.222, 0.971, -1.041], a = 0.2, v = 0.2, t = 0.1)
movej(p[0.445105993361782, 0.05707608946734, 0.341075438354169, -1.222, 0.971, -1.041], a = 0.2, v = 0.2, t = 0.1)
movej(p[0.445099570358041, 0.0570715220093831, 0.341067816892974, -1.222, 0.971, -1.041], a = 0.2, v = 0.2, t = 0.1)
movej(p[0.445095318948697, 0.0570712157532583, 0.341065291058699, -1.222, 0.971, -1.041], a = 0.2, v = 0.2, t = 0.1)
movej(p[0.445092686646246, 0.0570738970290567, 0.341065726577811, -1.222, 0.971, -1.041], a = 0.2, v = 0.2, t = 0.1)
movej(p[0.445090751861997, 0.057077236125861, 0.341065299292844, -1.222, 0.971, -1.041], a = 0.2, v = 0.2, t = 0.1)
movej(p[0.445087714310488, 0.0570801415204961, 0.341061888451475, -1.222, 0.971, -1.041], a = 0.2, v = 0.2, t = 0.1)
movej(p[0.445083260887888, 0.0570829775894685, 0.341054847639169, -1.222, 0.971, -1.041], a = 0.2, v = 0.2, t = 0.1)
movej(p[0.445077805532987, 0.0570858118343621, 0.341046113870178, -1.222, 0.971, -1.041], a = 0.2, v = 0.2, t = 0.1)
movej(p[0.445071933249774, 0.0570882788839434, 0.341038168871359, -1.222, 0.971, -1.041], a = 0.2, v = 0.2, t = 0.1)
movej(p[0.445066787904244, 0.0570905332381881, 0.341032659535345, -1.222, 0.971, -1.041], a = 0.2, v = 0.2, t = 0.1)
movej(p[0.445063150823779, 0.0570917358713765, 0.341030185845772, -1.222, 0.971, -1.041], a = 0.2, v = 0.2, t = 0.1)
movej(p[0.44506058231471, 0.0570932360513441, 0.341029981333602, -1.222, 0.971, -1.041], a = 0.2, v = 0.2, t = 0.1)
movej(p[0.445058201137822, 0.0570949043643674, 0.341030386073374, -1.222, 0.971, -1.041], a = 0.2, v = 0.2, t = 0.1)
movej(p[0.445054554542885, 0.0570979475819511, 0.341029887903621, -1.222, 0.971, -1.041], a = 0.2, v = 0.2, t = 0.1)
movej(p[0.445047919839549, 0.0570995026434713, 0.341027839222749, -1.222, 0.971, -1.041], a = 0.2, v = 0.2, t = 0.1)
movej(p[0.445037434611583, 0.057100255735458, 0.341025783690466, -1.222, 0.971, -1.041], a = 0.2, v = 0.2, t = 0.1)
movej(p[0.445022220929178, 0.0571004952460515, 0.34102424818392, -1.222, 0.971, -1.041], a = 0.2, v = 0.2, t = 0.1)
movej(p[0.445006556945042, 0.057102049490883, 0.341023166029593, -1.222, 0.971, -1.041], a = 0.2, v = 0.2, t = 0.1)
movej(p[0.444992072689586, 0.0571026930786997, 0.341023633605901, -1.222, 0.971, -1.041], a = 0.2, v = 0.2, t = 0.1)
movej(p[0.444980398150302, 0.0570988625223964, 0.34102788433677, -1.222, 0.971, -1.041], a = 0.2, v = 0.2, t = 0.1)
movej(p[0.444971333163399, 0.0570897133009983, 0.341036890824779, -1.222, 0.971, -1.041], a = 0.2, v = 0.2, t = 0.1)
movej(p[0.44496633264325, 0.0570774386317757, 0.341048836355814, -1.222, 0.971, -1.041], a = 0.2, v = 0.2, t = 0.1)
movej(p[0.444967442541199, 0.0570668674683793, 0.341060927672864, -1.222, 0.971, -1.041], a = 0.2, v = 0.2, t = 0.1)
movej(p[0.444975387417703, 0.0570599631066188, 0.341071646357438, -1.222, 0.971, -1.041], a = 0.2, v = 0.2, t = 0.1)
movej(p[0.444989768074625, 0.0570562230942961, 0.341081795399971, -1.222, 0.971, -1.041], a = 0.2, v = 0.2, t = 0.1)
movej(p[0.445008498200001, 0.0570529408013683, 0.341092436688499, -1.222, 0.971, -1.041], a = 0.2, v = 0.2, t = 0.1)
movej(p[0.445029419883199, 0.0570503033161011, 0.341102930931475, -1.222, 0.971, -1.041], a = 0.2, v = 0.2, t = 0.1)
movej(p[0.44505078586625, 0.0570483678343285, 0.341113013880476, -1.222, 0.971, -1.041], a = 0.2, v = 0.2, t = 0.1)
movej(p[0.445072475001033, 0.0570483770485753, 0.341123155407209, -1.222, 0.971, -1.041], a = 0.2, v = 0.2, t = 0.1)
movej(p[0.445092703508255, 0.0570492117548521, 0.34113271675204, -1.222, 0.971, -1.041], a = 0.2, v = 0.2, t = 0.1)
movej(p[0.445110777908292, 0.0570498009797098, 0.341141703820717, -1.222, 0.971, -1.041], a = 0.2, v = 0.2, t = 0.1)
movej(p[0.445126390365429, 0.0570493914141496, 0.341149718572128, -1.222, 0.971, -1.041], a = 0.2, v = 0.2, t = 0.1)
movej(p[0.445139352087345, 0.0570482269461354, 0.3411580583698, -1.222, 0.971, -1.041], a = 0.2, v = 0.2, t = 0.1)
movej(p[0.445150263995783, 0.0570482918999718, 0.341166205858814, -1.222, 0.971, -1.041], a = 0.2, v = 0.2, t = 0.1)
movej(p[0.445157248400148, 0.0570496304612043, 0.341174907662678, -1.222, 0.971, -1.041], a = 0.2, v = 0.2, t = 0.1)
movej(p[0.445161026224403, 0.0570527525383679, 0.341182410334808, -1.222, 0.971, -1.041], a = 0.2, v = 0.2, t = 0.1)
movej(p[0.445161290104153, 0.0570570778334565, 0.341188472974075, -1.222, 0.971, -1.041], a = 0.2, v = 0.2, t = 0.1)
movej(p[0.445158324386413, 0.057059101150555, 0.341192978254555, -1.222, 0.971, -1.041], a = 0.2, v = 0.2, t = 0.1)
movej(p[0.445151568725483, 0.0570566022452999, 0.341199221593319, -1.222, 0.971, -1.041], a = 0.2, v = 0.2, t = 0.1)
movej(p[0.445144163014578, 0.0570508287521234, 0.341206202326127, -1.222, 0.971, -1.041], a = 0.2, v = 0.2, t = 0.1)
movej(p[0.445139879221548, 0.0570473535317576, 0.341213575321426, -1.222, 0.971, -1.041], a = 0.2, v = 0.2, t = 0.1)
movej(p[0.445138951424378, 0.0570471849116579, 0.341216889534707, -1.222, 0.971, -1.041], a = 0.2, v = 0.2, t = 0.1)
movej(p[0.445139864718842, 0.0570502806452423, 0.341213063192224, -1.222, 0.971, -1.041], a = 0.2, v = 0.2, t = 0.1)
movej(p[0.445141943595328, 0.0570570257579789, 0.341200940284829, -1.222, 0.971, -1.041], a = 0.2, v = 0.2, t = 0.1)
movej(p[0.44514483948171, 0.0570668750422979, 0.341185909544113, -1.222, 0.971, -1.041], a = 0.2, v = 0.2, t = 0.1)
movej(p[0.445148210668879, 0.0570790201585748, 0.341171592427095, -1.222, 0.971, -1.041], a = 0.2, v = 0.2, t = 0.1)
movej(p[0.445150668201445, 0.0570925605228923, 0.341159667682577, -1.222, 0.971, -1.041], a = 0.2, v = 0.2, t = 0.1)
movej(p[0.445151059311276, 0.0571046491737643, 0.341148493964789, -1.222, 0.971, -1.041], a = 0.2, v = 0.2, t = 0.1)
movej(p[0.445148713253929, 0.057113912271978, 0.341135734410941, -1.222, 0.971, -1.041], a = 0.2, v = 0.2, t = 0.1)
movej(p[0.445143994936103, 0.0571213550973532, 0.341119178524123, -1.222, 0.971, -1.041], a = 0.2, v = 0.2, t = 0.1)
movej(p[0.44513900890221, 0.057128696384502, 0.341100841088233, -1.222, 0.971, -1.041], a = 0.2, v = 0.2, t = 0.1)
movej(p[0.445134661084009, 0.0571348400939131, 0.341083231183987, -1.222, 0.971, -1.041], a = 0.2, v = 0.2, t = 0.1)
movej(p[0.445130575385802, 0.0571404161689596, 0.341067704934303, -1.222, 0.971, -1.041], a = 0.2, v = 0.2, t = 0.1)
movej(p[0.445125827545005, 0.057146562390052, 0.341054511137122, -1.222, 0.971, -1.041], a = 0.2, v = 0.2, t = 0.1)
movej(p[0.445119130201619, 0.0571547864570802, 0.341043340368345, -1.222, 0.971, -1.041], a = 0.2, v = 0.2, t = 0.1)
movej(p[0.445109393354837, 0.0571640183876395, 0.341034938494512, -1.222, 0.971, -1.041], a = 0.2, v = 0.2, t = 0.1)
movej(p[0.445095495735451, 0.0571724710603243, 0.341030309633865, -1.222, 0.971, -1.041], a = 0.2, v = 0.2, t = 0.1)
movej(p[0.445077821091598, 0.0571799503832868, 0.341027553316272, -1.222, 0.971, -1.041], a = 0.2, v = 0.2, t = 0.1)
movej(p[0.445059367827326, 0.0571870114300818, 0.341024846600016, -1.222, 0.971, -1.041], a = 0.2, v = 0.2, t = 0.1)
movej(p[0.445042888609788, 0.0571930088737227, 0.341021590326824, -1.222, 0.971, -1.041], a = 0.2, v = 0.2, t = 0.1)
