movej(p[0.410198342935255, 0.210461746340116, 0.315872063016116, -1.283, 0.713, -0.78], a = 0.2, v = 0.2, t = 0.1)
movej(p[0.410181211130031, 0.210457147836141, 0.315859283245307, -1.283, 0.713, -0.78], a = 0.2, v = 0.2, t = 0.1)
movej(p[0.410164947556667, 0.210455547561319, 0.315847596671817, -1.283, 0.713, -0.78], a = 0.2, v = 0.2, t = 0.1)
movej(p[0.410150872927547, 0.210455776725879, 0.315836207963473, -1.283, 0.713, -0.78], a = 0.2, v = 0.2, t = 0.1)
movej(p[0.410140747520495, 0.210456413069414, 0.31582440660474, -1.283, 0.713, -0.78], a = 0.2, v = 0.2, t = 0.1)
movej(p[0.410134238281421, 0.210456585770275, 0.315810293727107, -1.283, 0.713, -0.78], a = 0.2, v = 0.2, t = 0.1)
movej(p[0.410130460826714, 0.21045446204109, 0.315795637505927, -1.283, 0.713, -0.78], a = 0.2, v = 0.2, t = 0.1)
movej(p[0.410128912696261, 0.210450791225453, 0.315780477222365, -1.283, 0.713, -0.78], a = 0.2, v = 0.2, t = 0.1)
movej(p[0.410129475510818, 0.210446279474499, 0.315765085865307, -1.283, 0.713, -0.78], a = 0.2, v = 0.2, t = 0.1)
movej(p[0.410132404958042, 0.210442328323356, 0.315749324423571, -1.283, 0.713, -0.78], a = 0.2, v = 0.2, t = 0.1)
movej(p[0.410138148356746, 0.210439870989064, 0.315735190868586, -1.283, 0.713, -0.78], a = 0.2, v = 0.2, t = 0.1)
movej(p[0.410147001689425, 0.210439577912925, 0.315726318455619, -1.283, 0.713, -0.78], a = 0.2, v = 0.2, t = 0.1)
movej(p[0.41015768363604, 0.210441675169601, 0.315721940180623, -1.283, 0.713, -0.78], a = 0.2, v = 0.2, t = 0.1)
movej(p[0.410168266549111, 0.210444973832914, 0.315720419387639, -1.283, 0.713, -0.78], a = 0.2, v = 0.2, t = 0.1)
movej(p[0.410176704102796, 0.210447906519865, 0.3157207861792, -1.283, 0.713, -0.78], a = 0.2, v = 0.2, t = 0.1)
movej(p[0.410184332279017, 0.210449656797127, 0.315720695327401, -1.283, 0.713, -0.78], a = 0.2, v = 0.2, t = 0.1)
movej(p[0.410192013424217, 0.210450383308711, 0.315718219084412, -1.283, 0.713, -0.78], a = 0.2, v = 0.2, t = 0.1)
movej(p[0.410198184481759, 0.210451037800377, 0.315713820440476, -1.283, 0.713, -0.78], a = 0.2, v = 0.2, t = 0.1)
movej(p[0.41020208789128, 0.210452599654152, 0.315709601942178, -1.283, 0.713, -0.78], a = 0.2, v = 0.2, t = 0.1)
movej(p[0.410205287094947, 0.210455271876237, 0.315706930502487, -1.283, 0.713, -0.78], a = 0.2, v = 0.2, t = 0.1)
movej(p[0.410211371855154, 0.210458581750908, 0.315704270879789, -1.283, 0.713, -0.78], a = 0.2, v = 0.2, t = 0.1)
movej(p[0.41022054904202, 0.210462046832057, 0.315701258901725, -1.283, 0.713, -0.78], a = 0.2, v = 0.2, t = 0.1)
movej(p[0.41023051688436, 0.210465319648523, 0.315698034179184, -1.283, 0.713, -0.78], a = 0.2, v = 0.2, t = 0.1)
movej(p[0.410237320509486, 0.21046880464046, 0.315696304797406, -1.283, 0.713, -0.78], a = 0.2, v = 0.2, t = 0.1)
movej(p[0.410240957304784, 0.210473032461604, 0.315695814610366, -1.283, 0.713, -0.78], a = 0.2, v = 0.2, t = 0.1)
movej(p[0.410243062696091, 0.210477587978929, 0.315696878158836, -1.283, 0.713, -0.78], a = 0.2, v = 0.2, t = 0.1)
movej(p[0.410244992625387, 0.21048096028116, 0.315697075388585, -1.283, 0.713, -0.78], a = 0.2, v = 0.2, t = 0.1)
movej(p[0.410246192790008, 0.210482071644478, 0.315695598061452, -1.283, 0.713, -0.78], a = 0.2, v = 0.2, t = 0.1)
movej(p[0.410246026210612, 0.210480520661054, 0.315692904047584, -1.283, 0.713, -0.78], a = 0.2, v = 0.2, t = 0.1)
movej(p[0.41024468202555, 0.210476812461926, 0.315689531003299, -1.283, 0.713, -0.78], a = 0.2, v = 0.2, t = 0.1)
movej(p[0.410242677193259, 0.210470057478048, 0.315685480299868, -1.283, 0.713, -0.78], a = 0.2, v = 0.2, t = 0.1)
movej(p[0.410238446201971, 0.210461487265092, 0.315680204510105, -1.283, 0.713, -0.78], a = 0.2, v = 0.2, t = 0.1)
movej(p[0.410230759772516, 0.21045099635705, 0.315676943647998, -1.283, 0.713, -0.78], a = 0.2, v = 0.2, t = 0.1)
movej(p[0.410219537509455, 0.210439184259167, 0.315678623036097, -1.283, 0.713, -0.78], a = 0.2, v = 0.2, t = 0.1)
movej(p[0.410207408527261, 0.210427860662837, 0.315685928562984, -1.283, 0.713, -0.78], a = 0.2, v = 0.2, t = 0.1)
movej(p[0.410196321498816, 0.210418144531735, 0.315695754036085, -1.283, 0.713, -0.78], a = 0.2, v = 0.2, t = 0.1)
movej(p[0.410186609823912, 0.210410110836534, 0.31570622510432, -1.283, 0.713, -0.78], a = 0.2, v = 0.2, t = 0.1)
movej(p[0.410178082231796, 0.21040120007583, 0.315717465594451, -1.283, 0.713, -0.78], a = 0.2, v = 0.2, t = 0.1)
movej(p[0.410168997236333, 0.210390556606176, 0.31573028061537, -1.283, 0.713, -0.78], a = 0.2, v = 0.2, t = 0.1)
movej(p[0.410158262365475, 0.210377708600805, 0.315745089598038, -1.283, 0.713, -0.78], a = 0.2, v = 0.2, t = 0.1)
movej(p[0.41014610638481, 0.210363851642294, 0.315760205027238, -1.283, 0.713, -0.78], a = 0.2, v = 0.2, t = 0.1)
movej(p[0.410133446860727, 0.210350654660831, 0.315774715304949, -1.283, 0.713, -0.78], a = 0.2, v = 0.2, t = 0.1)
movej(p[0.410121671861496, 0.210339564616499, 0.315788050378545, -1.283, 0.713, -0.78], a = 0.2, v = 0.2, t = 0.1)
movej(p[0.410110974666948, 0.210330381527187, 0.315800578127166, -1.283, 0.713, -0.78], a = 0.2, v = 0.2, t = 0.1)
movej(p[0.410102851794972, 0.210324581068335, 0.315811158477914, -1.283, 0.713, -0.78], a = 0.2, v = 0.2, t = 0.1)
movej(p[0.410098889483254, 0.210323241562698, 0.315819479014345, -1.283, 0.713, -0.78], a = 0.2, v = 0.2, t = 0.1)
movej(p[0.410100318634224, 0.21032628985451, 0.315826310186611, -1.283, 0.713, -0.78], a = 0.2, v = 0.2, t = 0.1)
movej(p[0.41010676599386, 0.210332088373524, 0.315832759001539, -1.283, 0.713, -0.78], a = 0.2, v = 0.2, t = 0.1)
movej(p[0.410116967208794, 0.210339060832879, 0.315838464582, -1.283, 0.713, -0.78], a = 0.2, v = 0.2, t = 0.1)
movej(p[0.41012930895274, 0.210345965125173, 0.315842942220362, -1.283, 0.713, -0.78], a = 0.2, v = 0.2, t = 0.1)
movej(p[0.410142687205128, 0.210352651548362, 0.315845220152311, -1.283, 0.713, -0.78], a = 0.2, v = 0.2, t = 0.1)
movej(p[0.410155679920608, 0.210358259077851, 0.31584742013765, -1.283, 0.713, -0.78], a = 0.2, v = 0.2, t = 0.1)
movej(p[0.410167861606301, 0.210363506225188, 0.315851229493173, -1.283, 0.713, -0.78], a = 0.2, v = 0.2, t = 0.1)
movej(p[0.410178247064914, 0.210367237855428, 0.315857919123892, -1.283, 0.713, -0.78], a = 0.2, v = 0.2, t = 0.1)
movej(p[0.410186282726821, 0.210370082157326, 0.315865955244439, -1.283, 0.713, -0.78], a = 0.2, v = 0.2, t = 0.1)
movej(p[0.410191741170698, 0.210373184150269, 0.315873240664277, -1.283, 0.713, -0.78], a = 0.2, v = 0.2, t = 0.1)
movej(p[0.410195788704876, 0.210378277977603, 0.315878988752147, -1.283, 0.713, -0.78], a = 0.2, v = 0.2, t = 0.1)
movej(p[0.410200025470691, 0.210384010206287, 0.315884541539982, -1.283, 0.713, -0.78], a = 0.2, v = 0.2, t = 0.1)
movej(p[0.410206453332096, 0.210387006201085, 0.315891376837557, -1.283, 0.713, -0.78], a = 0.2, v = 0.2, t = 0.1)
movej(p[0.410214939181018, 0.21038660560369, 0.315899394031005, -1.283, 0.713, -0.78], a = 0.2, v = 0.2, t = 0.1)
movej(p[0.410225395362537, 0.210385097543436, 0.315907595911968, -1.283, 0.713, -0.78], a = 0.2, v = 0.2, t = 0.1)
movej(p[0.410235763911588, 0.210384343129589, 0.315916598407473, -1.283, 0.713, -0.78], a = 0.2, v = 0.2, t = 0.1)
movej(p[0.410245822307316, 0.210384150259527, 0.315928182702251, -1.283, 0.713, -0.78], a = 0.2, v = 0.2, t = 0.1)
movej(p[0.41025571364714, 0.210384392188282, 0.315941784487133, -1.283, 0.713, -0.78], a = 0.2, v = 0.2, t = 0.1)
movej(p[0.4102662674845, 0.210383483328651, 0.315957136894506, -1.283, 0.713, -0.78], a = 0.2, v = 0.2, t = 0.1)
movej(p[0.410277176718199, 0.210381826076316, 0.315972513276877, -1.283, 0.713, -0.78], a = 0.2, v = 0.2, t = 0.1)
movej(p[0.410287647852255, 0.210379948317314, 0.315986254974105, -1.283, 0.713, -0.78], a = 0.2, v = 0.2, t = 0.1)
movej(p[0.410296789889643, 0.210378615760222, 0.315994459829009, -1.283, 0.713, -0.78], a = 0.2, v = 0.2, t = 0.1)
movej(p[0.410304037121647, 0.210378294524955, 0.315995171075922, -1.283, 0.713, -0.78], a = 0.2, v = 0.2, t = 0.1)
movej(p[0.410307675765614, 0.210378646845534, 0.315990333803312, -1.283, 0.713, -0.78], a = 0.2, v = 0.2, t = 0.1)
movej(p[0.41030651198762, 0.210379948042289, 0.315983918019277, -1.283, 0.713, -0.78], a = 0.2, v = 0.2, t = 0.1)
movej(p[0.410301989652996, 0.210381380185186, 0.315976605128516, -1.283, 0.713, -0.78], a = 0.2, v = 0.2, t = 0.1)
movej(p[0.410295934029633, 0.210382715291411, 0.315966986154816, -1.283, 0.713, -0.78], a = 0.2, v = 0.2, t = 0.1)
movej(p[0.410288687570913, 0.210384235948813, 0.315955538929515, -1.283, 0.713, -0.78], a = 0.2, v = 0.2, t = 0.1)
movej(p[0.410278774877806, 0.210385076635364, 0.315944977990756, -1.283, 0.713, -0.78], a = 0.2, v = 0.2, t = 0.1)
movej(p[0.410265869352903, 0.210384152937007, 0.315935994014502, -1.283, 0.713, -0.78], a = 0.2, v = 0.2, t = 0.1)
movej(p[0.410251847704739, 0.210380967423273, 0.315926457545658, -1.283, 0.713, -0.78], a = 0.2, v = 0.2, t = 0.1)
movej(p[0.410239171877655, 0.210375675494163, 0.31591399278501, -1.283, 0.713, -0.78], a = 0.2, v = 0.2, t = 0.1)
movej(p[0.410227573867422, 0.210368432273928, 0.315899185158215, -1.283, 0.713, -0.78], a = 0.2, v = 0.2, t = 0.1)
movej(p[0.410216040936664, 0.210360244004778, 0.315881789680342, -1.283, 0.713, -0.78], a = 0.2, v = 0.2, t = 0.1)
movej(p[0.410203581606432, 0.210351035759915, 0.315860864049701, -1.283, 0.713, -0.78], a = 0.2, v = 0.2, t = 0.1)
movej(p[0.410190073660697, 0.210341284616874, 0.315837297963021, -1.283, 0.713, -0.78], a = 0.2, v = 0.2, t = 0.1)
movej(p[0.410175410699937, 0.210331582204049, 0.315812699736497, -1.283, 0.713, -0.78], a = 0.2, v = 0.2, t = 0.1)
movej(p[0.410158631826209, 0.210323929067575, 0.315791027900198, -1.283, 0.713, -0.78], a = 0.2, v = 0.2, t = 0.1)
movej(p[0.410140676485552, 0.210317970081874, 0.315773076403094, -1.283, 0.713, -0.78], a = 0.2, v = 0.2, t = 0.1)
movej(p[0.410121442886951, 0.210312306124571, 0.315760897181874, -1.283, 0.713, -0.78], a = 0.2, v = 0.2, t = 0.1)
movej(p[0.410100106837649, 0.210304580276598, 0.315757071886552, -1.283, 0.713, -0.78], a = 0.2, v = 0.2, t = 0.1)
movej(p[0.410077932309557, 0.210296217593451, 0.315761306133294, -1.283, 0.713, -0.78], a = 0.2, v = 0.2, t = 0.1)
movej(p[0.410057022940849, 0.210289139386819, 0.315769514597042, -1.283, 0.713, -0.78], a = 0.2, v = 0.2, t = 0.1)
movej(p[0.410040840779548, 0.210284513897551, 0.315776741270249, -1.283, 0.713, -0.78], a = 0.2, v = 0.2, t = 0.1)
movej(p[0.410030231471678, 0.210282346727013, 0.315781982670766, -1.283, 0.713, -0.78], a = 0.2, v = 0.2, t = 0.1)
movej(p[0.410024812118061, 0.210282458882923, 0.315787192435965, -1.283, 0.713, -0.78], a = 0.2, v = 0.2, t = 0.1)
movej(p[0.410021638990684, 0.210283703151378, 0.315795234367801, -1.283, 0.713, -0.78], a = 0.2, v = 0.2, t = 0.1)
movej(p[0.410019810893528, 0.210286475008729, 0.315806974384395, -1.283, 0.713, -0.78], a = 0.2, v = 0.2, t = 0.1)
movej(p[0.410019487844791, 0.210290594021923, 0.315822630226621, -1.283, 0.713, -0.78], a = 0.2, v = 0.2, t = 0.1)
movej(p[0.410021275652138, 0.210295079694365, 0.315841356833832, -1.283, 0.713, -0.78], a = 0.2, v = 0.2, t = 0.1)
movej(p[0.410025890640305, 0.210298815682057, 0.315861253647175, -1.283, 0.713, -0.78], a = 0.2, v = 0.2, t = 0.1)
movej(p[0.410033281528217, 0.210302006456315, 0.315880656180321, -1.283, 0.713, -0.78], a = 0.2, v = 0.2, t = 0.1)
movej(p[0.410042427311924, 0.210305868307352, 0.315897323256338, -1.283, 0.713, -0.78], a = 0.2, v = 0.2, t = 0.1)
movej(p[0.410051234041394, 0.210311841791234, 0.315912383919284, -1.283, 0.713, -0.78], a = 0.2, v = 0.2, t = 0.1)
movej(p[0.410058246915118, 0.210319718011913, 0.315928315035125, -1.283, 0.713, -0.78], a = 0.2, v = 0.2, t = 0.1)
movej(p[0.410063398157763, 0.210329254440049, 0.315945934410698, -1.283, 0.713, -0.78], a = 0.2, v = 0.2, t = 0.1)
movej(p[0.410066270498793, 0.210338449976349, 0.315963891860494, -1.283, 0.713, -0.78], a = 0.2, v = 0.2, t = 0.1)
movej(p[0.410066719018762, 0.210346461936104, 0.315979938447911, -1.283, 0.713, -0.78], a = 0.2, v = 0.2, t = 0.1)
movej(p[0.410066511294298, 0.210353546717864, 0.315992896843914, -1.283, 0.713, -0.78], a = 0.2, v = 0.2, t = 0.1)
movej(p[0.410066781485242, 0.210358657120939, 0.316004103164954, -1.283, 0.713, -0.78], a = 0.2, v = 0.2, t = 0.1)
movej(p[0.410067657341964, 0.210362173028992, 0.316016022360169, -1.283, 0.713, -0.78], a = 0.2, v = 0.2, t = 0.1)
movej(p[0.410068206123819, 0.210366097821616, 0.316029897528144, -1.283, 0.713, -0.78], a = 0.2, v = 0.2, t = 0.1)
movej(p[0.410069253970028, 0.21037140409749, 0.316046350020468, -1.283, 0.713, -0.78], a = 0.2, v = 0.2, t = 0.1)
movej(p[0.410071512417546, 0.210376635525241, 0.31606373147793, -1.283, 0.713, -0.78], a = 0.2, v = 0.2, t = 0.1)
movej(p[0.410074275648478, 0.210380279849883, 0.316079866029448, -1.283, 0.713, -0.78], a = 0.2, v = 0.2, t = 0.1)
movej(p[0.410076333874205, 0.210383982316468, 0.316093611311586, -1.283, 0.713, -0.78], a = 0.2, v = 0.2, t = 0.1)
movej(p[0.41007629855227, 0.210387716864533, 0.3161039494075, -1.283, 0.713, -0.78], a = 0.2, v = 0.2, t = 0.1)
movej(p[0.41007278520753, 0.210390566564387, 0.316111068342496, -1.283, 0.713, -0.78], a = 0.2, v = 0.2, t = 0.1)
movej(p[0.410065294889882, 0.210391637330148, 0.316116190585483, -1.283, 0.713, -0.78], a = 0.2, v = 0.2, t = 0.1)
movej(p[0.410054795061062, 0.210390289971707, 0.316118700471134, -1.283, 0.713, -0.78], a = 0.2, v = 0.2, t = 0.1)
movej(p[0.410042634079641, 0.21038655839218, 0.316118990205698, -1.283, 0.713, -0.78], a = 0.2, v = 0.2, t = 0.1)
movej(p[0.410028740009679, 0.210381320140105, 0.316115700401893, -1.283, 0.713, -0.78], a = 0.2, v = 0.2, t = 0.1)
movej(p[0.410012414993397, 0.210376261145399, 0.316109739370694, -1.283, 0.713, -0.78], a = 0.2, v = 0.2, t = 0.1)
movej(p[0.409994549565559, 0.210371101330173, 0.316099157036924, -1.283, 0.713, -0.78], a = 0.2, v = 0.2, t = 0.1)
movej(p[0.409975813417345, 0.210365781442097, 0.31608531378431, -1.283, 0.713, -0.78], a = 0.2, v = 0.2, t = 0.1)
movej(p[0.409955866066174, 0.21035994601354, 0.31606994182917, -1.283, 0.713, -0.78], a = 0.2, v = 0.2, t = 0.1)
movej(p[0.40993592224147, 0.210353618843302, 0.316054677645473, -1.283, 0.713, -0.78], a = 0.2, v = 0.2, t = 0.1)
movej(p[0.409917005503882, 0.210347534668393, 0.3160393724578, -1.283, 0.713, -0.78], a = 0.2, v = 0.2, t = 0.1)
movej(p[0.409898735486527, 0.210340607468003, 0.316023691081374, -1.283, 0.713, -0.78], a = 0.2, v = 0.2, t = 0.1)
movej(p[0.409879991996682, 0.210332440784121, 0.316008901174788, -1.283, 0.713, -0.78], a = 0.2, v = 0.2, t = 0.1)
movej(p[0.409860432221162, 0.210321579632151, 0.31599628906535, -1.283, 0.713, -0.78], a = 0.2, v = 0.2, t = 0.1)
movej(p[0.409842401143652, 0.210310226007631, 0.315986764107865, -1.283, 0.713, -0.78], a = 0.2, v = 0.2, t = 0.1)
movej(p[0.409828682935428, 0.210301596988816, 0.315979051875476, -1.283, 0.713, -0.78], a = 0.2, v = 0.2, t = 0.1)
movej(p[0.40981949479625, 0.210296131575529, 0.315971886685595, -1.283, 0.713, -0.78], a = 0.2, v = 0.2, t = 0.1)
movej(p[0.409814567689705, 0.210293959278251, 0.315963585545515, -1.283, 0.713, -0.78], a = 0.2, v = 0.2, t = 0.1)
movej(p[0.409814284752012, 0.210294678776802, 0.315952727503882, -1.283, 0.713, -0.78], a = 0.2, v = 0.2, t = 0.1)
movej(p[0.409818707147962, 0.21029727038284, 0.315939034101448, -1.283, 0.713, -0.78], a = 0.2, v = 0.2, t = 0.1)
movej(p[0.409828391340083, 0.210300066467169, 0.315923973815084, -1.283, 0.713, -0.78], a = 0.2, v = 0.2, t = 0.1)
movej(p[0.409841000493995, 0.210300894765594, 0.315911870553939, -1.283, 0.713, -0.78], a = 0.2, v = 0.2, t = 0.1)
movej(p[0.409855899645762, 0.21030064559259, 0.315904303993595, -1.283, 0.713, -0.78], a = 0.2, v = 0.2, t = 0.1)
movej(p[0.409873453583323, 0.210300968441866, 0.315901558795703, -1.283, 0.713, -0.78], a = 0.2, v = 0.2, t = 0.1)
movej(p[0.409893026553288, 0.210304426103628, 0.31590081635387, -1.283, 0.713, -0.78], a = 0.2, v = 0.2, t = 0.1)
movej(p[0.409913702291708, 0.210311358457053, 0.315902398543099, -1.283, 0.713, -0.78], a = 0.2, v = 0.2, t = 0.1)
movej(p[0.409934509224426, 0.210321421149988, 0.315907694905132, -1.283, 0.713, -0.78], a = 0.2, v = 0.2, t = 0.1)
movej(p[0.409954764542267, 0.210333023535423, 0.315917784450036, -1.283, 0.713, -0.78], a = 0.2, v = 0.2, t = 0.1)
movej(p[0.409972762119953, 0.210344524866944, 0.315929030140041, -1.283, 0.713, -0.78], a = 0.2, v = 0.2, t = 0.1)
movej(p[0.409986248475124, 0.210355028955685, 0.315938582680538, -1.283, 0.713, -0.78], a = 0.2, v = 0.2, t = 0.1)
movej(p[0.409995472167152, 0.210362272626463, 0.315947985559247, -1.283, 0.713, -0.78], a = 0.2, v = 0.2, t = 0.1)
movej(p[0.41000223933626, 0.210366059530497, 0.315957086925414, -1.283, 0.713, -0.78], a = 0.2, v = 0.2, t = 0.1)
movej(p[0.410007527726084, 0.21036650999088, 0.315965503105041, -1.283, 0.713, -0.78], a = 0.2, v = 0.2, t = 0.1)
movej(p[0.41001120427421, 0.210365982948744, 0.315972606036721, -1.283, 0.713, -0.78], a = 0.2, v = 0.2, t = 0.1)
movej(p[0.4100132284167, 0.210365227941527, 0.315980347321388, -1.283, 0.713, -0.78], a = 0.2, v = 0.2, t = 0.1)
movej(p[0.410015207283227, 0.210365947053025, 0.315987907150547, -1.283, 0.713, -0.78], a = 0.2, v = 0.2, t = 0.1)
movej(p[0.410018010471958, 0.210368747550623, 0.315993054135989, -1.283, 0.713, -0.78], a = 0.2, v = 0.2, t = 0.1)
movej(p[0.410022963590193, 0.210373222387368, 0.315994602335865, -1.283, 0.713, -0.78], a = 0.2, v = 0.2, t = 0.1)
movej(p[0.410029455532301, 0.210377398398554, 0.315994603831059, -1.283, 0.713, -0.78], a = 0.2, v = 0.2, t = 0.1)
movej(p[0.410037005716848, 0.210380268593824, 0.315996219316258, -1.283, 0.713, -0.78], a = 0.2, v = 0.2, t = 0.1)
movej(p[0.410044685419752, 0.21038260326109, 0.316000441325147, -1.283, 0.713, -0.78], a = 0.2, v = 0.2, t = 0.1)
movej(p[0.410052175969954, 0.210384664003652, 0.316004985041221, -1.283, 0.713, -0.78], a = 0.2, v = 0.2, t = 0.1)
movej(p[0.410058715912923, 0.210385596531247, 0.31600901340705, -1.283, 0.713, -0.78], a = 0.2, v = 0.2, t = 0.1)
movej(p[0.410064606908338, 0.210384746533708, 0.316011735486072, -1.283, 0.713, -0.78], a = 0.2, v = 0.2, t = 0.1)
movej(p[0.410069960071694, 0.210382837550867, 0.316011946226646, -1.283, 0.713, -0.78], a = 0.2, v = 0.2, t = 0.1)
movej(p[0.410074833473081, 0.210380290671671, 0.316005774679409, -1.283, 0.713, -0.78], a = 0.2, v = 0.2, t = 0.1)
movej(p[0.41008015853768, 0.210378019409901, 0.315994337672328, -1.283, 0.713, -0.78], a = 0.2, v = 0.2, t = 0.1)
movej(p[0.410086349173569, 0.210376072429704, 0.315980143713705, -1.283, 0.713, -0.78], a = 0.2, v = 0.2, t = 0.1)
movej(p[0.410092733047921, 0.210373402872455, 0.315967477945613, -1.283, 0.713, -0.78], a = 0.2, v = 0.2, t = 0.1)
movej(p[0.410098130474813, 0.210368191786757, 0.315958029840734, -1.283, 0.713, -0.78], a = 0.2, v = 0.2, t = 0.1)
movej(p[0.410102381749074, 0.21035885936227, 0.315951354231073, -1.283, 0.713, -0.78], a = 0.2, v = 0.2, t = 0.1)
movej(p[0.410105764191978, 0.21034669681405, 0.31594604248091, -1.283, 0.713, -0.78], a = 0.2, v = 0.2, t = 0.1)
movej(p[0.410107175702099, 0.21033348940737, 0.31594164709572, -1.283, 0.713, -0.78], a = 0.2, v = 0.2, t = 0.1)
movej(p[0.41010568754776, 0.21032228025982, 0.315937645858302, -1.283, 0.713, -0.78], a = 0.2, v = 0.2, t = 0.1)
movej(p[0.410101796022019, 0.210312656874593, 0.31593457748248, -1.283, 0.713, -0.78], a = 0.2, v = 0.2, t = 0.1)
movej(p[0.410095445022444, 0.210304446701405, 0.31593054900552, -1.283, 0.713, -0.78], a = 0.2, v = 0.2, t = 0.1)
movej(p[0.410086067162435, 0.210295908651499, 0.315927710709122, -1.283, 0.713, -0.78], a = 0.2, v = 0.2, t = 0.1)
movej(p[0.410074399217104, 0.210288012229976, 0.315926577895422, -1.283, 0.713, -0.78], a = 0.2, v = 0.2, t = 0.1)
movej(p[0.410060322140472, 0.210280613710375, 0.315926478350348, -1.283, 0.713, -0.78], a = 0.2, v = 0.2, t = 0.1)
movej(p[0.410040625693478, 0.210273125588751, 0.315923606006472, -1.283, 0.713, -0.78], a = 0.2, v = 0.2, t = 0.1)
movej(p[0.410017161986812, 0.210265825652813, 0.315916580464584, -1.283, 0.713, -0.78], a = 0.2, v = 0.2, t = 0.1)
movej(p[0.409993642708323, 0.210257774863688, 0.315906454566706, -1.283, 0.713, -0.78], a = 0.2, v = 0.2, t = 0.1)
movej(p[0.40997507650206, 0.210250137139857, 0.315892535563558, -1.283, 0.713, -0.78], a = 0.2, v = 0.2, t = 0.1)
movej(p[0.409959766516327, 0.210244410827734, 0.315876487163751, -1.283, 0.713, -0.78], a = 0.2, v = 0.2, t = 0.1)
movej(p[0.409947853146428, 0.210240829483716, 0.315859686924388, -1.283, 0.713, -0.78], a = 0.2, v = 0.2, t = 0.1)
movej(p[0.409940108133431, 0.210238459396496, 0.315844549582704, -1.283, 0.713, -0.78], a = 0.2, v = 0.2, t = 0.1)
movej(p[0.409935209691139, 0.210237878101978, 0.31583169251664, -1.283, 0.713, -0.78], a = 0.2, v = 0.2, t = 0.1)
movej(p[0.409930996070283, 0.210240851841391, 0.315819775406076, -1.283, 0.713, -0.78], a = 0.2, v = 0.2, t = 0.1)
movej(p[0.409927393420059, 0.210248075889633, 0.315809851888939, -1.283, 0.713, -0.78], a = 0.2, v = 0.2, t = 0.1)
movej(p[0.409925236580178, 0.210256494371994, 0.315803042828029, -1.283, 0.713, -0.78], a = 0.2, v = 0.2, t = 0.1)
movej(p[0.409924632265259, 0.210264201993452, 0.315799329625647, -1.283, 0.713, -0.78], a = 0.2, v = 0.2, t = 0.1)
movej(p[0.409925577982151, 0.210271195487238, 0.315797248558077, -1.283, 0.713, -0.78], a = 0.2, v = 0.2, t = 0.1)
movej(p[0.409929644842461, 0.210278404855272, 0.315793648189656, -1.283, 0.713, -0.78], a = 0.2, v = 0.2, t = 0.1)
movej(p[0.409935969085455, 0.210284930509821, 0.315789489667773, -1.283, 0.713, -0.78], a = 0.2, v = 0.2, t = 0.1)
movej(p[0.409939486478702, 0.210289006010844, 0.315785126895586, -1.283, 0.713, -0.78], a = 0.2, v = 0.2, t = 0.1)
movej(p[0.409939514771624, 0.210290671226217, 0.315783151205511, -1.283, 0.713, -0.78], a = 0.2, v = 0.2, t = 0.1)
movej(p[0.409937143985468, 0.210290827358688, 0.315781601929986, -1.283, 0.713, -0.78], a = 0.2, v = 0.2, t = 0.1)
movej(p[0.409936589524259, 0.210291476248272, 0.315777037913326, -1.283, 0.713, -0.78], a = 0.2, v = 0.2, t = 0.1)
movej(p[0.409937607009746, 0.210292379198192, 0.315768117433085, -1.283, 0.713, -0.78], a = 0.2, v = 0.2, t = 0.1)
movej(p[0.409941102968698, 0.210293790524432, 0.315759039486001, -1.283, 0.713, -0.78], a = 0.2, v = 0.2, t = 0.1)
movej(p[0.409949649194843, 0.210296023146876, 0.315756547717614, -1.283, 0.713, -0.78], a = 0.2, v = 0.2, t = 0.1)
movej(p[0.409963039701847, 0.210299670487569, 0.315761901002778, -1.283, 0.713, -0.78], a = 0.2, v = 0.2, t = 0.1)
movej(p[0.409979901002917, 0.210304404414693, 0.315771219496068, -1.283, 0.713, -0.78], a = 0.2, v = 0.2, t = 0.1)
movej(p[0.409997811743273, 0.210309853615708, 0.315781975356898, -1.283, 0.713, -0.78], a = 0.2, v = 0.2, t = 0.1)
movej(p[0.410014085146105, 0.210315442577749, 0.315791918491645, -1.283, 0.713, -0.78], a = 0.2, v = 0.2, t = 0.1)
movej(p[0.410027346823132, 0.210321906370884, 0.315802389406875, -1.283, 0.713, -0.78], a = 0.2, v = 0.2, t = 0.1)
movej(p[0.410036861109426, 0.210328972619917, 0.315813874985393, -1.283, 0.713, -0.78], a = 0.2, v = 0.2, t = 0.1)
movej(p[0.410044032259453, 0.21033704869499, 0.315825224234166, -1.283, 0.713, -0.78], a = 0.2, v = 0.2, t = 0.1)
movej(p[0.410050689957626, 0.210344563484949, 0.315835824837352, -1.283, 0.713, -0.78], a = 0.2, v = 0.2, t = 0.1)
movej(p[0.410058323254897, 0.210349096837469, 0.315844536206515, -1.283, 0.713, -0.78], a = 0.2, v = 0.2, t = 0.1)
movej(p[0.410067806182872, 0.210350440037035, 0.315851403647156, -1.283, 0.713, -0.78], a = 0.2, v = 0.2, t = 0.1)
movej(p[0.410077642568897, 0.210350800535486, 0.315856102576804, -1.283, 0.713, -0.78], a = 0.2, v = 0.2, t = 0.1)
movej(p[0.410084811585952, 0.210352298843586, 0.315858775754744, -1.283, 0.713, -0.78], a = 0.2, v = 0.2, t = 0.1)
movej(p[0.410088228628945, 0.2103538618384, 0.31585970598826, -1.283, 0.713, -0.78], a = 0.2, v = 0.2, t = 0.1)
movej(p[0.41008878471177, 0.210353616885991, 0.315859103051937, -1.283, 0.713, -0.78], a = 0.2, v = 0.2, t = 0.1)
movej(p[0.410088763616427, 0.210350928716217, 0.315860660572803, -1.283, 0.713, -0.78], a = 0.2, v = 0.2, t = 0.1)
movej(p[0.410089103821104, 0.21034696249197, 0.315869333533716, -1.283, 0.713, -0.78], a = 0.2, v = 0.2, t = 0.1)
movej(p[0.410089638667247, 0.210341960020024, 0.315883600986153, -1.283, 0.713, -0.78], a = 0.2, v = 0.2, t = 0.1)
movej(p[0.410089816038911, 0.210337321394263, 0.315893971877163, -1.283, 0.713, -0.78], a = 0.2, v = 0.2, t = 0.1)
movej(p[0.410090557897847, 0.210334154864511, 0.315895993286485, -1.283, 0.713, -0.78], a = 0.2, v = 0.2, t = 0.1)
movej(p[0.410092102935445, 0.210332276892993, 0.315893975772471, -1.283, 0.713, -0.78], a = 0.2, v = 0.2, t = 0.1)
movej(p[0.410093609792658, 0.210329650326539, 0.3158982274639, -1.283, 0.713, -0.78], a = 0.2, v = 0.2, t = 0.1)
movej(p[0.410093524465006, 0.210325635793178, 0.315908098024273, -1.283, 0.713, -0.78], a = 0.2, v = 0.2, t = 0.1)
movej(p[0.410090777828837, 0.210320801086291, 0.315920169395035, -1.283, 0.713, -0.78], a = 0.2, v = 0.2, t = 0.1)
movej(p[0.410085698936464, 0.210315804337511, 0.315931449580977, -1.283, 0.713, -0.78], a = 0.2, v = 0.2, t = 0.1)
movej(p[0.410078867313209, 0.210310344453271, 0.315941198377353, -1.283, 0.713, -0.78], a = 0.2, v = 0.2, t = 0.1)
movej(p[0.410071661189882, 0.210303942965355, 0.315947370557281, -1.283, 0.713, -0.78], a = 0.2, v = 0.2, t = 0.1)
movej(p[0.410064083905707, 0.210296996927067, 0.315949585517919, -1.283, 0.713, -0.78], a = 0.2, v = 0.2, t = 0.1)
movej(p[0.410056583475371, 0.210291059937115, 0.315948001764439, -1.283, 0.713, -0.78], a = 0.2, v = 0.2, t = 0.1)
movej(p[0.410049167045725, 0.210289109072069, 0.315943187781693, -1.283, 0.713, -0.78], a = 0.2, v = 0.2, t = 0.1)
movej(p[0.410041975752249, 0.210291619011048, 0.315935568485566, -1.283, 0.713, -0.78], a = 0.2, v = 0.2, t = 0.1)
movej(p[0.410035524822381, 0.210297344533811, 0.315924760614734, -1.283, 0.713, -0.78], a = 0.2, v = 0.2, t = 0.1)
movej(p[0.41002831324665, 0.210302728999722, 0.315913528814552, -1.283, 0.713, -0.78], a = 0.2, v = 0.2, t = 0.1)
movej(p[0.410019952351384, 0.210306565509171, 0.315902055831043, -1.283, 0.713, -0.78], a = 0.2, v = 0.2, t = 0.1)
movej(p[0.41001075225759, 0.210308248117711, 0.315891828535178, -1.283, 0.713, -0.78], a = 0.2, v = 0.2, t = 0.1)
movej(p[0.410001688302595, 0.210309655890231, 0.315882003262186, -1.283, 0.713, -0.78], a = 0.2, v = 0.2, t = 0.1)
movej(p[0.409993184055722, 0.210310951592494, 0.31587047514097, -1.283, 0.713, -0.78], a = 0.2, v = 0.2, t = 0.1)
movej(p[0.409986499501977, 0.210312238729204, 0.315854781276777, -1.283, 0.713, -0.78], a = 0.2, v = 0.2, t = 0.1)
movej(p[0.409982735676951, 0.210311912478255, 0.315837152653164, -1.283, 0.713, -0.78], a = 0.2, v = 0.2, t = 0.1)
movej(p[0.409984229278033, 0.210309597615902, 0.315820972360797, -1.283, 0.713, -0.78], a = 0.2, v = 0.2, t = 0.1)
movej(p[0.409992021357008, 0.210304430595662, 0.315809795691879, -1.283, 0.713, -0.78], a = 0.2, v = 0.2, t = 0.1)
movej(p[0.410005369684131, 0.210297948766832, 0.315804101967963, -1.283, 0.713, -0.78], a = 0.2, v = 0.2, t = 0.1)
movej(p[0.410020784746285, 0.210290780244889, 0.315802079978362, -1.283, 0.713, -0.78], a = 0.2, v = 0.2, t = 0.1)
movej(p[0.410034260948194, 0.21028663321325, 0.315802807567327, -1.283, 0.713, -0.78], a = 0.2, v = 0.2, t = 0.1)
movej(p[0.410046472934817, 0.210285818642547, 0.315802691316367, -1.283, 0.713, -0.78], a = 0.2, v = 0.2, t = 0.1)
movej(p[0.410058763471774, 0.21028939101584, 0.31580228653078, -1.283, 0.713, -0.78], a = 0.2, v = 0.2, t = 0.1)
movej(p[0.410071616679574, 0.21029628923323, 0.315802622321025, -1.283, 0.713, -0.78], a = 0.2, v = 0.2, t = 0.1)
movej(p[0.41008490386199, 0.210307329487835, 0.315803126763966, -1.283, 0.713, -0.78], a = 0.2, v = 0.2, t = 0.1)
movej(p[0.410097400809594, 0.210321241034299, 0.315801910849675, -1.283, 0.713, -0.78], a = 0.2, v = 0.2, t = 0.1)
movej(p[0.410108719539462, 0.210336134880108, 0.315798391741523, -1.283, 0.713, -0.78], a = 0.2, v = 0.2, t = 0.1)
movej(p[0.410118639139702, 0.210348234158603, 0.315794046595956, -1.283, 0.713, -0.78], a = 0.2, v = 0.2, t = 0.1)
movej(p[0.410127748863998, 0.210356296110503, 0.315791261624717, -1.283, 0.713, -0.78], a = 0.2, v = 0.2, t = 0.1)
movej(p[0.410136054945107, 0.210360717162637, 0.31578962914665, -1.283, 0.713, -0.78], a = 0.2, v = 0.2, t = 0.1)
movej(p[0.410142549432361, 0.210363544794742, 0.315788712493503, -1.283, 0.713, -0.78], a = 0.2, v = 0.2, t = 0.1)
movej(p[0.410146510488879, 0.210365463351005, 0.315786552223121, -1.283, 0.713, -0.78], a = 0.2, v = 0.2, t = 0.1)
movej(p[0.410147263610755, 0.210364977628338, 0.315781736578727, -1.283, 0.713, -0.78], a = 0.2, v = 0.2, t = 0.1)
movej(p[0.410146962501082, 0.21036242302221, 0.315773632164035, -1.283, 0.713, -0.78], a = 0.2, v = 0.2, t = 0.1)
movej(p[0.410147905265031, 0.210359492873553, 0.31576397227796, -1.283, 0.713, -0.78], a = 0.2, v = 0.2, t = 0.1)
movej(p[0.410150548209356, 0.210357030352343, 0.315758505805919, -1.283, 0.713, -0.78], a = 0.2, v = 0.2, t = 0.1)
movej(p[0.410152941134456, 0.210352504956544, 0.315759830226294, -1.283, 0.713, -0.78], a = 0.2, v = 0.2, t = 0.1)
movej(p[0.410155626614231, 0.210344886523419, 0.315767847059154, -1.283, 0.713, -0.78], a = 0.2, v = 0.2, t = 0.1)
movej(p[0.410157513217414, 0.210335081819145, 0.315780193337319, -1.283, 0.713, -0.78], a = 0.2, v = 0.2, t = 0.1)
movej(p[0.410159135237415, 0.210327098805038, 0.315795287208191, -1.283, 0.713, -0.78], a = 0.2, v = 0.2, t = 0.1)
movej(p[0.410160215155551, 0.210323135763936, 0.315810098638609, -1.283, 0.713, -0.78], a = 0.2, v = 0.2, t = 0.1)
movej(p[0.410162427913133, 0.21032296257997, 0.315819668001242, -1.283, 0.713, -0.78], a = 0.2, v = 0.2, t = 0.1)
movej(p[0.41016559737524, 0.210323209734278, 0.315825080233471, -1.283, 0.713, -0.78], a = 0.2, v = 0.2, t = 0.1)
movej(p[0.410168760176824, 0.210322405303016, 0.315827753577161, -1.283, 0.713, -0.78], a = 0.2, v = 0.2, t = 0.1)
movej(p[0.41017224334188, 0.210321369151714, 0.315831055843, -1.283, 0.713, -0.78], a = 0.2, v = 0.2, t = 0.1)
movej(p[0.410175303530339, 0.210322686937807, 0.31583539522722, -1.283, 0.713, -0.78], a = 0.2, v = 0.2, t = 0.1)
movej(p[0.410173320387154, 0.21032471395461, 0.315841696684511, -1.283, 0.713, -0.78], a = 0.2, v = 0.2, t = 0.1)
movej(p[0.410166209137193, 0.210325871464747, 0.315848668211982, -1.283, 0.713, -0.78], a = 0.2, v = 0.2, t = 0.1)
movej(p[0.410155822784266, 0.210324968282333, 0.315855108700116, -1.283, 0.713, -0.78], a = 0.2, v = 0.2, t = 0.1)
movej(p[0.410144734611428, 0.210322482102366, 0.315858867077596, -1.283, 0.713, -0.78], a = 0.2, v = 0.2, t = 0.1)
movej(p[0.410132632133736, 0.210318807826037, 0.315859602496642, -1.283, 0.713, -0.78], a = 0.2, v = 0.2, t = 0.1)
movej(p[0.410119394179111, 0.210313990026042, 0.315858611140728, -1.283, 0.713, -0.78], a = 0.2, v = 0.2, t = 0.1)
movej(p[0.410107311510598, 0.210309035949489, 0.315856604442164, -1.283, 0.713, -0.78], a = 0.2, v = 0.2, t = 0.1)
movej(p[0.41009588155163, 0.210303323932929, 0.315854686946715, -1.283, 0.713, -0.78], a = 0.2, v = 0.2, t = 0.1)
movej(p[0.410083667445354, 0.210296478872064, 0.315850091953067, -1.283, 0.713, -0.78], a = 0.2, v = 0.2, t = 0.1)
movej(p[0.410070417147543, 0.210288569811433, 0.315839869847762, -1.283, 0.713, -0.78], a = 0.2, v = 0.2, t = 0.1)
movej(p[0.41005557523177, 0.210280369448988, 0.315825064594574, -1.283, 0.713, -0.78], a = 0.2, v = 0.2, t = 0.1)
movej(p[0.410039021094755, 0.210274483221109, 0.315808989501385, -1.283, 0.713, -0.78], a = 0.2, v = 0.2, t = 0.1)
movej(p[0.410021238941287, 0.210271720175762, 0.315794379458523, -1.283, 0.713, -0.78], a = 0.2, v = 0.2, t = 0.1)
movej(p[0.410004726292719, 0.210270557580414, 0.315780972323433, -1.283, 0.713, -0.78], a = 0.2, v = 0.2, t = 0.1)
movej(p[0.409989878526152, 0.210267974533301, 0.315768239945116, -1.283, 0.713, -0.78], a = 0.2, v = 0.2, t = 0.1)
movej(p[0.409975780888186, 0.210263593117518, 0.31575605347083, -1.283, 0.713, -0.78], a = 0.2, v = 0.2, t = 0.1)
movej(p[0.409962402705018, 0.210258539334256, 0.315743655129213, -1.283, 0.713, -0.78], a = 0.2, v = 0.2, t = 0.1)
movej(p[0.409951835850228, 0.21025469082835, 0.315731117140732, -1.283, 0.713, -0.78], a = 0.2, v = 0.2, t = 0.1)
movej(p[0.40994484496829, 0.210252286474725, 0.31571845286944, -1.283, 0.713, -0.78], a = 0.2, v = 0.2, t = 0.1)
movej(p[0.409942548885941, 0.210251043889523, 0.315709653600728, -1.283, 0.713, -0.78], a = 0.2, v = 0.2, t = 0.1)
movej(p[0.409943936438481, 0.210251338315344, 0.315706253184961, -1.283, 0.713, -0.78], a = 0.2, v = 0.2, t = 0.1)
movej(p[0.409948300147507, 0.210252956639162, 0.315710075605733, -1.283, 0.713, -0.78], a = 0.2, v = 0.2, t = 0.1)
movej(p[0.409955127493407, 0.210257083473095, 0.315719551964456, -1.283, 0.713, -0.78], a = 0.2, v = 0.2, t = 0.1)
movej(p[0.409964590523234, 0.210263169457145, 0.31573322024184, -1.283, 0.713, -0.78], a = 0.2, v = 0.2, t = 0.1)
movej(p[0.409976484255132, 0.210270976894663, 0.315748866813539, -1.283, 0.713, -0.78], a = 0.2, v = 0.2, t = 0.1)
movej(p[0.409989636715959, 0.210280454051065, 0.315764668495941, -1.283, 0.713, -0.78], a = 0.2, v = 0.2, t = 0.1)
movej(p[0.410003472016988, 0.210291294305197, 0.315780631742064, -1.283, 0.713, -0.78], a = 0.2, v = 0.2, t = 0.1)
movej(p[0.410017127131159, 0.210303094568792, 0.315796777170861, -1.283, 0.713, -0.78], a = 0.2, v = 0.2, t = 0.1)
movej(p[0.410030897597604, 0.210314527492027, 0.315811914815499, -1.283, 0.713, -0.78], a = 0.2, v = 0.2, t = 0.1)
movej(p[0.410045027252778, 0.210325830164353, 0.31582324882291, -1.283, 0.713, -0.78], a = 0.2, v = 0.2, t = 0.1)
movej(p[0.410059063400085, 0.210336323107745, 0.315830466130145, -1.283, 0.713, -0.78], a = 0.2, v = 0.2, t = 0.1)
movej(p[0.41007186111533, 0.210345652367082, 0.315834143356104, -1.283, 0.713, -0.78], a = 0.2, v = 0.2, t = 0.1)
movej(p[0.410081953983813, 0.210353441562035, 0.315835794541665, -1.283, 0.713, -0.78], a = 0.2, v = 0.2, t = 0.1)
movej(p[0.410088531690893, 0.210361292267221, 0.315837614874503, -1.283, 0.713, -0.78], a = 0.2, v = 0.2, t = 0.1)
movej(p[0.410091750658772, 0.210368572003805, 0.315840654931421, -1.283, 0.713, -0.78], a = 0.2, v = 0.2, t = 0.1)
movej(p[0.410091711908722, 0.210373926414251, 0.315843964977526, -1.283, 0.713, -0.78], a = 0.2, v = 0.2, t = 0.1)
movej(p[0.410089314616015, 0.210377226350553, 0.315846245991791, -1.283, 0.713, -0.78], a = 0.2, v = 0.2, t = 0.1)
movej(p[0.410084294563571, 0.210379329856354, 0.315844091149384, -1.283, 0.713, -0.78], a = 0.2, v = 0.2, t = 0.1)
movej(p[0.410078291182917, 0.210379364186171, 0.315837546151355, -1.283, 0.713, -0.78], a = 0.2, v = 0.2, t = 0.1)
movej(p[0.410072146944198, 0.210375612810382, 0.315829251121021, -1.283, 0.713, -0.78], a = 0.2, v = 0.2, t = 0.1)
movej(p[0.410066305651526, 0.210368119576796, 0.315824056570958, -1.283, 0.713, -0.78], a = 0.2, v = 0.2, t = 0.1)
movej(p[0.410059220579876, 0.210359175508102, 0.315825259022174, -1.283, 0.713, -0.78], a = 0.2, v = 0.2, t = 0.1)
movej(p[0.41005023110258, 0.210351094060062, 0.315833792769505, -1.283, 0.713, -0.78], a = 0.2, v = 0.2, t = 0.1)
movej(p[0.410039278017639, 0.210345199021201, 0.315847745189084, -1.283, 0.713, -0.78], a = 0.2, v = 0.2, t = 0.1)
movej(p[0.410028722051871, 0.210340446373838, 0.315864906316662, -1.283, 0.713, -0.78], a = 0.2, v = 0.2, t = 0.1)
movej(p[0.410021663259027, 0.210333747463094, 0.315883424784429, -1.283, 0.713, -0.78], a = 0.2, v = 0.2, t = 0.1)
movej(p[0.410017237921701, 0.210325468384107, 0.315900444781187, -1.283, 0.713, -0.78], a = 0.2, v = 0.2, t = 0.1)
movej(p[0.41001327576103, 0.210315947623408, 0.31591353798601, -1.283, 0.713, -0.78], a = 0.2, v = 0.2, t = 0.1)
movej(p[0.410007228393969, 0.210304527274039, 0.315919658652472, -1.283, 0.713, -0.78], a = 0.2, v = 0.2, t = 0.1)
movej(p[0.410000566341664, 0.210292296004156, 0.315921778604626, -1.283, 0.713, -0.78], a = 0.2, v = 0.2, t = 0.1)
movej(p[0.409995937393152, 0.210284554628562, 0.315922892070193, -1.283, 0.713, -0.78], a = 0.2, v = 0.2, t = 0.1)
movej(p[0.409994733917666, 0.210285027556344, 0.315925415802958, -1.283, 0.713, -0.78], a = 0.2, v = 0.2, t = 0.1)
movej(p[0.409997323427039, 0.210292442573429, 0.315928270799954, -1.283, 0.713, -0.78], a = 0.2, v = 0.2, t = 0.1)
movej(p[0.410004244400961, 0.210303657357773, 0.315931982082896, -1.283, 0.713, -0.78], a = 0.2, v = 0.2, t = 0.1)
movej(p[0.410016025075604, 0.210318435375732, 0.315936619547304, -1.283, 0.713, -0.78], a = 0.2, v = 0.2, t = 0.1)
movej(p[0.410031755664289, 0.210335961022454, 0.315940814439393, -1.283, 0.713, -0.78], a = 0.2, v = 0.2, t = 0.1)
movej(p[0.410049166712376, 0.210355724733096, 0.315944655445793, -1.283, 0.713, -0.78], a = 0.2, v = 0.2, t = 0.1)
movej(p[0.410065567341155, 0.210375277232498, 0.315946530252652, -1.283, 0.713, -0.78], a = 0.2, v = 0.2, t = 0.1)
movej(p[0.410082592644124, 0.210392034484207, 0.315946471507472, -1.283, 0.713, -0.78], a = 0.2, v = 0.2, t = 0.1)
movej(p[0.410100468697297, 0.210403919668472, 0.315944863179472, -1.283, 0.713, -0.78], a = 0.2, v = 0.2, t = 0.1)
movej(p[0.410117163352601, 0.21041130740318, 0.315942702569334, -1.283, 0.713, -0.78], a = 0.2, v = 0.2, t = 0.1)
movej(p[0.410129972741029, 0.210414529282401, 0.315942812398221, -1.283, 0.713, -0.78], a = 0.2, v = 0.2, t = 0.1)
movej(p[0.410138013244728, 0.210415363657113, 0.3159439877212, -1.283, 0.713, -0.78], a = 0.2, v = 0.2, t = 0.1)
movej(p[0.410141588866992, 0.210414688460617, 0.315944329735986, -1.283, 0.713, -0.78], a = 0.2, v = 0.2, t = 0.1)
movej(p[0.410141652518559, 0.210414680447357, 0.3159394455393, -1.283, 0.713, -0.78], a = 0.2, v = 0.2, t = 0.1)
movej(p[0.410138404775547, 0.210414487546303, 0.315928367758317, -1.283, 0.713, -0.78], a = 0.2, v = 0.2, t = 0.1)
movej(p[0.410130489651221, 0.210411812017221, 0.315908967120208, -1.283, 0.713, -0.78], a = 0.2, v = 0.2, t = 0.1)
movej(p[0.410119128238758, 0.210407475037875, 0.315886919304715, -1.283, 0.713, -0.78], a = 0.2, v = 0.2, t = 0.1)
movej(p[0.41010549503168, 0.210402458098936, 0.315870129662687, -1.283, 0.713, -0.78], a = 0.2, v = 0.2, t = 0.1)
movej(p[0.410094154757284, 0.210397424482077, 0.315865735037341, -1.283, 0.713, -0.78], a = 0.2, v = 0.2, t = 0.1)
movej(p[0.410086561398072, 0.21039139096677, 0.315870360407155, -1.283, 0.713, -0.78], a = 0.2, v = 0.2, t = 0.1)
movej(p[0.410083888427707, 0.210385021248845, 0.315875286975229, -1.283, 0.713, -0.78], a = 0.2, v = 0.2, t = 0.1)
movej(p[0.410085691212204, 0.210379557093788, 0.315875891613606, -1.283, 0.713, -0.78], a = 0.2, v = 0.2, t = 0.1)
movej(p[0.410089485832215, 0.210375084555775, 0.315872030804533, -1.283, 0.713, -0.78], a = 0.2, v = 0.2, t = 0.1)
movej(p[0.410093265759695, 0.210370323726509, 0.3158658710004, -1.283, 0.713, -0.78], a = 0.2, v = 0.2, t = 0.1)
movej(p[0.41009554210568, 0.21036506636046, 0.315860403536437, -1.283, 0.713, -0.78], a = 0.2, v = 0.2, t = 0.1)
movej(p[0.410095445669461, 0.210359750411896, 0.315859086662517, -1.283, 0.713, -0.78], a = 0.2, v = 0.2, t = 0.1)
movej(p[0.410092463657917, 0.210354994972966, 0.3158600206431, -1.283, 0.713, -0.78], a = 0.2, v = 0.2, t = 0.1)
movej(p[0.41008771045659, 0.210350815915697, 0.31585943325524, -1.283, 0.713, -0.78], a = 0.2, v = 0.2, t = 0.1)
movej(p[0.410081536717576, 0.210346339988728, 0.315855680810658, -1.283, 0.713, -0.78], a = 0.2, v = 0.2, t = 0.1)
movej(p[0.410073297052262, 0.210339665649436, 0.315848667506405, -1.283, 0.713, -0.78], a = 0.2, v = 0.2, t = 0.1)
movej(p[0.410061755605804, 0.210328301466007, 0.315839105788483, -1.283, 0.713, -0.78], a = 0.2, v = 0.2, t = 0.1)
movej(p[0.410047758909297, 0.210313471948154, 0.315826885212058, -1.283, 0.713, -0.78], a = 0.2, v = 0.2, t = 0.1)
movej(p[0.410032231494091, 0.210298393864451, 0.315812828721071, -1.283, 0.713, -0.78], a = 0.2, v = 0.2, t = 0.1)
movej(p[0.410017804376866, 0.210287172918783, 0.315797984121248, -1.283, 0.713, -0.78], a = 0.2, v = 0.2, t = 0.1)
movej(p[0.410005400686825, 0.210279773624164, 0.315784023907478, -1.283, 0.713, -0.78], a = 0.2, v = 0.2, t = 0.1)
movej(p[0.40999458129259, 0.210274662811879, 0.315770665301893, -1.283, 0.713, -0.78], a = 0.2, v = 0.2, t = 0.1)
movej(p[0.409981666811793, 0.210267876548899, 0.315756628198506, -1.283, 0.713, -0.78], a = 0.2, v = 0.2, t = 0.1)
movej(p[0.409964415184537, 0.210257787145775, 0.315741305588688, -1.283, 0.713, -0.78], a = 0.2, v = 0.2, t = 0.1)
movej(p[0.409943375644921, 0.210244075599841, 0.315724800952889, -1.283, 0.713, -0.78], a = 0.2, v = 0.2, t = 0.1)
movej(p[0.409923674642536, 0.210229666757659, 0.315705189511331, -1.283, 0.713, -0.78], a = 0.2, v = 0.2, t = 0.1)
movej(p[0.409907025313478, 0.21021724095633, 0.315685434035476, -1.283, 0.713, -0.78], a = 0.2, v = 0.2, t = 0.1)
movej(p[0.409894086356745, 0.21021014035206, 0.315668067001686, -1.283, 0.713, -0.78], a = 0.2, v = 0.2, t = 0.1)
movej(p[0.409885834575046, 0.210209132672423, 0.315659101282889, -1.283, 0.713, -0.78], a = 0.2, v = 0.2, t = 0.1)
movej(p[0.409882393582078, 0.21021432249105, 0.315656261854247, -1.283, 0.713, -0.78], a = 0.2, v = 0.2, t = 0.1)
movej(p[0.409884028714608, 0.210222089570671, 0.315660335498778, -1.283, 0.713, -0.78], a = 0.2, v = 0.2, t = 0.1)
movej(p[0.409889027043455, 0.210229288947602, 0.315673692889599, -1.283, 0.713, -0.78], a = 0.2, v = 0.2, t = 0.1)
movej(p[0.409896130657901, 0.210234228870897, 0.315694947198542, -1.283, 0.713, -0.78], a = 0.2, v = 0.2, t = 0.1)
movej(p[0.409903941701843, 0.210238569785584, 0.315719328409816, -1.283, 0.713, -0.78], a = 0.2, v = 0.2, t = 0.1)
movej(p[0.409912999857948, 0.210244138957618, 0.315737698097479, -1.283, 0.713, -0.78], a = 0.2, v = 0.2, t = 0.1)
movej(p[0.4099248749496, 0.210250825834831, 0.315748456848586, -1.283, 0.713, -0.78], a = 0.2, v = 0.2, t = 0.1)
movej(p[0.409939408741478, 0.210257351607177, 0.315754464231539, -1.283, 0.713, -0.78], a = 0.2, v = 0.2, t = 0.1)
movej(p[0.409954755208059, 0.210264134220452, 0.315759637131081, -1.283, 0.713, -0.78], a = 0.2, v = 0.2, t = 0.1)
movej(p[0.409969899482535, 0.210271189510861, 0.315764968316861, -1.283, 0.713, -0.78], a = 0.2, v = 0.2, t = 0.1)
movej(p[0.409984975407752, 0.210277559406651, 0.315772422995894, -1.283, 0.713, -0.78], a = 0.2, v = 0.2, t = 0.1)
movej(p[0.41000009729844, 0.210282961735145, 0.315783402752898, -1.283, 0.713, -0.78], a = 0.2, v = 0.2, t = 0.1)
movej(p[0.410014684354014, 0.21028836664743, 0.315799867187716, -1.283, 0.713, -0.78], a = 0.2, v = 0.2, t = 0.1)
movej(p[0.410028333273769, 0.210295459276232, 0.315820162812446, -1.283, 0.713, -0.78], a = 0.2, v = 0.2, t = 0.1)
movej(p[0.410040181688938, 0.210304141752639, 0.315841377481697, -1.283, 0.713, -0.78], a = 0.2, v = 0.2, t = 0.1)
movej(p[0.410050256544994, 0.210311513289234, 0.315858642437175, -1.283, 0.713, -0.78], a = 0.2, v = 0.2, t = 0.1)
movej(p[0.410057999427208, 0.210316116613033, 0.315871845565366, -1.283, 0.713, -0.78], a = 0.2, v = 0.2, t = 0.1)
movej(p[0.410063749021435, 0.210319105449752, 0.315882845852785, -1.283, 0.713, -0.78], a = 0.2, v = 0.2, t = 0.1)
movej(p[0.410067780523482, 0.210323497623701, 0.315893655525733, -1.283, 0.713, -0.78], a = 0.2, v = 0.2, t = 0.1)
movej(p[0.410071356465667, 0.210329320787581, 0.3159031371373, -1.283, 0.713, -0.78], a = 0.2, v = 0.2, t = 0.1)
movej(p[0.410073807177297, 0.210335213081965, 0.315910763382012, -1.283, 0.713, -0.78], a = 0.2, v = 0.2, t = 0.1)
movej(p[0.410073637477775, 0.210340080103442, 0.315916477249705, -1.283, 0.713, -0.78], a = 0.2, v = 0.2, t = 0.1)
movej(p[0.410071377996486, 0.210345138138382, 0.315920834698942, -1.283, 0.713, -0.78], a = 0.2, v = 0.2, t = 0.1)
movej(p[0.410068458093759, 0.210348831507369, 0.315926153913413, -1.283, 0.713, -0.78], a = 0.2, v = 0.2, t = 0.1)
movej(p[0.410065047808241, 0.210350323522353, 0.315932163095468, -1.283, 0.713, -0.78], a = 0.2, v = 0.2, t = 0.1)
movej(p[0.410061988779576, 0.210348531712759, 0.315939406239744, -1.283, 0.713, -0.78], a = 0.2, v = 0.2, t = 0.1)
movej(p[0.410057983402468, 0.210345709621633, 0.315946078563919, -1.283, 0.713, -0.78], a = 0.2, v = 0.2, t = 0.1)
movej(p[0.410054260288151, 0.210343329547815, 0.315950477660122, -1.283, 0.713, -0.78], a = 0.2, v = 0.2, t = 0.1)
movej(p[0.410048876851671, 0.21034136004132, 0.315952488852265, -1.283, 0.713, -0.78], a = 0.2, v = 0.2, t = 0.1)
movej(p[0.410041630137214, 0.210338669404342, 0.315952529549039, -1.283, 0.713, -0.78], a = 0.2, v = 0.2, t = 0.1)
movej(p[0.410033190140794, 0.210335266482961, 0.315953143450913, -1.283, 0.713, -0.78], a = 0.2, v = 0.2, t = 0.1)
movej(p[0.410022967412855, 0.210332232525866, 0.315954318372115, -1.283, 0.713, -0.78], a = 0.2, v = 0.2, t = 0.1)
movej(p[0.410010353848946, 0.210328515062882, 0.31595540297133, -1.283, 0.713, -0.78], a = 0.2, v = 0.2, t = 0.1)
movej(p[0.409996320057566, 0.21032252460688, 0.315955191939549, -1.283, 0.713, -0.78], a = 0.2, v = 0.2, t = 0.1)
movej(p[0.409982867572655, 0.210312826960353, 0.315951586807711, -1.283, 0.713, -0.78], a = 0.2, v = 0.2, t = 0.1)
movej(p[0.409973387991104, 0.210300176739439, 0.315939611562351, -1.283, 0.713, -0.78], a = 0.2, v = 0.2, t = 0.1)
movej(p[0.409965343275262, 0.210286997691319, 0.315921934858652, -1.283, 0.713, -0.78], a = 0.2, v = 0.2, t = 0.1)
movej(p[0.40995723159121, 0.210276772095008, 0.315900786998998, -1.283, 0.713, -0.78], a = 0.2, v = 0.2, t = 0.1)
movej(p[0.409946731846614, 0.210271782585914, 0.315883325623783, -1.283, 0.713, -0.78], a = 0.2, v = 0.2, t = 0.1)
movej(p[0.409934128869865, 0.210270019123937, 0.315869981794013, -1.283, 0.713, -0.78], a = 0.2, v = 0.2, t = 0.1)
movej(p[0.409919888735774, 0.2102696605739, 0.315861053922042, -1.283, 0.713, -0.78], a = 0.2, v = 0.2, t = 0.1)
movej(p[0.409903883268373, 0.210269073432188, 0.315856194440804, -1.283, 0.713, -0.78], a = 0.2, v = 0.2, t = 0.1)
movej(p[0.409888198521201, 0.210270120331161, 0.315851154827457, -1.283, 0.713, -0.78], a = 0.2, v = 0.2, t = 0.1)
movej(p[0.40987486923442, 0.210273008274912, 0.315844263888784, -1.283, 0.713, -0.78], a = 0.2, v = 0.2, t = 0.1)
movej(p[0.409865746957801, 0.210277291410159, 0.315833931453314, -1.283, 0.713, -0.78], a = 0.2, v = 0.2, t = 0.1)
movej(p[0.40986161359464, 0.210282264287566, 0.315821648545015, -1.283, 0.713, -0.78], a = 0.2, v = 0.2, t = 0.1)
movej(p[0.409862413400815, 0.210288129880506, 0.315807498460968, -1.283, 0.713, -0.78], a = 0.2, v = 0.2, t = 0.1)
movej(p[0.409868018730398, 0.210296655652907, 0.315794055341567, -1.283, 0.713, -0.78], a = 0.2, v = 0.2, t = 0.1)
movej(p[0.409876374599415, 0.210307869873351, 0.315783295570064, -1.283, 0.713, -0.78], a = 0.2, v = 0.2, t = 0.1)
movej(p[0.409885955100079, 0.210322124630289, 0.315775451699993, -1.283, 0.713, -0.78], a = 0.2, v = 0.2, t = 0.1)
movej(p[0.409898006263214, 0.210337146450631, 0.315767929467432, -1.283, 0.713, -0.78], a = 0.2, v = 0.2, t = 0.1)
movej(p[0.409914113374591, 0.210350339598165, 0.315761039203707, -1.283, 0.713, -0.78], a = 0.2, v = 0.2, t = 0.1)
movej(p[0.409933865272927, 0.210359734874132, 0.315756251825757, -1.283, 0.713, -0.78], a = 0.2, v = 0.2, t = 0.1)
movej(p[0.409955228586353, 0.21036726343375, 0.315750944701248, -1.283, 0.713, -0.78], a = 0.2, v = 0.2, t = 0.1)
movej(p[0.409975907346768, 0.210373046824109, 0.315744806156008, -1.283, 0.713, -0.78], a = 0.2, v = 0.2, t = 0.1)
movej(p[0.40999494482812, 0.210375558902409, 0.315739243064026, -1.283, 0.713, -0.78], a = 0.2, v = 0.2, t = 0.1)
movej(p[0.410012821291674, 0.210374922720735, 0.315735962753419, -1.283, 0.713, -0.78], a = 0.2, v = 0.2, t = 0.1)
movej(p[0.410029424425194, 0.210372330655528, 0.315734031008804, -1.283, 0.713, -0.78], a = 0.2, v = 0.2, t = 0.1)
movej(p[0.410044609597263, 0.210370003652277, 0.315731969493314, -1.283, 0.713, -0.78], a = 0.2, v = 0.2, t = 0.1)
movej(p[0.410056041209185, 0.21036770977332, 0.315730148583324, -1.283, 0.713, -0.78], a = 0.2, v = 0.2, t = 0.1)
movej(p[0.410062707262943, 0.210367104415472, 0.315729812879328, -1.283, 0.713, -0.78], a = 0.2, v = 0.2, t = 0.1)
movej(p[0.410064308215764, 0.21036809059767, 0.315730208199121, -1.283, 0.713, -0.78], a = 0.2, v = 0.2, t = 0.1)
movej(p[0.410063474690879, 0.21037031572704, 0.315731630192284, -1.283, 0.713, -0.78], a = 0.2, v = 0.2, t = 0.1)
movej(p[0.410062233654636, 0.210372577574611, 0.315734018303589, -1.283, 0.713, -0.78], a = 0.2, v = 0.2, t = 0.1)
movej(p[0.410061761869124, 0.210374668816448, 0.315737701389797, -1.283, 0.713, -0.78], a = 0.2, v = 0.2, t = 0.1)
movej(p[0.410061624762746, 0.21037596100967, 0.315741420851655, -1.283, 0.713, -0.78], a = 0.2, v = 0.2, t = 0.1)
movej(p[0.41006233591159, 0.210376242248217, 0.315743566094113, -1.283, 0.713, -0.78], a = 0.2, v = 0.2, t = 0.1)
movej(p[0.410062120665209, 0.210376034397306, 0.315744284912584, -1.283, 0.713, -0.78], a = 0.2, v = 0.2, t = 0.1)
movej(p[0.410059607585332, 0.210375163119678, 0.315746084144037, -1.283, 0.713, -0.78], a = 0.2, v = 0.2, t = 0.1)
movej(p[0.410052828837382, 0.210373791099745, 0.315749226104817, -1.283, 0.713, -0.78], a = 0.2, v = 0.2, t = 0.1)
movej(p[0.410041667528792, 0.210371193728878, 0.315752898547756, -1.283, 0.713, -0.78], a = 0.2, v = 0.2, t = 0.1)
movej(p[0.410024906265347, 0.21036826489393, 0.315755091872989, -1.283, 0.713, -0.78], a = 0.2, v = 0.2, t = 0.1)
movej(p[0.410004097943722, 0.210364750818658, 0.315756941134497, -1.283, 0.713, -0.78], a = 0.2, v = 0.2, t = 0.1)
movej(p[0.409981984138203, 0.210361209732945, 0.315757277393943, -1.283, 0.713, -0.78], a = 0.2, v = 0.2, t = 0.1)
movej(p[0.409962572522916, 0.210358829706656, 0.31575595788198, -1.283, 0.713, -0.78], a = 0.2, v = 0.2, t = 0.1)
movej(p[0.409948456025456, 0.21035936597856, 0.315752693293658, -1.283, 0.713, -0.78], a = 0.2, v = 0.2, t = 0.1)
movej(p[0.40993944096186, 0.210363113583585, 0.31574931076414, -1.283, 0.713, -0.78], a = 0.2, v = 0.2, t = 0.1)
movej(p[0.409933350571422, 0.210367585201287, 0.315747673914594, -1.283, 0.713, -0.78], a = 0.2, v = 0.2, t = 0.1)
movej(p[0.409926485091284, 0.210369247313761, 0.315748163022557, -1.283, 0.713, -0.78], a = 0.2, v = 0.2, t = 0.1)
movej(p[0.409919999734062, 0.210366755053957, 0.3157528797765, -1.283, 0.713, -0.78], a = 0.2, v = 0.2, t = 0.1)
movej(p[0.409915181635714, 0.210362439216044, 0.31576329912746, -1.283, 0.713, -0.78], a = 0.2, v = 0.2, t = 0.1)
movej(p[0.409913171543197, 0.210358894506796, 0.315776679149261, -1.283, 0.713, -0.78], a = 0.2, v = 0.2, t = 0.1)
movej(p[0.409911889813394, 0.210354925368365, 0.315788515848794, -1.283, 0.713, -0.78], a = 0.2, v = 0.2, t = 0.1)
movej(p[0.409910918988763, 0.210346869019119, 0.315792436329551, -1.283, 0.713, -0.78], a = 0.2, v = 0.2, t = 0.1)
movej(p[0.409911046877038, 0.210333263944188, 0.315789235292265, -1.283, 0.713, -0.78], a = 0.2, v = 0.2, t = 0.1)
movej(p[0.409912683699964, 0.21031779413845, 0.31578122170854, -1.283, 0.713, -0.78], a = 0.2, v = 0.2, t = 0.1)
movej(p[0.40991394470582, 0.21030479989919, 0.315773040487891, -1.283, 0.713, -0.78], a = 0.2, v = 0.2, t = 0.1)
movej(p[0.409913249214977, 0.210295575998449, 0.31576643731164, -1.283, 0.713, -0.78], a = 0.2, v = 0.2, t = 0.1)
movej(p[0.409912323121778, 0.210287588441556, 0.31576073261101, -1.283, 0.713, -0.78], a = 0.2, v = 0.2, t = 0.1)
movej(p[0.409913056084984, 0.210278587038277, 0.31575259325674, -1.283, 0.713, -0.78], a = 0.2, v = 0.2, t = 0.1)
movej(p[0.409916404810235, 0.210270414199833, 0.315742741894806, -1.283, 0.713, -0.78], a = 0.2, v = 0.2, t = 0.1)
movej(p[0.409922909320177, 0.210267589561704, 0.315736563725266, -1.283, 0.713, -0.78], a = 0.2, v = 0.2, t = 0.1)
movej(p[0.40993245573562, 0.210270333484436, 0.315741638372568, -1.283, 0.713, -0.78], a = 0.2, v = 0.2, t = 0.1)
movej(p[0.409943759286083, 0.210275908198975, 0.315759486560032, -1.283, 0.713, -0.78], a = 0.2, v = 0.2, t = 0.1)
movej(p[0.409956393920592, 0.210281658768326, 0.315785807076534, -1.283, 0.713, -0.78], a = 0.2, v = 0.2, t = 0.1)
movej(p[0.409969227280611, 0.210286834235648, 0.315816128407683, -1.283, 0.713, -0.78], a = 0.2, v = 0.2, t = 0.1)
movej(p[0.409981247775885, 0.210293016799062, 0.315843508529834, -1.283, 0.713, -0.78], a = 0.2, v = 0.2, t = 0.1)
movej(p[0.409992399460791, 0.210300000647928, 0.315863190390741, -1.283, 0.713, -0.78], a = 0.2, v = 0.2, t = 0.1)
movej(p[0.410003378347137, 0.210308861270381, 0.315871343809492, -1.283, 0.713, -0.78], a = 0.2, v = 0.2, t = 0.1)
movej(p[0.410013172360847, 0.210318757116219, 0.315870842921664, -1.283, 0.713, -0.78], a = 0.2, v = 0.2, t = 0.1)
movej(p[0.410019934386258, 0.210329982712222, 0.315863461943904, -1.283, 0.713, -0.78], a = 0.2, v = 0.2, t = 0.1)
movej(p[0.410023789667682, 0.210340988410957, 0.315854815008175, -1.283, 0.713, -0.78], a = 0.2, v = 0.2, t = 0.1)
movej(p[0.410026357907606, 0.210351144528179, 0.315847348395042, -1.283, 0.713, -0.78], a = 0.2, v = 0.2, t = 0.1)
movej(p[0.410025832915846, 0.21036009233442, 0.315841963913347, -1.283, 0.713, -0.78], a = 0.2, v = 0.2, t = 0.1)
movej(p[0.410020364229966, 0.210369301732769, 0.31583492376592, -1.283, 0.713, -0.78], a = 0.2, v = 0.2, t = 0.1)
movej(p[0.410010838189268, 0.21037798302028, 0.315825185213627, -1.283, 0.713, -0.78], a = 0.2, v = 0.2, t = 0.1)
movej(p[0.410000196692609, 0.210384347065269, 0.315815624703743, -1.283, 0.713, -0.78], a = 0.2, v = 0.2, t = 0.1)
movej(p[0.409991599797408, 0.210387868976289, 0.315810101766693, -1.283, 0.713, -0.78], a = 0.2, v = 0.2, t = 0.1)
movej(p[0.409987286038021, 0.210390448377726, 0.315807583664792, -1.283, 0.713, -0.78], a = 0.2, v = 0.2, t = 0.1)
movej(p[0.40998743714198, 0.210392866247734, 0.315805136927531, -1.283, 0.713, -0.78], a = 0.2, v = 0.2, t = 0.1)
movej(p[0.409991158524817, 0.210394848413709, 0.315802736414915, -1.283, 0.713, -0.78], a = 0.2, v = 0.2, t = 0.1)
movej(p[0.409996706085255, 0.210396665842762, 0.315799212283983, -1.283, 0.713, -0.78], a = 0.2, v = 0.2, t = 0.1)
movej(p[0.410002261297886, 0.210399239919197, 0.315795133359231, -1.283, 0.713, -0.78], a = 0.2, v = 0.2, t = 0.1)
movej(p[0.410006022752545, 0.210402829403938, 0.315791589791658, -1.283, 0.713, -0.78], a = 0.2, v = 0.2, t = 0.1)
movej(p[0.410007003961531, 0.210406240523477, 0.315791021778968, -1.283, 0.713, -0.78], a = 0.2, v = 0.2, t = 0.1)
movej(p[0.41000601452051, 0.210408273702156, 0.31579425943567, -1.283, 0.713, -0.78], a = 0.2, v = 0.2, t = 0.1)
movej(p[0.41000402934507, 0.210407739486835, 0.315799217444088, -1.283, 0.713, -0.78], a = 0.2, v = 0.2, t = 0.1)
movej(p[0.410000580249725, 0.210405296864126, 0.31580399212016, -1.283, 0.713, -0.78], a = 0.2, v = 0.2, t = 0.1)
movej(p[0.409993243358913, 0.210401056163298, 0.315807858171726, -1.283, 0.713, -0.78], a = 0.2, v = 0.2, t = 0.1)
movej(p[0.409982337313247, 0.210396259284686, 0.315810910507802, -1.283, 0.713, -0.78], a = 0.2, v = 0.2, t = 0.1)
movej(p[0.409970406986981, 0.210391015635058, 0.315811947803205, -1.283, 0.713, -0.78], a = 0.2, v = 0.2, t = 0.1)
movej(p[0.409957680117362, 0.210386164236629, 0.315810125224541, -1.283, 0.713, -0.78], a = 0.2, v = 0.2, t = 0.1)
movej(p[0.409942641337864, 0.21038080961628, 0.315806824217856, -1.283, 0.713, -0.78], a = 0.2, v = 0.2, t = 0.1)
movej(p[0.409924986165683, 0.210375818093091, 0.315803392143336, -1.283, 0.713, -0.78], a = 0.2, v = 0.2, t = 0.1)
movej(p[0.409906471306432, 0.210371648635714, 0.315798998762964, -1.283, 0.713, -0.78], a = 0.2, v = 0.2, t = 0.1)
movej(p[0.409889033426535, 0.210369852263462, 0.315794152163594, -1.283, 0.713, -0.78], a = 0.2, v = 0.2, t = 0.1)
movej(p[0.409872419714816, 0.210368007124099, 0.31578980845048, -1.283, 0.713, -0.78], a = 0.2, v = 0.2, t = 0.1)
movej(p[0.409856441188441, 0.210364660635131, 0.315785027505229, -1.283, 0.713, -0.78], a = 0.2, v = 0.2, t = 0.1)
movej(p[0.409839672554594, 0.210359116781782, 0.315778308492137, -1.283, 0.713, -0.78], a = 0.2, v = 0.2, t = 0.1)
movej(p[0.409821179746448, 0.210351970938429, 0.315768855322316, -1.283, 0.713, -0.78], a = 0.2, v = 0.2, t = 0.1)
movej(p[0.409803230022502, 0.21034425685559, 0.315758599089957, -1.283, 0.713, -0.78], a = 0.2, v = 0.2, t = 0.1)
movej(p[0.409789059190957, 0.210335851982935, 0.315749955554917, -1.283, 0.713, -0.78], a = 0.2, v = 0.2, t = 0.1)
movej(p[0.409779255807351, 0.210327342152569, 0.315746013351218, -1.283, 0.713, -0.78], a = 0.2, v = 0.2, t = 0.1)
movej(p[0.409773771037559, 0.210319852886363, 0.31574965931255, -1.283, 0.713, -0.78], a = 0.2, v = 0.2, t = 0.1)
movej(p[0.409771227855073, 0.21031445254665, 0.31576161797526, -1.283, 0.713, -0.78], a = 0.2, v = 0.2, t = 0.1)
movej(p[0.409772645022451, 0.210312380046147, 0.315777964156536, -1.283, 0.713, -0.78], a = 0.2, v = 0.2, t = 0.1)
movej(p[0.409779743301299, 0.210313962043724, 0.315796097636678, -1.283, 0.713, -0.78], a = 0.2, v = 0.2, t = 0.1)
movej(p[0.409793041862296, 0.210318281483066, 0.315811975761667, -1.283, 0.713, -0.78], a = 0.2, v = 0.2, t = 0.1)
movej(p[0.409811520293908, 0.21032477924247, 0.315823372125382, -1.283, 0.713, -0.78], a = 0.2, v = 0.2, t = 0.1)
movej(p[0.409831950628248, 0.210333253568224, 0.315830068957822, -1.283, 0.713, -0.78], a = 0.2, v = 0.2, t = 0.1)
movej(p[0.409851828960591, 0.210343171755297, 0.315831500920626, -1.283, 0.713, -0.78], a = 0.2, v = 0.2, t = 0.1)
movej(p[0.409869134886587, 0.210352293667655, 0.315831555932752, -1.283, 0.713, -0.78], a = 0.2, v = 0.2, t = 0.1)
movej(p[0.40988420843605, 0.210359153284129, 0.315832140734784, -1.283, 0.713, -0.78], a = 0.2, v = 0.2, t = 0.1)
movej(p[0.409898301467472, 0.210363979336176, 0.315834388299906, -1.283, 0.713, -0.78], a = 0.2, v = 0.2, t = 0.1)
movej(p[0.409912873061483, 0.21036822420221, 0.315837860233709, -1.283, 0.713, -0.78], a = 0.2, v = 0.2, t = 0.1)
movej(p[0.409927016584843, 0.210373350174843, 0.315841227078602, -1.283, 0.713, -0.78], a = 0.2, v = 0.2, t = 0.1)
movej(p[0.409938385226656, 0.21038003494007, 0.315844012765988, -1.283, 0.713, -0.78], a = 0.2, v = 0.2, t = 0.1)
movej(p[0.409946137084842, 0.210387005651575, 0.315843306639386, -1.283, 0.713, -0.78], a = 0.2, v = 0.2, t = 0.1)
movej(p[0.40995115367161, 0.210393062328712, 0.31583961055602, -1.283, 0.713, -0.78], a = 0.2, v = 0.2, t = 0.1)
movej(p[0.409954453025927, 0.210397793739345, 0.315833135842165, -1.283, 0.713, -0.78], a = 0.2, v = 0.2, t = 0.1)
movej(p[0.409957190344195, 0.210403167050887, 0.315826190367539, -1.283, 0.713, -0.78], a = 0.2, v = 0.2, t = 0.1)
movej(p[0.409959472099866, 0.210407998144105, 0.315818482308485, -1.283, 0.713, -0.78], a = 0.2, v = 0.2, t = 0.1)
movej(p[0.409960414445154, 0.210412336323953, 0.315810486940828, -1.283, 0.713, -0.78], a = 0.2, v = 0.2, t = 0.1)
movej(p[0.409959193103266, 0.210414720511107, 0.315804398502473, -1.283, 0.713, -0.78], a = 0.2, v = 0.2, t = 0.1)
movej(p[0.409956382618412, 0.21041552566891, 0.31580207972245, -1.283, 0.713, -0.78], a = 0.2, v = 0.2, t = 0.1)
movej(p[0.4099530355394, 0.210414699319368, 0.315805027904691, -1.283, 0.713, -0.78], a = 0.2, v = 0.2, t = 0.1)
movej(p[0.40994909294149, 0.210414039611406, 0.315810957050002, -1.283, 0.713, -0.78], a = 0.2, v = 0.2, t = 0.1)
movej(p[0.409943732662355, 0.210415326035184, 0.315818392702929, -1.283, 0.713, -0.78], a = 0.2, v = 0.2, t = 0.1)
movej(p[0.409936682262151, 0.210419180385991, 0.315825782962656, -1.283, 0.713, -0.78], a = 0.2, v = 0.2, t = 0.1)
movej(p[0.409928656253417, 0.210425444938692, 0.315830275963018, -1.283, 0.713, -0.78], a = 0.2, v = 0.2, t = 0.1)
movej(p[0.409919098180798, 0.21043342861416, 0.315830543512733, -1.283, 0.713, -0.78], a = 0.2, v = 0.2, t = 0.1)
movej(p[0.409906213969755, 0.210442562425263, 0.315826578050022, -1.283, 0.713, -0.78], a = 0.2, v = 0.2, t = 0.1)
movej(p[0.409889043155515, 0.2104496791963, 0.315821752274918, -1.283, 0.713, -0.78], a = 0.2, v = 0.2, t = 0.1)
movej(p[0.409867341374311, 0.210453395052593, 0.315814910202895, -1.283, 0.713, -0.78], a = 0.2, v = 0.2, t = 0.1)
movej(p[0.409842927522678, 0.210450756741786, 0.315803095600382, -1.283, 0.713, -0.78], a = 0.2, v = 0.2, t = 0.1)
movej(p[0.409819209812097, 0.21044067027718, 0.315785755409883, -1.283, 0.713, -0.78], a = 0.2, v = 0.2, t = 0.1)
movej(p[0.409797649750036, 0.210425188488939, 0.315767116773484, -1.283, 0.713, -0.78], a = 0.2, v = 0.2, t = 0.1)
movej(p[0.409779702718704, 0.210410933762821, 0.315751349021531, -1.283, 0.713, -0.78], a = 0.2, v = 0.2, t = 0.1)
movej(p[0.409764032842385, 0.210400246334195, 0.315737988480131, -1.283, 0.713, -0.78], a = 0.2, v = 0.2, t = 0.1)
movej(p[0.409749139404043, 0.210393609920853, 0.315725449547668, -1.283, 0.713, -0.78], a = 0.2, v = 0.2, t = 0.1)
movej(p[0.409733540524497, 0.21038895622887, 0.315714189965711, -1.283, 0.713, -0.78], a = 0.2, v = 0.2, t = 0.1)
movej(p[0.40971772571948, 0.210384538182529, 0.315702650033398, -1.283, 0.713, -0.78], a = 0.2, v = 0.2, t = 0.1)
movej(p[0.409702835833773, 0.210376891309564, 0.315689492573061, -1.283, 0.713, -0.78], a = 0.2, v = 0.2, t = 0.1)
movej(p[0.409690633516086, 0.21036151896471, 0.31567594522141, -1.283, 0.713, -0.78], a = 0.2, v = 0.2, t = 0.1)
movej(p[0.409680659445753, 0.210341619091648, 0.315666504104415, -1.283, 0.713, -0.78], a = 0.2, v = 0.2, t = 0.1)
movej(p[0.409670314914692, 0.210321698677718, 0.315662705397005, -1.283, 0.713, -0.78], a = 0.2, v = 0.2, t = 0.1)
movej(p[0.409657949620217, 0.210305960212547, 0.31566299331642, -1.283, 0.713, -0.78], a = 0.2, v = 0.2, t = 0.1)
movej(p[0.409645346057328, 0.210294701134626, 0.315664413851842, -1.283, 0.713, -0.78], a = 0.2, v = 0.2, t = 0.1)
movej(p[0.409636292860046, 0.210288366230014, 0.315663296386617, -1.283, 0.713, -0.78], a = 0.2, v = 0.2, t = 0.1)
movej(p[0.409632598043137, 0.210287044025103, 0.315658234817376, -1.283, 0.713, -0.78], a = 0.2, v = 0.2, t = 0.1)
movej(p[0.409632473000656, 0.2102903881317, 0.315653316385975, -1.283, 0.713, -0.78], a = 0.2, v = 0.2, t = 0.1)
movej(p[0.409634160730038, 0.210296557750823, 0.315650651906024, -1.283, 0.713, -0.78], a = 0.2, v = 0.2, t = 0.1)
movej(p[0.40963778794929, 0.210303469053703, 0.315650320486348, -1.283, 0.713, -0.78], a = 0.2, v = 0.2, t = 0.1)
movej(p[0.409644154368397, 0.210309531334104, 0.315652386404567, -1.283, 0.713, -0.78], a = 0.2, v = 0.2, t = 0.1)
movej(p[0.409653415858951, 0.210313864804978, 0.315656257902455, -1.283, 0.713, -0.78], a = 0.2, v = 0.2, t = 0.1)
movej(p[0.409665712881701, 0.21031754601713, 0.315660287535887, -1.283, 0.713, -0.78], a = 0.2, v = 0.2, t = 0.1)
movej(p[0.409679634920912, 0.210321044988422, 0.315659966610531, -1.283, 0.713, -0.78], a = 0.2, v = 0.2, t = 0.1)
movej(p[0.409694117431116, 0.210324900008606, 0.315653946500018, -1.283, 0.713, -0.78], a = 0.2, v = 0.2, t = 0.1)
movej(p[0.409708111101249, 0.210328650702292, 0.3156422589344, -1.283, 0.713, -0.78], a = 0.2, v = 0.2, t = 0.1)
movej(p[0.409721303260422, 0.210330523002409, 0.315629145008457, -1.283, 0.713, -0.78], a = 0.2, v = 0.2, t = 0.1)
movej(p[0.409733504000696, 0.210328163106581, 0.315617183911666, -1.283, 0.713, -0.78], a = 0.2, v = 0.2, t = 0.1)
movej(p[0.409744289450633, 0.21032152960335, 0.315606827461573, -1.283, 0.713, -0.78], a = 0.2, v = 0.2, t = 0.1)
movej(p[0.409755061301225, 0.210314578112488, 0.315596154036836, -1.283, 0.713, -0.78], a = 0.2, v = 0.2, t = 0.1)
movej(p[0.409766448353723, 0.210308473047059, 0.315582799198368, -1.283, 0.713, -0.78], a = 0.2, v = 0.2, t = 0.1)
movej(p[0.409778169827963, 0.21030072966219, 0.315560617222905, -1.283, 0.713, -0.78], a = 0.2, v = 0.2, t = 0.1)
movej(p[0.409788010006874, 0.210288139482422, 0.315532813287367, -1.283, 0.713, -0.78], a = 0.2, v = 0.2, t = 0.1)
movej(p[0.409794652705135, 0.210271380537559, 0.315504515067425, -1.283, 0.713, -0.78], a = 0.2, v = 0.2, t = 0.1)
movej(p[0.409799066186102, 0.210256333817933, 0.315482935619766, -1.283, 0.713, -0.78], a = 0.2, v = 0.2, t = 0.1)
movej(p[0.409802611721724, 0.210245567548227, 0.315466655947326, -1.283, 0.713, -0.78], a = 0.2, v = 0.2, t = 0.1)
movej(p[0.409804364735908, 0.210238208532847, 0.315454258854807, -1.283, 0.713, -0.78], a = 0.2, v = 0.2, t = 0.1)
movej(p[0.409803417127473, 0.2102340018154, 0.315444669611324, -1.283, 0.713, -0.78], a = 0.2, v = 0.2, t = 0.1)
movej(p[0.4097995981047, 0.210231294747469, 0.315437604785405, -1.283, 0.713, -0.78], a = 0.2, v = 0.2, t = 0.1)
movej(p[0.409791915037454, 0.210229074943998, 0.315433286880791, -1.283, 0.713, -0.78], a = 0.2, v = 0.2, t = 0.1)
movej(p[0.409780193077861, 0.210224898983897, 0.315432529235414, -1.283, 0.713, -0.78], a = 0.2, v = 0.2, t = 0.1)
movej(p[0.409763745220419, 0.210218004781913, 0.315435441847059, -1.283, 0.713, -0.78], a = 0.2, v = 0.2, t = 0.1)
movej(p[0.409744735437154, 0.210209939841294, 0.315440117287146, -1.283, 0.713, -0.78], a = 0.2, v = 0.2, t = 0.1)
movej(p[0.409726149369916, 0.21020026351307, 0.315444605955406, -1.283, 0.713, -0.78], a = 0.2, v = 0.2, t = 0.1)
movej(p[0.409708995532603, 0.210190493011933, 0.315447731178433, -1.283, 0.713, -0.78], a = 0.2, v = 0.2, t = 0.1)
movej(p[0.409694106682924, 0.210181424295434, 0.315449520726222, -1.283, 0.713, -0.78], a = 0.2, v = 0.2, t = 0.1)
movej(p[0.409683165086547, 0.210172875901838, 0.315451686019192, -1.283, 0.713, -0.78], a = 0.2, v = 0.2, t = 0.1)
movej(p[0.409677988249094, 0.21016592902054, 0.315452782235971, -1.283, 0.713, -0.78], a = 0.2, v = 0.2, t = 0.1)
movej(p[0.40967614164722, 0.210160000325935, 0.315455778138473, -1.283, 0.713, -0.78], a = 0.2, v = 0.2, t = 0.1)
movej(p[0.409675671038807, 0.21015445308213, 0.315464228388166, -1.283, 0.713, -0.78], a = 0.2, v = 0.2, t = 0.1)
movej(p[0.409677010595902, 0.210148603137979, 0.315481034971585, -1.283, 0.713, -0.78], a = 0.2, v = 0.2, t = 0.1)
movej(p[0.40968173152756, 0.210145073718254, 0.315501009122122, -1.283, 0.713, -0.78], a = 0.2, v = 0.2, t = 0.1)
movej(p[0.409688135682592, 0.21014898273544, 0.315516253157184, -1.283, 0.713, -0.78], a = 0.2, v = 0.2, t = 0.1)
movej(p[0.40969368711911, 0.210161550395576, 0.31552390045542, -1.283, 0.713, -0.78], a = 0.2, v = 0.2, t = 0.1)
movej(p[0.409698422370784, 0.21018094557858, 0.315528394235656, -1.283, 0.713, -0.78], a = 0.2, v = 0.2, t = 0.1)
movej(p[0.409703132101354, 0.21020320134722, 0.315534656296835, -1.283, 0.713, -0.78], a = 0.2, v = 0.2, t = 0.1)
movej(p[0.409710351635303, 0.210223423906336, 0.315543159855288, -1.283, 0.713, -0.78], a = 0.2, v = 0.2, t = 0.1)
movej(p[0.409720237277427, 0.210238842040222, 0.315551354138127, -1.283, 0.713, -0.78], a = 0.2, v = 0.2, t = 0.1)
movej(p[0.409732489922883, 0.210250349949266, 0.315559172609959, -1.283, 0.713, -0.78], a = 0.2, v = 0.2, t = 0.1)
movej(p[0.409745697810077, 0.210261316233855, 0.315567921876167, -1.283, 0.713, -0.78], a = 0.2, v = 0.2, t = 0.1)
movej(p[0.409760312264009, 0.210273272284414, 0.315577548888543, -1.283, 0.713, -0.78], a = 0.2, v = 0.2, t = 0.1)
movej(p[0.409775320981355, 0.210286207930158, 0.315586913924519, -1.283, 0.713, -0.78], a = 0.2, v = 0.2, t = 0.1)
movej(p[0.409787439963075, 0.210299549571017, 0.315594821118601, -1.283, 0.713, -0.78], a = 0.2, v = 0.2, t = 0.1)
movej(p[0.409795058953654, 0.21031292245867, 0.315600472431403, -1.283, 0.713, -0.78], a = 0.2, v = 0.2, t = 0.1)
movej(p[0.409797601396646, 0.210325413035424, 0.315604926054308, -1.283, 0.713, -0.78], a = 0.2, v = 0.2, t = 0.1)
movej(p[0.409796896963666, 0.210335756392859, 0.315609239721442, -1.283, 0.713, -0.78], a = 0.2, v = 0.2, t = 0.1)
movej(p[0.409793468229696, 0.210343855249658, 0.315614061738854, -1.283, 0.713, -0.78], a = 0.2, v = 0.2, t = 0.1)
movej(p[0.40978732012228, 0.210349266160571, 0.315620025457181, -1.283, 0.713, -0.78], a = 0.2, v = 0.2, t = 0.1)
movej(p[0.409779078829521, 0.210351773594092, 0.315627086114502, -1.283, 0.713, -0.78], a = 0.2, v = 0.2, t = 0.1)
movej(p[0.409770851279147, 0.210352493948806, 0.315635071287632, -1.283, 0.713, -0.78], a = 0.2, v = 0.2, t = 0.1)
movej(p[0.409764447418866, 0.210352176616713, 0.315642840568348, -1.283, 0.713, -0.78], a = 0.2, v = 0.2, t = 0.1)
movej(p[0.409761031318181, 0.210352363582726, 0.315648509210586, -1.283, 0.713, -0.78], a = 0.2, v = 0.2, t = 0.1)
movej(p[0.409758799895453, 0.210354490794676, 0.315652403199663, -1.283, 0.713, -0.78], a = 0.2, v = 0.2, t = 0.1)
movej(p[0.409755308832264, 0.210358417451042, 0.31565673388051, -1.283, 0.713, -0.78], a = 0.2, v = 0.2, t = 0.1)
movej(p[0.409748178689655, 0.210360285037841, 0.31566596457712, -1.283, 0.713, -0.78], a = 0.2, v = 0.2, t = 0.1)
movej(p[0.409737935468931, 0.210357334931685, 0.31567830294058, -1.283, 0.713, -0.78], a = 0.2, v = 0.2, t = 0.1)
movej(p[0.4097274132529, 0.210351396719709, 0.315688480190618, -1.283, 0.713, -0.78], a = 0.2, v = 0.2, t = 0.1)
movej(p[0.409719080420873, 0.210344787248913, 0.315690940807045, -1.283, 0.713, -0.78], a = 0.2, v = 0.2, t = 0.1)
movej(p[0.409712194113974, 0.210337223459129, 0.31568563345145, -1.283, 0.713, -0.78], a = 0.2, v = 0.2, t = 0.1)
movej(p[0.409704965737405, 0.210329899535934, 0.315675405624398, -1.283, 0.713, -0.78], a = 0.2, v = 0.2, t = 0.1)
movej(p[0.40969710707399, 0.210325020710769, 0.315662816219037, -1.283, 0.713, -0.78], a = 0.2, v = 0.2, t = 0.1)
movej(p[0.409689767572141, 0.210321354482731, 0.315647887323245, -1.283, 0.713, -0.78], a = 0.2, v = 0.2, t = 0.1)
movej(p[0.409685150271484, 0.210310394199072, 0.315628708359775, -1.283, 0.713, -0.78], a = 0.2, v = 0.2, t = 0.1)
movej(p[0.409679632269104, 0.210289007920606, 0.315605916742476, -1.283, 0.713, -0.78], a = 0.2, v = 0.2, t = 0.1)
movej(p[0.409670380852314, 0.210260129762665, 0.315581880281105, -1.283, 0.713, -0.78], a = 0.2, v = 0.2, t = 0.1)
movej(p[0.409654430689034, 0.210230083877866, 0.315557738698575, -1.283, 0.713, -0.78], a = 0.2, v = 0.2, t = 0.1)
movej(p[0.409633978723456, 0.210204064514977, 0.315535367697416, -1.283, 0.713, -0.78], a = 0.2, v = 0.2, t = 0.1)
movej(p[0.409612446178105, 0.210184301938579, 0.315517027581664, -1.283, 0.713, -0.78], a = 0.2, v = 0.2, t = 0.1)
movej(p[0.409594812486306, 0.210172977646738, 0.315505959931016, -1.283, 0.713, -0.78], a = 0.2, v = 0.2, t = 0.1)
movej(p[0.409581479522109, 0.210166583936746, 0.315501072370557, -1.283, 0.713, -0.78], a = 0.2, v = 0.2, t = 0.1)
movej(p[0.40957028173749, 0.210163453611969, 0.315498857789916, -1.283, 0.713, -0.78], a = 0.2, v = 0.2, t = 0.1)
movej(p[0.40955972309662, 0.210162104812809, 0.31549786637637, -1.283, 0.713, -0.78], a = 0.2, v = 0.2, t = 0.1)
movej(p[0.409550115897514, 0.210160813360673, 0.315497948630319, -1.283, 0.713, -0.78], a = 0.2, v = 0.2, t = 0.1)
movej(p[0.409541895181262, 0.210158599480857, 0.315497756595245, -1.283, 0.713, -0.78], a = 0.2, v = 0.2, t = 0.1)
movej(p[0.409533758205999, 0.210155982638369, 0.315497868853668, -1.283, 0.713, -0.78], a = 0.2, v = 0.2, t = 0.1)
movej(p[0.409525045260137, 0.210153790293279, 0.315498273983785, -1.283, 0.713, -0.78], a = 0.2, v = 0.2, t = 0.1)
movej(p[0.409516168529867, 0.210152007285808, 0.315498813156362, -1.283, 0.713, -0.78], a = 0.2, v = 0.2, t = 0.1)
movej(p[0.409509232219123, 0.210148962481505, 0.315495560480997, -1.283, 0.713, -0.78], a = 0.2, v = 0.2, t = 0.1)
movej(p[0.409508051986935, 0.210145113336634, 0.315488219009977, -1.283, 0.713, -0.78], a = 0.2, v = 0.2, t = 0.1)
movej(p[0.409513237912802, 0.210140798081941, 0.315479758145255, -1.283, 0.713, -0.78], a = 0.2, v = 0.2, t = 0.1)
movej(p[0.409520555667585, 0.210136217490316, 0.315473440203953, -1.283, 0.713, -0.78], a = 0.2, v = 0.2, t = 0.1)
movej(p[0.409526932010562, 0.210132474683248, 0.315468835262314, -1.283, 0.713, -0.78], a = 0.2, v = 0.2, t = 0.1)
movej(p[0.409533068374689, 0.210131155172872, 0.315465229994271, -1.283, 0.713, -0.78], a = 0.2, v = 0.2, t = 0.1)
movej(p[0.409540280213144, 0.210134754587692, 0.315462852843026, -1.283, 0.713, -0.78], a = 0.2, v = 0.2, t = 0.1)
movej(p[0.409548199668205, 0.21014205237471, 0.315463358462642, -1.283, 0.713, -0.78], a = 0.2, v = 0.2, t = 0.1)
movej(p[0.409556637969792, 0.210149140815472, 0.315466072951523, -1.283, 0.713, -0.78], a = 0.2, v = 0.2, t = 0.1)
movej(p[0.409569692784454, 0.210154137809667, 0.315473057547227, -1.283, 0.713, -0.78], a = 0.2, v = 0.2, t = 0.1)
movej(p[0.409585892312688, 0.210158940503016, 0.315483070546758, -1.283, 0.713, -0.78], a = 0.2, v = 0.2, t = 0.1)
movej(p[0.409602185337306, 0.210165639383173, 0.315494432914664, -1.283, 0.713, -0.78], a = 0.2, v = 0.2, t = 0.1)
movej(p[0.409612126919493, 0.210173213010019, 0.315500068000556, -1.283, 0.713, -0.78], a = 0.2, v = 0.2, t = 0.1)
movej(p[0.409617966836517, 0.210179865691043, 0.315495973810849, -1.283, 0.713, -0.78], a = 0.2, v = 0.2, t = 0.1)
movej(p[0.409622544221697, 0.210183403498033, 0.31548236142136, -1.283, 0.713, -0.78], a = 0.2, v = 0.2, t = 0.1)
movej(p[0.409627455859549, 0.21018468758242, 0.315465403515979, -1.283, 0.713, -0.78], a = 0.2, v = 0.2, t = 0.1)
movej(p[0.409630445282781, 0.210183741046708, 0.315450891126276, -1.283, 0.713, -0.78], a = 0.2, v = 0.2, t = 0.1)
movej(p[0.409629982336449, 0.210182599133637, 0.31544128069823, -1.283, 0.713, -0.78], a = 0.2, v = 0.2, t = 0.1)
movej(p[0.409626442435392, 0.210182069032493, 0.315436163660973, -1.283, 0.713, -0.78], a = 0.2, v = 0.2, t = 0.1)
movej(p[0.409621273591744, 0.210181920577082, 0.31543406706699, -1.283, 0.713, -0.78], a = 0.2, v = 0.2, t = 0.1)
movej(p[0.409614967018617, 0.210180508221356, 0.315433645014026, -1.283, 0.713, -0.78], a = 0.2, v = 0.2, t = 0.1)
movej(p[0.409608826039306, 0.210177710063622, 0.315434723251196, -1.283, 0.713, -0.78], a = 0.2, v = 0.2, t = 0.1)
movej(p[0.409603341485645, 0.210172734692851, 0.315437179689641, -1.283, 0.713, -0.78], a = 0.2, v = 0.2, t = 0.1)
movej(p[0.40959833685177, 0.210164852098142, 0.315439799468147, -1.283, 0.713, -0.78], a = 0.2, v = 0.2, t = 0.1)
movej(p[0.409591291110689, 0.210152041773222, 0.315438795833711, -1.283, 0.713, -0.78], a = 0.2, v = 0.2, t = 0.1)
movej(p[0.409582700294499, 0.210136906443458, 0.315431741077363, -1.283, 0.713, -0.78], a = 0.2, v = 0.2, t = 0.1)
movej(p[0.409574613658747, 0.210122336821341, 0.315419357460824, -1.283, 0.713, -0.78], a = 0.2, v = 0.2, t = 0.1)
movej(p[0.409569456525559, 0.210110248570631, 0.315404440528933, -1.283, 0.713, -0.78], a = 0.2, v = 0.2, t = 0.1)
movej(p[0.409566130945199, 0.210099827480132, 0.315389781339287, -1.283, 0.713, -0.78], a = 0.2, v = 0.2, t = 0.1)
movej(p[0.409562396923443, 0.210090354554891, 0.315377506572898, -1.283, 0.713, -0.78], a = 0.2, v = 0.2, t = 0.1)
movej(p[0.409558137521291, 0.21008418596476, 0.3153695059911, -1.283, 0.713, -0.78], a = 0.2, v = 0.2, t = 0.1)
movej(p[0.40955432417098, 0.210082577979257, 0.315366781866465, -1.283, 0.713, -0.78], a = 0.2, v = 0.2, t = 0.1)
movej(p[0.409550936907297, 0.210084220555241, 0.315367151084391, -1.283, 0.713, -0.78], a = 0.2, v = 0.2, t = 0.1)
movej(p[0.409548020175101, 0.210086744132015, 0.315366704135221, -1.283, 0.713, -0.78], a = 0.2, v = 0.2, t = 0.1)
movej(p[0.409544316909213, 0.210088597129064, 0.315363217862182, -1.283, 0.713, -0.78], a = 0.2, v = 0.2, t = 0.1)
movej(p[0.409539434599368, 0.210090041954095, 0.31535603978241, -1.283, 0.713, -0.78], a = 0.2, v = 0.2, t = 0.1)
movej(p[0.409533670299774, 0.210091212166671, 0.31534712485029, -1.283, 0.713, -0.78], a = 0.2, v = 0.2, t = 0.1)
movej(p[0.40952760614901, 0.210091870849601, 0.31533897100075, -1.283, 0.713, -0.78], a = 0.2, v = 0.2, t = 0.1)
movej(p[0.409522208907077, 0.210092485149971, 0.315333278734807, -1.283, 0.713, -0.78], a = 0.2, v = 0.2, t = 0.1)
movej(p[0.409518471705652, 0.21009250156611, 0.315330665905494, -1.283, 0.713, -0.78], a = 0.2, v = 0.2, t = 0.1)
movej(p[0.409515560086772, 0.210093073576271, 0.315330374557118, -1.283, 0.713, -0.78], a = 0.2, v = 0.2, t = 0.1)
movej(p[0.409512746979219, 0.210093845033778, 0.315330703745829, -1.283, 0.713, -0.78], a = 0.2, v = 0.2, t = 0.1)
movej(p[0.409508317583734, 0.210095525672904, 0.315330101326731, -1.283, 0.713, -0.78], a = 0.2, v = 0.2, t = 0.1)
movej(p[0.409501622404678, 0.210094867950004, 0.315327782582245, -1.283, 0.713, -0.78], a = 0.2, v = 0.2, t = 0.1)
movej(p[0.409491564387125, 0.210092180199028, 0.315325263724648, -1.283, 0.713, -0.78], a = 0.2, v = 0.2, t = 0.1)
movej(p[0.409477201043886, 0.210087425676034, 0.315323036582956, -1.283, 0.713, -0.78], a = 0.2, v = 0.2, t = 0.1)
movej(p[0.409461960189022, 0.210083746329325, 0.31532126856576, -1.283, 0.713, -0.78], a = 0.2, v = 0.2, t = 0.1)
movej(p[0.40944807710407, 0.210079544866467, 0.315321083765731, -1.283, 0.713, -0.78], a = 0.2, v = 0.2, t = 0.1)
movej(p[0.40943818981418, 0.210071922734849, 0.315324714378659, -1.283, 0.713, -0.78], a = 0.2, v = 0.2, t = 0.1)
movej(p[0.409432354557997, 0.210059983619172, 0.315333105228922, -1.283, 0.713, -0.78], a = 0.2, v = 0.2, t = 0.1)
movej(p[0.409431280783817, 0.210046340079575, 0.315344553777051, -1.283, 0.713, -0.78], a = 0.2, v = 0.2, t = 0.1)
movej(p[0.409435395536102, 0.210036319649294, 0.315356463483496, -1.283, 0.713, -0.78], a = 0.2, v = 0.2, t = 0.1)
movej(p[0.409444785311134, 0.210032066093788, 0.315367391468828, -1.283, 0.713, -0.78], a = 0.2, v = 0.2, t = 0.1)
movej(p[0.409459211359479, 0.210032945703845, 0.315378111052089, -1.283, 0.713, -0.78], a = 0.2, v = 0.2, t = 0.1)
movej(p[0.409477567116991, 0.210035678974614, 0.315389531361283, -1.283, 0.713, -0.78], a = 0.2, v = 0.2, t = 0.1)
movej(p[0.409497779830301, 0.210039750509946, 0.315400918683738, -1.283, 0.713, -0.78], a = 0.2, v = 0.2, t = 0.1)
movej(p[0.409518193251747, 0.210044645303731, 0.315411930059704, -1.283, 0.713, -0.78], a = 0.2, v = 0.2, t = 0.1)
movej(p[0.409538263434752, 0.210051478924379, 0.315423054743968, -1.283, 0.713, -0.78], a = 0.2, v = 0.2, t = 0.1)
movej(p[0.409556703973338, 0.210058627847467, 0.315433549885194, -1.283, 0.713, -0.78], a = 0.2, v = 0.2, t = 0.1)
movej(p[0.409573216595414, 0.210064852449123, 0.315443367531164, -1.283, 0.713, -0.78], a = 0.2, v = 0.2, t = 0.1)
movej(p[0.409587775792848, 0.210069354253514, 0.315452080528886, -1.283, 0.713, -0.78], a = 0.2, v = 0.2, t = 0.1)
movej(p[0.409600075288395, 0.210072255885373, 0.315460980943924, -1.283, 0.713, -0.78], a = 0.2, v = 0.2, t = 0.1)
movej(p[0.409610041522198, 0.210075645381414, 0.315469620448677, -1.283, 0.713, -0.78], a = 0.2, v = 0.2, t = 0.1)
movej(p[0.409615862730572, 0.210078917319302, 0.315478659419665, -1.283, 0.713, -0.78], a = 0.2, v = 0.2, t = 0.1)
movej(p[0.409618113123973, 0.210082851786083, 0.315486390209514, -1.283, 0.713, -0.78], a = 0.2, v = 0.2, t = 0.1)
movej(p[0.409616704458915, 0.210086808179611, 0.315492546183686, -1.283, 0.713, -0.78], a = 0.2, v = 0.2, t = 0.1)
movej(p[0.409613072852223, 0.210087579078427, 0.31549695118015, -1.283, 0.713, -0.78], a = 0.2, v = 0.2, t = 0.1)
movej(p[0.409607307047497, 0.21008277122154, 0.315502825085922, -1.283, 0.713, -0.78], a = 0.2, v = 0.2, t = 0.1)
movej(p[0.409601988867478, 0.210074634678747, 0.315509338306375, -1.283, 0.713, -0.78], a = 0.2, v = 0.2, t = 0.1)
movej(p[0.409598835888063, 0.210069684841096, 0.315516433863226, -1.283, 0.713, -0.78], a = 0.2, v = 0.2, t = 0.1)
movej(p[0.409597896404721, 0.210069104131738, 0.315519697817529, -1.283, 0.713, -0.78], a = 0.2, v = 0.2, t = 0.1)
movej(p[0.409597869029415, 0.21007245817327, 0.315515981875388, -1.283, 0.713, -0.78], a = 0.2, v = 0.2, t = 0.1)
movej(p[0.409598031404552, 0.210079926582184, 0.315504108389817, -1.283, 0.713, -0.78], a = 0.2, v = 0.2, t = 0.1)
movej(p[0.409598039324717, 0.210090693338473, 0.315489432061179, -1.283, 0.713, -0.78], a = 0.2, v = 0.2, t = 0.1)
movej(p[0.409597706922158, 0.210103757723327, 0.315475537459748, -1.283, 0.713, -0.78], a = 0.2, v = 0.2, t = 0.1)
movej(p[0.40959596276544, 0.210117752788059, 0.315464018929265, -1.283, 0.713, -0.78], a = 0.2, v = 0.2, t = 0.1)
movej(p[0.409592725471092, 0.210129669133267, 0.315453125763601, -1.283, 0.713, -0.78], a = 0.2, v = 0.2, t = 0.1)
movej(p[0.409587904262227, 0.210138070138325, 0.315440465027165, -1.283, 0.713, -0.78], a = 0.2, v = 0.2, t = 0.1)
movej(p[0.409581589985193, 0.210144101078844, 0.315423866436171, -1.283, 0.713, -0.78], a = 0.2, v = 0.2, t = 0.1)
movej(p[0.409575122105077, 0.21015000935882, 0.315405474173109, -1.283, 0.713, -0.78], a = 0.2, v = 0.2, t = 0.1)
movej(p[0.409569626858475, 0.210154974241443, 0.315387813209904, -1.283, 0.713, -0.78], a = 0.2, v = 0.2, t = 0.1)
movej(p[0.409564491097411, 0.210159418414883, 0.315372233631838, -1.283, 0.713, -0.78], a = 0.2, v = 0.2, t = 0.1)
movej(p[0.4095584567913, 0.210164100447673, 0.315358964870452, -1.283, 0.713, -0.78], a = 0.2, v = 0.2, t = 0.1)
movej(p[0.409549821217899, 0.210170026949745, 0.315347669773851, -1.283, 0.713, -0.78], a = 0.2, v = 0.2, t = 0.1)
movej(p[0.409537885022612, 0.210175802425665, 0.315339021228831, -1.283, 0.713, -0.78], a = 0.2, v = 0.2, t = 0.1)
movej(p[0.409522148062211, 0.210179335799931, 0.315333933872479, -1.283, 0.713, -0.78], a = 0.2, v = 0.2, t = 0.1)
movej(p[0.409503105850684, 0.210180636787432, 0.315330523270527, -1.283, 0.713, -0.78], a = 0.2, v = 0.2, t = 0.1)
movej(p[0.409483466808569, 0.210181283992646, 0.315327117862003, -1.283, 0.713, -0.78], a = 0.2, v = 0.2, t = 0.1)
movej(p[0.409466061633523, 0.210181600320904, 0.315323232366659, -1.283, 0.713, -0.78], a = 0.2, v = 0.2, t = 0.1)
movej(p[0.40945124189418, 0.210182436292796, 0.315319704999398, -1.283, 0.713, -0.78], a = 0.2, v = 0.2, t = 0.1)
movej(p[0.409438320483858, 0.210183109522748, 0.315317238401192, -1.283, 0.713, -0.78], a = 0.2, v = 0.2, t = 0.1)
movej(p[0.409427649639603, 0.210183431445224, 0.315315616729275, -1.283, 0.713, -0.78], a = 0.2, v = 0.2, t = 0.1)
movej(p[0.409419810608429, 0.210184015875572, 0.315314095118806, -1.283, 0.713, -0.78], a = 0.2, v = 0.2, t = 0.1)
movej(p[0.409414905610578, 0.210185467175699, 0.315311963302437, -1.283, 0.713, -0.78], a = 0.2, v = 0.2, t = 0.1)
movej(p[0.409411281070454, 0.210188857606288, 0.31530829059345, -1.283, 0.713, -0.78], a = 0.2, v = 0.2, t = 0.1)
movej(p[0.409409287238647, 0.210194586958259, 0.315307575462891, -1.283, 0.713, -0.78], a = 0.2, v = 0.2, t = 0.1)
movej(p[0.409408658186009, 0.210203312993177, 0.315313371287802, -1.283, 0.713, -0.78], a = 0.2, v = 0.2, t = 0.1)
movej(p[0.409410424850036, 0.210214208251241, 0.315324607190433, -1.283, 0.713, -0.78], a = 0.2, v = 0.2, t = 0.1)
movej(p[0.40941586415788, 0.210224740797215, 0.31533760521007, -1.283, 0.713, -0.78], a = 0.2, v = 0.2, t = 0.1)
movej(p[0.409425003599591, 0.210232932024079, 0.315350041387042, -1.283, 0.713, -0.78], a = 0.2, v = 0.2, t = 0.1)
movej(p[0.409437967887207, 0.210239811341614, 0.315360025609339, -1.283, 0.713, -0.78], a = 0.2, v = 0.2, t = 0.1)
movej(p[0.409453978214394, 0.21024721639171, 0.31536711949131, -1.283, 0.713, -0.78], a = 0.2, v = 0.2, t = 0.1)
movej(p[0.409472347930488, 0.210256586824303, 0.31537268080758, -1.283, 0.713, -0.78], a = 0.2, v = 0.2, t = 0.1)
movej(p[0.409492917449245, 0.210268364255777, 0.315380405193574, -1.283, 0.713, -0.78], a = 0.2, v = 0.2, t = 0.1)
movej(p[0.409514481142901, 0.21028111913684, 0.315391945597724, -1.283, 0.713, -0.78], a = 0.2, v = 0.2, t = 0.1)
movej(p[0.409535621790075, 0.21029315569372, 0.31540689632943, -1.283, 0.713, -0.78], a = 0.2, v = 0.2, t = 0.1)
movej(p[0.409555076076075, 0.210302842342076, 0.315421303586278, -1.283, 0.713, -0.78], a = 0.2, v = 0.2, t = 0.1)
movej(p[0.409572500229472, 0.210309645010643, 0.315431919487406, -1.283, 0.713, -0.78], a = 0.2, v = 0.2, t = 0.1)
movej(p[0.40958823427105, 0.210313336271531, 0.315436658797236, -1.283, 0.713, -0.78], a = 0.2, v = 0.2, t = 0.1)
movej(p[0.409599671998889, 0.210314165470418, 0.315435169486965, -1.283, 0.713, -0.78], a = 0.2, v = 0.2, t = 0.1)
movej(p[0.409605073321499, 0.210313152032935, 0.315429105106409, -1.283, 0.713, -0.78], a = 0.2, v = 0.2, t = 0.1)
movej(p[0.409603013856858, 0.210310179454383, 0.31542189701747, -1.283, 0.713, -0.78], a = 0.2, v = 0.2, t = 0.1)
movej(p[0.409595219435392, 0.210305428667046, 0.315416606725636, -1.283, 0.713, -0.78], a = 0.2, v = 0.2, t = 0.1)
movej(p[0.409583681992359, 0.21029939932828, 0.315412459024189, -1.283, 0.713, -0.78], a = 0.2, v = 0.2, t = 0.1)
movej(p[0.409570865158802, 0.210291763022022, 0.315406885043537, -1.283, 0.713, -0.78], a = 0.2, v = 0.2, t = 0.1)
movej(p[0.409557048523885, 0.210282171721321, 0.315398744979689, -1.283, 0.713, -0.78], a = 0.2, v = 0.2, t = 0.1)
movej(p[0.409541939109076, 0.2102708529954, 0.315388844115097, -1.283, 0.713, -0.78], a = 0.2, v = 0.2, t = 0.1)
movej(p[0.409525662250236, 0.210258889071135, 0.315375812263675, -1.283, 0.713, -0.78], a = 0.2, v = 0.2, t = 0.1)
movej(p[0.409509353087782, 0.210245897574859, 0.315359940252885, -1.283, 0.713, -0.78], a = 0.2, v = 0.2, t = 0.1)
movej(p[0.409492817676379, 0.210230478445683, 0.315341752299971, -1.283, 0.713, -0.78], a = 0.2, v = 0.2, t = 0.1)
movej(p[0.409477372495516, 0.210212975647326, 0.315320520102304, -1.283, 0.713, -0.78], a = 0.2, v = 0.2, t = 0.1)
movej(p[0.409462375324413, 0.210194434409205, 0.315297245786591, -1.283, 0.713, -0.78], a = 0.2, v = 0.2, t = 0.1)
movej(p[0.409448743188798, 0.210175822673388, 0.315272978829356, -1.283, 0.713, -0.78], a = 0.2, v = 0.2, t = 0.1)
movej(p[0.409436245991116, 0.210158130700739, 0.31525266812952, -1.283, 0.713, -0.78], a = 0.2, v = 0.2, t = 0.1)
movej(p[0.409426816461813, 0.210143159798531, 0.315238182671598, -1.283, 0.713, -0.78], a = 0.2, v = 0.2, t = 0.1)
movej(p[0.409421930938613, 0.210131244901672, 0.315230293626477, -1.283, 0.713, -0.78], a = 0.2, v = 0.2, t = 0.1)
movej(p[0.409424006914179, 0.210122153975947, 0.315226787948666, -1.283, 0.713, -0.78], a = 0.2, v = 0.2, t = 0.1)
movej(p[0.409432119840784, 0.21011513420281, 0.315224375751124, -1.283, 0.713, -0.78], a = 0.2, v = 0.2, t = 0.1)
movej(p[0.409444997767211, 0.210109304384376, 0.315220808430422, -1.283, 0.713, -0.78], a = 0.2, v = 0.2, t = 0.1)
movej(p[0.409460675659651, 0.210104728402305, 0.315214167295526, -1.283, 0.713, -0.78], a = 0.2, v = 0.2, t = 0.1)
movej(p[0.409478631129131, 0.210103541874352, 0.315205594239409, -1.283, 0.713, -0.78], a = 0.2, v = 0.2, t = 0.1)
movej(p[0.40949901583667, 0.210106164002995, 0.31519632468678, -1.283, 0.713, -0.78], a = 0.2, v = 0.2, t = 0.1)
movej(p[0.409521030321319, 0.210110902563812, 0.315186590257366, -1.283, 0.713, -0.78], a = 0.2, v = 0.2, t = 0.1)
movej(p[0.409543424421234, 0.210116183581976, 0.315177660885264, -1.283, 0.713, -0.78], a = 0.2, v = 0.2, t = 0.1)
movej(p[0.409564148240882, 0.210122230170711, 0.31516989493034, -1.283, 0.713, -0.78], a = 0.2, v = 0.2, t = 0.1)
movej(p[0.409583036300441, 0.210130311747969, 0.315162434876714, -1.283, 0.713, -0.78], a = 0.2, v = 0.2, t = 0.1)
movej(p[0.409599753207295, 0.210139508139457, 0.315153086754452, -1.283, 0.713, -0.78], a = 0.2, v = 0.2, t = 0.1)
movej(p[0.409614576464356, 0.210148061539232, 0.315142372538083, -1.283, 0.713, -0.78], a = 0.2, v = 0.2, t = 0.1)
movej(p[0.409626648347135, 0.210155578936769, 0.315133279169926, -1.283, 0.713, -0.78], a = 0.2, v = 0.2, t = 0.1)
movej(p[0.409635930724492, 0.210162458556417, 0.315131346957952, -1.283, 0.713, -0.78], a = 0.2, v = 0.2, t = 0.1)
movej(p[0.40964194642168, 0.21016897493153, 0.315134312957905, -1.283, 0.713, -0.78], a = 0.2, v = 0.2, t = 0.1)
movej(p[0.409645046826075, 0.210174741932169, 0.315137265735617, -1.283, 0.713, -0.78], a = 0.2, v = 0.2, t = 0.1)
movej(p[0.409645397365609, 0.210179587016463, 0.315135077008541, -1.283, 0.713, -0.78], a = 0.2, v = 0.2, t = 0.1)
movej(p[0.409642935365383, 0.210183864355832, 0.315128358069129, -1.283, 0.713, -0.78], a = 0.2, v = 0.2, t = 0.1)
movej(p[0.409637385169525, 0.210187628062792, 0.315119933631116, -1.283, 0.713, -0.78], a = 0.2, v = 0.2, t = 0.1)
movej(p[0.409628759082181, 0.210189904219442, 0.315113719069262, -1.283, 0.713, -0.78], a = 0.2, v = 0.2, t = 0.1)
movej(p[0.409618823179665, 0.210188874222635, 0.315109432073369, -1.283, 0.713, -0.78], a = 0.2, v = 0.2, t = 0.1)
movej(p[0.409607850263357, 0.210184843801842, 0.315104474690802, -1.283, 0.713, -0.78], a = 0.2, v = 0.2, t = 0.1)
movej(p[0.409594745243101, 0.210179106027138, 0.315097858944167, -1.283, 0.713, -0.78], a = 0.2, v = 0.2, t = 0.1)
movej(p[0.409577793282296, 0.210174128443559, 0.315091588769324, -1.283, 0.713, -0.78], a = 0.2, v = 0.2, t = 0.1)
movej(p[0.409556503345487, 0.210169328998139, 0.315091020955657, -1.283, 0.713, -0.78], a = 0.2, v = 0.2, t = 0.1)
movej(p[0.40953208500101, 0.210164432825066, 0.315094894867918, -1.283, 0.713, -0.78], a = 0.2, v = 0.2, t = 0.1)
movej(p[0.409506118857916, 0.210159384908787, 0.315099542146486, -1.283, 0.713, -0.78], a = 0.2, v = 0.2, t = 0.1)
movej(p[0.409480900110071, 0.210154656037088, 0.315101661045157, -1.283, 0.713, -0.78], a = 0.2, v = 0.2, t = 0.1)
movej(p[0.409458411765068, 0.210149144605882, 0.315099499609502, -1.283, 0.713, -0.78], a = 0.2, v = 0.2, t = 0.1)
movej(p[0.409439904199664, 0.210141682475498, 0.315094587285719, -1.283, 0.713, -0.78], a = 0.2, v = 0.2, t = 0.1)
movej(p[0.40942615331424, 0.210130994884315, 0.315088458611984, -1.283, 0.713, -0.78], a = 0.2, v = 0.2, t = 0.1)
movej(p[0.409416469576394, 0.210117995810301, 0.315084665110552, -1.283, 0.713, -0.78], a = 0.2, v = 0.2, t = 0.1)
movej(p[0.409408508061261, 0.210105288592278, 0.315082618522688, -1.283, 0.713, -0.78], a = 0.2, v = 0.2, t = 0.1)
movej(p[0.409400131998821, 0.210094609376161, 0.315079878021431, -1.283, 0.713, -0.78], a = 0.2, v = 0.2, t = 0.1)
movej(p[0.409391281762097, 0.21008612487636, 0.315073199646249, -1.283, 0.713, -0.78], a = 0.2, v = 0.2, t = 0.1)
movej(p[0.409382236556152, 0.210079142300445, 0.315061897088044, -1.283, 0.713, -0.78], a = 0.2, v = 0.2, t = 0.1)
movej(p[0.409374151006099, 0.210073809735209, 0.315047118356895, -1.283, 0.713, -0.78], a = 0.2, v = 0.2, t = 0.1)
movej(p[0.409367803116719, 0.21006985568059, 0.315031239940397, -1.283, 0.713, -0.78], a = 0.2, v = 0.2, t = 0.1)
movej(p[0.409364650937383, 0.210065417867684, 0.315016645243585, -1.283, 0.713, -0.78], a = 0.2, v = 0.2, t = 0.1)
movej(p[0.409365790182517, 0.210058453731532, 0.315004898954376, -1.283, 0.713, -0.78], a = 0.2, v = 0.2, t = 0.1)
movej(p[0.40937132918557, 0.210050471554169, 0.314997717817995, -1.283, 0.713, -0.78], a = 0.2, v = 0.2, t = 0.1)
movej(p[0.40938040303966, 0.210044091800189, 0.314994858344424, -1.283, 0.713, -0.78], a = 0.2, v = 0.2, t = 0.1)
movej(p[0.40939133149537, 0.210043268655212, 0.31499420079052, -1.283, 0.713, -0.78], a = 0.2, v = 0.2, t = 0.1)
movej(p[0.409403417653413, 0.210047806672729, 0.314994097636317, -1.283, 0.713, -0.78], a = 0.2, v = 0.2, t = 0.1)
movej(p[0.40941595398656, 0.210054800809488, 0.314994446500524, -1.283, 0.713, -0.78], a = 0.2, v = 0.2, t = 0.1)
movej(p[0.4094288673577, 0.210062082299751, 0.314994407266401, -1.283, 0.713, -0.78], a = 0.2, v = 0.2, t = 0.1)
movej(p[0.409441167467383, 0.210069984436569, 0.314989883620027, -1.283, 0.713, -0.78], a = 0.2, v = 0.2, t = 0.1)
movej(p[0.409452404179359, 0.210078162916877, 0.314982057954636, -1.283, 0.713, -0.78], a = 0.2, v = 0.2, t = 0.1)
movej(p[0.409462342374425, 0.210084253250387, 0.314971678100178, -1.283, 0.713, -0.78], a = 0.2, v = 0.2, t = 0.1)
movej(p[0.409471183275488, 0.210086848500881, 0.31496185664574, -1.283, 0.713, -0.78], a = 0.2, v = 0.2, t = 0.1)
movej(p[0.409479788841554, 0.210088642039874, 0.314952153821431, -1.283, 0.713, -0.78], a = 0.2, v = 0.2, t = 0.1)
movej(p[0.409488490998652, 0.210092550617216, 0.314942997281801, -1.283, 0.713, -0.78], a = 0.2, v = 0.2, t = 0.1)
movej(p[0.409496682224088, 0.210098963009925, 0.314934992291758, -1.283, 0.713, -0.78], a = 0.2, v = 0.2, t = 0.1)
movej(p[0.409503453646975, 0.21010558284914, 0.314925939296626, -1.283, 0.713, -0.78], a = 0.2, v = 0.2, t = 0.1)
movej(p[0.409508506310533, 0.21011172678936, 0.314915905547947, -1.283, 0.713, -0.78], a = 0.2, v = 0.2, t = 0.1)
movej(p[0.409513107101123, 0.210116754552585, 0.314906854125965, -1.283, 0.713, -0.78], a = 0.2, v = 0.2, t = 0.1)
movej(p[0.409516258073967, 0.210119974163351, 0.31489893016227, -1.283, 0.713, -0.78], a = 0.2, v = 0.2, t = 0.1)
movej(p[0.409516445837406, 0.210120560026115, 0.314892173288753, -1.283, 0.713, -0.78], a = 0.2, v = 0.2, t = 0.1)
movej(p[0.409512885380814, 0.210117305956687, 0.3148836903853, -1.283, 0.713, -0.78], a = 0.2, v = 0.2, t = 0.1)
movej(p[0.409505398338316, 0.210110674487408, 0.314872855900594, -1.283, 0.713, -0.78], a = 0.2, v = 0.2, t = 0.1)
movej(p[0.409493853887683, 0.210101813067259, 0.314859264920587, -1.283, 0.713, -0.78], a = 0.2, v = 0.2, t = 0.1)
movej(p[0.409479440659444, 0.210093020881386, 0.314844710206874, -1.283, 0.713, -0.78], a = 0.2, v = 0.2, t = 0.1)
movej(p[0.409463354849909, 0.210084316161173, 0.314829676199336, -1.283, 0.713, -0.78], a = 0.2, v = 0.2, t = 0.1)
movej(p[0.409445778859882, 0.210076241707284, 0.314815202834698, -1.283, 0.713, -0.78], a = 0.2, v = 0.2, t = 0.1)
movej(p[0.409426109125985, 0.210067106376827, 0.314802543552614, -1.283, 0.713, -0.78], a = 0.2, v = 0.2, t = 0.1)
movej(p[0.409404369573333, 0.210055341273954, 0.314792494344543, -1.283, 0.713, -0.78], a = 0.2, v = 0.2, t = 0.1)
movej(p[0.409380884042065, 0.210036728475207, 0.314785338849811, -1.283, 0.713, -0.78], a = 0.2, v = 0.2, t = 0.1)
movej(p[0.409360457865025, 0.210016762988951, 0.31477830082089, -1.283, 0.713, -0.78], a = 0.2, v = 0.2, t = 0.1)
movej(p[0.40934667053165, 0.210001950495, 0.314770686112599, -1.283, 0.713, -0.78], a = 0.2, v = 0.2, t = 0.1)
movej(p[0.409342180885792, 0.209998946973308, 0.314762267924996, -1.283, 0.713, -0.78], a = 0.2, v = 0.2, t = 0.1)
movej(p[0.409343339081587, 0.21000471332467, 0.314756066829249, -1.283, 0.713, -0.78], a = 0.2, v = 0.2, t = 0.1)
movej(p[0.40934669429768, 0.210014768239891, 0.314753983437332, -1.283, 0.713, -0.78], a = 0.2, v = 0.2, t = 0.1)
movej(p[0.409350304825233, 0.210027736200361, 0.314755125866773, -1.283, 0.713, -0.78], a = 0.2, v = 0.2, t = 0.1)
movej(p[0.409354383702691, 0.210043126810174, 0.314759789433464, -1.283, 0.713, -0.78], a = 0.2, v = 0.2, t = 0.1)
movej(p[0.409359281203782, 0.210060703304567, 0.314766812759877, -1.283, 0.713, -0.78], a = 0.2, v = 0.2, t = 0.1)
movej(p[0.409365698513854, 0.210079089160776, 0.314774424696614, -1.283, 0.713, -0.78], a = 0.2, v = 0.2, t = 0.1)
movej(p[0.409375016339282, 0.210096607131677, 0.314781009998188, -1.283, 0.713, -0.78], a = 0.2, v = 0.2, t = 0.1)
movej(p[0.409388137847218, 0.210112701051554, 0.314786149575355, -1.283, 0.713, -0.78], a = 0.2, v = 0.2, t = 0.1)
movej(p[0.409404102891031, 0.210127707909299, 0.314789941723253, -1.283, 0.713, -0.78], a = 0.2, v = 0.2, t = 0.1)
movej(p[0.409421043882037, 0.210141157213175, 0.314790663838899, -1.283, 0.713, -0.78], a = 0.2, v = 0.2, t = 0.1)
movej(p[0.409437185998574, 0.21015307344322, 0.314788371138263, -1.283, 0.713, -0.78], a = 0.2, v = 0.2, t = 0.1)
movej(p[0.409451672911006, 0.210163333095424, 0.314783023868226, -1.283, 0.713, -0.78], a = 0.2, v = 0.2, t = 0.1)
movej(p[0.409464834288001, 0.210172685480764, 0.314777141479845, -1.283, 0.713, -0.78], a = 0.2, v = 0.2, t = 0.1)
movej(p[0.409477275159485, 0.210181596095222, 0.314771521402916, -1.283, 0.713, -0.78], a = 0.2, v = 0.2, t = 0.1)
movej(p[0.409490161982109, 0.210191982803747, 0.314765685752596, -1.283, 0.713, -0.78], a = 0.2, v = 0.2, t = 0.1)
movej(p[0.409502777909476, 0.210204596736348, 0.314760071934819, -1.283, 0.713, -0.78], a = 0.2, v = 0.2, t = 0.1)
movej(p[0.409514444858982, 0.210217452618013, 0.314754650282781, -1.283, 0.713, -0.78], a = 0.2, v = 0.2, t = 0.1)
movej(p[0.40952442499625, 0.210227530159661, 0.314747266607243, -1.283, 0.713, -0.78], a = 0.2, v = 0.2, t = 0.1)
movej(p[0.409532469822283, 0.210234728689872, 0.314735335334474, -1.283, 0.713, -0.78], a = 0.2, v = 0.2, t = 0.1)
movej(p[0.409537682626972, 0.210239434038792, 0.314717700174684, -1.283, 0.713, -0.78], a = 0.2, v = 0.2, t = 0.1)
movej(p[0.409538976173203, 0.210241746609919, 0.314698065167504, -1.283, 0.713, -0.78], a = 0.2, v = 0.2, t = 0.1)
movej(p[0.409536819537101, 0.210241839731738, 0.314679080984139, -1.283, 0.713, -0.78], a = 0.2, v = 0.2, t = 0.1)
movej(p[0.409532839469886, 0.210240839915714, 0.314661617594924, -1.283, 0.713, -0.78], a = 0.2, v = 0.2, t = 0.1)
movej(p[0.409528842987051, 0.210240057956572, 0.314644884864936, -1.283, 0.713, -0.78], a = 0.2, v = 0.2, t = 0.1)
movej(p[0.409524097454458, 0.210239730907362, 0.314628509749846, -1.283, 0.713, -0.78], a = 0.2, v = 0.2, t = 0.1)
movej(p[0.409517908090927, 0.210239861034362, 0.314611138036975, -1.283, 0.713, -0.78], a = 0.2, v = 0.2, t = 0.1)
movej(p[0.409511574525866, 0.210238677501493, 0.31458924937805, -1.283, 0.713, -0.78], a = 0.2, v = 0.2, t = 0.1)
movej(p[0.409506656300828, 0.210233716147758, 0.314564207090243, -1.283, 0.713, -0.78], a = 0.2, v = 0.2, t = 0.1)
movej(p[0.409502458992797, 0.210224230220583, 0.31453775616733, -1.283, 0.713, -0.78], a = 0.2, v = 0.2, t = 0.1)
movej(p[0.409498742595338, 0.210210780786809, 0.31451299887202, -1.283, 0.713, -0.78], a = 0.2, v = 0.2, t = 0.1)
movej(p[0.409493678140589, 0.210195321363505, 0.314493918871543, -1.283, 0.713, -0.78], a = 0.2, v = 0.2, t = 0.1)
movej(p[0.409487230157597, 0.21018060209251, 0.314477298035592, -1.283, 0.713, -0.78], a = 0.2, v = 0.2, t = 0.1)
movej(p[0.409480296440037, 0.210169846529588, 0.314458392173114, -1.283, 0.713, -0.78], a = 0.2, v = 0.2, t = 0.1)
movej(p[0.409472739764593, 0.210163081854228, 0.314436912341143, -1.283, 0.713, -0.78], a = 0.2, v = 0.2, t = 0.1)
movej(p[0.409464873537273, 0.210157423196556, 0.314415166739516, -1.283, 0.713, -0.78], a = 0.2, v = 0.2, t = 0.1)
movej(p[0.409456536938116, 0.210151008221662, 0.314394951321079, -1.283, 0.713, -0.78], a = 0.2, v = 0.2, t = 0.1)
movej(p[0.409448153047487, 0.210144010932998, 0.314375679128591, -1.283, 0.713, -0.78], a = 0.2, v = 0.2, t = 0.1)
movej(p[0.409440561340633, 0.210136129736532, 0.314359390946302, -1.283, 0.713, -0.78], a = 0.2, v = 0.2, t = 0.1)
movej(p[0.409433600059454, 0.210126550291087, 0.314347979547776, -1.283, 0.713, -0.78], a = 0.2, v = 0.2, t = 0.1)
movej(p[0.409426313280068, 0.21011566682224, 0.314341980048628, -1.283, 0.713, -0.78], a = 0.2, v = 0.2, t = 0.1)
movej(p[0.409418047119399, 0.210105278278338, 0.314339508172136, -1.283, 0.713, -0.78], a = 0.2, v = 0.2, t = 0.1)
movej(p[0.409409691213565, 0.210096331232239, 0.314338522032798, -1.283, 0.713, -0.78], a = 0.2, v = 0.2, t = 0.1)
movej(p[0.409401953249286, 0.210087958364288, 0.314339874603722, -1.283, 0.713, -0.78], a = 0.2, v = 0.2, t = 0.1)
movej(p[0.409394980129724, 0.210078410285874, 0.314343932119733, -1.283, 0.713, -0.78], a = 0.2, v = 0.2, t = 0.1)
movej(p[0.409388104845425, 0.210066121011226, 0.314351535181184, -1.283, 0.713, -0.78], a = 0.2, v = 0.2, t = 0.1)
movej(p[0.409381340029331, 0.210052061110129, 0.314360515097295, -1.283, 0.713, -0.78], a = 0.2, v = 0.2, t = 0.1)
movej(p[0.40937434248259, 0.210038715273082, 0.314369188984032, -1.283, 0.713, -0.78], a = 0.2, v = 0.2, t = 0.1)
movej(p[0.409366806774379, 0.210028381878201, 0.31437723748414, -1.283, 0.713, -0.78], a = 0.2, v = 0.2, t = 0.1)
movej(p[0.409357972721395, 0.210020958619029, 0.314381992649767, -1.283, 0.713, -0.78], a = 0.2, v = 0.2, t = 0.1)
movej(p[0.409346578965715, 0.210016123642083, 0.314383790463838, -1.283, 0.713, -0.78], a = 0.2, v = 0.2, t = 0.1)
movej(p[0.409333120841775, 0.210013563071628, 0.314384039503941, -1.283, 0.713, -0.78], a = 0.2, v = 0.2, t = 0.1)
movej(p[0.409319189709163, 0.210014072864552, 0.314385337975089, -1.283, 0.713, -0.78], a = 0.2, v = 0.2, t = 0.1)
movej(p[0.409306237143717, 0.210017034057899, 0.314388537885761, -1.283, 0.713, -0.78], a = 0.2, v = 0.2, t = 0.1)
movej(p[0.409295596409953, 0.210022967021541, 0.314391443894088, -1.283, 0.713, -0.78], a = 0.2, v = 0.2, t = 0.1)
movej(p[0.409288601277351, 0.210030945145976, 0.314391900688768, -1.283, 0.713, -0.78], a = 0.2, v = 0.2, t = 0.1)
movej(p[0.409285208013954, 0.210039300555084, 0.314389174374195, -1.283, 0.713, -0.78], a = 0.2, v = 0.2, t = 0.1)
movej(p[0.409283671203876, 0.210046340192213, 0.314385941787788, -1.283, 0.713, -0.78], a = 0.2, v = 0.2, t = 0.1)
movej(p[0.409282707859803, 0.210052038114797, 0.314382561293234, -1.283, 0.713, -0.78], a = 0.2, v = 0.2, t = 0.1)
movej(p[0.409282697450379, 0.210056693118837, 0.31438014584089, -1.283, 0.713, -0.78], a = 0.2, v = 0.2, t = 0.1)
movej(p[0.40928483712116, 0.210061139177031, 0.314378947607403, -1.283, 0.713, -0.78], a = 0.2, v = 0.2, t = 0.1)
