movej(p[0.416128251742249, 0.245118717846071, 0.307976863072003, -1.45, 0.776, -0.754], a = 0.2, v = 0.2, t = 0.1)
movej(p[0.416109692400059, 0.245112743326356, 0.307966972497568, -1.45, 0.776, -0.754], a = 0.2, v = 0.2, t = 0.1)
movej(p[0.416092104801518, 0.245109870002712, 0.307957695586079, -1.45, 0.776, -0.754], a = 0.2, v = 0.2, t = 0.1)
movej(p[0.416076709733324, 0.245108835347534, 0.307948220790937, -1.45, 0.776, -0.754], a = 0.2, v = 0.2, t = 0.1)
movej(p[0.416065176974429, 0.24510813253847, 0.307937794746592, -1.45, 0.776, -0.754], a = 0.2, v = 0.2, t = 0.1)
movej(p[0.416056945433454, 0.245106674354278, 0.3079246917406, -1.45, 0.776, -0.754], a = 0.2, v = 0.2, t = 0.1)
movej(p[0.416051376279763, 0.245102855267701, 0.307910981039892, -1.45, 0.776, -0.754], a = 0.2, v = 0.2, t = 0.1)
movej(p[0.416047969267611, 0.245097427009315, 0.307896676073199, -1.45, 0.776, -0.754], a = 0.2, v = 0.2, t = 0.1)
movej(p[0.416046634915772, 0.245091123751675, 0.307881977264496, -1.45, 0.776, -0.754], a = 0.2, v = 0.2, t = 0.1)
movej(p[0.416047596850975, 0.245085319203385, 0.307866550074155, -1.45, 0.776, -0.754], a = 0.2, v = 0.2, t = 0.1)
movej(p[0.416051541407629, 0.245081173575032, 0.307852196094381, -1.45, 0.776, -0.754], a = 0.2, v = 0.2, t = 0.1)
movej(p[0.416059212534426, 0.245079780411718, 0.307842377743468, -1.45, 0.776, -0.754], a = 0.2, v = 0.2, t = 0.1)
movej(p[0.41606924074798, 0.245081281190303, 0.30783647398555, -1.45, 0.776, -0.754], a = 0.2, v = 0.2, t = 0.1)
movej(p[0.416079518841319, 0.245084313386506, 0.307833255503999, -1.45, 0.776, -0.754], a = 0.2, v = 0.2, t = 0.1)
movej(p[0.416087909011163, 0.245087218229502, 0.30783220935001, -1.45, 0.776, -0.754], a = 0.2, v = 0.2, t = 0.1)
movej(p[0.416095449367639, 0.245088899719879, 0.307830953797811, -1.45, 0.776, -0.754], a = 0.2, v = 0.2, t = 0.1)
movej(p[0.416102751847818, 0.245089282280124, 0.30782746280642, -1.45, 0.776, -0.754], a = 0.2, v = 0.2, t = 0.1)
movej(p[0.416108315453869, 0.245089375077398, 0.307822276665718, -1.45, 0.776, -0.754], a = 0.2, v = 0.2, t = 0.1)
movej(p[0.416111643951789, 0.245090403751384, 0.307817446070266, -1.45, 0.776, -0.754], a = 0.2, v = 0.2, t = 0.1)
movej(p[0.416114458202394, 0.245092722129711, 0.307814096834462, -1.45, 0.776, -0.754], a = 0.2, v = 0.2, t = 0.1)
movej(p[0.416120130809188, 0.245095657772815, 0.307810321029685, -1.45, 0.776, -0.754], a = 0.2, v = 0.2, t = 0.1)
movej(p[0.416128825581646, 0.245098687327837, 0.307805790876677, -1.45, 0.776, -0.754], a = 0.2, v = 0.2, t = 0.1)
movej(p[0.416138279719765, 0.245101496075208, 0.307800974420029, -1.45, 0.776, -0.754], a = 0.2, v = 0.2, t = 0.1)
movej(p[0.416144780736956, 0.245104711285043, 0.307798003823086, -1.45, 0.776, -0.754], a = 0.2, v = 0.2, t = 0.1)
movej(p[0.416148289111882, 0.245108829608144, 0.307796564463781, -1.45, 0.776, -0.754], a = 0.2, v = 0.2, t = 0.1)
movej(p[0.416150470481414, 0.245113466216935, 0.307796809477839, -1.45, 0.776, -0.754], a = 0.2, v = 0.2, t = 0.1)
movej(p[0.416152379585437, 0.245116826551216, 0.307796362908303, -1.45, 0.776, -0.754], a = 0.2, v = 0.2, t = 0.1)
movej(p[0.416153374682168, 0.245117748224591, 0.307794625577107, -1.45, 0.776, -0.754], a = 0.2, v = 0.2, t = 0.1)
movej(p[0.416152884969302, 0.245115890609599, 0.307792175994112, -1.45, 0.776, -0.754], a = 0.2, v = 0.2, t = 0.1)
movej(p[0.416151161079854, 0.24511181772283, 0.307789460335714, -1.45, 0.776, -0.754], a = 0.2, v = 0.2, t = 0.1)
movej(p[0.416148724005661, 0.245104643314246, 0.307786519946481, -1.45, 0.776, -0.754], a = 0.2, v = 0.2, t = 0.1)
movej(p[0.416143940897116, 0.245095534936694, 0.307782867122091, -1.45, 0.776, -0.754], a = 0.2, v = 0.2, t = 0.1)
movej(p[0.416136000147514, 0.245084778333082, 0.307781860372117, -1.45, 0.776, -0.754], a = 0.2, v = 0.2, t = 0.1)
movej(p[0.41612518404374, 0.245073315162467, 0.307786320507495, -1.45, 0.776, -0.754], a = 0.2, v = 0.2, t = 0.1)
movej(p[0.416114170695284, 0.245063007724778, 0.307796378819981, -1.45, 0.776, -0.754], a = 0.2, v = 0.2, t = 0.1)
movej(p[0.416104493097434, 0.245054588156676, 0.307808598488464, -1.45, 0.776, -0.754], a = 0.2, v = 0.2, t = 0.1)
movej(p[0.41609624590751, 0.245047907280693, 0.307821082474705, -1.45, 0.776, -0.754], a = 0.2, v = 0.2, t = 0.1)
movej(p[0.41608927787813, 0.245040439384285, 0.307834278958775, -1.45, 0.776, -0.754], a = 0.2, v = 0.2, t = 0.1)
movej(p[0.416081970176938, 0.245031440478371, 0.307849301027395, -1.45, 0.776, -0.754], a = 0.2, v = 0.2, t = 0.1)
movej(p[0.416073295937835, 0.245020498197704, 0.307866754930448, -1.45, 0.776, -0.754], a = 0.2, v = 0.2, t = 0.1)
movej(p[0.416063259435774, 0.245008598814171, 0.307884808535709, -1.45, 0.776, -0.754], a = 0.2, v = 0.2, t = 0.1)
movej(p[0.416052641474449, 0.244997286232407, 0.307902251483285, -1.45, 0.776, -0.754], a = 0.2, v = 0.2, t = 0.1)
movej(p[0.416042734502446, 0.244987921511234, 0.307918176864947, -1.45, 0.776, -0.754], a = 0.2, v = 0.2, t = 0.1)
movej(p[0.41603377825949, 0.244980348413965, 0.307932946343471, -1.45, 0.776, -0.754], a = 0.2, v = 0.2, t = 0.1)
movej(p[0.416027100929151, 0.244975888463813, 0.30794507450484, -1.45, 0.776, -0.754], a = 0.2, v = 0.2, t = 0.1)
movej(p[0.416024227216163, 0.244975565949476, 0.307953926808165, -1.45, 0.776, -0.754], a = 0.2, v = 0.2, t = 0.1)
movej(p[0.416026475649361, 0.244979391947265, 0.307960115972816, -1.45, 0.776, -0.754], a = 0.2, v = 0.2, t = 0.1)
movej(p[0.416033629666982, 0.244985873533485, 0.30796497267488, -1.45, 0.776, -0.754], a = 0.2, v = 0.2, t = 0.1)
movej(p[0.416044403786341, 0.244993410417871, 0.307968486554473, -1.45, 0.776, -0.754], a = 0.2, v = 0.2, t = 0.1)
movej(p[0.416057147780223, 0.245000721589981, 0.3079705297195, -1.45, 0.776, -0.754], a = 0.2, v = 0.2, t = 0.1)
movej(p[0.416070645705028, 0.245007550119083, 0.307970301504134, -1.45, 0.776, -0.754], a = 0.2, v = 0.2, t = 0.1)
movej(p[0.416083761044905, 0.245013300437457, 0.307970172366519, -1.45, 0.776, -0.754], a = 0.2, v = 0.2, t = 0.1)
movej(p[0.416096277176784, 0.245018888061602, 0.307971773025818, -1.45, 0.776, -0.754], a = 0.2, v = 0.2, t = 0.1)
movej(p[0.416107386726292, 0.245023322158306, 0.307976615615017, -1.45, 0.776, -0.754], a = 0.2, v = 0.2, t = 0.1)
movej(p[0.416116342255666, 0.245027048463524, 0.307983184807666, -1.45, 0.776, -0.754], a = 0.2, v = 0.2, t = 0.1)
movej(p[0.416122644482473, 0.245030957336922, 0.307989308283641, -1.45, 0.776, -0.754], a = 0.2, v = 0.2, t = 0.1)
movej(p[0.416127336083505, 0.245036670722294, 0.307993859792331, -1.45, 0.776, -0.754], a = 0.2, v = 0.2, t = 0.1)
movej(p[0.416132185156615, 0.245042993792473, 0.30799811976375, -1.45, 0.776, -0.754], a = 0.2, v = 0.2, t = 0.1)
movej(p[0.416139393500417, 0.245046738378889, 0.308003690448825, -1.45, 0.776, -0.754], a = 0.2, v = 0.2, t = 0.1)
movej(p[0.416148822350065, 0.24504723766906, 0.308010567439783, -1.45, 0.776, -0.754], a = 0.2, v = 0.2, t = 0.1)
movej(p[0.416160238975654, 0.245046647309253, 0.308017509266952, -1.45, 0.776, -0.754], a = 0.2, v = 0.2, t = 0.1)
movej(p[0.416171662465483, 0.245046900484989, 0.308025161760479, -1.45, 0.776, -0.754], a = 0.2, v = 0.2, t = 0.1)
movej(p[0.416183097507235, 0.24504801838487, 0.308035330070515, -1.45, 0.776, -0.754], a = 0.2, v = 0.2, t = 0.1)
movej(p[0.416194616319086, 0.245049807573852, 0.308047455311186, -1.45, 0.776, -0.754], a = 0.2, v = 0.2, t = 0.1)
movej(p[0.41620702254975, 0.245050657088266, 0.308061357458034, -1.45, 0.776, -0.754], a = 0.2, v = 0.2, t = 0.1)
movej(p[0.416219791069315, 0.245050764177396, 0.308075326868903, -1.45, 0.776, -0.754], a = 0.2, v = 0.2, t = 0.1)
movej(p[0.416231921638504, 0.245050461653287, 0.308087767232254, -1.45, 0.776, -0.754], a = 0.2, v = 0.2, t = 0.1)
movej(p[0.41624203337976, 0.245050053792966, 0.308094856557944, -1.45, 0.776, -0.754], a = 0.2, v = 0.2, t = 0.1)
movej(p[0.416249315140056, 0.245049775463256, 0.308094683538999, -1.45, 0.776, -0.754], a = 0.2, v = 0.2, t = 0.1)
movej(p[0.416252314107025, 0.245049531534625, 0.308089419532736, -1.45, 0.776, -0.754], a = 0.2, v = 0.2, t = 0.1)
movej(p[0.416250342109491, 0.24505007195974, 0.308083092689651, -1.45, 0.776, -0.754], a = 0.2, v = 0.2, t = 0.1)
movej(p[0.416244924437741, 0.24505065647312, 0.3080762891544, -1.45, 0.776, -0.754], a = 0.2, v = 0.2, t = 0.1)
movej(p[0.416237696909673, 0.245050881155529, 0.308067418410697, -1.45, 0.776, -0.754], a = 0.2, v = 0.2, t = 0.1)
movej(p[0.416229056734398, 0.245051081052638, 0.308056874694921, -1.45, 0.776, -0.754], a = 0.2, v = 0.2, t = 0.1)
movej(p[0.416217888959734, 0.245050726540509, 0.308047619599232, -1.45, 0.776, -0.754], a = 0.2, v = 0.2, t = 0.1)
movej(p[0.416203966058847, 0.245048824454909, 0.308040502540692, -1.45, 0.776, -0.754], a = 0.2, v = 0.2, t = 0.1)
movej(p[0.416188886805282, 0.245044617826629, 0.308033248662872, -1.45, 0.776, -0.754], a = 0.2, v = 0.2, t = 0.1)
movej(p[0.416174793756408, 0.245037965289235, 0.308023189782036, -1.45, 0.776, -0.754], a = 0.2, v = 0.2, t = 0.1)
movej(p[0.416161493179191, 0.245029091703144, 0.308010917944048, -1.45, 0.776, -0.754], a = 0.2, v = 0.2, t = 0.1)
movej(p[0.416147940605249, 0.245018973338747, 0.30799620042607, -1.45, 0.776, -0.754], a = 0.2, v = 0.2, t = 0.1)
movej(p[0.41613303476688, 0.245007430323553, 0.30797824260093, -1.45, 0.776, -0.754], a = 0.2, v = 0.2, t = 0.1)
movej(p[0.416116761888372, 0.244995042309696, 0.307957879880882, -1.45, 0.776, -0.754], a = 0.2, v = 0.2, t = 0.1)
movej(p[0.41609921311545, 0.244982587568773, 0.307936640013216, -1.45, 0.776, -0.754], a = 0.2, v = 0.2, t = 0.1)
movej(p[0.416079914448909, 0.244972526392066, 0.307918306879741, -1.45, 0.776, -0.754], a = 0.2, v = 0.2, t = 0.1)
movej(p[0.416059900760578, 0.244964594395076, 0.307903586291432, -1.45, 0.776, -0.754], a = 0.2, v = 0.2, t = 0.1)
movej(p[0.41603934133534, 0.244957645525271, 0.307894677397039, -1.45, 0.776, -0.754], a = 0.2, v = 0.2, t = 0.1)
movej(p[0.416017763925284, 0.244949649633699, 0.307894505047862, -1.45, 0.776, -0.754], a = 0.2, v = 0.2, t = 0.1)
movej(p[0.415996372690494, 0.244941979367556, 0.307902452066324, -1.45, 0.776, -0.754], a = 0.2, v = 0.2, t = 0.1)
movej(p[0.415976724186219, 0.244936046867585, 0.307914002967148, -1.45, 0.776, -0.754], a = 0.2, v = 0.2, t = 0.1)
movej(p[0.41596161996057, 0.244932405406732, 0.307923702680103, -1.45, 0.776, -0.754], a = 0.2, v = 0.2, t = 0.1)
movej(p[0.415951772842145, 0.244930936825839, 0.307930455742362, -1.45, 0.776, -0.754], a = 0.2, v = 0.2, t = 0.1)
movej(p[0.415947049959156, 0.244931696683878, 0.307936255795641, -1.45, 0.776, -0.754], a = 0.2, v = 0.2, t = 0.1)
movej(p[0.415944900990524, 0.244933902098431, 0.307944429392736, -1.45, 0.776, -0.754], a = 0.2, v = 0.2, t = 0.1)
movej(p[0.415944537125843, 0.244938053553182, 0.307955896133683, -1.45, 0.776, -0.754], a = 0.2, v = 0.2, t = 0.1)
movej(p[0.415946146075455, 0.244943996670193, 0.30797087166931, -1.45, 0.776, -0.754], a = 0.2, v = 0.2, t = 0.1)
movej(p[0.41595023147749, 0.244950654297151, 0.307988563159454, -1.45, 0.776, -0.754], a = 0.2, v = 0.2, t = 0.1)
movej(p[0.415957275255989, 0.244956688925772, 0.308007140224423, -1.45, 0.776, -0.754], a = 0.2, v = 0.2, t = 0.1)
movej(p[0.415967015646947, 0.244962107089084, 0.308024945640658, -1.45, 0.776, -0.754], a = 0.2, v = 0.2, t = 0.1)
movej(p[0.415978147378205, 0.244967857649432, 0.308039756659896, -1.45, 0.776, -0.754], a = 0.2, v = 0.2, t = 0.1)
movej(p[0.415988722057169, 0.244975517083222, 0.308052778710458, -1.45, 0.776, -0.754], a = 0.2, v = 0.2, t = 0.1)
movej(p[0.415997609426551, 0.244985179548782, 0.308066659168907, -1.45, 0.776, -0.754], a = 0.2, v = 0.2, t = 0.1)
movej(p[0.416004847140702, 0.244996701325733, 0.308082240738397, -1.45, 0.776, -0.754], a = 0.2, v = 0.2, t = 0.1)
movej(p[0.416009869610196, 0.24500793824522, 0.308098482187675, -1.45, 0.776, -0.754], a = 0.2, v = 0.2, t = 0.1)
movej(p[0.416012258160381, 0.245017788505285, 0.308113285999402, -1.45, 0.776, -0.754], a = 0.2, v = 0.2, t = 0.1)
movej(p[0.416013616128781, 0.245026356897107, 0.308125239906396, -1.45, 0.776, -0.754], a = 0.2, v = 0.2, t = 0.1)
movej(p[0.416015245852047, 0.245032754766513, 0.308135640969954, -1.45, 0.776, -0.754], a = 0.2, v = 0.2, t = 0.1)
movej(p[0.416017580252837, 0.245037650013389, 0.308146856275566, -1.45, 0.776, -0.754], a = 0.2, v = 0.2, t = 0.1)
movej(p[0.41601983218425, 0.245043184503007, 0.308159991102348, -1.45, 0.776, -0.754], a = 0.2, v = 0.2, t = 0.1)
movej(p[0.416022890530748, 0.24505039250882, 0.308175438762944, -1.45, 0.776, -0.754], a = 0.2, v = 0.2, t = 0.1)
movej(p[0.416027267191041, 0.245057628774904, 0.308191658034901, -1.45, 0.776, -0.754], a = 0.2, v = 0.2, t = 0.1)
movej(p[0.416032002236768, 0.245063138640196, 0.308206772962173, -1.45, 0.776, -0.754], a = 0.2, v = 0.2, t = 0.1)
movej(p[0.416035737277589, 0.245068427959856, 0.308219616244487, -1.45, 0.776, -0.754], a = 0.2, v = 0.2, t = 0.1)
movej(p[0.416036967207372, 0.245073358823978, 0.308229362945249, -1.45, 0.776, -0.754], a = 0.2, v = 0.2, t = 0.1)
movej(p[0.416034350407564, 0.24507705128426, 0.308236480649361, -1.45, 0.776, -0.754], a = 0.2, v = 0.2, t = 0.1)
movej(p[0.416027553456644, 0.245078765078242, 0.308242341804485, -1.45, 0.776, -0.754], a = 0.2, v = 0.2, t = 0.1)
movej(p[0.416017464519932, 0.245077786914934, 0.308246293748127, -1.45, 0.776, -0.754], a = 0.2, v = 0.2, t = 0.1)
movej(p[0.416005470180575, 0.245074188749075, 0.308248549214123, -1.45, 0.776, -0.754], a = 0.2, v = 0.2, t = 0.1)
movej(p[0.415991320469439, 0.245068681655722, 0.308247674644766, -1.45, 0.776, -0.754], a = 0.2, v = 0.2, t = 0.1)
movej(p[0.415974422050219, 0.245063051289781, 0.308244453482829, -1.45, 0.776, -0.754], a = 0.2, v = 0.2, t = 0.1)
movej(p[0.415955415953224, 0.245056783628382, 0.308236885940915, -1.45, 0.776, -0.754], a = 0.2, v = 0.2, t = 0.1)
movej(p[0.415935137933361, 0.245049976671584, 0.308226234774237, -1.45, 0.776, -0.754], a = 0.2, v = 0.2, t = 0.1)
movej(p[0.415913470969845, 0.245042484309172, 0.308214291020745, -1.45, 0.776, -0.754], a = 0.2, v = 0.2, t = 0.1)
movej(p[0.41589182544966, 0.245034516385162, 0.308202511030342, -1.45, 0.776, -0.754], a = 0.2, v = 0.2, t = 0.1)
movej(p[0.415871191512819, 0.245026778741285, 0.308190532782029, -1.45, 0.776, -0.754], a = 0.2, v = 0.2, t = 0.1)
movej(p[0.415851159458312, 0.245018155643172, 0.308178202162532, -1.45, 0.776, -0.754], a = 0.2, v = 0.2, t = 0.1)
movej(p[0.41583078078079, 0.245008410024312, 0.308166955523503, -1.45, 0.776, -0.754], a = 0.2, v = 0.2, t = 0.1)
movej(p[0.415809890002447, 0.244996251282762, 0.308158274790286, -1.45, 0.776, -0.754], a = 0.2, v = 0.2, t = 0.1)
movej(p[0.415790907913246, 0.244983959389542, 0.30815250079586, -1.45, 0.776, -0.754], a = 0.2, v = 0.2, t = 0.1)
movej(p[0.415776407613056, 0.244974561417357, 0.308147648255886, -1.45, 0.776, -0.754], a = 0.2, v = 0.2, t = 0.1)
movej(p[0.415766441668325, 0.244968342322899, 0.308142391317638, -1.45, 0.776, -0.754], a = 0.2, v = 0.2, t = 0.1)
movej(p[0.415760530640632, 0.24496523332294, 0.308135090766161, -1.45, 0.776, -0.754], a = 0.2, v = 0.2, t = 0.1)
movej(p[0.415758879744818, 0.24496466561037, 0.308124346137482, -1.45, 0.776, -0.754], a = 0.2, v = 0.2, t = 0.1)
movej(p[0.415761523827143, 0.244965593376743, 0.308109995828906, -1.45, 0.776, -0.754], a = 0.2, v = 0.2, t = 0.1)
movej(p[0.41576921431217, 0.24496653101664, 0.308093613180724, -1.45, 0.776, -0.754], a = 0.2, v = 0.2, t = 0.1)
movej(p[0.415780195520512, 0.244965846809911, 0.308080007641576, -1.45, 0.776, -0.754], a = 0.2, v = 0.2, t = 0.1)
movej(p[0.4157940279653, 0.244964615396158, 0.308070709967816, -1.45, 0.776, -0.754], a = 0.2, v = 0.2, t = 0.1)
movej(p[0.415811094494857, 0.244964506139348, 0.308065759947733, -1.45, 0.776, -0.754], a = 0.2, v = 0.2, t = 0.1)
movej(p[0.415830387423958, 0.244967734347283, 0.308062158648212, -1.45, 0.776, -0.754], a = 0.2, v = 0.2, t = 0.1)
movej(p[0.415851035161413, 0.244974681060547, 0.308060298239968, -1.45, 0.776, -0.754], a = 0.2, v = 0.2, t = 0.1)
movej(p[0.415872251478738, 0.244985174472357, 0.308061710286974, -1.45, 0.776, -0.754], a = 0.2, v = 0.2, t = 0.1)
movej(p[0.415893508785825, 0.244997766797879, 0.308067731283433, -1.45, 0.776, -0.754], a = 0.2, v = 0.2, t = 0.1)
movej(p[0.41591267243978, 0.245010409018343, 0.308075186992776, -1.45, 0.776, -0.754], a = 0.2, v = 0.2, t = 0.1)
movej(p[0.415927157061339, 0.245021887859972, 0.308081660061535, -1.45, 0.776, -0.754], a = 0.2, v = 0.2, t = 0.1)
movej(p[0.415937423383584, 0.245030137075097, 0.308088906748115, -1.45, 0.776, -0.754], a = 0.2, v = 0.2, t = 0.1)
movej(p[0.415945245859057, 0.245034932912348, 0.308096573488526, -1.45, 0.776, -0.754], a = 0.2, v = 0.2, t = 0.1)
movej(p[0.415951545181235, 0.24503634362115, 0.30810414517934, -1.45, 0.776, -0.754], a = 0.2, v = 0.2, t = 0.1)
movej(p[0.415956089312694, 0.24503663808851, 0.308110741434054, -1.45, 0.776, -0.754], a = 0.2, v = 0.2, t = 0.1)
movej(p[0.415959076411141, 0.245036791579524, 0.308118201216918, -1.45, 0.776, -0.754], a = 0.2, v = 0.2, t = 0.1)
movej(p[0.415961982586441, 0.2450383876381, 0.308125313937435, -1.45, 0.776, -0.754], a = 0.2, v = 0.2, t = 0.1)
movej(p[0.415965384810394, 0.245041760209239, 0.308129700593232, -1.45, 0.776, -0.754], a = 0.2, v = 0.2, t = 0.1)
movej(p[0.415970452835698, 0.245046356936077, 0.308130074343015, -1.45, 0.776, -0.754], a = 0.2, v = 0.2, t = 0.1)
movej(p[0.415976855851431, 0.245050464831635, 0.308128766303414, -1.45, 0.776, -0.754], a = 0.2, v = 0.2, t = 0.1)
movej(p[0.41598452311005, 0.245053460587369, 0.308129069111705, -1.45, 0.776, -0.754], a = 0.2, v = 0.2, t = 0.1)
movej(p[0.415992651034429, 0.245056231998461, 0.308131986300906, -1.45, 0.776, -0.754], a = 0.2, v = 0.2, t = 0.1)
movej(p[0.416000634173757, 0.24505877058386, 0.308135276502822, -1.45, 0.776, -0.754], a = 0.2, v = 0.2, t = 0.1)
movej(p[0.416007619660221, 0.245060133653738, 0.308138311830213, -1.45, 0.776, -0.754], a = 0.2, v = 0.2, t = 0.1)
movej(p[0.416013813278159, 0.245059576171276, 0.30814035250342, -1.45, 0.776, -0.754], a = 0.2, v = 0.2, t = 0.1)
movej(p[0.416019167418128, 0.245057673437005, 0.308140112144337, -1.45, 0.776, -0.754], a = 0.2, v = 0.2, t = 0.1)
movej(p[0.416023249725181, 0.245054385531857, 0.308133720815926, -1.45, 0.776, -0.754], a = 0.2, v = 0.2, t = 0.1)
movej(p[0.416027116292816, 0.245050746013462, 0.308122053612551, -1.45, 0.776, -0.754], a = 0.2, v = 0.2, t = 0.1)
movej(p[0.416031492364441, 0.245047097326388, 0.308107523635064, -1.45, 0.776, -0.754], a = 0.2, v = 0.2, t = 0.1)
movej(p[0.416036258554271, 0.245042910677741, 0.308094559936649, -1.45, 0.776, -0.754], a = 0.2, v = 0.2, t = 0.1)
movej(p[0.416040473070769, 0.245036586743674, 0.308085189769863, -1.45, 0.776, -0.754], a = 0.2, v = 0.2, t = 0.1)
movej(p[0.416043935731821, 0.24502650514577, 0.308079181225435, -1.45, 0.776, -0.754], a = 0.2, v = 0.2, t = 0.1)
movej(p[0.41604673315114, 0.245013779799214, 0.308074959473525, -1.45, 0.776, -0.754], a = 0.2, v = 0.2, t = 0.1)
movej(p[0.416047699787871, 0.245000137109806, 0.308072011592568, -1.45, 0.776, -0.754], a = 0.2, v = 0.2, t = 0.1)
movej(p[0.41604582142801, 0.244988542614621, 0.308069580761714, -1.45, 0.776, -0.754], a = 0.2, v = 0.2, t = 0.1)
movej(p[0.416041661774761, 0.244978647439536, 0.308068183893471, -1.45, 0.776, -0.754], a = 0.2, v = 0.2, t = 0.1)
movej(p[0.4160349289651, 0.244970056761578, 0.308065983827041, -1.45, 0.776, -0.754], a = 0.2, v = 0.2, t = 0.1)
movej(p[0.416025345812294, 0.244961299386611, 0.308065375512181, -1.45, 0.776, -0.754], a = 0.2, v = 0.2, t = 0.1)
movej(p[0.416013699256012, 0.24495339451284, 0.308066659406825, -1.45, 0.776, -0.754], a = 0.2, v = 0.2, t = 0.1)
movej(p[0.415999788057052, 0.24494612065625, 0.308069205313693, -1.45, 0.776, -0.754], a = 0.2, v = 0.2, t = 0.1)
movej(p[0.415979954757307, 0.244938463665129, 0.308069737344888, -1.45, 0.776, -0.754], a = 0.2, v = 0.2, t = 0.1)
movej(p[0.415955860858338, 0.244930525051682, 0.308066630049754, -1.45, 0.776, -0.754], a = 0.2, v = 0.2, t = 0.1)
movej(p[0.415931329160403, 0.24492147461503, 0.308060564502227, -1.45, 0.776, -0.754], a = 0.2, v = 0.2, t = 0.1)
movej(p[0.415911230997337, 0.244912356148164, 0.30805009096928, -1.45, 0.776, -0.754], a = 0.2, v = 0.2, t = 0.1)
movej(p[0.415894078549392, 0.244904864348951, 0.308036884761496, -1.45, 0.776, -0.754], a = 0.2, v = 0.2, t = 0.1)
movej(p[0.41588018202013, 0.244899393170837, 0.308022257556208, -1.45, 0.776, -0.754], a = 0.2, v = 0.2, t = 0.1)
movej(p[0.415870618668221, 0.244895296359128, 0.308008601052736, -1.45, 0.776, -0.754], a = 0.2, v = 0.2, t = 0.1)
movej(p[0.415864149591995, 0.244893228311084, 0.307996621444309, -1.45, 0.776, -0.754], a = 0.2, v = 0.2, t = 0.1)
movej(p[0.415858446069513, 0.244894797328335, 0.30798506189124, -1.45, 0.776, -0.754], a = 0.2, v = 0.2, t = 0.1)
movej(p[0.415853560939824, 0.244900818820118, 0.307974887447833, -1.45, 0.776, -0.754], a = 0.2, v = 0.2, t = 0.1)
movej(p[0.41585049057596, 0.244908385928328, 0.307967457922069, -1.45, 0.776, -0.754], a = 0.2, v = 0.2, t = 0.1)
movej(p[0.415849355590143, 0.244915603919038, 0.307962966495314, -1.45, 0.776, -0.754], a = 0.2, v = 0.2, t = 0.1)
movej(p[0.415849969696128, 0.244922296493731, 0.307959972084549, -1.45, 0.776, -0.754], a = 0.2, v = 0.2, t = 0.1)
movej(p[0.415853487344837, 0.244929005070442, 0.307955063099006, -1.45, 0.776, -0.754], a = 0.2, v = 0.2, t = 0.1)
movej(p[0.415859180435412, 0.244934955212318, 0.30794940111593, -1.45, 0.776, -0.754], a = 0.2, v = 0.2, t = 0.1)
movej(p[0.415862085331551, 0.244938465110672, 0.307944180221661, -1.45, 0.776, -0.754], a = 0.2, v = 0.2, t = 0.1)
movej(p[0.415861850324295, 0.244939884840786, 0.307942034008253, -1.45, 0.776, -0.754], a = 0.2, v = 0.2, t = 0.1)
movej(p[0.4158593024209, 0.244939870904051, 0.307940787712519, -1.45, 0.776, -0.754], a = 0.2, v = 0.2, t = 0.1)
movej(p[0.415858173319038, 0.244939978908157, 0.30793628524685, -1.45, 0.776, -0.754], a = 0.2, v = 0.2, t = 0.1)
movej(p[0.415858054206728, 0.244939814655925, 0.307927263916767, -1.45, 0.776, -0.754], a = 0.2, v = 0.2, t = 0.1)
movej(p[0.415860369504888, 0.244940121726079, 0.307917715733885, -1.45, 0.776, -0.754], a = 0.2, v = 0.2, t = 0.1)
movej(p[0.415868514726728, 0.244941992782416, 0.307913922845358, -1.45, 0.776, -0.754], a = 0.2, v = 0.2, t = 0.1)
movej(p[0.415882438318249, 0.244946167156946, 0.307917081109191, -1.45, 0.776, -0.754], a = 0.2, v = 0.2, t = 0.1)
movej(p[0.415900293362158, 0.24495186851016, 0.307923580327261, -1.45, 0.776, -0.754], a = 0.2, v = 0.2, t = 0.1)
movej(p[0.415919363611207, 0.244958443768152, 0.30793127893347, -1.45, 0.776, -0.754], a = 0.2, v = 0.2, t = 0.1)
movej(p[0.41593670622432, 0.24496507152478, 0.307938366434968, -1.45, 0.776, -0.754], a = 0.2, v = 0.2, t = 0.1)
movej(p[0.415951119528211, 0.244972648421138, 0.307946249332755, -1.45, 0.776, -0.754], a = 0.2, v = 0.2, t = 0.1)
movej(p[0.415961937307525, 0.244980965977025, 0.307955531894243, -1.45, 0.776, -0.754], a = 0.2, v = 0.2, t = 0.1)
movej(p[0.415970404423625, 0.244990284185691, 0.307964855668222, -1.45, 0.776, -0.754], a = 0.2, v = 0.2, t = 0.1)
movej(p[0.415978273177991, 0.24499895961583, 0.307973572859147, -1.45, 0.776, -0.754], a = 0.2, v = 0.2, t = 0.1)
movej(p[0.415986899211869, 0.245004445345943, 0.307980658391566, -1.45, 0.776, -0.754], a = 0.2, v = 0.2, t = 0.1)
movej(p[0.415997157161741, 0.245006534245011, 0.307986071598944, -1.45, 0.776, -0.754], a = 0.2, v = 0.2, t = 0.1)
movej(p[0.416007502204417, 0.245007388831874, 0.307989420354283, -1.45, 0.776, -0.754], a = 0.2, v = 0.2, t = 0.1)
movej(p[0.416014936474883, 0.245009149695033, 0.307990974894915, -1.45, 0.776, -0.754], a = 0.2, v = 0.2, t = 0.1)
movej(p[0.416018429142791, 0.245010791200519, 0.307991276889332, -1.45, 0.776, -0.754], a = 0.2, v = 0.2, t = 0.1)
movej(p[0.416018907267558, 0.24501047334607, 0.3079906419663, -1.45, 0.776, -0.754], a = 0.2, v = 0.2, t = 0.1)
movej(p[0.416019106065265, 0.245007988368774, 0.307992496134661, -1.45, 0.776, -0.754], a = 0.2, v = 0.2, t = 0.1)
movej(p[0.416020568438393, 0.245005073484009, 0.308001464514484, -1.45, 0.776, -0.754], a = 0.2, v = 0.2, t = 0.1)
movej(p[0.416022935857254, 0.245001789961242, 0.308016041372553, -1.45, 0.776, -0.754], a = 0.2, v = 0.2, t = 0.1)
movej(p[0.416024455980484, 0.244998409142284, 0.308026782088476, -1.45, 0.776, -0.754], a = 0.2, v = 0.2, t = 0.1)
movej(p[0.416025474212684, 0.244995499444833, 0.308029053701323, -1.45, 0.776, -0.754], a = 0.2, v = 0.2, t = 0.1)
movej(p[0.416026770392798, 0.244993386868259, 0.308027093798689, -1.45, 0.776, -0.754], a = 0.2, v = 0.2, t = 0.1)
movej(p[0.416028822814222, 0.244991272456988, 0.308031402299737, -1.45, 0.776, -0.754], a = 0.2, v = 0.2, t = 0.1)
movej(p[0.416030013892443, 0.244988453757484, 0.308041609551413, -1.45, 0.776, -0.754], a = 0.2, v = 0.2, t = 0.1)
movej(p[0.41602884861787, 0.244985096830959, 0.308054416173625, -1.45, 0.776, -0.754], a = 0.2, v = 0.2, t = 0.1)
movej(p[0.416025271731355, 0.244981499436154, 0.308066755941632, -1.45, 0.776, -0.754], a = 0.2, v = 0.2, t = 0.1)
movej(p[0.41601976787616, 0.244977271601229, 0.308077862400691, -1.45, 0.776, -0.754], a = 0.2, v = 0.2, t = 0.1)
movej(p[0.416013451724666, 0.244971688133593, 0.308085604117907, -1.45, 0.776, -0.754], a = 0.2, v = 0.2, t = 0.1)
movej(p[0.416006275226208, 0.244965098271848, 0.30808955890312, -1.45, 0.776, -0.754], a = 0.2, v = 0.2, t = 0.1)
movej(p[0.415998688808086, 0.244959060743745, 0.308089643131858, -1.45, 0.776, -0.754], a = 0.2, v = 0.2, t = 0.1)
movej(p[0.415990744268975, 0.244956598862562, 0.308086064420867, -1.45, 0.776, -0.754], a = 0.2, v = 0.2, t = 0.1)
movej(p[0.415982630734041, 0.244958233364589, 0.308079167528597, -1.45, 0.776, -0.754], a = 0.2, v = 0.2, t = 0.1)
movej(p[0.415974822357193, 0.24496267938157, 0.308068657135502, -1.45, 0.776, -0.754], a = 0.2, v = 0.2, t = 0.1)
movej(p[0.415966209201594, 0.244966741175709, 0.308057865100846, -1.45, 0.776, -0.754], a = 0.2, v = 0.2, t = 0.1)
movej(p[0.415956439460951, 0.244969244273551, 0.308047162792966, -1.45, 0.776, -0.754], a = 0.2, v = 0.2, t = 0.1)
movej(p[0.415946012970276, 0.24496976093949, 0.308038047321146, -1.45, 0.776, -0.754], a = 0.2, v = 0.2, t = 0.1)
movej(p[0.415935774492655, 0.244970051421001, 0.308029343167569, -1.45, 0.776, -0.754], a = 0.2, v = 0.2, t = 0.1)
movej(p[0.415925878396996, 0.244970025921107, 0.308018904524053, -1.45, 0.776, -0.754], a = 0.2, v = 0.2, t = 0.1)
movej(p[0.415917264374415, 0.244969488451327, 0.308004134720594, -1.45, 0.776, -0.754], a = 0.2, v = 0.2, t = 0.1)
movej(p[0.415911319294999, 0.244967102664865, 0.307987282265499, -1.45, 0.776, -0.754], a = 0.2, v = 0.2, t = 0.1)
movej(p[0.415910789534412, 0.24496288198145, 0.307971429931973, -1.45, 0.776, -0.754], a = 0.2, v = 0.2, t = 0.1)
movej(p[0.415917162141941, 0.244956383061508, 0.307960050721374, -1.45, 0.776, -0.754], a = 0.2, v = 0.2, t = 0.1)
movej(p[0.415929747214021, 0.24494919356691, 0.307953528638717, -1.45, 0.776, -0.754], a = 0.2, v = 0.2, t = 0.1)
movej(p[0.415944849894133, 0.244941743960818, 0.307950444370163, -1.45, 0.776, -0.754], a = 0.2, v = 0.2, t = 0.1)
movej(p[0.415958347399888, 0.24493763132773, 0.30794995563459, -1.45, 0.776, -0.754], a = 0.2, v = 0.2, t = 0.1)
movej(p[0.415970454888548, 0.244936735523079, 0.307948401315006, -1.45, 0.776, -0.754], a = 0.2, v = 0.2, t = 0.1)
movej(p[0.415982564729401, 0.244940161222088, 0.307946035022161, -1.45, 0.776, -0.754], a = 0.2, v = 0.2, t = 0.1)
movej(p[0.415995295958679, 0.244946973566288, 0.307943934813468, -1.45, 0.776, -0.754], a = 0.2, v = 0.2, t = 0.1)
movej(p[0.416008441753559, 0.244957916156346, 0.307941457173295, -1.45, 0.776, -0.754], a = 0.2, v = 0.2, t = 0.1)
movej(p[0.416020561784344, 0.244971511168588, 0.307937045397249, -1.45, 0.776, -0.754], a = 0.2, v = 0.2, t = 0.1)
movej(p[0.416031214889212, 0.244985816307701, 0.307930397182252, -1.45, 0.776, -0.754], a = 0.2, v = 0.2, t = 0.1)
movej(p[0.416040401307293, 0.244997257252049, 0.307923441191002, -1.45, 0.776, -0.754], a = 0.2, v = 0.2, t = 0.1)
movej(p[0.416049016450508, 0.245004878593766, 0.307918600460911, -1.45, 0.776, -0.754], a = 0.2, v = 0.2, t = 0.1)
movej(p[0.416057011743305, 0.245009025730317, 0.307915425839434, -1.45, 0.776, -0.754], a = 0.2, v = 0.2, t = 0.1)
movej(p[0.41606331405496, 0.245011686153426, 0.30791337227237, -1.45, 0.776, -0.754], a = 0.2, v = 0.2, t = 0.1)
movej(p[0.416066955054213, 0.245013312039031, 0.307910519691882, -1.45, 0.776, -0.754], a = 0.2, v = 0.2, t = 0.1)
movej(p[0.41606710169655, 0.245012255818635, 0.307905738850482, -1.45, 0.776, -0.754], a = 0.2, v = 0.2, t = 0.1)
movej(p[0.416065807981742, 0.245008762723949, 0.307898095369042, -1.45, 0.776, -0.754], a = 0.2, v = 0.2, t = 0.1)
movej(p[0.4160655562415, 0.245004705352376, 0.307888807617066, -1.45, 0.776, -0.754], a = 0.2, v = 0.2, t = 0.1)
movej(p[0.416067513645032, 0.245001597952303, 0.307883381373596, -1.45, 0.776, -0.754], a = 0.2, v = 0.2, t = 0.1)
movej(p[0.416070094444317, 0.244997246635161, 0.307884919197116, -1.45, 0.776, -0.754], a = 0.2, v = 0.2, t = 0.1)
movej(p[0.416073833762122, 0.244990613586099, 0.30789337745323, -1.45, 0.776, -0.754], a = 0.2, v = 0.2, t = 0.1)
movej(p[0.416077343937989, 0.244982326342155, 0.307906458826827, -1.45, 0.776, -0.754], a = 0.2, v = 0.2, t = 0.1)
movej(p[0.416080920398247, 0.244976174436246, 0.307922064831656, -1.45, 0.776, -0.754], a = 0.2, v = 0.2, t = 0.1)
movej(p[0.416083887554209, 0.244973984085615, 0.307936986250442, -1.45, 0.776, -0.754], a = 0.2, v = 0.2, t = 0.1)
movej(p[0.416087286154621, 0.24497493032775, 0.307946154299911, -1.45, 0.776, -0.754], a = 0.2, v = 0.2, t = 0.1)
movej(p[0.416091107944588, 0.244975796679779, 0.307951057583364, -1.45, 0.776, -0.754], a = 0.2, v = 0.2, t = 0.1)
movej(p[0.416094588553892, 0.244975295037671, 0.307953388013381, -1.45, 0.776, -0.754], a = 0.2, v = 0.2, t = 0.1)
movej(p[0.416098468046349, 0.24497463574777, 0.307956324998758, -1.45, 0.776, -0.754], a = 0.2, v = 0.2, t = 0.1)
movej(p[0.416102037084523, 0.244976439004215, 0.307960058870971, -1.45, 0.776, -0.754], a = 0.2, v = 0.2, t = 0.1)
movej(p[0.416100843008529, 0.244979208734985, 0.307966276007932, -1.45, 0.776, -0.754], a = 0.2, v = 0.2, t = 0.1)
movej(p[0.416094653598663, 0.244981225048666, 0.307973900808627, -1.45, 0.776, -0.754], a = 0.2, v = 0.2, t = 0.1)
movej(p[0.416085166931892, 0.244981152008856, 0.307981657726298, -1.45, 0.776, -0.754], a = 0.2, v = 0.2, t = 0.1)
movej(p[0.416074661354016, 0.244979194181559, 0.307987047885366, -1.45, 0.776, -0.754], a = 0.2, v = 0.2, t = 0.1)
movej(p[0.416062780516477, 0.244975705262548, 0.307989728231891, -1.45, 0.776, -0.754], a = 0.2, v = 0.2, t = 0.1)
movej(p[0.416049566611359, 0.244970883497362, 0.307990985497987, -1.45, 0.776, -0.754], a = 0.2, v = 0.2, t = 0.1)
movej(p[0.416037372492777, 0.244965799434086, 0.30799111342218, -1.45, 0.776, -0.754], a = 0.2, v = 0.2, t = 0.1)
movej(p[0.416025843888046, 0.244959969395343, 0.307991336592998, -1.45, 0.776, -0.754], a = 0.2, v = 0.2, t = 0.1)
movej(p[0.416013211245138, 0.244952702396824, 0.30798915478579, -1.45, 0.776, -0.754], a = 0.2, v = 0.2, t = 0.1)
movej(p[0.415998853438412, 0.244943719748382, 0.307981686152583, -1.45, 0.776, -0.754], a = 0.2, v = 0.2, t = 0.1)
movej(p[0.41598234365512, 0.244933915481231, 0.30796993764922, -1.45, 0.776, -0.754], a = 0.2, v = 0.2, t = 0.1)
movej(p[0.415963955039761, 0.244926269194087, 0.307956880510556, -1.45, 0.776, -0.754], a = 0.2, v = 0.2, t = 0.1)
movej(p[0.4159445041887, 0.244921904713366, 0.307945052220101, -1.45, 0.776, -0.754], a = 0.2, v = 0.2, t = 0.1)
movej(p[0.415926449472413, 0.244919264046343, 0.307934060197564, -1.45, 0.776, -0.754], a = 0.2, v = 0.2, t = 0.1)
movej(p[0.415910143871145, 0.244915282718467, 0.307923691101286, -1.45, 0.776, -0.754], a = 0.2, v = 0.2, t = 0.1)
movej(p[0.415894667117027, 0.244909575719686, 0.307913977677436, -1.45, 0.776, -0.754], a = 0.2, v = 0.2, t = 0.1)
movej(p[0.415879883509372, 0.244903171717606, 0.307904044445985, -1.45, 0.776, -0.754], a = 0.2, v = 0.2, t = 0.1)
movej(p[0.415867860507536, 0.244897931149042, 0.307893477779482, -1.45, 0.776, -0.754], a = 0.2, v = 0.2, t = 0.1)
movej(p[0.415859356206627, 0.244894088204624, 0.307882166468407, -1.45, 0.776, -0.754], a = 0.2, v = 0.2, t = 0.1)
movej(p[0.415855984361452, 0.244891827705329, 0.307873934582532, -1.45, 0.776, -0.754], a = 0.2, v = 0.2, t = 0.1)
movej(p[0.415856931141248, 0.244891709678555, 0.307870375861737, -1.45, 0.776, -0.754], a = 0.2, v = 0.2, t = 0.1)
movej(p[0.415861725700009, 0.244893742418354, 0.307873401089694, -1.45, 0.776, -0.754], a = 0.2, v = 0.2, t = 0.1)
movej(p[0.415869651924185, 0.244898919772853, 0.307881389503536, -1.45, 0.776, -0.754], a = 0.2, v = 0.2, t = 0.1)
movej(p[0.415880701788829, 0.244906522346033, 0.307892944213155, -1.45, 0.776, -0.754], a = 0.2, v = 0.2, t = 0.1)
movej(p[0.415894396045812, 0.244916053604535, 0.307905938618954, -1.45, 0.776, -0.754], a = 0.2, v = 0.2, t = 0.1)
movej(p[0.415909343524043, 0.244927253632266, 0.307918730380339, -1.45, 0.776, -0.754], a = 0.2, v = 0.2, t = 0.1)
movej(p[0.415924976478192, 0.244939822180293, 0.30793143448346, -1.45, 0.776, -0.754], a = 0.2, v = 0.2, t = 0.1)
movej(p[0.415940444954198, 0.244953366607532, 0.307944227371165, -1.45, 0.776, -0.754], a = 0.2, v = 0.2, t = 0.1)
movej(p[0.415955904581228, 0.24496642642661, 0.307956056438022, -1.45, 0.776, -0.754], a = 0.2, v = 0.2, t = 0.1)
movej(p[0.415971243972862, 0.244978905017888, 0.307964109083862, -1.45, 0.776, -0.754], a = 0.2, v = 0.2, t = 0.1)
movej(p[0.415985980807504, 0.244990093379905, 0.307968214090088, -1.45, 0.776, -0.754], a = 0.2, v = 0.2, t = 0.1)
movej(p[0.415999054870206, 0.244999715090341, 0.307969125220565, -1.45, 0.776, -0.754], a = 0.2, v = 0.2, t = 0.1)
movej(p[0.416009204954722, 0.245007584227016, 0.307968562692066, -1.45, 0.776, -0.754], a = 0.2, v = 0.2, t = 0.1)
movej(p[0.416015888549725, 0.245015555516447, 0.307968601636155, -1.45, 0.776, -0.754], a = 0.2, v = 0.2, t = 0.1)
movej(p[0.416019398454573, 0.245023124209637, 0.307970331872078, -1.45, 0.776, -0.754], a = 0.2, v = 0.2, t = 0.1)
movej(p[0.416019727743866, 0.24502883257254, 0.307972965079158, -1.45, 0.776, -0.754], a = 0.2, v = 0.2, t = 0.1)
movej(p[0.416017606438158, 0.24503239337907, 0.307975123860516, -1.45, 0.776, -0.754], a = 0.2, v = 0.2, t = 0.1)
movej(p[0.416012336836401, 0.245034257401803, 0.307973384399227, -1.45, 0.776, -0.754], a = 0.2, v = 0.2, t = 0.1)
movej(p[0.41600555888622, 0.245033553607643, 0.307967688539141, -1.45, 0.776, -0.754], a = 0.2, v = 0.2, t = 0.1)
movej(p[0.415998455339393, 0.245028884654554, 0.307960733503732, -1.45, 0.776, -0.754], a = 0.2, v = 0.2, t = 0.1)
movej(p[0.415992075293982, 0.245020864942348, 0.307957236099453, -1.45, 0.776, -0.754], a = 0.2, v = 0.2, t = 0.1)
movej(p[0.415985277834462, 0.245012168432804, 0.307960367514438, -1.45, 0.776, -0.754], a = 0.2, v = 0.2, t = 0.1)
movej(p[0.415977504196459, 0.245005206742394, 0.307970858022855, -1.45, 0.776, -0.754], a = 0.2, v = 0.2, t = 0.1)
movej(p[0.415968443556486, 0.245001068557113, 0.307986674842727, -1.45, 0.776, -0.754], a = 0.2, v = 0.2, t = 0.1)
movej(p[0.415960169642686, 0.24499844174338, 0.308005467462822, -1.45, 0.776, -0.754], a = 0.2, v = 0.2, t = 0.1)
movej(p[0.415955552997057, 0.244994021877821, 0.308025386975406, -1.45, 0.776, -0.754], a = 0.2, v = 0.2, t = 0.1)
movej(p[0.415953374807463, 0.24498783999016, 0.30804368579515, -1.45, 0.776, -0.754], a = 0.2, v = 0.2, t = 0.1)
movej(p[0.415951174039676, 0.244979958075367, 0.308058205011876, -1.45, 0.776, -0.754], a = 0.2, v = 0.2, t = 0.1)
movej(p[0.415946045950401, 0.244969378005506, 0.308066342727043, -1.45, 0.776, -0.754], a = 0.2, v = 0.2, t = 0.1)
movej(p[0.415939812853423, 0.244957523362007, 0.308070712741982, -1.45, 0.776, -0.754], a = 0.2, v = 0.2, t = 0.1)
movej(p[0.415935430007878, 0.244949995839687, 0.308073305605006, -1.45, 0.776, -0.754], a = 0.2, v = 0.2, t = 0.1)
movej(p[0.415934548849405, 0.244950771061262, 0.308075887044963, -1.45, 0.776, -0.754], a = 0.2, v = 0.2, t = 0.1)
movej(p[0.415937409849611, 0.244958455976112, 0.30807749819566, -1.45, 0.776, -0.754], a = 0.2, v = 0.2, t = 0.1)
movej(p[0.415944641318408, 0.244969989211784, 0.308078959435879, -1.45, 0.776, -0.754], a = 0.2, v = 0.2, t = 0.1)
movej(p[0.415956778187074, 0.244985140995507, 0.308080301097158, -1.45, 0.776, -0.754], a = 0.2, v = 0.2, t = 0.1)
movej(p[0.415972753308905, 0.245002945072717, 0.308080385655856, -1.45, 0.776, -0.754], a = 0.2, v = 0.2, t = 0.1)
movej(p[0.415990331000519, 0.245022919555161, 0.308079646066382, -1.45, 0.776, -0.754], a = 0.2, v = 0.2, t = 0.1)
movej(p[0.416006661256209, 0.245042457887749, 0.308077121771074, -1.45, 0.776, -0.754], a = 0.2, v = 0.2, t = 0.1)
movej(p[0.41602339342399, 0.245058988264439, 0.308072944321511, -1.45, 0.776, -0.754], a = 0.2, v = 0.2, t = 0.1)
movej(p[0.416040818627321, 0.2450704925165, 0.30806770866736, -1.45, 0.776, -0.754], a = 0.2, v = 0.2, t = 0.1)
movej(p[0.416057042794005, 0.245077472731092, 0.308062608530532, -1.45, 0.776, -0.754], a = 0.2, v = 0.2, t = 0.1)
movej(p[0.416069735134154, 0.245080608137911, 0.308060725255298, -1.45, 0.776, -0.754], a = 0.2, v = 0.2, t = 0.1)
movej(p[0.416077851778467, 0.245081527406753, 0.308060773160295, -1.45, 0.776, -0.754], a = 0.2, v = 0.2, t = 0.1)
movej(p[0.41608144795135, 0.245080875960723, 0.308060740029261, -1.45, 0.776, -0.754], a = 0.2, v = 0.2, t = 0.1)
movej(p[0.416080897717933, 0.245080290118184, 0.308055921987677, -1.45, 0.776, -0.754], a = 0.2, v = 0.2, t = 0.1)
movej(p[0.416076286196462, 0.24507880821665, 0.308045441524206, -1.45, 0.776, -0.754], a = 0.2, v = 0.2, t = 0.1)
movej(p[0.416066021360045, 0.245073905041954, 0.308027643085532, -1.45, 0.776, -0.754], a = 0.2, v = 0.2, t = 0.1)
movej(p[0.416052020079676, 0.245067059763852, 0.308007866746975, -1.45, 0.776, -0.754], a = 0.2, v = 0.2, t = 0.1)
movej(p[0.416036431604685, 0.245060174651676, 0.307993635767782, -1.45, 0.776, -0.754], a = 0.2, v = 0.2, t = 0.1)
movej(p[0.416024674763139, 0.245054724809651, 0.307991327575249, -1.45, 0.776, -0.754], a = 0.2, v = 0.2, t = 0.1)
movej(p[0.4160177768809, 0.245049326154619, 0.307997550934589, -1.45, 0.776, -0.754], a = 0.2, v = 0.2, t = 0.1)
movej(p[0.41601580106863, 0.245043599774591, 0.308003491800489, -1.45, 0.776, -0.754], a = 0.2, v = 0.2, t = 0.1)
movej(p[0.416017714437496, 0.245038234732143, 0.308004505678744, -1.45, 0.776, -0.754], a = 0.2, v = 0.2, t = 0.1)
movej(p[0.416021034041472, 0.245033314399218, 0.308000753461086, -1.45, 0.776, -0.754], a = 0.2, v = 0.2, t = 0.1)
movej(p[0.416024052903203, 0.245027836059101, 0.307994772591801, -1.45, 0.776, -0.754], a = 0.2, v = 0.2, t = 0.1)
movej(p[0.416025671560253, 0.24502195555092, 0.307989721415315, -1.45, 0.776, -0.754], a = 0.2, v = 0.2, t = 0.1)
movej(p[0.416025458156274, 0.2450165218612, 0.307989063965112, -1.45, 0.776, -0.754], a = 0.2, v = 0.2, t = 0.1)
movej(p[0.416022659824035, 0.245011928179095, 0.307990920395394, -1.45, 0.776, -0.754], a = 0.2, v = 0.2, t = 0.1)
movej(p[0.416017908149488, 0.245007737558659, 0.307991432993054, -1.45, 0.776, -0.754], a = 0.2, v = 0.2, t = 0.1)
movej(p[0.416011352377696, 0.245002886439179, 0.307989041693824, -1.45, 0.776, -0.754], a = 0.2, v = 0.2, t = 0.1)
movej(p[0.416002357273416, 0.244995479193303, 0.307983957784548, -1.45, 0.776, -0.754], a = 0.2, v = 0.2, t = 0.1)
movej(p[0.415989808639135, 0.244983133560108, 0.307977332588725, -1.45, 0.776, -0.754], a = 0.2, v = 0.2, t = 0.1)
movej(p[0.415974521417353, 0.244967047303044, 0.307968806289125, -1.45, 0.776, -0.754], a = 0.2, v = 0.2, t = 0.1)
movej(p[0.415957487300123, 0.244950506328504, 0.307958693466499, -1.45, 0.776, -0.754], a = 0.2, v = 0.2, t = 0.1)
movej(p[0.415941411154422, 0.244937695582547, 0.307947210618229, -1.45, 0.776, -0.754], a = 0.2, v = 0.2, t = 0.1)
movej(p[0.41592741914373, 0.244928772047743, 0.307935893250186, -1.45, 0.776, -0.754], a = 0.2, v = 0.2, t = 0.1)
movej(p[0.415915053861651, 0.244922182535478, 0.307924699047927, -1.45, 0.776, -0.754], a = 0.2, v = 0.2, t = 0.1)
movej(p[0.415900539972114, 0.244913861691969, 0.307913297818836, -1.45, 0.776, -0.754], a = 0.2, v = 0.2, t = 0.1)
movej(p[0.415881591614889, 0.244902134945324, 0.307901565801037, -1.45, 0.776, -0.754], a = 0.2, v = 0.2, t = 0.1)
movej(p[0.415858769509702, 0.244886694478921, 0.307889573502088, -1.45, 0.776, -0.754], a = 0.2, v = 0.2, t = 0.1)
movej(p[0.415836891328021, 0.244870186248543, 0.307874434930024, -1.45, 0.776, -0.754], a = 0.2, v = 0.2, t = 0.1)
movej(p[0.41581800465963, 0.244855611785426, 0.307858536555739, -1.45, 0.776, -0.754], a = 0.2, v = 0.2, t = 0.1)
movej(p[0.415803051071433, 0.244846585229477, 0.307843895499331, -1.45, 0.776, -0.754], a = 0.2, v = 0.2, t = 0.1)
movej(p[0.415793747918725, 0.244844574010313, 0.307836221010412, -1.45, 0.776, -0.754], a = 0.2, v = 0.2, t = 0.1)
movej(p[0.415789931152867, 0.24484941222762, 0.307833244274504, -1.45, 0.776, -0.754], a = 0.2, v = 0.2, t = 0.1)
movej(p[0.415791995276842, 0.244857596542995, 0.307836134281091, -1.45, 0.776, -0.754], a = 0.2, v = 0.2, t = 0.1)
movej(p[0.415798566947255, 0.244866294687847, 0.307847812878315, -1.45, 0.776, -0.754], a = 0.2, v = 0.2, t = 0.1)
movej(p[0.415808239249619, 0.244873670373519, 0.307867271954779, -1.45, 0.776, -0.754], a = 0.2, v = 0.2, t = 0.1)
movej(p[0.415819011457241, 0.244880816744726, 0.307889792796959, -1.45, 0.776, -0.754], a = 0.2, v = 0.2, t = 0.1)
movej(p[0.415830254796866, 0.244888464459521, 0.307906090375507, -1.45, 0.776, -0.754], a = 0.2, v = 0.2, t = 0.1)
movej(p[0.415843326703533, 0.244896305217846, 0.30791440485799, -1.45, 0.776, -0.754], a = 0.2, v = 0.2, t = 0.1)
movej(p[0.415858440826095, 0.244903408265567, 0.307917723814645, -1.45, 0.776, -0.754], a = 0.2, v = 0.2, t = 0.1)
movej(p[0.415874254041825, 0.244910662806707, 0.307920088261748, -1.45, 0.776, -0.754], a = 0.2, v = 0.2, t = 0.1)
movej(p[0.415889884110559, 0.244918208035155, 0.307922601863355, -1.45, 0.776, -0.754], a = 0.2, v = 0.2, t = 0.1)
movej(p[0.415905719227911, 0.244925324179497, 0.307927296635037, -1.45, 0.776, -0.754], a = 0.2, v = 0.2, t = 0.1)
movej(p[0.415922051366324, 0.244931896088588, 0.307935572084317, -1.45, 0.776, -0.754], a = 0.2, v = 0.2, t = 0.1)
movej(p[0.415938541773464, 0.244939122274401, 0.307949316959433, -1.45, 0.776, -0.754], a = 0.2, v = 0.2, t = 0.1)
movej(p[0.415954567573376, 0.244948482928917, 0.307966754352048, -1.45, 0.776, -0.754], a = 0.2, v = 0.2, t = 0.1)
movej(p[0.415968908376205, 0.244959541711854, 0.307985135788993, -1.45, 0.776, -0.754], a = 0.2, v = 0.2, t = 0.1)
movej(p[0.41598100541021, 0.244968842396811, 0.308000004547906, -1.45, 0.776, -0.754], a = 0.2, v = 0.2, t = 0.1)
movej(p[0.415990303689861, 0.244974928051532, 0.308011492463781, -1.45, 0.776, -0.754], a = 0.2, v = 0.2, t = 0.1)
movej(p[0.415997362347826, 0.24497916206228, 0.308021251859393, -1.45, 0.776, -0.754], a = 0.2, v = 0.2, t = 0.1)
movej(p[0.416002680065351, 0.244984777303386, 0.308030873926617, -1.45, 0.776, -0.754], a = 0.2, v = 0.2, t = 0.1)
movej(p[0.4160073662156, 0.244991659172584, 0.308039076208627, -1.45, 0.776, -0.754], a = 0.2, v = 0.2, t = 0.1)
movej(p[0.416010702439444, 0.244998397055167, 0.308045584301877, -1.45, 0.776, -0.754], a = 0.2, v = 0.2, t = 0.1)
movej(p[0.416011208109047, 0.245003906468195, 0.30805065930398, -1.45, 0.776, -0.754], a = 0.2, v = 0.2, t = 0.1)
movej(p[0.416009468552924, 0.245009457698676, 0.308054638515164, -1.45, 0.776, -0.754], a = 0.2, v = 0.2, t = 0.1)
movej(p[0.416007206864256, 0.24501377153889, 0.308059809240062, -1.45, 0.776, -0.754], a = 0.2, v = 0.2, t = 0.1)
movej(p[0.416004565092502, 0.245015984028551, 0.30806598114062, -1.45, 0.776, -0.754], a = 0.2, v = 0.2, t = 0.1)
movej(p[0.416002456208931, 0.245015079585537, 0.308073711985977, -1.45, 0.776, -0.754], a = 0.2, v = 0.2, t = 0.1)
movej(p[0.415999346052361, 0.245013090287424, 0.308081121221641, -1.45, 0.776, -0.754], a = 0.2, v = 0.2, t = 0.1)
movej(p[0.415996226433661, 0.245011269420718, 0.308086203622904, -1.45, 0.776, -0.754], a = 0.2, v = 0.2, t = 0.1)
movej(p[0.415991156108515, 0.245009583844233, 0.308089094275568, -1.45, 0.776, -0.754], a = 0.2, v = 0.2, t = 0.1)
movej(p[0.415983996309414, 0.2450069603903, 0.308090363456528, -1.45, 0.776, -0.754], a = 0.2, v = 0.2, t = 0.1)
movej(p[0.415975731106505, 0.245003704591173, 0.308092431422173, -1.45, 0.776, -0.754], a = 0.2, v = 0.2, t = 0.1)
movej(p[0.41596576451693, 0.245000892184377, 0.308095232665157, -1.45, 0.776, -0.754], a = 0.2, v = 0.2, t = 0.1)
movej(p[0.415953420905014, 0.244997404733495, 0.308098326338092, -1.45, 0.776, -0.754], a = 0.2, v = 0.2, t = 0.1)
movej(p[0.415939526019487, 0.244991515596005, 0.308100590761597, -1.45, 0.776, -0.754], a = 0.2, v = 0.2, t = 0.1)
movej(p[0.415925814756611, 0.244981540539287, 0.308099876487269, -1.45, 0.776, -0.754], a = 0.2, v = 0.2, t = 0.1)
movej(p[0.415915019969945, 0.244967620177492, 0.308090766428798, -1.45, 0.776, -0.754], a = 0.2, v = 0.2, t = 0.1)
movej(p[0.415904937272294, 0.244952491968474, 0.308075922335159, -1.45, 0.776, -0.754], a = 0.2, v = 0.2, t = 0.1)
movej(p[0.415894325685158, 0.244939886414176, 0.308057318883186, -1.45, 0.776, -0.754], a = 0.2, v = 0.2, t = 0.1)
movej(p[0.415881761117141, 0.244932930326891, 0.308042028888345, -1.45, 0.776, -0.754], a = 0.2, v = 0.2, t = 0.1)
movej(p[0.41586759829238, 0.244929677063727, 0.308030678413132, -1.45, 0.776, -0.754], a = 0.2, v = 0.2, t = 0.1)
movej(p[0.415852353384557, 0.2449283507872, 0.308023717762944, -1.45, 0.776, -0.754], a = 0.2, v = 0.2, t = 0.1)
movej(p[0.415835870229803, 0.244927289154474, 0.308021013539333, -1.45, 0.776, -0.754], a = 0.2, v = 0.2, t = 0.1)
movej(p[0.415819667967337, 0.244927826848688, 0.308017898644488, -1.45, 0.776, -0.754], a = 0.2, v = 0.2, t = 0.1)
movej(p[0.415805553385773, 0.244929959618011, 0.308012446578522, -1.45, 0.776, -0.754], a = 0.2, v = 0.2, t = 0.1)
movej(p[0.415795167571183, 0.244933045623038, 0.308002910760294, -1.45, 0.776, -0.754], a = 0.2, v = 0.2, t = 0.1)
movej(p[0.415789479799525, 0.244936555985547, 0.307990744797709, -1.45, 0.776, -0.754], a = 0.2, v = 0.2, t = 0.1)
movej(p[0.415788443412542, 0.244940702434607, 0.307976013789216, -1.45, 0.776, -0.754], a = 0.2, v = 0.2, t = 0.1)
movej(p[0.415792239242691, 0.244947545133497, 0.307961060691899, -1.45, 0.776, -0.754], a = 0.2, v = 0.2, t = 0.1)
movej(p[0.415799076640786, 0.244957358158888, 0.307948087392782, -1.45, 0.776, -0.754], a = 0.2, v = 0.2, t = 0.1)
movej(p[0.415807467896058, 0.244970527768599, 0.307937473317174, -1.45, 0.776, -0.754], a = 0.2, v = 0.2, t = 0.1)
movej(p[0.41581834366862, 0.244984482264237, 0.30792677475537, -1.45, 0.776, -0.754], a = 0.2, v = 0.2, t = 0.1)
movej(p[0.415833338876912, 0.244996671354052, 0.307916404426024, -1.45, 0.776, -0.754], a = 0.2, v = 0.2, t = 0.1)
movej(p[0.415852248033751, 0.245005316073927, 0.307908095377226, -1.45, 0.776, -0.754], a = 0.2, v = 0.2, t = 0.1)
movej(p[0.415872707237044, 0.245012036090253, 0.307899292064088, -1.45, 0.776, -0.754], a = 0.2, v = 0.2, t = 0.1)
movej(p[0.415892398557523, 0.245016929008696, 0.307889961912917, -1.45, 0.776, -0.754], a = 0.2, v = 0.2, t = 0.1)
movej(p[0.415910563269457, 0.245018651503658, 0.307881791204411, -1.45, 0.776, -0.754], a = 0.2, v = 0.2, t = 0.1)
movej(p[0.415927891146922, 0.245017524755664, 0.307876386741855, -1.45, 0.776, -0.754], a = 0.2, v = 0.2, t = 0.1)
movej(p[0.415944142744282, 0.245014622967606, 0.307872701678585, -1.45, 0.776, -0.754], a = 0.2, v = 0.2, t = 0.1)
movej(p[0.415958968990715, 0.245011977534747, 0.307869035844068, -1.45, 0.776, -0.754], a = 0.2, v = 0.2, t = 0.1)
movej(p[0.415970101475997, 0.245009415946839, 0.307866075204976, -1.45, 0.776, -0.754], a = 0.2, v = 0.2, t = 0.1)
movej(p[0.415976677735346, 0.245008735186504, 0.30786497756827, -1.45, 0.776, -0.754], a = 0.2, v = 0.2, t = 0.1)
movej(p[0.415978306755179, 0.245009751576682, 0.307865049181028, -1.45, 0.776, -0.754], a = 0.2, v = 0.2, t = 0.1)
movej(p[0.415977638515115, 0.245012134189687, 0.307866292016287, -1.45, 0.776, -0.754], a = 0.2, v = 0.2, t = 0.1)
movej(p[0.415976687021502, 0.245014669939039, 0.307868533407848, -1.45, 0.776, -0.754], a = 0.2, v = 0.2, t = 0.1)
movej(p[0.415976662833022, 0.245017184787384, 0.307871973749506, -1.45, 0.776, -0.754], a = 0.2, v = 0.2, t = 0.1)
movej(p[0.415976982392826, 0.24501890850125, 0.307875502155667, -1.45, 0.776, -0.754], a = 0.2, v = 0.2, t = 0.1)
movej(p[0.415977954800054, 0.245019437150111, 0.307877492594705, -1.45, 0.776, -0.754], a = 0.2, v = 0.2, t = 0.1)
movej(p[0.415977833413377, 0.245019317044121, 0.307878252247801, -1.45, 0.776, -0.754], a = 0.2, v = 0.2, t = 0.1)
movej(p[0.415975574129694, 0.245018679701289, 0.307880443448466, -1.45, 0.776, -0.754], a = 0.2, v = 0.2, t = 0.1)
movej(p[0.415969256265305, 0.245017729476191, 0.30788455288174, -1.45, 0.776, -0.754], a = 0.2, v = 0.2, t = 0.1)
movej(p[0.41595866833744, 0.245015651517644, 0.307889880719368, -1.45, 0.776, -0.754], a = 0.2, v = 0.2, t = 0.1)
movej(p[0.41594234222334, 0.245013103111062, 0.307894495080027, -1.45, 0.776, -0.754], a = 0.2, v = 0.2, t = 0.1)
movej(p[0.415921963296511, 0.24500995716255, 0.307899348644824, -1.45, 0.776, -0.754], a = 0.2, v = 0.2, t = 0.1)
movej(p[0.415900099487323, 0.245006613324323, 0.307902879274611, -1.45, 0.776, -0.754], a = 0.2, v = 0.2, t = 0.1)
movej(p[0.415880697987221, 0.245004210401496, 0.307904302018686, -1.45, 0.776, -0.754], a = 0.2, v = 0.2, t = 0.1)
movej(p[0.415866279011737, 0.245004441535095, 0.307902798573229, -1.45, 0.776, -0.754], a = 0.2, v = 0.2, t = 0.1)
movej(p[0.415856877259584, 0.245007816885502, 0.307900158215853, -1.45, 0.776, -0.754], a = 0.2, v = 0.2, t = 0.1)
movej(p[0.41585058966604, 0.245012100029635, 0.307898784046737, -1.45, 0.776, -0.754], a = 0.2, v = 0.2, t = 0.1)
movej(p[0.41584382536017, 0.245013849446519, 0.307899933119698, -1.45, 0.776, -0.754], a = 0.2, v = 0.2, t = 0.1)
movej(p[0.41583800638778, 0.245011971303575, 0.307905689083944, -1.45, 0.776, -0.754], a = 0.2, v = 0.2, t = 0.1)
movej(p[0.415834573994475, 0.245008946682684, 0.307917067737101, -1.45, 0.776, -0.754], a = 0.2, v = 0.2, t = 0.1)
movej(p[0.41583429220025, 0.245007020999296, 0.307930918468291, -1.45, 0.776, -0.754], a = 0.2, v = 0.2, t = 0.1)
movej(p[0.415834542937088, 0.245004487023453, 0.307943207505864, -1.45, 0.776, -0.754], a = 0.2, v = 0.2, t = 0.1)
movej(p[0.415834144481202, 0.244996956709799, 0.307948142386022, -1.45, 0.776, -0.754], a = 0.2, v = 0.2, t = 0.1)
movej(p[0.415833991287363, 0.244983068063789, 0.307946579343267, -1.45, 0.776, -0.754], a = 0.2, v = 0.2, t = 0.1)
movej(p[0.415834747286067, 0.244966749722566, 0.307940306241266, -1.45, 0.776, -0.754], a = 0.2, v = 0.2, t = 0.1)
movej(p[0.415835087208071, 0.244952871969187, 0.307933623040299, -1.45, 0.776, -0.754], a = 0.2, v = 0.2, t = 0.1)
movej(p[0.415833650601964, 0.244942936354754, 0.307928295215439, -1.45, 0.776, -0.754], a = 0.2, v = 0.2, t = 0.1)
movej(p[0.415832086991563, 0.244934336006714, 0.307923735450192, -1.45, 0.776, -0.754], a = 0.2, v = 0.2, t = 0.1)
movej(p[0.415831872532507, 0.244924431123964, 0.307916688543848, -1.45, 0.776, -0.754], a = 0.2, v = 0.2, t = 0.1)
movej(p[0.415834030560193, 0.244915130869297, 0.307907528480495, -1.45, 0.776, -0.754], a = 0.2, v = 0.2, t = 0.1)
movej(p[0.415839732651744, 0.244911556596304, 0.307900958264858, -1.45, 0.776, -0.754], a = 0.2, v = 0.2, t = 0.1)
movej(p[0.415849815851855, 0.244914824008016, 0.307904432210916, -1.45, 0.776, -0.754], a = 0.2, v = 0.2, t = 0.1)
movej(p[0.415863221164195, 0.244922402102179, 0.307919933036085, -1.45, 0.776, -0.754], a = 0.2, v = 0.2, t = 0.1)
movej(p[0.41587900950523, 0.244931148596092, 0.307943591010589, -1.45, 0.776, -0.754], a = 0.2, v = 0.2, t = 0.1)
movej(p[0.415895502644693, 0.24493979589472, 0.307971232723471, -1.45, 0.776, -0.754], a = 0.2, v = 0.2, t = 0.1)
movej(p[0.415910810946842, 0.244949100313619, 0.307995960666375, -1.45, 0.776, -0.754], a = 0.2, v = 0.2, t = 0.1)
movej(p[0.415924283275656, 0.244958295354493, 0.308013120428893, -1.45, 0.776, -0.754], a = 0.2, v = 0.2, t = 0.1)
movej(p[0.415936119393405, 0.244967991890718, 0.308018724741061, -1.45, 0.776, -0.754], a = 0.2, v = 0.2, t = 0.1)
movej(p[0.415945683815404, 0.2449777001944, 0.308015831295117, -1.45, 0.776, -0.754], a = 0.2, v = 0.2, t = 0.1)
movej(p[0.415951364327081, 0.244987933577504, 0.308006385265086, -1.45, 0.776, -0.754], a = 0.2, v = 0.2, t = 0.1)
movej(p[0.415954004199324, 0.244997816351362, 0.307996083811189, -1.45, 0.776, -0.754], a = 0.2, v = 0.2, t = 0.1)
movej(p[0.415955523138845, 0.245007002795809, 0.307987207159447, -1.45, 0.776, -0.754], a = 0.2, v = 0.2, t = 0.1)
movej(p[0.41595424581434, 0.245015254162634, 0.307980913123887, -1.45, 0.776, -0.754], a = 0.2, v = 0.2, t = 0.1)
movej(p[0.415947853849292, 0.245023599157117, 0.307973579157095, -1.45, 0.776, -0.754], a = 0.2, v = 0.2, t = 0.1)
movej(p[0.415937102641724, 0.245031125023445, 0.307964159896144, -1.45, 0.776, -0.754], a = 0.2, v = 0.2, t = 0.1)
movej(p[0.41592528799489, 0.245036377683714, 0.30795532985938, -1.45, 0.776, -0.754], a = 0.2, v = 0.2, t = 0.1)
movej(p[0.415916034273282, 0.24503927333998, 0.30795055522754, -1.45, 0.776, -0.754], a = 0.2, v = 0.2, t = 0.1)
movej(p[0.415911415450997, 0.245041562725236, 0.30794831293745, -1.45, 0.776, -0.754], a = 0.2, v = 0.2, t = 0.1)
movej(p[0.415911236365929, 0.245043673383977, 0.307945598439482, -1.45, 0.776, -0.754], a = 0.2, v = 0.2, t = 0.1)
movej(p[0.415914608854659, 0.245045335462826, 0.307942531853976, -1.45, 0.776, -0.754], a = 0.2, v = 0.2, t = 0.1)
movej(p[0.415919653337361, 0.245046690158587, 0.307938148251843, -1.45, 0.776, -0.754], a = 0.2, v = 0.2, t = 0.1)
movej(p[0.415924628945715, 0.245048730535938, 0.307933127886739, -1.45, 0.776, -0.754], a = 0.2, v = 0.2, t = 0.1)
movej(p[0.415927883209569, 0.245051853235054, 0.307928740594863, -1.45, 0.776, -0.754], a = 0.2, v = 0.2, t = 0.1)
movej(p[0.415928754682832, 0.245055167319993, 0.307927654997623, -1.45, 0.776, -0.754], a = 0.2, v = 0.2, t = 0.1)
movej(p[0.415928161534178, 0.245057574949882, 0.307930728549801, -1.45, 0.776, -0.754], a = 0.2, v = 0.2, t = 0.1)
movej(p[0.415926819670239, 0.245057642625325, 0.307935924988601, -1.45, 0.776, -0.754], a = 0.2, v = 0.2, t = 0.1)
movej(p[0.415924019622744, 0.245055802415044, 0.307941350258747, -1.45, 0.776, -0.754], a = 0.2, v = 0.2, t = 0.1)
movej(p[0.415917264723611, 0.245052092646755, 0.307946581780698, -1.45, 0.776, -0.754], a = 0.2, v = 0.2, t = 0.1)
movej(p[0.415906871862873, 0.245047755798096, 0.307951526355646, -1.45, 0.776, -0.754], a = 0.2, v = 0.2, t = 0.1)
movej(p[0.415895213792875, 0.245042743204654, 0.307954667667297, -1.45, 0.776, -0.754], a = 0.2, v = 0.2, t = 0.1)
movej(p[0.415882402805321, 0.245037786729906, 0.307955045855029, -1.45, 0.776, -0.754], a = 0.2, v = 0.2, t = 0.1)
movej(p[0.415867117132164, 0.245032169625216, 0.307954317964893, -1.45, 0.776, -0.754], a = 0.2, v = 0.2, t = 0.1)
movej(p[0.415849216173793, 0.245026913253334, 0.307953747186455, -1.45, 0.776, -0.754], a = 0.2, v = 0.2, t = 0.1)
movej(p[0.415830334261287, 0.245022364655848, 0.307952240594259, -1.45, 0.776, -0.754], a = 0.2, v = 0.2, t = 0.1)
movej(p[0.415812442555108, 0.245020112408285, 0.307949871973372, -1.45, 0.776, -0.754], a = 0.2, v = 0.2, t = 0.1)
movej(p[0.415795432056455, 0.245017866256181, 0.307947900796999, -1.45, 0.776, -0.754], a = 0.2, v = 0.2, t = 0.1)
movej(p[0.415779010232595, 0.245014073807122, 0.307945596287883, -1.45, 0.776, -0.754], a = 0.2, v = 0.2, t = 0.1)
movej(p[0.41576158087222, 0.245007875029008, 0.307941741540837, -1.45, 0.776, -0.754], a = 0.2, v = 0.2, t = 0.1)
movej(p[0.415742112017056, 0.244999772580197, 0.307935599598808, -1.45, 0.776, -0.754], a = 0.2, v = 0.2, t = 0.1)
movej(p[0.415723086154431, 0.244991007678679, 0.307928665406805, -1.45, 0.776, -0.754], a = 0.2, v = 0.2, t = 0.1)
movej(p[0.415708017853173, 0.244981724873382, 0.307922925992897, -1.45, 0.776, -0.754], a = 0.2, v = 0.2, t = 0.1)
movej(p[0.415697873661027, 0.244972867545498, 0.307921280507715, -1.45, 0.776, -0.754], a = 0.2, v = 0.2, t = 0.1)
movej(p[0.415692957624566, 0.244965894931128, 0.307926445783733, -1.45, 0.776, -0.754], a = 0.2, v = 0.2, t = 0.1)
movej(p[0.415691985099738, 0.244961961803521, 0.307939182571503, -1.45, 0.776, -0.754], a = 0.2, v = 0.2, t = 0.1)
movej(p[0.415695462633245, 0.244961828143255, 0.307955350136553, -1.45, 0.776, -0.754], a = 0.2, v = 0.2, t = 0.1)
movej(p[0.415704767776619, 0.244965500546771, 0.307972132244292, -1.45, 0.776, -0.754], a = 0.2, v = 0.2, t = 0.1)
movej(p[0.415719916037264, 0.244971587294087, 0.307985589801298, -1.45, 0.776, -0.754], a = 0.2, v = 0.2, t = 0.1)
movej(p[0.415739620504235, 0.244979276064989, 0.307993724123729, -1.45, 0.776, -0.754], a = 0.2, v = 0.2, t = 0.1)
movej(p[0.415760653359641, 0.244988360129111, 0.30799675052349, -1.45, 0.776, -0.754], a = 0.2, v = 0.2, t = 0.1)
movej(p[0.415780464398688, 0.244998258694948, 0.307994489953822, -1.45, 0.776, -0.754], a = 0.2, v = 0.2, t = 0.1)
movej(p[0.415797557702027, 0.245007219199507, 0.307991290621855, -1.45, 0.776, -0.754], a = 0.2, v = 0.2, t = 0.1)
movej(p[0.415812523222052, 0.245014009345119, 0.307989160983869, -1.45, 0.776, -0.754], a = 0.2, v = 0.2, t = 0.1)
movej(p[0.415826743102675, 0.24501898271098, 0.307989032574061, -1.45, 0.776, -0.754], a = 0.2, v = 0.2, t = 0.1)
movej(p[0.415841596727185, 0.245023520877553, 0.307990118597563, -1.45, 0.776, -0.754], a = 0.2, v = 0.2, t = 0.1)
movej(p[0.415856004589193, 0.245028924094801, 0.307991050932674, -1.45, 0.776, -0.754], a = 0.2, v = 0.2, t = 0.1)
movej(p[0.415867572687205, 0.245035823062934, 0.307991575817494, -1.45, 0.776, -0.754], a = 0.2, v = 0.2, t = 0.1)
movej(p[0.415875111656985, 0.245042614781189, 0.307989082378746, -1.45, 0.776, -0.754], a = 0.2, v = 0.2, t = 0.1)
movej(p[0.415879569786183, 0.245048161762462, 0.307984095737008, -1.45, 0.776, -0.754], a = 0.2, v = 0.2, t = 0.1)
movej(p[0.415881987240229, 0.245052074550183, 0.307976744552533, -1.45, 0.776, -0.754], a = 0.2, v = 0.2, t = 0.1)
movej(p[0.415883782249355, 0.245056572431622, 0.307968924577419, -1.45, 0.776, -0.754], a = 0.2, v = 0.2, t = 0.1)
movej(p[0.415885034403583, 0.245060444472033, 0.30796047475743, -1.45, 0.776, -0.754], a = 0.2, v = 0.2, t = 0.1)
movej(p[0.415884926142144, 0.24506380112503, 0.307951968590072, -1.45, 0.776, -0.754], a = 0.2, v = 0.2, t = 0.1)
movej(p[0.415882928443107, 0.245065455974155, 0.307945843577506, -1.45, 0.776, -0.754], a = 0.2, v = 0.2, t = 0.1)
movej(p[0.41587984187262, 0.245065998148729, 0.3079438179975, -1.45, 0.776, -0.754], a = 0.2, v = 0.2, t = 0.1)
movej(p[0.415876899132198, 0.245065546269414, 0.30794724051907, -1.45, 0.776, -0.754], a = 0.2, v = 0.2, t = 0.1)
movej(p[0.415873738524728, 0.245065615897142, 0.307953654548178, -1.45, 0.776, -0.754], a = 0.2, v = 0.2, t = 0.1)
movej(p[0.415869343286821, 0.245067804597686, 0.307961501068851, -1.45, 0.776, -0.754], a = 0.2, v = 0.2, t = 0.1)
movej(p[0.415863242654906, 0.24507254793102, 0.307969212306178, -1.45, 0.776, -0.754], a = 0.2, v = 0.2, t = 0.1)
movej(p[0.415855788677044, 0.245079347794734, 0.307973907895226, -1.45, 0.776, -0.754], a = 0.2, v = 0.2, t = 0.1)
movej(p[0.415846268703659, 0.245087364261877, 0.307974431125875, -1.45, 0.776, -0.754], a = 0.2, v = 0.2, t = 0.1)
movej(p[0.415832907091788, 0.245096042209319, 0.307971067370476, -1.45, 0.776, -0.754], a = 0.2, v = 0.2, t = 0.1)
movej(p[0.415815203025991, 0.245102641280213, 0.307967633463871, -1.45, 0.776, -0.754], a = 0.2, v = 0.2, t = 0.1)
movej(p[0.415792781304793, 0.245105652114918, 0.307963184853085, -1.45, 0.776, -0.754], a = 0.2, v = 0.2, t = 0.1)
movej(p[0.415767101526204, 0.245101781782966, 0.307954929480882, -1.45, 0.776, -0.754], a = 0.2, v = 0.2, t = 0.1)
movej(p[0.415741485119503, 0.245089858164456, 0.307942023056152, -1.45, 0.776, -0.754], a = 0.2, v = 0.2, t = 0.1)
movej(p[0.415717894478559, 0.245072410703875, 0.307928203194027, -1.45, 0.776, -0.754], a = 0.2, v = 0.2, t = 0.1)
movej(p[0.415698237689085, 0.245056499464854, 0.307916611893306, -1.45, 0.776, -0.754], a = 0.2, v = 0.2, t = 0.1)
movej(p[0.415681110288681, 0.245044401408765, 0.30790668418384, -1.45, 0.776, -0.754], a = 0.2, v = 0.2, t = 0.1)
movej(p[0.415664820018177, 0.245036418368595, 0.307896989882857, -1.45, 0.776, -0.754], a = 0.2, v = 0.2, t = 0.1)
movej(p[0.415647972829468, 0.245030559604371, 0.307888410419448, -1.45, 0.776, -0.754], a = 0.2, v = 0.2, t = 0.1)
movej(p[0.415630874109412, 0.245024902974657, 0.307879554148125, -1.45, 0.776, -0.754], a = 0.2, v = 0.2, t = 0.1)
movej(p[0.415614518736551, 0.245015843425794, 0.307869369430262, -1.45, 0.776, -0.754], a = 0.2, v = 0.2, t = 0.1)
movej(p[0.415600849836707, 0.244999050524181, 0.307859374635994, -1.45, 0.776, -0.754], a = 0.2, v = 0.2, t = 0.1)
movej(p[0.415589947781344, 0.244978234095125, 0.307853678743858, -1.45, 0.776, -0.754], a = 0.2, v = 0.2, t = 0.1)
movej(p[0.415579387079056, 0.244958066645349, 0.307853589700478, -1.45, 0.776, -0.754], a = 0.2, v = 0.2, t = 0.1)
movej(p[0.415567297478414, 0.244942547048267, 0.307857286503655, -1.45, 0.776, -0.754], a = 0.2, v = 0.2, t = 0.1)
movej(p[0.41555507359916, 0.244931610683309, 0.307861600116003, -1.45, 0.776, -0.754], a = 0.2, v = 0.2, t = 0.1)
movej(p[0.415546008906257, 0.244925242482331, 0.307862385918059, -1.45, 0.776, -0.754], a = 0.2, v = 0.2, t = 0.1)
movej(p[0.415541719624815, 0.244923353252427, 0.307858021029047, -1.45, 0.776, -0.754], a = 0.2, v = 0.2, t = 0.1)
movej(p[0.415540947844349, 0.244926093037817, 0.307852797277242, -1.45, 0.776, -0.754], a = 0.2, v = 0.2, t = 0.1)
movej(p[0.415542232167667, 0.2449318941011, 0.307849232131746, -1.45, 0.776, -0.754], a = 0.2, v = 0.2, t = 0.1)
movej(p[0.415545726923737, 0.244938695863044, 0.307847633576, -1.45, 0.776, -0.754], a = 0.2, v = 0.2, t = 0.1)
movej(p[0.415552247792762, 0.244944921610257, 0.30784815212474, -1.45, 0.776, -0.754], a = 0.2, v = 0.2, t = 0.1)
movej(p[0.415561882969602, 0.244949626839595, 0.307850289145361, -1.45, 0.776, -0.754], a = 0.2, v = 0.2, t = 0.1)
movej(p[0.415574555227355, 0.24495368489573, 0.307852277134512, -1.45, 0.776, -0.754], a = 0.2, v = 0.2, t = 0.1)
movej(p[0.415588294775525, 0.244957037842822, 0.307849796906524, -1.45, 0.776, -0.754], a = 0.2, v = 0.2, t = 0.1)
movej(p[0.415601871329396, 0.244960067106724, 0.30784159039946, -1.45, 0.776, -0.754], a = 0.2, v = 0.2, t = 0.1)
movej(p[0.4156142520428, 0.244962325592772, 0.307827875193542, -1.45, 0.776, -0.754], a = 0.2, v = 0.2, t = 0.1)
movej(p[0.41562567531703, 0.244962555049572, 0.307813077566014, -1.45, 0.776, -0.754], a = 0.2, v = 0.2, t = 0.1)
movej(p[0.415636297803467, 0.244958724329137, 0.307800039798918, -1.45, 0.776, -0.754], a = 0.2, v = 0.2, t = 0.1)
movej(p[0.41564575612357, 0.244950848275183, 0.307789265138416, -1.45, 0.776, -0.754], a = 0.2, v = 0.2, t = 0.1)
movej(p[0.415655163991946, 0.24494261907267, 0.307778217504071, -1.45, 0.776, -0.754], a = 0.2, v = 0.2, t = 0.1)
movej(p[0.415664837793665, 0.244934909605752, 0.307764351351788, -1.45, 0.776, -0.754], a = 0.2, v = 0.2, t = 0.1)
movej(p[0.41567374936492, 0.244924527622087, 0.307741941726268, -1.45, 0.776, -0.754], a = 0.2, v = 0.2, t = 0.1)
movej(p[0.415680131958614, 0.244908679473619, 0.307714803206285, -1.45, 0.776, -0.754], a = 0.2, v = 0.2, t = 0.1)
movej(p[0.415683317817215, 0.244888652605618, 0.307688072104772, -1.45, 0.776, -0.754], a = 0.2, v = 0.2, t = 0.1)
movej(p[0.415685120721082, 0.24487113370912, 0.307668037311284, -1.45, 0.776, -0.754], a = 0.2, v = 0.2, t = 0.1)
movej(p[0.415686689855955, 0.244858497003782, 0.307652826702652, -1.45, 0.776, -0.754], a = 0.2, v = 0.2, t = 0.1)
movej(p[0.415686937835587, 0.244849713410315, 0.307641263698678, -1.45, 0.776, -0.754], a = 0.2, v = 0.2, t = 0.1)
movej(p[0.415684831087571, 0.244844408134545, 0.307632433993938, -1.45, 0.776, -0.754], a = 0.2, v = 0.2, t = 0.1)
movej(p[0.415680179398503, 0.24484090766233, 0.30762627498427, -1.45, 0.776, -0.754], a = 0.2, v = 0.2, t = 0.1)
movej(p[0.415672035062287, 0.244838238988726, 0.30762325020018, -1.45, 0.776, -0.754], a = 0.2, v = 0.2, t = 0.1)
movej(p[0.415660348684836, 0.244834073093965, 0.307624471227991, -1.45, 0.776, -0.754], a = 0.2, v = 0.2, t = 0.1)
movej(p[0.415644459377273, 0.244827670377545, 0.307630222790356, -1.45, 0.776, -0.754], a = 0.2, v = 0.2, t = 0.1)
movej(p[0.415626260441649, 0.244820328951977, 0.307638171191438, -1.45, 0.776, -0.754], a = 0.2, v = 0.2, t = 0.1)
movej(p[0.415608472838836, 0.244811362847474, 0.307646072553485, -1.45, 0.776, -0.754], a = 0.2, v = 0.2, t = 0.1)
movej(p[0.415591935663222, 0.244802133432575, 0.30765246188595, -1.45, 0.776, -0.754], a = 0.2, v = 0.2, t = 0.1)
movej(p[0.415577471395585, 0.244793429357568, 0.307657167838031, -1.45, 0.776, -0.754], a = 0.2, v = 0.2, t = 0.1)
movej(p[0.415566965491396, 0.244785262708009, 0.307661686009138, -1.45, 0.776, -0.754], a = 0.2, v = 0.2, t = 0.1)
movej(p[0.415562029827939, 0.244778525337732, 0.307664237002081, -1.45, 0.776, -0.754], a = 0.2, v = 0.2, t = 0.1)
movej(p[0.415560627362876, 0.24477300364425, 0.307668120142927, -1.45, 0.776, -0.754], a = 0.2, v = 0.2, t = 0.1)
movej(p[0.41556127157961, 0.244768497387227, 0.307677157771955, -1.45, 0.776, -0.754], a = 0.2, v = 0.2, t = 0.1)
movej(p[0.415564763815111, 0.244764667752908, 0.307694234530962, -1.45, 0.776, -0.754], a = 0.2, v = 0.2, t = 0.1)
movej(p[0.415571987548847, 0.244763496580619, 0.307713732138902, -1.45, 0.776, -0.754], a = 0.2, v = 0.2, t = 0.1)
movej(p[0.41558022031781, 0.244769142153554, 0.307727480711317, -1.45, 0.776, -0.754], a = 0.2, v = 0.2, t = 0.1)
movej(p[0.415586575379641, 0.244782492353091, 0.307732831511299, -1.45, 0.776, -0.754], a = 0.2, v = 0.2, t = 0.1)
movej(p[0.415591663458839, 0.244802254081421, 0.307734372723961, -1.45, 0.776, -0.754], a = 0.2, v = 0.2, t = 0.1)
movej(p[0.415596922666414, 0.24482506551029, 0.307737321225047, -1.45, 0.776, -0.754], a = 0.2, v = 0.2, t = 0.1)
movej(p[0.415604971460308, 0.244846108014604, 0.307742401973324, -1.45, 0.776, -0.754], a = 0.2, v = 0.2, t = 0.1)
movej(p[0.41561566937338, 0.244862327329798, 0.307747409918464, -1.45, 0.776, -0.754], a = 0.2, v = 0.2, t = 0.1)
movej(p[0.415628703307324, 0.244874605293569, 0.307752211581154, -1.45, 0.776, -0.754], a = 0.2, v = 0.2, t = 0.1)
movej(p[0.415642806642866, 0.24488644977141, 0.307757873878592, -1.45, 0.776, -0.754], a = 0.2, v = 0.2, t = 0.1)
movej(p[0.415658406719498, 0.244899372405202, 0.307764107009503, -1.45, 0.776, -0.754], a = 0.2, v = 0.2, t = 0.1)
movej(p[0.415674356234426, 0.244913234404989, 0.307769916859886, -1.45, 0.776, -0.754], a = 0.2, v = 0.2, t = 0.1)
movej(p[0.415687252270738, 0.244927344495835, 0.307774606252252, -1.45, 0.776, -0.754], a = 0.2, v = 0.2, t = 0.1)
movej(p[0.415695400516664, 0.244941245859733, 0.307777635880623, -1.45, 0.776, -0.754], a = 0.2, v = 0.2, t = 0.1)
movej(p[0.415698370103539, 0.24495415994059, 0.307780228437356, -1.45, 0.776, -0.754], a = 0.2, v = 0.2, t = 0.1)
movej(p[0.415698120331334, 0.244964944821939, 0.30778334499654, -1.45, 0.776, -0.754], a = 0.2, v = 0.2, t = 0.1)
movej(p[0.415695251914446, 0.244973577428777, 0.307787569902898, -1.45, 0.776, -0.754], a = 0.2, v = 0.2, t = 0.1)
movej(p[0.415689853265327, 0.244979692291989, 0.307793578742519, -1.45, 0.776, -0.754], a = 0.2, v = 0.2, t = 0.1)
movej(p[0.415682541898382, 0.244983066348944, 0.307801274108921, -1.45, 0.776, -0.754], a = 0.2, v = 0.2, t = 0.1)
movej(p[0.415675376305616, 0.244984775127276, 0.307810089370853, -1.45, 0.776, -0.754], a = 0.2, v = 0.2, t = 0.1)
movej(p[0.415670002075432, 0.244985417055861, 0.307818585100758, -1.45, 0.776, -0.754], a = 0.2, v = 0.2, t = 0.1)
movej(p[0.415667323464385, 0.244986293444597, 0.307824576360278, -1.45, 0.776, -0.754], a = 0.2, v = 0.2, t = 0.1)
movej(p[0.415665579811071, 0.244988879497049, 0.307828441516787, -1.45, 0.776, -0.754], a = 0.2, v = 0.2, t = 0.1)
movej(p[0.415662625257569, 0.244993311524823, 0.307832682824653, -1.45, 0.776, -0.754], a = 0.2, v = 0.2, t = 0.1)
movej(p[0.415656694488269, 0.244996300157074, 0.307842451479974, -1.45, 0.776, -0.754], a = 0.2, v = 0.2, t = 0.1)
movej(p[0.415648108934357, 0.244994891091988, 0.307856241502077, -1.45, 0.776, -0.754], a = 0.2, v = 0.2, t = 0.1)
movej(p[0.415639001963409, 0.244990261080526, 0.307868290646611, -1.45, 0.776, -0.754], a = 0.2, v = 0.2, t = 0.1)
movej(p[0.415631103767288, 0.244984038995285, 0.307872542702618, -1.45, 0.776, -0.754], a = 0.2, v = 0.2, t = 0.1)
movej(p[0.415623673489705, 0.244975942150471, 0.307869073950521, -1.45, 0.776, -0.754], a = 0.2, v = 0.2, t = 0.1)
movej(p[0.415615283708215, 0.244967503743046, 0.307860773193226, -1.45, 0.776, -0.754], a = 0.2, v = 0.2, t = 0.1)
movej(p[0.415605950122027, 0.244961217784882, 0.307849936886114, -1.45, 0.776, -0.754], a = 0.2, v = 0.2, t = 0.1)
movej(p[0.4155968268554, 0.244955856163317, 0.30783658771141, -1.45, 0.776, -0.754], a = 0.2, v = 0.2, t = 0.1)
movej(p[0.415589935716957, 0.244942732938926, 0.30781957086342, -1.45, 0.776, -0.754], a = 0.2, v = 0.2, t = 0.1)
movej(p[0.415581790779458, 0.244918835287963, 0.307800339603773, -1.45, 0.776, -0.754], a = 0.2, v = 0.2, t = 0.1)
movej(p[0.415569852964279, 0.24488737364201, 0.307781236159146, -1.45, 0.776, -0.754], a = 0.2, v = 0.2, t = 0.1)
movej(p[0.415551266987484, 0.244854780214892, 0.30776300956088, -1.45, 0.776, -0.754], a = 0.2, v = 0.2, t = 0.1)
movej(p[0.415528401321664, 0.244826421334283, 0.307746617884604, -1.45, 0.776, -0.754], a = 0.2, v = 0.2, t = 0.1)
movej(p[0.415504913853781, 0.244804758324098, 0.307733593959572, -1.45, 0.776, -0.754], a = 0.2, v = 0.2, t = 0.1)
movej(p[0.41548613196362, 0.244792310767759, 0.307726246952959, -1.45, 0.776, -0.754], a = 0.2, v = 0.2, t = 0.1)
movej(p[0.415472348575354, 0.24478546406103, 0.307723864407289, -1.45, 0.776, -0.754], a = 0.2, v = 0.2, t = 0.1)
movej(p[0.415460989835991, 0.244782161037953, 0.307723460972499, -1.45, 0.776, -0.754], a = 0.2, v = 0.2, t = 0.1)
movej(p[0.415450402808592, 0.244780767805492, 0.307723971669236, -1.45, 0.776, -0.754], a = 0.2, v = 0.2, t = 0.1)
movej(p[0.415440893987414, 0.24477955276203, 0.307725413500777, -1.45, 0.776, -0.754], a = 0.2, v = 0.2, t = 0.1)
movej(p[0.41543273443353, 0.244777381033849, 0.307726519662664, -1.45, 0.776, -0.754], a = 0.2, v = 0.2, t = 0.1)
movej(p[0.415424699786018, 0.2447748446544, 0.307727962594281, -1.45, 0.776, -0.754], a = 0.2, v = 0.2, t = 0.1)
movej(p[0.415416126730657, 0.244772767869066, 0.30772971633812, -1.45, 0.776, -0.754], a = 0.2, v = 0.2, t = 0.1)
movej(p[0.415407404360001, 0.244771114373554, 0.307731574392408, -1.45, 0.776, -0.754], a = 0.2, v = 0.2, t = 0.1)
movej(p[0.415400142025203, 0.244767747976084, 0.307729602338059, -1.45, 0.776, -0.754], a = 0.2, v = 0.2, t = 0.1)
movej(p[0.415398083616961, 0.244763064927844, 0.307722973757842, -1.45, 0.776, -0.754], a = 0.2, v = 0.2, t = 0.1)
movej(p[0.415402204280227, 0.244757748523077, 0.307714496880079, -1.45, 0.776, -0.754], a = 0.2, v = 0.2, t = 0.1)
movej(p[0.415408711332314, 0.244752409243805, 0.307707893993817, -1.45, 0.776, -0.754], a = 0.2, v = 0.2, t = 0.1)
movej(p[0.415414492105167, 0.244748110045128, 0.307702997934386, -1.45, 0.776, -0.754], a = 0.2, v = 0.2, t = 0.1)
movej(p[0.415420138640027, 0.244746336739676, 0.307698830673673, -1.45, 0.776, -0.754], a = 0.2, v = 0.2, t = 0.1)
movej(p[0.415426962236295, 0.244749586528396, 0.307695157166323, -1.45, 0.776, -0.754], a = 0.2, v = 0.2, t = 0.1)
movej(p[0.415434816730531, 0.244756845293046, 0.307693797618215, -1.45, 0.776, -0.754], a = 0.2, v = 0.2, t = 0.1)
movej(p[0.415443465250331, 0.244764154248167, 0.307694573283287, -1.45, 0.776, -0.754], a = 0.2, v = 0.2, t = 0.1)
movej(p[0.415457248611424, 0.2447698636818, 0.307699221297762, -1.45, 0.776, -0.754], a = 0.2, v = 0.2, t = 0.1)
movej(p[0.415474533762558, 0.244775719403222, 0.307706479728371, -1.45, 0.776, -0.754], a = 0.2, v = 0.2, t = 0.1)
movej(p[0.415492064144033, 0.244783616963441, 0.307714831693346, -1.45, 0.776, -0.754], a = 0.2, v = 0.2, t = 0.1)
movej(p[0.415502566453067, 0.244791744008732, 0.307718237822055, -1.45, 0.776, -0.754], a = 0.2, v = 0.2, t = 0.1)
movej(p[0.415507786013767, 0.244797830794093, 0.307712685127657, -1.45, 0.776, -0.754], a = 0.2, v = 0.2, t = 0.1)
movej(p[0.41551058554322, 0.244799706756484, 0.307698283423559, -1.45, 0.776, -0.754], a = 0.2, v = 0.2, t = 0.1)
movej(p[0.415513316678287, 0.244798947271149, 0.307680810367236, -1.45, 0.776, -0.754], a = 0.2, v = 0.2, t = 0.1)
movej(p[0.415514468052473, 0.244796273534372, 0.307666251263378, -1.45, 0.776, -0.754], a = 0.2, v = 0.2, t = 0.1)
movej(p[0.415512811969184, 0.244794006097641, 0.307656977928983, -1.45, 0.776, -0.754], a = 0.2, v = 0.2, t = 0.1)
movej(p[0.415508662301837, 0.24479289591336, 0.307652445409951, -1.45, 0.776, -0.754], a = 0.2, v = 0.2, t = 0.1)
movej(p[0.415503272600159, 0.244792531592194, 0.307651047885029, -1.45, 0.776, -0.754], a = 0.2, v = 0.2, t = 0.1)
movej(p[0.415496975877455, 0.244791117077544, 0.307651592103268, -1.45, 0.776, -0.754], a = 0.2, v = 0.2, t = 0.1)
movej(p[0.415491044290547, 0.244788502907627, 0.307653756889955, -1.45, 0.776, -0.754], a = 0.2, v = 0.2, t = 0.1)
movej(p[0.415485956526071, 0.244783885858885, 0.307657453678636, -1.45, 0.776, -0.754], a = 0.2, v = 0.2, t = 0.1)
movej(p[0.415481391442964, 0.244776398468467, 0.30766159419792, -1.45, 0.776, -0.754], a = 0.2, v = 0.2, t = 0.1)
movej(p[0.415474390583608, 0.244763601812127, 0.307663004066285, -1.45, 0.776, -0.754], a = 0.2, v = 0.2, t = 0.1)
movej(p[0.415465117778168, 0.244747790285747, 0.307658922322806, -1.45, 0.776, -0.754], a = 0.2, v = 0.2, t = 0.1)
movej(p[0.415455670768564, 0.244731907384866, 0.3076494614035, -1.45, 0.776, -0.754], a = 0.2, v = 0.2, t = 0.1)
movej(p[0.415448789514567, 0.244718171302609, 0.307636843754247, -1.45, 0.776, -0.754], a = 0.2, v = 0.2, t = 0.1)
movej(p[0.41544374265973, 0.244706110149602, 0.307624052808332, -1.45, 0.776, -0.754], a = 0.2, v = 0.2, t = 0.1)
movej(p[0.415438581594389, 0.244695274874801, 0.307613549982734, -1.45, 0.776, -0.754], a = 0.2, v = 0.2, t = 0.1)
movej(p[0.415433406537059, 0.244688229222359, 0.307606933270311, -1.45, 0.776, -0.754], a = 0.2, v = 0.2, t = 0.1)
movej(p[0.415429295808674, 0.244686333310241, 0.307604919432586, -1.45, 0.776, -0.754], a = 0.2, v = 0.2, t = 0.1)
movej(p[0.415425967151753, 0.244688028298557, 0.307605515243553, -1.45, 0.776, -0.754], a = 0.2, v = 0.2, t = 0.1)
movej(p[0.415422994872352, 0.244690498767495, 0.307605143937223, -1.45, 0.776, -0.754], a = 0.2, v = 0.2, t = 0.1)
movej(p[0.415418866595995, 0.24469194872103, 0.307601956956666, -1.45, 0.776, -0.754], a = 0.2, v = 0.2, t = 0.1)
movej(p[0.415413108632636, 0.244692563925552, 0.307595329990592, -1.45, 0.776, -0.754], a = 0.2, v = 0.2, t = 0.1)
movej(p[0.415406260014917, 0.244692706372748, 0.307587135559181, -1.45, 0.776, -0.754], a = 0.2, v = 0.2, t = 0.1)
movej(p[0.415399214110245, 0.244692432675513, 0.30757978890231, -1.45, 0.776, -0.754], a = 0.2, v = 0.2, t = 0.1)
movej(p[0.415393139376556, 0.244692401965312, 0.307574788287899, -1.45, 0.776, -0.754], a = 0.2, v = 0.2, t = 0.1)
movej(p[0.415389103605178, 0.244692131733396, 0.30757268273688, -1.45, 0.776, -0.754], a = 0.2, v = 0.2, t = 0.1)
movej(p[0.415386173439412, 0.244692682728505, 0.307572694440546, -1.45, 0.776, -0.754], a = 0.2, v = 0.2, t = 0.1)
movej(p[0.415383417151473, 0.244693504549496, 0.307573281443997, -1.45, 0.776, -0.754], a = 0.2, v = 0.2, t = 0.1)
movej(p[0.415378932279611, 0.24469512869571, 0.307573046764501, -1.45, 0.776, -0.754], a = 0.2, v = 0.2, t = 0.1)
movej(p[0.41537200505548, 0.244694241572991, 0.307571682514847, -1.45, 0.776, -0.754], a = 0.2, v = 0.2, t = 0.1)
movej(p[0.415361734826304, 0.2446913352001, 0.307570783762781, -1.45, 0.776, -0.754], a = 0.2, v = 0.2, t = 0.1)
movej(p[0.415347248709225, 0.244686436895746, 0.30757095784446, -1.45, 0.776, -0.754], a = 0.2, v = 0.2, t = 0.1)
movej(p[0.415331940090571, 0.244682665753704, 0.30757156761213, -1.45, 0.776, -0.754], a = 0.2, v = 0.2, t = 0.1)
movej(p[0.415318181966533, 0.24467855522548, 0.307573627726126, -1.45, 0.776, -0.754], a = 0.2, v = 0.2, t = 0.1)
movej(p[0.415308897715026, 0.244671475260805, 0.307579347299201, -1.45, 0.776, -0.754], a = 0.2, v = 0.2, t = 0.1)
movej(p[0.415304269832406, 0.244660647226336, 0.307589755730303, -1.45, 0.776, -0.754], a = 0.2, v = 0.2, t = 0.1)
movej(p[0.415304764858751, 0.244648459747552, 0.307602778353994, -1.45, 0.776, -0.754], a = 0.2, v = 0.2, t = 0.1)
movej(p[0.415310432550161, 0.244639893315917, 0.307615174919652, -1.45, 0.776, -0.754], a = 0.2, v = 0.2, t = 0.1)
movej(p[0.415321158269283, 0.244636905496203, 0.307625260223597, -1.45, 0.776, -0.754], a = 0.2, v = 0.2, t = 0.1)
movej(p[0.415336807976914, 0.244638959904188, 0.30763390083173, -1.45, 0.776, -0.754], a = 0.2, v = 0.2, t = 0.1)
movej(p[0.41535642750607, 0.244642914228788, 0.307642518572596, -1.45, 0.776, -0.754], a = 0.2, v = 0.2, t = 0.1)
movej(p[0.415377873068766, 0.244648182372207, 0.307650712277349, -1.45, 0.776, -0.754], a = 0.2, v = 0.2, t = 0.1)
movej(p[0.415399463142254, 0.244654222329123, 0.307658413240227, -1.45, 0.776, -0.754], a = 0.2, v = 0.2, t = 0.1)
movej(p[0.415420709557201, 0.24466220293258, 0.307666040103105, -1.45, 0.776, -0.754], a = 0.2, v = 0.2, t = 0.1)
movej(p[0.41544025740179, 0.244670431954822, 0.307673214607886, -1.45, 0.776, -0.754], a = 0.2, v = 0.2, t = 0.1)
movej(p[0.415457815869702, 0.244677674608678, 0.307680073375684, -1.45, 0.776, -0.754], a = 0.2, v = 0.2, t = 0.1)
movej(p[0.415473313164968, 0.244683087680636, 0.307686293125954, -1.45, 0.776, -0.754], a = 0.2, v = 0.2, t = 0.1)
movej(p[0.415486606630821, 0.244686947542239, 0.307693170602238, -1.45, 0.776, -0.754], a = 0.2, v = 0.2, t = 0.1)
movej(p[0.415497548262098, 0.244691274976186, 0.307700026954214, -1.45, 0.776, -0.754], a = 0.2, v = 0.2, t = 0.1)
movej(p[0.415504429086546, 0.244695557763009, 0.307707812006105, -1.45, 0.776, -0.754], a = 0.2, v = 0.2, t = 0.1)
movej(p[0.415507597271193, 0.244700365149693, 0.307714679396462, -1.45, 0.776, -0.754], a = 0.2, v = 0.2, t = 0.1)
movej(p[0.415506937529518, 0.244705030041812, 0.307720453210404, -1.45, 0.776, -0.754], a = 0.2, v = 0.2, t = 0.1)
movej(p[0.415503881179594, 0.244706338136047, 0.307725157937879, -1.45, 0.776, -0.754], a = 0.2, v = 0.2, t = 0.1)
movej(p[0.41549894213119, 0.244702293188272, 0.30773223656482, -1.45, 0.776, -0.754], a = 0.2, v = 0.2, t = 0.1)
movej(p[0.415494557286881, 0.244695015873516, 0.307740281578078, -1.45, 0.776, -0.754], a = 0.2, v = 0.2, t = 0.1)
movej(p[0.415492364978348, 0.244690958725415, 0.307748251674162, -1.45, 0.776, -0.754], a = 0.2, v = 0.2, t = 0.1)
movej(p[0.415491848128767, 0.244690773660554, 0.307751653418936, -1.45, 0.776, -0.754], a = 0.2, v = 0.2, t = 0.1)
movej(p[0.415491324180469, 0.244693664906931, 0.30774760067387, -1.45, 0.776, -0.754], a = 0.2, v = 0.2, t = 0.1)
movej(p[0.415489927003695, 0.244699675904563, 0.307735003096265, -1.45, 0.776, -0.754], a = 0.2, v = 0.2, t = 0.1)
movej(p[0.415487994994118, 0.24470863157222, 0.307719274743464, -1.45, 0.776, -0.754], a = 0.2, v = 0.2, t = 0.1)
movej(p[0.415485802954243, 0.244719963180581, 0.307704087966152, -1.45, 0.776, -0.754], a = 0.2, v = 0.2, t = 0.1)
movej(p[0.415482500484626, 0.244732508332568, 0.30769130933868, -1.45, 0.776, -0.754], a = 0.2, v = 0.2, t = 0.1)
movej(p[0.415477813944853, 0.24474307227946, 0.307679579897644, -1.45, 0.776, -0.754], a = 0.2, v = 0.2, t = 0.1)
movej(p[0.415471365610978, 0.244749946109563, 0.307666723590323, -1.45, 0.776, -0.754], a = 0.2, v = 0.2, t = 0.1)
movej(p[0.415462962752275, 0.244754009886285, 0.307650456038405, -1.45, 0.776, -0.754], a = 0.2, v = 0.2, t = 0.1)
movej(p[0.415454183329444, 0.24475774070353, 0.307632455501651, -1.45, 0.776, -0.754], a = 0.2, v = 0.2, t = 0.1)
movej(p[0.415446469107537, 0.244760615395237, 0.307615164337897, -1.45, 0.776, -0.754], a = 0.2, v = 0.2, t = 0.1)
movej(p[0.415439377598424, 0.244763216986113, 0.307599939614734, -1.45, 0.776, -0.754], a = 0.2, v = 0.2, t = 0.1)
movej(p[0.415431682799778, 0.24476633338009, 0.307587076004339, -1.45, 0.776, -0.754], a = 0.2, v = 0.2, t = 0.1)
movej(p[0.415421644170858, 0.244770934451766, 0.307576336738497, -1.45, 0.776, -0.754], a = 0.2, v = 0.2, t = 0.1)
movej(p[0.415408664949423, 0.244775718274852, 0.307568637319128, -1.45, 0.776, -0.754], a = 0.2, v = 0.2, t = 0.1)
movej(p[0.415392382599146, 0.244778719624998, 0.307565188432675, -1.45, 0.776, -0.754], a = 0.2, v = 0.2, t = 0.1)
movej(p[0.415373051919851, 0.244779722363703, 0.307564070422347, -1.45, 0.776, -0.754], a = 0.2, v = 0.2, t = 0.1)
movej(p[0.415353135674487, 0.244780080110539, 0.307563109774233, -1.45, 0.776, -0.754], a = 0.2, v = 0.2, t = 0.1)
movej(p[0.41533537818411, 0.244780039149111, 0.307561434329908, -1.45, 0.776, -0.754], a = 0.2, v = 0.2, t = 0.1)
movej(p[0.415320225872267, 0.244780541020428, 0.30755972511547, -1.45, 0.776, -0.754], a = 0.2, v = 0.2, t = 0.1)
movej(p[0.415307091470508, 0.244780995337464, 0.307558841217023, -1.45, 0.776, -0.754], a = 0.2, v = 0.2, t = 0.1)
movej(p[0.415296298993317, 0.244781187227912, 0.307558547984814, -1.45, 0.776, -0.754], a = 0.2, v = 0.2, t = 0.1)
movej(p[0.41528832600358, 0.244781634632987, 0.307557966151203, -1.45, 0.776, -0.754], a = 0.2, v = 0.2, t = 0.1)
movej(p[0.415283179280361, 0.244782853069758, 0.307556311893379, -1.45, 0.776, -0.754], a = 0.2, v = 0.2, t = 0.1)
movej(p[0.415279091902384, 0.244785807128048, 0.307552749873883, -1.45, 0.776, -0.754], a = 0.2, v = 0.2, t = 0.1)
movej(p[0.415276972751377, 0.244791423583199, 0.30755161988205, -1.45, 0.776, -0.754], a = 0.2, v = 0.2, t = 0.1)
movej(p[0.415276998417945, 0.244800777313969, 0.307556377827081, -1.45, 0.776, -0.754], a = 0.2, v = 0.2, t = 0.1)
movej(p[0.415280064551736, 0.244812913879199, 0.307565936899525, -1.45, 0.776, -0.754], a = 0.2, v = 0.2, t = 0.1)
movej(p[0.415286998669408, 0.244824876615313, 0.307576812563449, -1.45, 0.776, -0.754], a = 0.2, v = 0.2, t = 0.1)
movej(p[0.415297553895366, 0.244834425882585, 0.307586945815126, -1.45, 0.776, -0.754], a = 0.2, v = 0.2, t = 0.1)
movej(p[0.415311607323165, 0.244842359617747, 0.30759433766682, -1.45, 0.776, -0.754], a = 0.2, v = 0.2, t = 0.1)
movej(p[0.415328314808261, 0.244850455373554, 0.307598437323474, -1.45, 0.776, -0.754], a = 0.2, v = 0.2, t = 0.1)
movej(p[0.415347152792585, 0.244860307334085, 0.307600498618039, -1.45, 0.776, -0.754], a = 0.2, v = 0.2, t = 0.1)
movej(p[0.415368423168684, 0.244872791936011, 0.307604129726461, -1.45, 0.776, -0.754], a = 0.2, v = 0.2, t = 0.1)
movej(p[0.415391150330876, 0.244886692355869, 0.307611279218016, -1.45, 0.776, -0.754], a = 0.2, v = 0.2, t = 0.1)
movej(p[0.415413892587993, 0.244900285274637, 0.307621925923779, -1.45, 0.776, -0.754], a = 0.2, v = 0.2, t = 0.1)
movej(p[0.415434914715742, 0.244911490662267, 0.307632526814446, -1.45, 0.776, -0.754], a = 0.2, v = 0.2, t = 0.1)
movej(p[0.415453472536819, 0.244919396237523, 0.307639988981341, -1.45, 0.776, -0.754], a = 0.2, v = 0.2, t = 0.1)
movej(p[0.415469643501255, 0.244923527576604, 0.30764224252868, -1.45, 0.776, -0.754], a = 0.2, v = 0.2, t = 0.1)
movej(p[0.415480795700903, 0.244924106273476, 0.307639239066191, -1.45, 0.776, -0.754], a = 0.2, v = 0.2, t = 0.1)
movej(p[0.415485401438446, 0.244922350531533, 0.307632705873639, -1.45, 0.776, -0.754], a = 0.2, v = 0.2, t = 0.1)
movej(p[0.415482479689311, 0.244918558927219, 0.307626215782521, -1.45, 0.776, -0.754], a = 0.2, v = 0.2, t = 0.1)
movej(p[0.41547412544709, 0.244913262763325, 0.307622545978859, -1.45, 0.776, -0.754], a = 0.2, v = 0.2, t = 0.1)
movej(p[0.415462212947276, 0.244906854580516, 0.307620623354019, -1.45, 0.776, -0.754], a = 0.2, v = 0.2, t = 0.1)
movej(p[0.415448866508958, 0.244898689760341, 0.307617646450977, -1.45, 0.776, -0.754], a = 0.2, v = 0.2, t = 0.1)
movej(p[0.415434223458097, 0.244888286277597, 0.307612498471055, -1.45, 0.776, -0.754], a = 0.2, v = 0.2, t = 0.1)
movej(p[0.415418092250387, 0.244875967073617, 0.307605982610167, -1.45, 0.776, -0.754], a = 0.2, v = 0.2, t = 0.1)
movej(p[0.415400415426863, 0.244862644002703, 0.307596605699133, -1.45, 0.776, -0.754], a = 0.2, v = 0.2, t = 0.1)
movej(p[0.41538235904887, 0.244847964961876, 0.307584556572353, -1.45, 0.776, -0.754], a = 0.2, v = 0.2, t = 0.1)
movej(p[0.41536380910885, 0.244830602882722, 0.307570541261485, -1.45, 0.776, -0.754], a = 0.2, v = 0.2, t = 0.1)
movej(p[0.415345977049819, 0.244810805302883, 0.307553636194694, -1.45, 0.776, -0.754], a = 0.2, v = 0.2, t = 0.1)
movej(p[0.415328342257306, 0.244789732441925, 0.307534785861857, -1.45, 0.776, -0.754], a = 0.2, v = 0.2, t = 0.1)
movej(p[0.415311937592685, 0.244768464025722, 0.307514794401282, -1.45, 0.776, -0.754], a = 0.2, v = 0.2, t = 0.1)
movej(p[0.415297147487921, 0.244748569884577, 0.307498448566242, -1.45, 0.776, -0.754], a = 0.2, v = 0.2, t = 0.1)
movej(p[0.415286107882128, 0.2447320480569, 0.307487133587624, -1.45, 0.776, -0.754], a = 0.2, v = 0.2, t = 0.1)
movej(p[0.415280377217498, 0.244719313453286, 0.307481383849308, -1.45, 0.776, -0.754], a = 0.2, v = 0.2, t = 0.1)
movej(p[0.415282077868965, 0.244709859508297, 0.307478742809601, -1.45, 0.776, -0.754], a = 0.2, v = 0.2, t = 0.1)
movej(p[0.415289886190922, 0.244702555247145, 0.307476175054308, -1.45, 0.776, -0.754], a = 0.2, v = 0.2, t = 0.1)
movej(p[0.415302265834618, 0.244696267422109, 0.307471729694112, -1.45, 0.776, -0.754], a = 0.2, v = 0.2, t = 0.1)
movej(p[0.415317025848358, 0.244690844382306, 0.307463756411871, -1.45, 0.776, -0.754], a = 0.2, v = 0.2, t = 0.1)
movej(p[0.415333772273778, 0.244688544874383, 0.307453193574991, -1.45, 0.776, -0.754], a = 0.2, v = 0.2, t = 0.1)
movej(p[0.415352806974307, 0.244689930319046, 0.307441189526305, -1.45, 0.776, -0.754], a = 0.2, v = 0.2, t = 0.1)
movej(p[0.415373381115906, 0.244693352572986, 0.307428272735509, -1.45, 0.776, -0.754], a = 0.2, v = 0.2, t = 0.1)
movej(p[0.415394428101978, 0.244697406382608, 0.307416037149915, -1.45, 0.776, -0.754], a = 0.2, v = 0.2, t = 0.1)
movej(p[0.415413957362189, 0.24470236795442, 0.307405067245962, -1.45, 0.776, -0.754], a = 0.2, v = 0.2, t = 0.1)
movej(p[0.415431685649129, 0.244709397378657, 0.3073943893191, -1.45, 0.776, -0.754], a = 0.2, v = 0.2, t = 0.1)
movej(p[0.415447012929559, 0.244717323549967, 0.307381993099354, -1.45, 0.776, -0.754], a = 0.2, v = 0.2, t = 0.1)
movej(p[0.415460295817562, 0.244724461079131, 0.307368565344749, -1.45, 0.776, -0.754], a = 0.2, v = 0.2, t = 0.1)
movej(p[0.415471062096328, 0.244730778036149, 0.307357202499173, -1.45, 0.776, -0.754], a = 0.2, v = 0.2, t = 0.1)
movej(p[0.415479966224863, 0.244737325155435, 0.307353319605526, -1.45, 0.776, -0.754], a = 0.2, v = 0.2, t = 0.1)
movej(p[0.41548624814147, 0.244744110331527, 0.307354715249513, -1.45, 0.776, -0.754], a = 0.2, v = 0.2, t = 0.1)
movej(p[0.415489643027517, 0.244750167318819, 0.307356553007299, -1.45, 0.776, -0.754], a = 0.2, v = 0.2, t = 0.1)
movej(p[0.415489672434089, 0.244754717432542, 0.307353781032126, -1.45, 0.776, -0.754], a = 0.2, v = 0.2, t = 0.1)
movej(p[0.41548634778737, 0.2447581850078, 0.307346967525685, -1.45, 0.776, -0.754], a = 0.2, v = 0.2, t = 0.1)
movej(p[0.415479749921584, 0.244760959421425, 0.30733892314155, -1.45, 0.776, -0.754], a = 0.2, v = 0.2, t = 0.1)
movej(p[0.415470391542218, 0.244762536482463, 0.30733361798697, -1.45, 0.776, -0.754], a = 0.2, v = 0.2, t = 0.1)
movej(p[0.415460005516322, 0.244761066409221, 0.307330766542291, -1.45, 0.776, -0.754], a = 0.2, v = 0.2, t = 0.1)
movej(p[0.415448533432524, 0.244756543965284, 0.307327739395092, -1.45, 0.776, -0.754], a = 0.2, v = 0.2, t = 0.1)
movej(p[0.415434753234343, 0.244750142874495, 0.307323548465266, -1.45, 0.776, -0.754], a = 0.2, v = 0.2, t = 0.1)
movej(p[0.415417193302655, 0.244744560553057, 0.307320092037562, -1.45, 0.776, -0.754], a = 0.2, v = 0.2, t = 0.1)
movej(p[0.415396044536414, 0.244739855368623, 0.307322777074604, -1.45, 0.776, -0.754], a = 0.2, v = 0.2, t = 0.1)
movej(p[0.415372351006405, 0.244735598079868, 0.307330242152109, -1.45, 0.776, -0.754], a = 0.2, v = 0.2, t = 0.1)
movej(p[0.415347220491925, 0.244731290837283, 0.307338681592096, -1.45, 0.776, -0.754], a = 0.2, v = 0.2, t = 0.1)
movej(p[0.415322511001332, 0.244726996960537, 0.307344498885207, -1.45, 0.776, -0.754], a = 0.2, v = 0.2, t = 0.1)
movej(p[0.415299979591866, 0.244721403554038, 0.307345848970462, -1.45, 0.776, -0.754], a = 0.2, v = 0.2, t = 0.1)
movej(p[0.415281069258432, 0.24471352403758, 0.307344219000578, -1.45, 0.776, -0.754], a = 0.2, v = 0.2, t = 0.1)
movej(p[0.415266753891637, 0.244702269405694, 0.307341173408416, -1.45, 0.776, -0.754], a = 0.2, v = 0.2, t = 0.1)
movej(p[0.415256787320279, 0.244688971271995, 0.307340189308572, -1.45, 0.776, -0.754], a = 0.2, v = 0.2, t = 0.1)
movej(p[0.415248746057547, 0.244676159169871, 0.307340674867874, -1.45, 0.776, -0.754], a = 0.2, v = 0.2, t = 0.1)
movej(p[0.415240188209209, 0.244665281244372, 0.307340289647586, -1.45, 0.776, -0.754], a = 0.2, v = 0.2, t = 0.1)
movej(p[0.41523064568994, 0.244656119831274, 0.307335826133495, -1.45, 0.776, -0.754], a = 0.2, v = 0.2, t = 0.1)
movej(p[0.415220315494322, 0.244647904187842, 0.307326654972146, -1.45, 0.776, -0.754], a = 0.2, v = 0.2, t = 0.1)
movej(p[0.415210485918487, 0.244640910176699, 0.307313744259035, -1.45, 0.776, -0.754], a = 0.2, v = 0.2, t = 0.1)
movej(p[0.415202229693466, 0.244635144536917, 0.307299369054539, -1.45, 0.776, -0.754], a = 0.2, v = 0.2, t = 0.1)
movej(p[0.415197309313749, 0.244629031167242, 0.307285913491835, -1.45, 0.776, -0.754], a = 0.2, v = 0.2, t = 0.1)
movej(p[0.41519702660934, 0.24462072030623, 0.307275022116832, -1.45, 0.776, -0.754], a = 0.2, v = 0.2, t = 0.1)
movej(p[0.415201691149662, 0.244611911965454, 0.307268194260188, -1.45, 0.776, -0.754], a = 0.2, v = 0.2, t = 0.1)
movej(p[0.415210390834852, 0.244605184575346, 0.307264989517152, -1.45, 0.776, -0.754], a = 0.2, v = 0.2, t = 0.1)
movej(p[0.415221157098537, 0.244604223948891, 0.307263064458171, -1.45, 0.776, -0.754], a = 0.2, v = 0.2, t = 0.1)
movej(p[0.415233093413863, 0.244608645390822, 0.307260906985646, -1.45, 0.776, -0.754], a = 0.2, v = 0.2, t = 0.1)
movej(p[0.415245511072693, 0.244615556425482, 0.307258848186697, -1.45, 0.776, -0.754], a = 0.2, v = 0.2, t = 0.1)
movej(p[0.415258251447344, 0.244622704643678, 0.307256325762394, -1.45, 0.776, -0.754], a = 0.2, v = 0.2, t = 0.1)
movej(p[0.415269814639361, 0.244629942586491, 0.30724939001332, -1.45, 0.776, -0.754], a = 0.2, v = 0.2, t = 0.1)
movej(p[0.41527990568974, 0.244637070876488, 0.307239302870069, -1.45, 0.776, -0.754], a = 0.2, v = 0.2, t = 0.1)
movej(p[0.415288406477362, 0.244641831485331, 0.307227109655758, -1.45, 0.776, -0.754], a = 0.2, v = 0.2, t = 0.1)
movej(p[0.415295920176148, 0.244643194195666, 0.307216017082787, -1.45, 0.776, -0.754], a = 0.2, v = 0.2, t = 0.1)
movej(p[0.415303222501025, 0.244643776270615, 0.307205165604126, -1.45, 0.776, -0.754], a = 0.2, v = 0.2, t = 0.1)
movej(p[0.415310670297534, 0.244646522522116, 0.307194590389572, -1.45, 0.776, -0.754], a = 0.2, v = 0.2, t = 0.1)
movej(p[0.41531773341341, 0.24465189420145, 0.307184918147058, -1.45, 0.776, -0.754], a = 0.2, v = 0.2, t = 0.1)
movej(p[0.415323254539197, 0.244657356465408, 0.307174367696712, -1.45, 0.776, -0.754], a = 0.2, v = 0.2, t = 0.1)
movej(p[0.415326951671233, 0.244662240518617, 0.30716312355326, -1.45, 0.776, -0.754], a = 0.2, v = 0.2, t = 0.1)
movej(p[0.41533033391382, 0.244666135103715, 0.307153035611994, -1.45, 0.776, -0.754], a = 0.2, v = 0.2, t = 0.1)
movej(p[0.415332435697871, 0.244668376255348, 0.307144454034799, -1.45, 0.776, -0.754], a = 0.2, v = 0.2, t = 0.1)
movej(p[0.415331768057454, 0.244668157944002, 0.307137705670076, -1.45, 0.776, -0.754], a = 0.2, v = 0.2, t = 0.1)
movej(p[0.415327199671819, 0.244663945094595, 0.307130181892928, -1.45, 0.776, -0.754], a = 0.2, v = 0.2, t = 0.1)
movej(p[0.415318470879109, 0.244656124091141, 0.307121234360765, -1.45, 0.776, -0.754], a = 0.2, v = 0.2, t = 0.1)
movej(p[0.415305390753558, 0.244645787220238, 0.307110345225791, -1.45, 0.776, -0.754], a = 0.2, v = 0.2, t = 0.1)
movej(p[0.415289343019479, 0.244635422345338, 0.307098859453234, -1.45, 0.776, -0.754], a = 0.2, v = 0.2, t = 0.1)
movej(p[0.415271575033851, 0.244625097677604, 0.307087101616362, -1.45, 0.776, -0.754], a = 0.2, v = 0.2, t = 0.1)
movej(p[0.415252393493937, 0.244615474068001, 0.307076009043183, -1.45, 0.776, -0.754], a = 0.2, v = 0.2, t = 0.1)
movej(p[0.415231372233899, 0.244605024091911, 0.307067091939216, -1.45, 0.776, -0.754], a = 0.2, v = 0.2, t = 0.1)
movej(p[0.415208649030844, 0.244592283861515, 0.307061316564737, -1.45, 0.776, -0.754], a = 0.2, v = 0.2, t = 0.1)
movej(p[0.415184618589976, 0.24457309671361, 0.307059419507023, -1.45, 0.776, -0.754], a = 0.2, v = 0.2, t = 0.1)
movej(p[0.415163650034398, 0.244552561938225, 0.307057413047991, -1.45, 0.776, -0.754], a = 0.2, v = 0.2, t = 0.1)
movej(p[0.415149148849117, 0.244537035924727, 0.307053395231258, -1.45, 0.776, -0.754], a = 0.2, v = 0.2, t = 0.1)
movej(p[0.415143664551868, 0.244533085083904, 0.307046022491911, -1.45, 0.776, -0.754], a = 0.2, v = 0.2, t = 0.1)
movej(p[0.415143982976679, 0.244538070723447, 0.307039087953859, -1.45, 0.776, -0.754], a = 0.2, v = 0.2, t = 0.1)
movej(p[0.415146959663048, 0.244547788467625, 0.307035426792384, -1.45, 0.776, -0.754], a = 0.2, v = 0.2, t = 0.1)
movej(p[0.415150568670355, 0.24456077865783, 0.307034567096102, -1.45, 0.776, -0.754], a = 0.2, v = 0.2, t = 0.1)
movej(p[0.415155062829641, 0.244576587987761, 0.307036830850826, -1.45, 0.776, -0.754], a = 0.2, v = 0.2, t = 0.1)
movej(p[0.415160645881637, 0.244594841937269, 0.307041057982689, -1.45, 0.776, -0.754], a = 0.2, v = 0.2, t = 0.1)
movej(p[0.415167803317949, 0.244613960041184, 0.307045578200176, -1.45, 0.776, -0.754], a = 0.2, v = 0.2, t = 0.1)
movej(p[0.415177717020283, 0.244632077584841, 0.307048824812235, -1.45, 0.776, -0.754], a = 0.2, v = 0.2, t = 0.1)
movej(p[0.415191235316485, 0.244648587346234, 0.307050337071319, -1.45, 0.776, -0.754], a = 0.2, v = 0.2, t = 0.1)
movej(p[0.415207415026471, 0.244663841323161, 0.307050292780358, -1.45, 0.776, -0.754], a = 0.2, v = 0.2, t = 0.1)
movej(p[0.415224191287704, 0.244677179850654, 0.307047285598059, -1.45, 0.776, -0.754], a = 0.2, v = 0.2, t = 0.1)
movej(p[0.415239810120665, 0.244688644406282, 0.307041590252401, -1.45, 0.776, -0.754], a = 0.2, v = 0.2, t = 0.1)
movej(p[0.415253418125991, 0.244698112788409, 0.307033289871509, -1.45, 0.776, -0.754], a = 0.2, v = 0.2, t = 0.1)
movej(p[0.415265652070592, 0.244706624959724, 0.30702473621802, -1.45, 0.776, -0.754], a = 0.2, v = 0.2, t = 0.1)
movej(p[0.415277208151457, 0.244714733802457, 0.307016583717633, -1.45, 0.776, -0.754], a = 0.2, v = 0.2, t = 0.1)
movej(p[0.415289166323512, 0.244724280194969, 0.307007988530775, -1.45, 0.776, -0.754], a = 0.2, v = 0.2, t = 0.1)
movej(p[0.415300863649169, 0.24473606600104, 0.3069993829967, -1.45, 0.776, -0.754], a = 0.2, v = 0.2, t = 0.1)
movej(p[0.415311641516798, 0.244748120465727, 0.306991057543829, -1.45, 0.776, -0.754], a = 0.2, v = 0.2, t = 0.1)
movej(p[0.41532052448061, 0.244757194255428, 0.306981339625103, -1.45, 0.776, -0.754], a = 0.2, v = 0.2, t = 0.1)
movej(p[0.415326942176672, 0.244762883180194, 0.306967725564531, -1.45, 0.776, -0.754], a = 0.2, v = 0.2, t = 0.1)
movej(p[0.415329856343986, 0.244765439013992, 0.306949143642013, -1.45, 0.776, -0.754], a = 0.2, v = 0.2, t = 0.1)
movej(p[0.415328652722666, 0.244765405935819, 0.306929367268343, -1.45, 0.776, -0.754], a = 0.2, v = 0.2, t = 0.1)
movej(p[0.415324128022842, 0.244763266656295, 0.306910927920642, -1.45, 0.776, -0.754], a = 0.2, v = 0.2, t = 0.1)
movej(p[0.415317995214848, 0.244760232875609, 0.306894344936265, -1.45, 0.776, -0.754], a = 0.2, v = 0.2, t = 0.1)
movej(p[0.415311935938657, 0.244757501910683, 0.306878458004824, -1.45, 0.776, -0.754], a = 0.2, v = 0.2, t = 0.1)
movej(p[0.415305174412071, 0.244755269431408, 0.306862963837227, -1.45, 0.776, -0.754], a = 0.2, v = 0.2, t = 0.1)
movej(p[0.415296851275896, 0.244753381732546, 0.306846615639797, -1.45, 0.776, -0.754], a = 0.2, v = 0.2, t = 0.1)
movej(p[0.415287829540313, 0.244749656396761, 0.306825991422324, -1.45, 0.776, -0.754], a = 0.2, v = 0.2, t = 0.1)
movej(p[0.415279849658717, 0.244741798440815, 0.306802528810256, -1.45, 0.776, -0.754], a = 0.2, v = 0.2, t = 0.1)
movej(p[0.415272448600138, 0.244729276854309, 0.306778122136265, -1.45, 0.776, -0.754], a = 0.2, v = 0.2, t = 0.1)
movej(p[0.41526577287902, 0.244713017006461, 0.306755791111982, -1.45, 0.776, -0.754], a = 0.2, v = 0.2, t = 0.1)
movej(p[0.415258490914437, 0.244695440666986, 0.306739459113591, -1.45, 0.776, -0.754], a = 0.2, v = 0.2, t = 0.1)
movej(p[0.415250138666103, 0.244678898339237, 0.306725636054905, -1.45, 0.776, -0.754], a = 0.2, v = 0.2, t = 0.1)
movej(p[0.41524098201379, 0.244666024575214, 0.306709155395716, -1.45, 0.776, -0.754], a = 0.2, v = 0.2, t = 0.1)
movej(p[0.415230848291765, 0.244656813021562, 0.306689746575164, -1.45, 0.776, -0.754], a = 0.2, v = 0.2, t = 0.1)
movej(p[0.415220364184779, 0.244648670138518, 0.306669984336287, -1.45, 0.776, -0.754], a = 0.2, v = 0.2, t = 0.1)
movej(p[0.415209612420446, 0.244639960005332, 0.306651877788449, -1.45, 0.776, -0.754], a = 0.2, v = 0.2, t = 0.1)
movej(p[0.415198937430303, 0.244630783463688, 0.306634775018413, -1.45, 0.776, -0.754], a = 0.2, v = 0.2, t = 0.1)
movej(p[0.415189431032394, 0.244621077308461, 0.306620616236597, -1.45, 0.776, -0.754], a = 0.2, v = 0.2, t = 0.1)
movej(p[0.415181177787954, 0.244610257695764, 0.306611382322785, -1.45, 0.776, -0.754], a = 0.2, v = 0.2, t = 0.1)
movej(p[0.415173293057066, 0.244598785081567, 0.30660767406439, -1.45, 0.776, -0.754], a = 0.2, v = 0.2, t = 0.1)
movej(p[0.415164875368583, 0.244588226887079, 0.306607505304943, -1.45, 0.776, -0.754], a = 0.2, v = 0.2, t = 0.1)
movej(p[0.415156542331906, 0.244579276262976, 0.30660864112839, -1.45, 0.776, -0.754], a = 0.2, v = 0.2, t = 0.1)
movej(p[0.415149110909914, 0.244571168601425, 0.306611935099907, -1.45, 0.776, -0.754], a = 0.2, v = 0.2, t = 0.1)
movej(p[0.415142788520221, 0.244562209239801, 0.306617936004994, -1.45, 0.776, -0.754], a = 0.2, v = 0.2, t = 0.1)
movej(p[0.415137033081546, 0.244550946596942, 0.30662774060343, -1.45, 0.776, -0.754], a = 0.2, v = 0.2, t = 0.1)
movej(p[0.415131576038783, 0.244538087916418, 0.30663909654762, -1.45, 0.776, -0.754], a = 0.2, v = 0.2, t = 0.1)
movej(p[0.415125843278506, 0.244525903488596, 0.30665009602562, -1.45, 0.776, -0.754], a = 0.2, v = 0.2, t = 0.1)
movej(p[0.415119471082776, 0.244516639597808, 0.306660191556861, -1.45, 0.776, -0.754], a = 0.2, v = 0.2, t = 0.1)
movej(p[0.415111371144618, 0.244509883758526, 0.306666862876552, -1.45, 0.776, -0.754], a = 0.2, v = 0.2, t = 0.1)
movej(p[0.415100337230641, 0.244505363669753, 0.306670637574666, -1.45, 0.776, -0.754], a = 0.2, v = 0.2, t = 0.1)
movej(p[0.415087040462843, 0.24450293124267, 0.306672877866299, -1.45, 0.776, -0.754], a = 0.2, v = 0.2, t = 0.1)
movej(p[0.415073378729909, 0.244503674505123, 0.306675848890727, -1.45, 0.776, -0.754], a = 0.2, v = 0.2, t = 0.1)
movej(p[0.415060904614989, 0.244507070885224, 0.306680280380903, -1.45, 0.776, -0.754], a = 0.2, v = 0.2, t = 0.1)
movej(p[0.41505066037222, 0.244513369523774, 0.306683780780809, -1.45, 0.776, -0.754], a = 0.2, v = 0.2, t = 0.1)
movej(p[0.415043706758072, 0.244521387488926, 0.3066841687191, -1.45, 0.776, -0.754], a = 0.2, v = 0.2, t = 0.1)
movej(p[0.415039923166267, 0.244529382121573, 0.306680923696623, -1.45, 0.776, -0.754], a = 0.2, v = 0.2, t = 0.1)
movej(p[0.415037929461437, 0.244535999244372, 0.30667710182301, -1.45, 0.776, -0.754], a = 0.2, v = 0.2, t = 0.1)
movej(p[0.415036498110827, 0.244541263162074, 0.306673220521314, -1.45, 0.776, -0.754], a = 0.2, v = 0.2, t = 0.1)
movej(p[0.415036142669178, 0.244545599888616, 0.306670293057371, -1.45, 0.776, -0.754], a = 0.2, v = 0.2, t = 0.1)
movej(p[0.415038074949205, 0.244549860171053, 0.306668318804232, -1.45, 0.776, -0.754], a = 0.2, v = 0.2, t = 0.1)
