movej(p[-0.569341392336582, 0.117579341228543, 0.353163322417877, -1.24433585669943, -1.00261166868611, 1.52627706375962], a = 0.2, v = 0.2, t = 0.2)
movej(p[-0.569429217102533, 0.117532688495422, 0.353154199754999, -1.24382657960542, -1.00122887758912, 1.52697626367774], a = 0.2, v = 0.2, t = 0.2)
movej(p[-0.569341398436471, 0.117180941019342, 0.353303021141105, -1.24525201830546, -1.00198044431708, 1.52076878026858], a = 0.2, v = 0.2, t = 0.2)
movej(p[-0.569335565463449, 0.117499378974388, 0.353181993932546, -1.24667088572387, -0.999672712419232, 1.5264315943247], a = 0.2, v = 0.2, t = 0.2)
movej(p[-0.569507059557901, 0.117387890379859, 0.353250138109539, -1.24616789495409, -0.999133879115266, 1.52363567357839], a = 0.2, v = 0.2, t = 0.2)
movej(p[-0.569373791187756, 0.117478691237354, 0.353138677058956, -1.24602772979401, -1.00191433028393, 1.5284058877322], a = 0.2, v = 0.2, t = 0.2)
movej(p[-0.569313609159397, 0.11752374734511, 0.353291968580628, -1.2466109546101, -1.00384578896895, 1.52445495106647], a = 0.2, v = 0.2, t = 0.2)
movej(p[-0.569366509843102, 0.117349853988716, 0.353234786867942, -1.24619067506991, -1.00113313608684, 1.5238043934176], a = 0.2, v = 0.2, t = 0.2)
movej(p[-0.569410389446025, 0.117427258574667, 0.353189960084419, -1.2452186764508, -0.999982378208588, 1.52692692819515], a = 0.2, v = 0.2, t = 0.2)
movej(p[-0.569374947720891, 0.117373078721662, 0.353099808447451, -1.24476153517126, -0.999993042754419, 1.52261512806093], a = 0.2, v = 0.2, t = 0.2)
movej(p[-0.569412405588511, 0.117410939091377, 0.353048317860366, -1.24255682480407, -0.999662791757866, 1.52532703665259], a = 0.2, v = 0.2, t = 0.2)
movej(p[-0.569379904911284, 0.11749846135128, 0.353115902621971, -1.24312718923664, -1.00116510432485, 1.52376849739952], a = 0.2, v = 0.2, t = 0.2)
movej(p[-0.569336918666994, 0.117562874911492, 0.353054261028361, -1.24222194033735, -1.00182911111781, 1.5246337939907], a = 0.2, v = 0.2, t = 0.2)
movej(p[-0.569099946875595, 0.117602380603393, 0.353171933839106, -1.24250638586285, -1.00264377597537, 1.52798042586961], a = 0.2, v = 0.2, t = 0.2)
movej(p[-0.569466246771717, 0.117456028455977, 0.353078301125548, -1.24440932561029, -0.998457319001897, 1.52843491777069], a = 0.2, v = 0.2, t = 0.2)
movej(p[-0.56937142708462, 0.117402844934771, 0.352985816045611, -1.24084091431719, -0.999945432169979, 1.52404651343476], a = 0.2, v = 0.2, t = 0.2)
movej(p[-0.569477051816111, 0.117392150597363, 0.353169593240183, -1.2434342961838, -0.999646657045457, 1.52516455288804], a = 0.2, v = 0.2, t = 0.2)
movej(p[-0.569338497031021, 0.117596276586334, 0.353103934027916, -1.24351013722986, -1.00152442550663, 1.52483700537619], a = 0.2, v = 0.2, t = 0.2)
movej(p[-0.569214660101361, 0.117126870401621, 0.353260008204529, -1.24454955180418, -0.999678165086524, 1.51890278880092], a = 0.2, v = 0.2, t = 0.2)
movej(p[-0.569356339309716, 0.117063711594307, 0.35323843931539, -1.24380369906534, -0.998535388622521, 1.51928910062267], a = 0.2, v = 0.2, t = 0.2)
movej(p[-0.569334810713346, 0.11730818643266, 0.353063895616132, -1.24196145568121, -0.997474747879261, 1.52591268749909], a = 0.2, v = 0.2, t = 0.2)
movej(p[-0.569349250622678, 0.117343811412671, 0.3529701936961, -1.2424511936913, -0.995852022430612, 1.52462624690845], a = 0.2, v = 0.2, t = 0.2)
movej(p[-0.569331381596846, 0.117519150938296, 0.353063803303884, -1.24202408417888, -1.00258491914864, 1.52686646674327], a = 0.2, v = 0.2, t = 0.2)
movej(p[-0.569301860501614, 0.117549401094903, 0.353034019701658, -1.24113790204127, -1.00047491714094, 1.52539206588615], a = 0.2, v = 0.2, t = 0.2)
movej(p[-0.569394415359693, 0.117371194083183, 0.353109139534059, -1.24610136555799, -0.999290435494815, 1.52694075042595], a = 0.2, v = 0.2, t = 0.2)
movej(p[-0.569372889538526, 0.11717129634949, 0.353242361097956, -1.2440524828711, -1.00067352634697, 1.51787678446546], a = 0.2, v = 0.2, t = 0.2)
movej(p[-0.569438659890386, 0.117554555698503, 0.353094979748355, -1.24369072878855, -1.0008354997613, 1.52706437768056], a = 0.2, v = 0.2, t = 0.2)
movej(p[-0.569360195872747, 0.117618408569144, 0.352949620335702, -1.23971309907462, -0.999528984265481, 1.52694344460848], a = 0.2, v = 0.2, t = 0.2)
movej(p[-0.569407547709884, 0.117130266681357, 0.353222206011972, -1.24560618106479, -0.997479059976345, 1.51958784659554], a = 0.2, v = 0.2, t = 0.2)
movej(p[-0.569503711583522, 0.117494986574618, 0.35320254287726, -1.24492050946453, -0.999285227880723, 1.52538484472735], a = 0.2, v = 0.2, t = 0.2)
movej(p[-0.569447669226275, 0.117560725073839, 0.353220262750692, -1.24661330109266, -1.00135015213094, 1.52596258616272], a = 0.2, v = 0.2, t = 0.2)
movej(p[-0.569290338991024, 0.117576562534084, 0.353192808936228, -1.24427134305273, -1.00132418796109, 1.52690783617541], a = 0.2, v = 0.2, t = 0.2)
movej(p[-0.569372024563325, 0.117606593711392, 0.353259897874714, -1.24382377537198, -1.00102980567253, 1.52550501690866], a = 0.2, v = 0.2, t = 0.2)
movej(p[-0.569342965064215, 0.117414134409922, 0.353300271910789, -1.24410332340859, -1.00423248407414, 1.51862655645282], a = 0.2, v = 0.2, t = 0.2)
movej(p[-0.569393813849319, 0.117621170110867, 0.353179030046783, -1.24272091329041, -1.00543817784955, 1.52506411408466], a = 0.2, v = 0.2, t = 0.2)
movej(p[-0.569357412633202, 0.117099747452147, 0.353237750166321, -1.2458085319947, -0.997311339827047, 1.51930379661649], a = 0.2, v = 0.2, t = 0.2)
movej(p[-0.569333969697286, 0.117401923750733, 0.353168766955841, -1.24152687394478, -1.00121856706423, 1.52269403465616], a = 0.2, v = 0.2, t = 0.2)
movej(p[-0.569216462272682, 0.117473346844838, 0.353184088730915, -1.24716495115918, -1.00105551039086, 1.52589726344061], a = 0.2, v = 0.2, t = 0.2)
movej(p[-0.569203265786406, 0.117319894785374, 0.35328553166165, -1.24392736947524, -0.999692453233253, 1.51906564821149], a = 0.2, v = 0.2, t = 0.2)
movej(p[-0.569265088287541, 0.117121292274413, 0.35323324063954, -1.24417179948209, -0.996714219034609, 1.51865562699612], a = 0.2, v = 0.2, t = 0.2)
movej(p[-0.569243185212421, 0.117407749566426, 0.353090347269669, -1.24464605222415, -0.996037817778234, 1.52732684789921], a = 0.2, v = 0.2, t = 0.2)
movej(p[-0.569290398270448, 0.117486978187076, 0.353269388641484, -1.24647965518036, -1.00213702572992, 1.52377437730599], a = 0.2, v = 0.2, t = 0.2)
movej(p[-0.56945565775873, 0.117419492951829, 0.353291776463095, -1.24643804580393, -1.00157528317258, 1.52593731501615], a = 0.2, v = 0.2, t = 0.2)
movej(p[-0.569306327407182, 0.117222148711864, 0.353228308699158, -1.24355477085824, -1.00298807661468, 1.5199210263484], a = 0.2, v = 0.2, t = 0.2)
movej(p[-0.569357045825992, 0.117165786342055, 0.353415511918316, -1.24672558592519, -1.00094987210681, 1.51873232557778], a = 0.2, v = 0.2, t = 0.2)
movej(p[-0.56931939410343, 0.117055038494609, 0.353360884891358, -1.24586567212791, -0.997379809730531, 1.51725257527642], a = 0.2, v = 0.2, t = 0.2)
movej(p[-0.569368422291813, 0.11744633396326, 0.353222135502324, -1.24413856706691, -1.00058374661865, 1.52465569746619], a = 0.2, v = 0.2, t = 0.2)
movej(p[-0.569267948057141, 0.117047231745076, 0.353280044375631, -1.24691863750766, -0.99922633426752, 1.5174813751], a = 0.2, v = 0.2, t = 0.2)
movej(p[-0.569278882653969, 0.117422386109612, 0.353290108537863, -1.24714759578922, -1.00325403582363, 1.52567114493732], a = 0.2, v = 0.2, t = 0.2)
movej(p[-0.569332657720497, 0.117472974886402, 0.353304790427481, -1.24611607944741, -1.00263176442051, 1.52163414327351], a = 0.2, v = 0.2, t = 0.2)
movej(p[-0.569491649549651, 0.117450801037288, 0.353171475279513, -1.24376034343201, -1.00104443071404, 1.52571038871142], a = 0.2, v = 0.2, t = 0.2)
movej(p[-0.569294799862902, 0.117275408836387, 0.353149068211662, -1.24271366523847, -0.999664684370761, 1.52029031356395], a = 0.2, v = 0.2, t = 0.2)
movej(p[-0.56942857617762, 0.117137132156757, 0.35326935639683, -1.24470040750702, -1.0008853956691, 1.51903506054753], a = 0.2, v = 0.2, t = 0.2)
movej(p[-0.569400010717499, 0.117489809754605, 0.353213127343268, -1.24247488499814, -1.00610628354453, 1.52159976811481], a = 0.2, v = 0.2, t = 0.2)
movej(p[-0.569481367779395, 0.11744179655762, 0.353158386943244, -1.24258823607301, -1.00422260243075, 1.52084365005633], a = 0.2, v = 0.2, t = 0.2)
movej(p[-0.569423060709629, 0.117092296364407, 0.353287906635026, -1.24669620536195, -1.00102332072079, 1.51975896993158], a = 0.2, v = 0.2, t = 0.2)
movej(p[-0.56939524238883, 0.117584110272017, 0.35325129336818, -1.24541563063073, -1.00053746442317, 1.52638070759531], a = 0.2, v = 0.2, t = 0.2)
movej(p[-0.569390984168432, 0.117641735600949, 0.353125860003303, -1.24135395970236, -1.00217240008236, 1.52549846456953], a = 0.2, v = 0.2, t = 0.2)
movej(p[-0.569390984168432, 0.117641735600949, 0.353125860003303, -1.24135395970236, -1.00217240008236, 1.52549846456953], a = 0.2, v = 0.2, t = 0.2)
movej(p[-0.569342044968924, 0.1176572474479, 0.353146196850544, -1.24286077180664, -1.00332733901612, 1.52755754825134], a = 0.2, v = 0.2, t = 0.2)
movej(p[-0.569476277788251, 0.117541688038902, 0.353133808823758, -1.24368708212592, -1.00273003615526, 1.52559411702876], a = 0.2, v = 0.2, t = 0.2)
movej(p[-0.569523589783662, 0.117519699944575, 0.353187151759542, -1.24396894682613, -1.00045903411104, 1.52569531955076], a = 0.2, v = 0.2, t = 0.2)
movej(p[-0.569427336404623, 0.11750472151429, 0.353249298550689, -1.24535246496742, -1.00005314579836, 1.52695392629047], a = 0.2, v = 0.2, t = 0.2)
movej(p[-0.569386142141106, 0.117532014227512, 0.35307579699318, -1.24178221366179, -1.00025449921199, 1.5267648267861], a = 0.2, v = 0.2, t = 0.2)
movej(p[-0.56934654430309, 0.117527513597724, 0.353211666951434, -1.24515466765668, -1.0003251119483, 1.52440978865143], a = 0.2, v = 0.2, t = 0.2)
movej(p[-0.569374760991611, 0.117606988385881, 0.353150690016974, -1.24408272025565, -1.00254740580324, 1.52600930378504], a = 0.2, v = 0.2, t = 0.2)
movej(p[-0.569472834404067, 0.117342646598624, 0.353024275321314, -1.2440043564733, -0.998156802877338, 1.5241541805744], a = 0.2, v = 0.2, t = 0.2)
movej(p[-0.569297745743582, 0.117433129007822, 0.353364600040656, -1.2482854284775, -1.00156472403556, 1.52528358854892], a = 0.2, v = 0.2, t = 0.2)
movej(p[-0.569449100018886, 0.117482248829001, 0.353179222138751, -1.24359307748604, -0.99821686374482, 1.52658244087964], a = 0.2, v = 0.2, t = 0.2)
movej(p[-0.569288078042791, 0.117304476662992, 0.353259449816066, -1.24303882329213, -1.00007452417749, 1.51764524625863], a = 0.2, v = 0.2, t = 0.2)
movej(p[-0.569247679161814, 0.117666946689862, 0.353363255066591, -1.24536906501489, -1.00301978561173, 1.52550964125197], a = 0.2, v = 0.2, t = 0.2)
movej(p[-0.569469451522403, 0.117579915904596, 0.353265111536521, -1.24475927059965, -1.00056080007821, 1.52616166766981], a = 0.2, v = 0.2, t = 0.2)
movej(p[-0.569344642268263, 0.117402373497978, 0.353236723441596, -1.24536181907589, -0.999856899572358, 1.52485989203665], a = 0.2, v = 0.2, t = 0.2)
movej(p[-0.569359015343064, 0.117321503550612, 0.353293211992062, -1.24321876670014, -1.00087598155129, 1.52053513471407], a = 0.2, v = 0.2, t = 0.2)
movej(p[-0.569359490036305, 0.117021104351537, 0.353353049069711, -1.24752532459742, -1.0010865292571, 1.51698399562465], a = 0.2, v = 0.2, t = 0.2)
movej(p[-0.569279946026163, 0.117208582236305, 0.353350611207213, -1.24260379523925, -1.00099116603629, 1.51931550016179], a = 0.2, v = 0.2, t = 0.2)
movej(p[-0.569234682542454, 0.116998361423952, 0.353306673443317, -1.2480188681943, -0.994496240682311, 1.5203749705916], a = 0.2, v = 0.2, t = 0.2)
movej(p[-0.569298053166636, 0.116984791253992, 0.35341305748572, -1.24770584907912, -0.998218794363182, 1.51715309299406], a = 0.2, v = 0.2, t = 0.2)
movej(p[-0.569288012678794, 0.117155034999297, 0.353215440897883, -1.24190017958245, -0.99814989953989, 1.51961526284759], a = 0.2, v = 0.2, t = 0.2)
movej(p[-0.569289791339408, 0.117341974094879, 0.353246798048734, -1.24125798399058, -1.00127848245052, 1.52044379288861], a = 0.2, v = 0.2, t = 0.2)
movej(p[-0.569314963897702, 0.117547035662542, 0.353082926099406, -1.24195090174001, -0.999564575561586, 1.52592406202503], a = 0.2, v = 0.2, t = 0.2)
movej(p[-0.569285637440463, 0.117241655925541, 0.353241719660784, -1.24407296154549, -1.00333191063382, 1.51700928616322], a = 0.2, v = 0.2, t = 0.2)
movej(p[-0.569270856173578, 0.117540684053589, 0.353053531104317, -1.24174250886083, -1.00113302391044, 1.52423164528607], a = 0.2, v = 0.2, t = 0.2)
movej(p[-0.569261394002322, 0.117429632113606, 0.35325317166618, -1.24870252848947, -0.999038044607541, 1.52518143872389], a = 0.2, v = 0.2, t = 0.2)
movej(p[-0.569371467199509, 0.117592087587111, 0.353232750099411, -1.2437644090201, -1.00213907620645, 1.52656027875113], a = 0.2, v = 0.2, t = 0.2)
movej(p[-0.569311690077671, 0.117537263406389, 0.352944776741419, -1.24151896868303, -1.00014776098143, 1.52665561672478], a = 0.2, v = 0.2, t = 0.2)
movej(p[-0.569313579423657, 0.11765427413711, 0.35295303320967, -1.24050158047097, -1.00119268500738, 1.52623540725642], a = 0.2, v = 0.2, t = 0.2)
movej(p[-0.569071974434538, 0.11756725471207, 0.35306029601263, -1.24360159395921, -0.998295146695878, 1.52519897989741], a = 0.2, v = 0.2, t = 0.2)
movej(p[-0.569415463184806, 0.117423659097444, 0.353204580308032, -1.24681971565937, -0.998093909695529, 1.52634147066355], a = 0.2, v = 0.2, t = 0.2)
movej(p[-0.569397180814749, 0.117478486926068, 0.353145413052278, -1.2452152954082, -0.998051038818885, 1.52542932179102], a = 0.2, v = 0.2, t = 0.2)
movej(p[-0.569439835219826, 0.117526072889614, 0.353081091688789, -1.24200811689636, -0.998247795441775, 1.5236606847471], a = 0.2, v = 0.2, t = 0.2)
movej(p[-0.569329933193716, 0.117502189449115, 0.353114116920462, -1.24379587027211, -1.00002665149898, 1.52441143563153], a = 0.2, v = 0.2, t = 0.2)
movej(p[-0.569238538670955, 0.117656437543369, 0.353055895132204, -1.24268040612246, -1.00067256740929, 1.52759618106206], a = 0.2, v = 0.2, t = 0.2)
movej(p[-0.569351249862281, 0.117582980158087, 0.353296591496732, -1.24550000411941, -1.00071042014536, 1.52554661708302], a = 0.2, v = 0.2, t = 0.2)
movej(p[-0.569302052595339, 0.117307149364955, 0.353220071287077, -1.24695450079367, -0.99560978062984, 1.52543288747338], a = 0.2, v = 0.2, t = 0.2)
movej(p[-0.569347352818397, 0.117523287633789, 0.353204399384315, -1.24404473680751, -1.00028692345347, 1.52520479343405], a = 0.2, v = 0.2, t = 0.2)
movej(p[-0.569182425336457, 0.117142346539453, 0.353254185912078, -1.2452875307871, -0.997198680855654, 1.51884305961077], a = 0.2, v = 0.2, t = 0.2)
movej(p[-0.569361559250462, 0.117033635748048, 0.353239242864018, -1.24692449618041, -0.995657566213311, 1.51724598477061], a = 0.2, v = 0.2, t = 0.2)
movej(p[-0.569202532351421, 0.11722007627682, 0.353324125928364, -1.24474980093981, -0.999049270146481, 1.51872226515737], a = 0.2, v = 0.2, t = 0.2)
movej(p[-0.569347096948957, 0.11736707479449, 0.353232813700585, -1.2434098353576, -1.00016765748888, 1.52076871106568], a = 0.2, v = 0.2, t = 0.2)
movej(p[-0.569248020036675, 0.117505232485587, 0.353256378034729, -1.24662949719825, -0.999905529007514, 1.52518649507658], a = 0.2, v = 0.2, t = 0.2)
movej(p[-0.569283593284197, 0.117597798404002, 0.353212271291383, -1.24455237273145, -1.00240556093705, 1.52668160935961], a = 0.2, v = 0.2, t = 0.2)
movej(p[-0.569189204985041, 0.117415002365008, 0.353094762240198, -1.24552383272241, -0.998085035383851, 1.52403249864844], a = 0.2, v = 0.2, t = 0.2)
movej(p[-0.569292838078124, 0.117318664928225, 0.353239708610598, -1.24270258281006, -1.00316515052104, 1.52021559777341], a = 0.2, v = 0.2, t = 0.2)
movej(p[-0.569331298958062, 0.11746726293767, 0.353145124878892, -1.24496369820633, -0.997486831936308, 1.52832361587794], a = 0.2, v = 0.2, t = 0.2)
movej(p[-0.569211854095692, 0.117592038027045, 0.35310943507748, -1.24350631273968, -0.999197562066524, 1.52636059298482], a = 0.2, v = 0.2, t = 0.2)
movej(p[-0.569254225968516, 0.117630014853601, 0.353238284194816, -1.24501598457338, -1.00142446701186, 1.52602649219847], a = 0.2, v = 0.2, t = 0.2)
movej(p[-0.569313732594936, 0.117105699226207, 0.353357745210563, -1.2478427021549, -0.996907471139454, 1.51639067059853], a = 0.2, v = 0.2, t = 0.2)
movej(p[-0.569177082010054, 0.117420540437828, 0.353131354223294, -1.24410078918291, -0.999319098307666, 1.52495008206205], a = 0.2, v = 0.2, t = 0.2)
movej(p[-0.569170982405152, 0.117438019550802, 0.353161780123933, -1.24580227665738, -0.997909720789049, 1.52691873115347], a = 0.2, v = 0.2, t = 0.2)
movej(p[-0.569268933696813, 0.117435084522179, 0.353281880623802, -1.24903367676374, -1.0006184110756, 1.52420144307681], a = 0.2, v = 0.2, t = 0.2)
movej(p[-0.569210860382094, 0.11707620030616, 0.353179824268734, -1.24556912715544, -0.994873807272716, 1.51786480474686], a = 0.2, v = 0.2, t = 0.2)
movej(p[-0.569248820681898, 0.117079426153201, 0.353158580456702, -1.24436247864693, -0.998448433661628, 1.51628310679585], a = 0.2, v = 0.2, t = 0.2)
movej(p[-0.56924623352661, 0.117080466406957, 0.353154661974899, -1.24434087929298, -0.998452678964437, 1.51635181331504], a = 0.2, v = 0.2, t = 0.2)
movej(p[-0.569158314480692, 0.117093290769904, 0.353243599689507, -1.24629427544774, -0.998536977809533, 1.51840567497717], a = 0.2, v = 0.2, t = 0.2)
movej(p[-0.569185187173319, 0.117260764885387, 0.353067072583843, -1.2449390500606, -0.995134700549944, 1.52426756459495], a = 0.2, v = 0.2, t = 0.2)
movej(p[-0.569304928678953, 0.11747296608504, 0.353158973795448, -1.24464916791107, -0.997958906700093, 1.52511969967572], a = 0.2, v = 0.2, t = 0.2)
movej(p[-0.569203169659549, 0.117184437705878, 0.353191219359303, -1.24456476147281, -0.998997370680163, 1.51901561693323], a = 0.2, v = 0.2, t = 0.2)
movej(p[-0.56932647298369, 0.11725524972952, 0.353242697874856, -1.2451975117953, -0.999011034287079, 1.51896095882348], a = 0.2, v = 0.2, t = 0.2)
movej(p[-0.569290416547126, 0.11755244398924, 0.353112290492504, -1.24367506993693, -1.00014704530395, 1.5251962101262], a = 0.2, v = 0.2, t = 0.2)
movej(p[-0.569225537790106, 0.11761613829133, 0.353134321896654, -1.24531804680361, -0.997994007519339, 1.52688277581465], a = 0.2, v = 0.2, t = 0.2)
movej(p[-0.569280523575813, 0.117673426272844, 0.353280326727205, -1.24433866236619, -1.0034114488458, 1.52548072754603], a = 0.2, v = 0.2, t = 0.2)
movej(p[-0.569466426541634, 0.117320278776545, 0.353266136830932, -1.24853634488185, -0.997895240413168, 1.52245865129652], a = 0.2, v = 0.2, t = 0.2)
movej(p[-0.569466426541634, 0.117320278776545, 0.353266136830932, -1.24853634488185, -0.997895240413168, 1.52245865129652], a = 0.2, v = 0.2, t = 0.2)
movej(p[-0.569213663270671, 0.117465296078464, 0.353189311828515, -1.24791488686783, -0.997138249708874, 1.52626336547109], a = 0.2, v = 0.2, t = 0.2)
movej(p[-0.56923347848462, 0.117326557033406, 0.353252545796226, -1.2454883309687, -1.0007733173785, 1.52208748381921], a = 0.2, v = 0.2, t = 0.2)
movej(p[-0.569277069713747, 0.117449160608524, 0.353173176166572, -1.24421867110419, -0.999573976465143, 1.51967871058194], a = 0.2, v = 0.2, t = 0.2)
movej(p[-0.569290433694739, 0.117233658982833, 0.353228850517368, -1.2455447306905, -1.00028261679322, 1.51900945686123], a = 0.2, v = 0.2, t = 0.2)
movej(p[-0.569167073311315, 0.117402796453227, 0.353177610865629, -1.24577168117361, -0.999288168665976, 1.52452903678142], a = 0.2, v = 0.2, t = 0.2)
movej(p[-0.569042998865927, 0.117572707110572, 0.353145475985477, -1.24607255216198, -0.999187890732013, 1.52737404709838], a = 0.2, v = 0.2, t = 0.2)
movej(p[-0.569256546798829, 0.117605152750472, 0.353208064009928, -1.2453412037616, -0.999791758585839, 1.52419574989065], a = 0.2, v = 0.2, t = 0.2)
movej(p[-0.56919047959696, 0.117511897972674, 0.353111804146771, -1.24452242803273, -1.00013272525039, 1.52538575031527], a = 0.2, v = 0.2, t = 0.2)
movej(p[-0.569166613907381, 0.117542420468315, 0.353157859071814, -1.24458638940888, -1.00106878963574, 1.52557262374213], a = 0.2, v = 0.2, t = 0.2)
movej(p[-0.569383352281196, 0.117311548060747, 0.35317709312338, -1.24676836355871, -0.997230670437292, 1.52154481899485], a = 0.2, v = 0.2, t = 0.2)
movej(p[-0.569214494176272, 0.117454308746521, 0.35312782135663, -1.24389888438491, -1.00104850849061, 1.52198755036138], a = 0.2, v = 0.2, t = 0.2)
movej(p[-0.569284931198801, 0.117351440330022, 0.35313549760208, -1.24787155456203, -0.998470885873432, 1.52638565404111], a = 0.2, v = 0.2, t = 0.2)
movej(p[-0.569277555433113, 0.117088112818744, 0.35314810830724, -1.24594743216347, -0.994208872201291, 1.52260366750483], a = 0.2, v = 0.2, t = 0.2)
movej(p[-0.569206496188385, 0.117365529885158, 0.353067563195649, -1.24526620921814, -0.997131612307772, 1.52528225040155], a = 0.2, v = 0.2, t = 0.2)
movej(p[-0.569263883507621, 0.117492624091563, 0.353221265662412, -1.24366420161521, -1.00014983453349, 1.52762430030297], a = 0.2, v = 0.2, t = 0.2)
movej(p[-0.569305245154352, 0.117334754945305, 0.353112717761283, -1.24404074545645, -0.996115811787963, 1.5263768645928], a = 0.2, v = 0.2, t = 0.2)
movej(p[-0.569278521199126, 0.117645704147089, 0.353206250184148, -1.2423746414916, -1.00264829046601, 1.52589095989397], a = 0.2, v = 0.2, t = 0.2)
movej(p[-0.56921537759119, 0.117131314033233, 0.353360625297244, -1.2462869884596, -0.999016292779988, 1.52155719098239], a = 0.2, v = 0.2, t = 0.2)
movej(p[-0.569297556234618, 0.117176464773703, 0.353431509718658, -1.24576214045573, -1.00181987144389, 1.52082500853043], a = 0.2, v = 0.2, t = 0.2)
movej(p[-0.569268124787403, 0.117544506251159, 0.353329921969461, -1.24450142474268, -1.00223597104247, 1.52605401141126], a = 0.2, v = 0.2, t = 0.2)
movej(p[-0.569150460336651, 0.117495525403456, 0.353076161366555, -1.2434496783077, -1.001846951526, 1.52636209154808], a = 0.2, v = 0.2, t = 0.2)
movej(p[-0.569072240903966, 0.117640678991954, 0.353250012469791, -1.24569443304336, -1.00439458094234, 1.52849307375838], a = 0.2, v = 0.2, t = 0.2)
movej(p[-0.569167964815357, 0.117661609661116, 0.353106367700041, -1.24369733832916, -1.00322794239189, 1.52656778909021], a = 0.2, v = 0.2, t = 0.2)
movej(p[-0.5691481871711, 0.117645785217742, 0.35321755525231, -1.24495839938005, -1.00476401056098, 1.52626100102719], a = 0.2, v = 0.2, t = 0.2)
movej(p[-0.569402330686977, 0.117126049723155, 0.353286674996263, -1.24526821930239, -1.00106777395707, 1.52146706508455], a = 0.2, v = 0.2, t = 0.2)
movej(p[-0.569206120312158, 0.117517294017103, 0.353118520599155, -1.24586077042793, -0.99982497946865, 1.52655424017587], a = 0.2, v = 0.2, t = 0.2)
movej(p[-0.569224145640131, 0.117592169604559, 0.353212336343861, -1.24624345949816, -1.00292073971025, 1.52540059640555], a = 0.2, v = 0.2, t = 0.2)
movej(p[-0.569231942233086, 0.117304549301463, 0.353222513985326, -1.24289581937694, -1.0024750727093, 1.5196267860503], a = 0.2, v = 0.2, t = 0.2)
movej(p[-0.569152050524352, 0.117568943708186, 0.353213125025361, -1.24457998767179, -1.00209919565884, 1.52661639644806], a = 0.2, v = 0.2, t = 0.2)
movej(p[-0.569157367929326, 0.117335787885597, 0.353348244149089, -1.24552437969738, -1.00135895486091, 1.52119303786256], a = 0.2, v = 0.2, t = 0.2)
movej(p[-0.569183914779147, 0.117118279194482, 0.353320341746791, -1.24497446196081, -0.99860131209985, 1.51867896474833], a = 0.2, v = 0.2, t = 0.2)
movej(p[-0.569098405813842, 0.11766143323475, 0.353228087395168, -1.24387724917505, -1.00509613476357, 1.5269775426107], a = 0.2, v = 0.2, t = 0.2)
movej(p[-0.569231956194144, 0.117097907345153, 0.353310194323471, -1.24406247350276, -1.00053282470459, 1.51706568293863], a = 0.2, v = 0.2, t = 0.2)
movej(p[-0.569215812607484, 0.117519771301811, 0.353176293364987, -1.24496678943065, -1.00088504377331, 1.52794193293355], a = 0.2, v = 0.2, t = 0.2)
movej(p[-0.56911077625109, 0.117555968605081, 0.353224153672876, -1.24435567152906, -1.00271731117624, 1.5281471776775], a = 0.2, v = 0.2, t = 0.2)
movej(p[-0.569205237461695, 0.117555086660857, 0.353167309395545, -1.24358703913204, -1.00257051175717, 1.52580964476559], a = 0.2, v = 0.2, t = 0.2)
movej(p[-0.569103767439676, 0.117411318852303, 0.35318938521614, -1.24457830462514, -1.00056244248421, 1.52590143664781], a = 0.2, v = 0.2, t = 0.2)
movej(p[-0.56919095010625, 0.117412890933334, 0.35316960211198, -1.2415954367424, -1.00247835469115, 1.52342571091954], a = 0.2, v = 0.2, t = 0.2)
movej(p[-0.569057389771966, 0.117519664499567, 0.353100884918646, -1.24252123240194, -0.99983924525599, 1.52508412280027], a = 0.2, v = 0.2, t = 0.2)
movej(p[-0.569101465993013, 0.117463612019277, 0.35312562387965, -1.24256425312226, -1.00078369643853, 1.52258657735914], a = 0.2, v = 0.2, t = 0.2)
movej(p[-0.569045669717417, 0.11748865031139, 0.353174943952214, -1.2432917301215, -1.00097419760362, 1.52515480715264], a = 0.2, v = 0.2, t = 0.2)
movej(p[-0.568994940951091, 0.117621508386734, 0.353114313150777, -1.24269254351486, -1.00459352410743, 1.52633223627864], a = 0.2, v = 0.2, t = 0.2)
movej(p[-0.569184985506441, 0.117156872177157, 0.353207115843256, -1.2434632130949, -1.00156470818147, 1.51942828911659], a = 0.2, v = 0.2, t = 0.2)
movej(p[-0.56910798718167, 0.117250180424862, 0.353099270727963, -1.24049578811901, -0.997887828241289, 1.52168208766499], a = 0.2, v = 0.2, t = 0.2)
movej(p[-0.569020026369114, 0.117495253176682, 0.353157874070616, -1.24340413413862, -0.999359425590515, 1.52666629611259], a = 0.2, v = 0.2, t = 0.2)
movej(p[-0.569060736530152, 0.117205908272745, 0.353259003637779, -1.24488003840545, -1.00177400053727, 1.5186844120221], a = 0.2, v = 0.2, t = 0.2)
movej(p[-0.569157680723001, 0.117511680229662, 0.353174039799374, -1.24418131490554, -1.00037582912121, 1.52701915188776], a = 0.2, v = 0.2, t = 0.2)
movej(p[-0.569073316589696, 0.117125821164583, 0.353248867701312, -1.24494540089836, -1.0014075689147, 1.51833583132683], a = 0.2, v = 0.2, t = 0.2)
movej(p[-0.56901165755797, 0.11715130487928, 0.35323700877675, -1.24533632554473, -0.999233411307389, 1.51893665952136], a = 0.2, v = 0.2, t = 0.2)
movej(p[-0.569170511960057, 0.117253833791689, 0.353206796841063, -1.24206687224421, -1.00260263613691, 1.51902371043389], a = 0.2, v = 0.2, t = 0.2)
movej(p[-0.569351194118433, 0.117334388321763, 0.353196250499099, -1.24534029515173, -0.999834890072519, 1.52607142094325], a = 0.2, v = 0.2, t = 0.2)
movej(p[-0.569223525159499, 0.11737454902897, 0.353133804566315, -1.2448650479476, -0.998522033462774, 1.52419864435184], a = 0.2, v = 0.2, t = 0.2)
movej(p[-0.569255578643341, 0.117180351938608, 0.353344520973527, -1.24393180729811, -0.99919391935357, 1.51974969462291], a = 0.2, v = 0.2, t = 0.2)
movej(p[-0.569109500422502, 0.117375311871008, 0.353143518341318, -1.2439624132229, -1.00007278035549, 1.52394046974383], a = 0.2, v = 0.2, t = 0.2)
movej(p[-0.569209147411356, 0.117118681223167, 0.353400484386158, -1.2477700548375, -0.999617330449444, 1.51994223963347], a = 0.2, v = 0.2, t = 0.2)
movej(p[-0.569231523163066, 0.117314490726427, 0.35322982441965, -1.24368451336376, -1.00151316892007, 1.52425449065196], a = 0.2, v = 0.2, t = 0.2)
movej(p[-0.569269884437062, 0.117324394236518, 0.353244923530394, -1.24306102369609, -1.00235982029089, 1.52243328464868], a = 0.2, v = 0.2, t = 0.2)
movej(p[-0.569293174592062, 0.117581452421088, 0.353235912513479, -1.2454499640394, -1.0020471586533, 1.52684270866216], a = 0.2, v = 0.2, t = 0.2)
movej(p[-0.56916691271705, 0.117617044527337, 0.353142293066294, -1.24328785795829, -1.0017242051308, 1.52556790231297], a = 0.2, v = 0.2, t = 0.2)
movej(p[-0.569241773088686, 0.11760679450765, 0.35312642007493, -1.24416889521885, -1.00218925710439, 1.52633668055169], a = 0.2, v = 0.2, t = 0.2)
movej(p[-0.56924591791863, 0.117589617038932, 0.353189474535146, -1.24483633779292, -1.00198809243326, 1.5279640514363], a = 0.2, v = 0.2, t = 0.2)
movej(p[-0.569072723835496, 0.117609428555501, 0.353060883659192, -1.24182391620343, -1.00281428253282, 1.52852018920847], a = 0.2, v = 0.2, t = 0.2)
movej(p[-0.569288876604647, 0.117475379960099, 0.353234439311531, -1.24194525398784, -1.00144591375273, 1.51953017163347], a = 0.2, v = 0.2, t = 0.2)
movej(p[-0.569364596004706, 0.117492870651283, 0.353221703999338, -1.24113579545738, -1.00171359207654, 1.5210290758413], a = 0.2, v = 0.2, t = 0.2)
movej(p[-0.569145229235235, 0.117242610257462, 0.353201056100251, -1.24292243299957, -1.00047581203502, 1.51947324200199], a = 0.2, v = 0.2, t = 0.2)
movej(p[-0.569165697664081, 0.117422542003551, 0.353155701716008, -1.24411247125573, -0.999408690995753, 1.52565254555691], a = 0.2, v = 0.2, t = 0.2)
movej(p[-0.569248314096737, 0.117489016143325, 0.353188012299361, -1.24440163354931, -0.99781996456336, 1.52590046112216], a = 0.2, v = 0.2, t = 0.2)
movej(p[-0.569187776114873, 0.117256713749983, 0.353292789543072, -1.24268855936189, -1.00226931029024, 1.51991365611056], a = 0.2, v = 0.2, t = 0.2)
movej(p[-0.569079505571784, 0.117265362054082, 0.353301103767955, -1.24598219447021, -1.00006307301756, 1.52189421191271], a = 0.2, v = 0.2, t = 0.2)
movej(p[-0.569204457318516, 0.117507734127164, 0.353361989309582, -1.24476255871742, -1.00293431212713, 1.52574861942648], a = 0.2, v = 0.2, t = 0.2)
movej(p[-0.569264780451883, 0.117269628516018, 0.353140159628245, -1.24144868390651, -0.998412683841363, 1.52165028586648], a = 0.2, v = 0.2, t = 0.2)
movej(p[-0.569278545954016, 0.117562065780836, 0.35325249024338, -1.2445443076584, -1.00164489307554, 1.52729212625082], a = 0.2, v = 0.2, t = 0.2)
movej(p[-0.569255474595066, 0.117513626426801, 0.353304704335126, -1.24653820121634, -1.00228641737807, 1.52755520990802], a = 0.2, v = 0.2, t = 0.2)
movej(p[-0.569255474595066, 0.117513626426801, 0.353304704335126, -1.24653820121634, -1.00228641737807, 1.52755520990802], a = 0.2, v = 0.2, t = 0.2)
movej(p[-0.569242011388715, 0.117209105959813, 0.353361112111718, -1.24455779934547, -1.00269604483483, 1.52031516217511], a = 0.2, v = 0.2, t = 0.2)
movej(p[-0.569356450475337, 0.117234551735673, 0.353243257379339, -1.2412252925081, -0.99924466757203, 1.52032818324355], a = 0.2, v = 0.2, t = 0.2)
movej(p[-0.569286063102808, 0.117108031821656, 0.353228366471182, -1.24396947455515, -0.99849909128979, 1.52125447644532], a = 0.2, v = 0.2, t = 0.2)
movej(p[-0.56926236127954, 0.117414882637622, 0.353300372167586, -1.24545610866987, -1.00129733593979, 1.52392859388151], a = 0.2, v = 0.2, t = 0.2)
movej(p[-0.569221981492195, 0.117199638390854, 0.353262250297131, -1.24390898972967, -0.999447943833158, 1.52064232622796], a = 0.2, v = 0.2, t = 0.2)
movej(p[-0.569365532416052, 0.117473541392554, 0.353302207122823, -1.24041850379039, -1.00431881588663, 1.52284783751221], a = 0.2, v = 0.2, t = 0.2)
movej(p[-0.56932575966295, 0.117564549692878, 0.353227206140278, -1.24164299359324, -1.00332789373546, 1.52627945722874], a = 0.2, v = 0.2, t = 0.2)
movej(p[-0.56927161715304, 0.117273943926361, 0.353375605793537, -1.24544037550913, -1.00154919856369, 1.51882887532757], a = 0.2, v = 0.2, t = 0.2)
movej(p[-0.569392365192673, 0.117176663593648, 0.353261467159447, -1.24366722203094, -0.997124327654965, 1.52174114281687], a = 0.2, v = 0.2, t = 0.2)
movej(p[-0.569332173744333, 0.117343916904925, 0.353166091064886, -1.24215489763473, -1.0017886046252, 1.52016407890889], a = 0.2, v = 0.2, t = 0.2)
movej(p[-0.569491333685427, 0.11752932336956, 0.353087067675801, -1.24127665957865, -1.00074984823557, 1.52549394741563], a = 0.2, v = 0.2, t = 0.2)
movej(p[-0.569178769383063, 0.117651808802363, 0.35300136058369, -1.24244232277991, -1.00280181031754, 1.52862417916621], a = 0.2, v = 0.2, t = 0.2)
movej(p[-0.569325270769696, 0.117469029415503, 0.35331731744697, -1.24692284526504, -1.00057486661228, 1.5225897703441], a = 0.2, v = 0.2, t = 0.2)
movej(p[-0.569325270769696, 0.117469029415503, 0.35331731744697, -1.24692284526504, -1.00057486661228, 1.5225897703441], a = 0.2, v = 0.2, t = 0.2)
movej(p[-0.569358100990594, 0.117527204886719, 0.353104679065804, -1.24350284009786, -0.999888830479943, 1.52396096250606], a = 0.2, v = 0.2, t = 0.2)
movej(p[-0.569411091536234, 0.117523607378249, 0.35324661743273, -1.24099862299068, -1.00179258637108, 1.52239952731745], a = 0.2, v = 0.2, t = 0.2)
movej(p[-0.56925832015941, 0.117456400100959, 0.353273599988255, -1.24082285678763, -1.00223108771531, 1.51996162022556], a = 0.2, v = 0.2, t = 0.2)
movej(p[-0.569482497467316, 0.117496205637984, 0.353230868222062, -1.24467900724281, -0.999765390251128, 1.52679077030635], a = 0.2, v = 0.2, t = 0.2)
movej(p[-0.569351427942407, 0.117509475198332, 0.353281553904539, -1.24649159048125, -1.00055890990655, 1.5244410645954], a = 0.2, v = 0.2, t = 0.2)
movej(p[-0.569235896044239, 0.117567169750486, 0.353199495576763, -1.24299345293108, -1.00338078452222, 1.52142445210198], a = 0.2, v = 0.2, t = 0.2)
movej(p[-0.569315153311293, 0.11756833708004, 0.3531339863945, -1.24378225748679, -0.99933352222223, 1.5277975531745], a = 0.2, v = 0.2, t = 0.2)
movej(p[-0.569226073254445, 0.117529994403776, 0.353280902433954, -1.24525760105905, -1.00246418641238, 1.52422427316641], a = 0.2, v = 0.2, t = 0.2)
movej(p[-0.569294547373286, 0.117135869544541, 0.353404268314092, -1.24738055897896, -0.9994132513004, 1.51693566780296], a = 0.2, v = 0.2, t = 0.2)
movej(p[-0.569304780640945, 0.117540656676508, 0.353224401785723, -1.24400855096413, -1.0019072341273, 1.52560255804124], a = 0.2, v = 0.2, t = 0.2)
movej(p[-0.56933913837917, 0.117536300130279, 0.353318394638266, -1.2463760862703, -1.00156794982975, 1.52440822852475], a = 0.2, v = 0.2, t = 0.2)
movej(p[-0.569238862372164, 0.117567614928052, 0.353327807706804, -1.24764527203885, -1.00121963033517, 1.52652004550943], a = 0.2, v = 0.2, t = 0.2)
movej(p[-0.569146252860021, 0.117573633908331, 0.353473725560876, -1.24867580655006, -1.00171377708374, 1.52716899712738], a = 0.2, v = 0.2, t = 0.2)
movej(p[-0.569361966739483, 0.11761915228118, 0.353376046238906, -1.24555032981444, -1.00374188007061, 1.52538954578097], a = 0.2, v = 0.2, t = 0.2)
movej(p[-0.569310573294788, 0.117522789874907, 0.353363227873193, -1.24223398320045, -1.00614142022266, 1.52121180804019], a = 0.2, v = 0.2, t = 0.2)
movej(p[-0.569213521118371, 0.117161527387305, 0.353383713968586, -1.24717744653549, -1.00005678087146, 1.52076624858938], a = 0.2, v = 0.2, t = 0.2)
movej(p[-0.569337837323969, 0.117420115991901, 0.353430429111731, -1.24235082747592, -1.00438338123149, 1.51877935245276], a = 0.2, v = 0.2, t = 0.2)
movej(p[-0.56926150810458, 0.117428644938161, 0.353386087400634, -1.24744123228168, -1.00063374976409, 1.52434110756384], a = 0.2, v = 0.2, t = 0.2)
movej(p[-0.569275404385613, 0.117325263534889, 0.353462148815497, -1.24391765138873, -1.00201336118121, 1.51966464820605], a = 0.2, v = 0.2, t = 0.2)
movej(p[-0.569275404385613, 0.117325263534889, 0.353462148815497, -1.24391765138873, -1.00201336118121, 1.51966464820605], a = 0.2, v = 0.2, t = 0.2)
movej(p[-0.569166041521376, 0.11750494650759, 0.353315879053594, -1.24701419110389, -1.00317517262653, 1.52534965364035], a = 0.2, v = 0.2, t = 0.2)
movej(p[-0.569262237302292, 0.117675521660552, 0.353480605611641, -1.24668227150224, -1.00457372821224, 1.52573594140478], a = 0.2, v = 0.2, t = 0.2)
movej(p[-0.569210328793787, 0.117485127325529, 0.353380224119643, -1.24615837544539, -1.00121976164216, 1.5258117996561], a = 0.2, v = 0.2, t = 0.2)
movej(p[-0.569395824485436, 0.117295609143021, 0.353436056161328, -1.24912888609243, -1.00071087534897, 1.52208863958596], a = 0.2, v = 0.2, t = 0.2)
movej(p[-0.569302793252267, 0.117150857750117, 0.353467350951746, -1.24641749173402, -1.00025257331676, 1.52007585347984], a = 0.2, v = 0.2, t = 0.2)
movej(p[-0.569266697510524, 0.117191419602965, 0.353435802995844, -1.24446769985147, -0.999140238187245, 1.51915890788864], a = 0.2, v = 0.2, t = 0.2)
movej(p[-0.5692448032694, 0.117295875986254, 0.353179901576943, -1.24119115129441, -1.00168218224497, 1.52097028702542], a = 0.2, v = 0.2, t = 0.2)
movej(p[-0.569343488223069, 0.117419856966189, 0.353337344793798, -1.2465910266525, -1.00286634155798, 1.52701841504842], a = 0.2, v = 0.2, t = 0.2)
movej(p[-0.569117498501791, 0.117120152527686, 0.35332777267707, -1.24547039260633, -0.998419238087424, 1.51994332719585], a = 0.2, v = 0.2, t = 0.2)
movej(p[-0.569393238943504, 0.117337009500576, 0.353153667731382, -1.2453169745525, -1.00116149934148, 1.52331016862547], a = 0.2, v = 0.2, t = 0.2)
movej(p[-0.569148173233938, 0.117435082588675, 0.353365875924875, -1.24567238970355, -1.00063867203458, 1.52556823081008], a = 0.2, v = 0.2, t = 0.2)
movej(p[-0.569304395270662, 0.117505949187269, 0.353231152465725, -1.24657673511297, -0.999884636822058, 1.52751836973144], a = 0.2, v = 0.2, t = 0.2)
movej(p[-0.569284488991953, 0.117474195347903, 0.35324748751251, -1.24353603437803, -1.00472631361873, 1.52068076489155], a = 0.2, v = 0.2, t = 0.2)
movej(p[-0.569360818463483, 0.117652245506366, 0.353291696254264, -1.24466428089172, -1.00191465935209, 1.52337041348024], a = 0.2, v = 0.2, t = 0.2)
movej(p[-0.569182996180779, 0.117455090650679, 0.353138267643329, -1.24457501679455, -0.999356767705609, 1.52544497482191], a = 0.2, v = 0.2, t = 0.2)
movej(p[-0.569303684028994, 0.11738549538977, 0.353263251014032, -1.24578059791049, -1.0003623935878, 1.52702829577211], a = 0.2, v = 0.2, t = 0.2)
movej(p[-0.569444877834, 0.117576421757015, 0.35320937595748, -1.2427693361179, -1.0018428831416, 1.52579862785993], a = 0.2, v = 0.2, t = 0.2)
movej(p[-0.569241254129531, 0.117599789798072, 0.353372698098158, -1.2447593212397, -1.00318352042096, 1.52795436189717], a = 0.2, v = 0.2, t = 0.2)
movej(p[-0.569233605273587, 0.117278298543068, 0.353285441419565, -1.24063568412809, -1.00091171817523, 1.51887625434589], a = 0.2, v = 0.2, t = 0.2)
movej(p[-0.569151539485111, 0.117261421249848, 0.35343291186859, -1.24464206292476, -0.999806109222915, 1.5218323640944], a = 0.2, v = 0.2, t = 0.2)
movej(p[-0.569146458403706, 0.117260446916955, 0.353434254733872, -1.24465243187898, -0.999832056292513, 1.52176415278577], a = 0.2, v = 0.2, t = 0.2)
movej(p[-0.569274076074493, 0.117388562056725, 0.353354539044923, -1.24363553221427, -1.00213436661113, 1.52464645159479], a = 0.2, v = 0.2, t = 0.2)
movej(p[-0.569294687062236, 0.117129295219415, 0.353460509391038, -1.24546957299793, -1.00052715201559, 1.51778632700645], a = 0.2, v = 0.2, t = 0.2)
movej(p[-0.569211497671937, 0.117128212597146, 0.353393684446065, -1.24562254440448, -1.0003339694079, 1.51988749898742], a = 0.2, v = 0.2, t = 0.2)
movej(p[-0.5692352444859, 0.117366469990273, 0.353378546300644, -1.24383377044118, -1.00312030299216, 1.52005556621284], a = 0.2, v = 0.2, t = 0.2)
movej(p[-0.569145526266262, 0.117177983104833, 0.353436627666692, -1.24443501016199, -1.00004462343052, 1.51943326943325], a = 0.2, v = 0.2, t = 0.2)
movej(p[-0.569163536189715, 0.117010652213806, 0.353298977147022, -1.2471396883778, -0.996202593747814, 1.51940473797214], a = 0.2, v = 0.2, t = 0.2)
movej(p[-0.569163536189715, 0.117010652213806, 0.353298977147022, -1.2471396883778, -0.996202593747814, 1.51940473797214], a = 0.2, v = 0.2, t = 0.2)
movej(p[-0.56926942557687, 0.117200108998133, 0.353545529483374, -1.24635255955301, -1.00262418022215, 1.51857927111468], a = 0.2, v = 0.2, t = 0.2)
movej(p[-0.569258421553529, 0.117228868399532, 0.353418211345226, -1.24430048981931, -0.999529064853967, 1.52036426183166], a = 0.2, v = 0.2, t = 0.2)
movej(p[-0.569189727846243, 0.117106305949386, 0.353406858795127, -1.24536731083312, -1.00033929351247, 1.51940653532923], a = 0.2, v = 0.2, t = 0.2)
movej(p[-0.569316000496163, 0.117463587112005, 0.353260293387475, -1.24565453049824, -1.00041686755137, 1.52564890684645], a = 0.2, v = 0.2, t = 0.2)
movej(p[-0.569242168377358, 0.117399228504627, 0.353404988680727, -1.24284412164743, -1.00470192280438, 1.52062752553334], a = 0.2, v = 0.2, t = 0.2)
movej(p[-0.569144317028142, 0.117068218734418, 0.353442807531619, -1.24871435665569, -0.999489884572378, 1.52025199535873], a = 0.2, v = 0.2, t = 0.2)
movej(p[-0.569121539694229, 0.117138118585849, 0.353306354705229, -1.24582246212183, -0.999389525474601, 1.52028784035445], a = 0.2, v = 0.2, t = 0.2)
movej(p[-0.56922972803173, 0.117008864908097, 0.353342767620746, -1.24712150037749, -0.998474750286209, 1.51689381414184], a = 0.2, v = 0.2, t = 0.2)
movej(p[-0.569158096004056, 0.117280034793532, 0.353358533591849, -1.2451000644397, -1.00204349563324, 1.51848879451457], a = 0.2, v = 0.2, t = 0.2)
movej(p[-0.569375887489, 0.117397156154901, 0.353210857914107, -1.24572650917685, -0.998063090125821, 1.52490491121039], a = 0.2, v = 0.2, t = 0.2)
movej(p[-0.569172514330529, 0.117535186749656, 0.353277441045041, -1.2452650905576, -1.00071467046191, 1.52545168970344], a = 0.2, v = 0.2, t = 0.2)
movej(p[-0.569229461227596, 0.117527668045201, 0.35323067246587, -1.24619057566555, -0.998896989966246, 1.52661803973327], a = 0.2, v = 0.2, t = 0.2)
movej(p[-0.569242415445737, 0.117546269140088, 0.353380698755237, -1.24547813572424, -1.00142208262419, 1.52857943549894], a = 0.2, v = 0.2, t = 0.2)
movej(p[-0.569351924304515, 0.117468152681106, 0.353302174117796, -1.24469679308389, -0.999316790120347, 1.52451523950265], a = 0.2, v = 0.2, t = 0.2)
movej(p[-0.569450280483953, 0.117372666251496, 0.353338439993308, -1.24685936146185, -0.997478399308091, 1.52564650149871], a = 0.2, v = 0.2, t = 0.2)
movej(p[-0.569294093887772, 0.117530307988243, 0.353274776659994, -1.24611379039501, -1.00269951096491, 1.52474679875384], a = 0.2, v = 0.2, t = 0.2)
movej(p[-0.5692802588905, 0.117542198867852, 0.353326940438928, -1.24554204398662, -1.00083178652433, 1.52567142526564], a = 0.2, v = 0.2, t = 0.2)
movej(p[-0.569237364427633, 0.117598205377056, 0.353342384077818, -1.24621761644588, -1.00193797877327, 1.5262391958508], a = 0.2, v = 0.2, t = 0.2)
movej(p[-0.569162314452123, 0.117399362760077, 0.353266453946454, -1.24798839198512, -0.998644617278637, 1.52618909311882], a = 0.2, v = 0.2, t = 0.2)
movej(p[-0.569195572471393, 0.117666214904787, 0.35338740392379, -1.2447074782019, -1.0049202754585, 1.52718272215098], a = 0.2, v = 0.2, t = 0.2)
movej(p[-0.569243041764042, 0.117606499601576, 0.353429249339522, -1.24520539802029, -1.00410363104986, 1.52605904884182], a = 0.2, v = 0.2, t = 0.2)
movej(p[-0.569243041764042, 0.117606499601576, 0.353429249339522, -1.24520539802029, -1.00410363104986, 1.52605904884182], a = 0.2, v = 0.2, t = 0.2)
movej(p[-0.569255584486352, 0.117161159314072, 0.35344068823994, -1.24757805902486, -0.99921973892974, 1.51844323039972], a = 0.2, v = 0.2, t = 0.2)
movej(p[-0.569198359516626, 0.117124220960756, 0.35355139556081, -1.24818549812973, -1.00165941417459, 1.51918594846829], a = 0.2, v = 0.2, t = 0.2)
movej(p[-0.569177974536521, 0.117272562887206, 0.353416241776389, -1.24573888970052, -1.00006836764071, 1.51881199799774], a = 0.2, v = 0.2, t = 0.2)
movej(p[-0.569227032601024, 0.1173379721387, 0.353530794149242, -1.24459995966134, -1.00145582168783, 1.52089650427388], a = 0.2, v = 0.2, t = 0.2)
movej(p[-0.569139820339623, 0.117221075333633, 0.353454361313193, -1.24646548077355, -1.00077950605683, 1.51905852909854], a = 0.2, v = 0.2, t = 0.2)
movej(p[-0.569215112492876, 0.117171626971773, 0.353393429210259, -1.24666924558574, -0.997836138624771, 1.51992829598279], a = 0.2, v = 0.2, t = 0.2)
movej(p[-0.569215112492876, 0.117171626971773, 0.353393429210259, -1.24666924558574, -0.997836138624771, 1.51992829598279], a = 0.2, v = 0.2, t = 0.2)
movej(p[-0.569200723986663, 0.117358229344163, 0.353376282038269, -1.2471092010544, -0.998659273883416, 1.52585804547039], a = 0.2, v = 0.2, t = 0.2)
movej(p[-0.569164092143609, 0.117163048885604, 0.353513272609737, -1.24790177624674, -1.00060640260872, 1.52011019994736], a = 0.2, v = 0.2, t = 0.2)
movej(p[-0.569313114065708, 0.11711690248374, 0.353473663692447, -1.24534982887989, -1.00094062972536, 1.51695685606082], a = 0.2, v = 0.2, t = 0.2)
movej(p[-0.569224090068768, 0.11694212757188, 0.35336913561893, -1.24759422966189, -0.995521277455622, 1.51752622422317], a = 0.2, v = 0.2, t = 0.2)
movej(p[-0.569231151586422, 0.116918849489108, 0.353230215908915, -1.24657597423299, -0.994968512143427, 1.52020137176133], a = 0.2, v = 0.2, t = 0.2)
movej(p[-0.569235057104681, 0.117371666784673, 0.353346608106953, -1.24418276415219, -1.00400438149852, 1.51992564137345], a = 0.2, v = 0.2, t = 0.2)
movej(p[-0.569177339878797, 0.117447302752627, 0.35322911209771, -1.24569295580796, -1.00151783604721, 1.52565799487458], a = 0.2, v = 0.2, t = 0.2)
movej(p[-0.569092474652308, 0.117416210420073, 0.353194059135076, -1.24469333126488, -1.00088701049157, 1.52499102141835], a = 0.2, v = 0.2, t = 0.2)
movej(p[-0.569193328872756, 0.117420287396393, 0.353304189941311, -1.24790522296887, -0.999418771154639, 1.52468668720655], a = 0.2, v = 0.2, t = 0.2)
movej(p[-0.569219512560872, 0.117470749059402, 0.353424356804643, -1.24722273514483, -1.00117979817517, 1.52642054435833], a = 0.2, v = 0.2, t = 0.2)
movej(p[-0.569301287480394, 0.117439530458651, 0.353391507428631, -1.24493297829338, -0.999963361295593, 1.52593185611354], a = 0.2, v = 0.2, t = 0.2)
movej(p[-0.569313557163936, 0.117425374066771, 0.353208428916962, -1.24515434820482, -0.999805167858989, 1.52522149189452], a = 0.2, v = 0.2, t = 0.2)
movej(p[-0.56925865213205, 0.117385016343561, 0.353396579738515, -1.24453352706626, -1.00510958701539, 1.52217594000915], a = 0.2, v = 0.2, t = 0.2)
movej(p[-0.569266913755869, 0.11732843142632, 0.353438836722703, -1.24501300331929, -1.00180361429982, 1.5195193505519], a = 0.2, v = 0.2, t = 0.2)
movej(p[-0.569261667349657, 0.117250968140389, 0.353380087386072, -1.24580787584792, -1.00085239574165, 1.52131118506892], a = 0.2, v = 0.2, t = 0.2)
movej(p[-0.569208435512318, 0.117113512063761, 0.353455103640921, -1.24561178355514, -1.00047006889161, 1.51755335380781], a = 0.2, v = 0.2, t = 0.2)
movej(p[-0.569130463983989, 0.117246220142254, 0.353450853150048, -1.24396164797979, -1.00338629339277, 1.51772164247602], a = 0.2, v = 0.2, t = 0.2)
movej(p[-0.56915099633454, 0.1170227187332, 0.353556233616605, -1.24772777346432, -1.00071567962343, 1.51624401454798], a = 0.2, v = 0.2, t = 0.2)
movej(p[-0.569164998757077, 0.117338124867062, 0.353371135391639, -1.24225921163682, -1.00126700269933, 1.52099542820865], a = 0.2, v = 0.2, t = 0.2)
movej(p[-0.569122616181595, 0.117171196054146, 0.353411978245532, -1.24462191720264, -1.0001781394567, 1.51870773768571], a = 0.2, v = 0.2, t = 0.2)
movej(p[-0.569206737373934, 0.117071795792711, 0.353479809086792, -1.24629917191554, -0.999944857138298, 1.51766794655157], a = 0.2, v = 0.2, t = 0.2)
movej(p[-0.569171779644431, 0.117231537030765, 0.353523415898337, -1.2454460436503, -1.00304639200675, 1.52028452339472], a = 0.2, v = 0.2, t = 0.2)
movej(p[-0.569201777086319, 0.117211081154782, 0.353512274506233, -1.24642277444551, -1.00188967304443, 1.5200501951065], a = 0.2, v = 0.2, t = 0.2)
movej(p[-0.569223012303451, 0.117051636695609, 0.353538603197664, -1.24809279257365, -0.99975577161779, 1.51969069109373], a = 0.2, v = 0.2, t = 0.2)
movej(p[-0.56909160373011, 0.117213556176414, 0.35355754464926, -1.2459173321757, -1.00307511248384, 1.51722845597587], a = 0.2, v = 0.2, t = 0.2)
movej(p[-0.569162363516072, 0.117186228181878, 0.353539232811414, -1.24756059021278, -1.0024985675769, 1.51863333925412], a = 0.2, v = 0.2, t = 0.2)
movej(p[-0.569274263159538, 0.117104257571828, 0.353489335427912, -1.24739140388901, -0.99996665915856, 1.52024558798166], a = 0.2, v = 0.2, t = 0.2)
movej(p[-0.569148989439093, 0.116961124659103, 0.353568133297559, -1.24766833997509, -0.999617434298982, 1.51630177951867], a = 0.2, v = 0.2, t = 0.2)
movej(p[-0.569037129042912, 0.116921326780937, 0.353586252642462, -1.24905287392498, -0.998871294464483, 1.51904267234435], a = 0.2, v = 0.2, t = 0.2)
movej(p[-0.569266590164369, 0.116856372010851, 0.353486267235612, -1.24860802490101, -0.997902987671506, 1.51559173494018], a = 0.2, v = 0.2, t = 0.2)
movej(p[-0.569098035674739, 0.116946082459398, 0.353480346133769, -1.24672869504967, -1.00043494440978, 1.51395952295384], a = 0.2, v = 0.2, t = 0.2)
movej(p[-0.568973649473572, 0.117127383317686, 0.353445905580008, -1.24722641650244, -1.00029210987388, 1.52074127327178], a = 0.2, v = 0.2, t = 0.2)
movej(p[-0.569170232303961, 0.117037730799863, 0.353405016867086, -1.24750611815948, -0.998380516080825, 1.51970928047137], a = 0.2, v = 0.2, t = 0.2)
movej(p[-0.569153883833767, 0.116976685605042, 0.353595798291003, -1.24915868489577, -1.00039753972335, 1.51641940042701], a = 0.2, v = 0.2, t = 0.2)
movej(p[-0.569304497601349, 0.117421910153156, 0.353319611045149, -1.24501454807945, -0.999684641984714, 1.52760527245942], a = 0.2, v = 0.2, t = 0.2)
movej(p[-0.569153936061378, 0.117226962749172, 0.353315173437509, -1.24717008812845, -1.00047640405245, 1.52658612560689], a = 0.2, v = 0.2, t = 0.2)
movej(p[-0.569187013628809, 0.117257118279341, 0.353421439747001, -1.24402845576537, -1.00311049185743, 1.51994764373703], a = 0.2, v = 0.2, t = 0.2)
movej(p[-0.569112945002437, 0.117057570370613, 0.353505979268586, -1.24851534166188, -1.00105917565426, 1.51868118320311], a = 0.2, v = 0.2, t = 0.2)
movej(p[-0.569125228897272, 0.117183649786412, 0.353603352246559, -1.24783342889744, -1.00381035181583, 1.51718736520614], a = 0.2, v = 0.2, t = 0.2)
movej(p[-0.569157799306178, 0.117199014025029, 0.353408375713009, -1.24405523315237, -1.00180698996957, 1.52031652647991], a = 0.2, v = 0.2, t = 0.2)
movej(p[-0.569098911960733, 0.117194233150722, 0.35347225437758, -1.24614975504182, -1.00146130769899, 1.5208738083127], a = 0.2, v = 0.2, t = 0.2)
movej(p[-0.56923314508744, 0.117232911828768, 0.353448391486744, -1.24680018422931, -1.00053081807485, 1.52323087434066], a = 0.2, v = 0.2, t = 0.2)
movej(p[-0.569168775796611, 0.117495003612456, 0.353621319510271, -1.25023924051471, -1.00491540456303, 1.52273514824435], a = 0.2, v = 0.2, t = 0.2)
movej(p[-0.569205543517586, 0.11744423662665, 0.353455871670012, -1.24674516631645, -1.00275355425368, 1.52376713667455], a = 0.2, v = 0.2, t = 0.2)
movej(p[-0.569275750023129, 0.116971046790549, 0.353550267250367, -1.24935591751893, -1.00140527982802, 1.51738303119653], a = 0.2, v = 0.2, t = 0.2)
movej(p[-0.569322234998003, 0.116955615701458, 0.35344394900828, -1.24767202591101, -1.00012938676003, 1.51918101221912], a = 0.2, v = 0.2, t = 0.2)
movej(p[-0.569192410953257, 0.117028514398851, 0.353529088642554, -1.24631359947784, -1.0015252941556, 1.51491505680892], a = 0.2, v = 0.2, t = 0.2)
movej(p[-0.569176475914288, 0.117448254390485, 0.353408443070916, -1.24590189372884, -1.00230975507961, 1.52599615295426], a = 0.2, v = 0.2, t = 0.2)
movej(p[-0.569241155935633, 0.117378909655347, 0.353402559827976, -1.2466055410686, -1.00263918949135, 1.52570374276194], a = 0.2, v = 0.2, t = 0.2)
movej(p[-0.569232580061992, 0.11690031211579, 0.353471503424646, -1.24732709224233, -0.997313270395323, 1.51614240013061], a = 0.2, v = 0.2, t = 0.2)
movej(p[-0.569155056378577, 0.117083952379344, 0.353345357191601, -1.24484518244543, -0.999061855196324, 1.52043558340847], a = 0.2, v = 0.2, t = 0.2)
movej(p[-0.569279456432412, 0.117019921604571, 0.353453327449023, -1.24658716512134, -0.998196120085615, 1.52256945409868], a = 0.2, v = 0.2, t = 0.2)
movej(p[-0.569168910510784, 0.116934869252135, 0.353427083467684, -1.24522393287857, -0.997234869669155, 1.51777941569629], a = 0.2, v = 0.2, t = 0.2)
movej(p[-0.569095821447483, 0.117156851376815, 0.353565744439658, -1.24457144736807, -1.00266930925487, 1.51782482272502], a = 0.2, v = 0.2, t = 0.2)
movej(p[-0.569140658266408, 0.116909016123509, 0.353501155300576, -1.24466274367379, -0.998642049176519, 1.51487198741199], a = 0.2, v = 0.2, t = 0.2)
movej(p[-0.569139961862163, 0.116904924741031, 0.353498247447321, -1.24468275575168, -0.998542508713642, 1.51490248702227], a = 0.2, v = 0.2, t = 0.2)
movej(p[-0.569116715494807, 0.11697707838587, 0.353583203835787, -1.24670219894186, -1.00033907606352, 1.5170610724854], a = 0.2, v = 0.2, t = 0.2)
movej(p[-0.569127739533564, 0.117101031507172, 0.353668525604926, -1.24857449563437, -1.00531220573324, 1.52141349838597], a = 0.2, v = 0.2, t = 0.2)
movej(p[-0.569065451082655, 0.116890685175973, 0.353435345074361, -1.24626884960292, -0.998987154703667, 1.51905472603554], a = 0.2, v = 0.2, t = 0.2)
movej(p[-0.569142995854387, 0.116913092872856, 0.353544524941999, -1.24769341401135, -1.00031338767311, 1.51689132036382], a = 0.2, v = 0.2, t = 0.2)
movej(p[-0.56922442908851, 0.117021828436127, 0.353326463997169, -1.24379558574203, -1.0005770191647, 1.51811396601689], a = 0.2, v = 0.2, t = 0.2)
movej(p[-0.569314262095847, 0.116918618576032, 0.353449795848577, -1.24499405126479, -0.999401732275368, 1.51627352517595], a = 0.2, v = 0.2, t = 0.2)
movej(p[-0.569290069070737, 0.116988615635564, 0.353558186250334, -1.24754872549837, -1.00155903593946, 1.51809346598006], a = 0.2, v = 0.2, t = 0.2)
movej(p[-0.569259105309128, 0.116808335250628, 0.353463573258231, -1.24611656025585, -1.00064211590799, 1.51394667318073], a = 0.2, v = 0.2, t = 0.2)
movej(p[-0.569199355086388, 0.11715010781975, 0.353399459984422, -1.24318270344893, -1.00277973204417, 1.5173325533531], a = 0.2, v = 0.2, t = 0.2)
movej(p[-0.569111565271511, 0.116815340600987, 0.353462406053766, -1.24796677698312, -0.997182712559281, 1.5184992221794], a = 0.2, v = 0.2, t = 0.2)
movej(p[-0.569201987671947, 0.117035663082839, 0.353666544936613, -1.24712560663507, -1.00425272170127, 1.51712307393938], a = 0.2, v = 0.2, t = 0.2)
movej(p[-0.569038022984444, 0.116833888744275, 0.353560604823582, -1.24879002928749, -0.998745663514731, 1.51635583822906], a = 0.2, v = 0.2, t = 0.2)
movej(p[-0.569183393222893, 0.116952883440633, 0.353434790611301, -1.24492048705294, -1.00070788306847, 1.51415931007816], a = 0.2, v = 0.2, t = 0.2)
movej(p[-0.569183393222893, 0.116952883440633, 0.353434790611301, -1.24492048705294, -1.00070788306847, 1.51415931007816], a = 0.2, v = 0.2, t = 0.2)
movej(p[-0.569168277106216, 0.116891817758219, 0.35355832160113, -1.24710025205647, -0.999295701728247, 1.5160583498797], a = 0.2, v = 0.2, t = 0.2)
movej(p[-0.569179475343576, 0.116965305617236, 0.353630682392012, -1.24734884791738, -1.00243449879636, 1.51401464978202], a = 0.2, v = 0.2, t = 0.2)
movej(p[-0.569110045249106, 0.116931558193024, 0.353670603606184, -1.24917288737982, -1.0009666036857, 1.51747815229426], a = 0.2, v = 0.2, t = 0.2)
movej(p[-0.569155016271254, 0.116956885394712, 0.353549056454751, -1.2472624255374, -1.00078843198315, 1.51882777331365], a = 0.2, v = 0.2, t = 0.2)
movej(p[-0.569110547438509, 0.116946864959936, 0.353516154421361, -1.24681490106541, -1.00077034131745, 1.51938377886161], a = 0.2, v = 0.2, t = 0.2)
movej(p[-0.569074846174862, 0.11723877466584, 0.353499478289522, -1.24349085379333, -1.00547147991032, 1.52073274260096], a = 0.2, v = 0.2, t = 0.2)
movej(p[-0.569191560857518, 0.117005205675522, 0.353571572530724, -1.24478097410384, -1.00269772527219, 1.51628656364735], a = 0.2, v = 0.2, t = 0.2)
movej(p[-0.569195291735501, 0.117151469329949, 0.353533613685338, -1.24435715170077, -1.00436155179811, 1.51737070366378], a = 0.2, v = 0.2, t = 0.2)
movej(p[-0.569200910117746, 0.117105407527295, 0.353616576533151, -1.24501562559051, -1.00389234729136, 1.52045512543844], a = 0.2, v = 0.2, t = 0.2)
movej(p[-0.569178920648429, 0.116874173842246, 0.353641322970024, -1.25065448201066, -0.998137914247091, 1.51817491598959], a = 0.2, v = 0.2, t = 0.2)
movej(p[-0.569086355343071, 0.116915047541506, 0.3535414117847, -1.24581366964764, -0.999659459646619, 1.51721349489628], a = 0.2, v = 0.2, t = 0.2)
movej(p[-0.569271490049644, 0.116852988351661, 0.353538543444109, -1.24572832887406, -1.00121144751905, 1.51443053241595], a = 0.2, v = 0.2, t = 0.2)
movej(p[-0.56907353437617, 0.116909978845056, 0.353586038022767, -1.24676500963034, -1.00242545109768, 1.5141582198053], a = 0.2, v = 0.2, t = 0.2)
movej(p[-0.569191459139559, 0.116934053118247, 0.353519301379534, -1.24589939039642, -1.00087657910046, 1.51845659708059], a = 0.2, v = 0.2, t = 0.2)
movej(p[-0.569237176691975, 0.116937065765523, 0.353523426831932, -1.24646497781847, -1.00166785582291, 1.51993529771026], a = 0.2, v = 0.2, t = 0.2)
movej(p[-0.569243785027942, 0.11668785747176, 0.353505387535499, -1.24855468980942, -0.99801339788895, 1.51485282049303], a = 0.2, v = 0.2, t = 0.2)
movej(p[-0.569113449857459, 0.117057051429806, 0.353475871697746, -1.24518764585543, -0.999808091101684, 1.51773805891298], a = 0.2, v = 0.2, t = 0.2)
movej(p[-0.56905411312229, 0.116988765513827, 0.353585370398828, -1.24804822834621, -1.0023235868094, 1.5162831404491], a = 0.2, v = 0.2, t = 0.2)
movej(p[-0.569246199832634, 0.116865090430428, 0.35352665081559, -1.25011136310842, -0.99811017372911, 1.51708602737192], a = 0.2, v = 0.2, t = 0.2)
movej(p[-0.569155398082109, 0.11706352309646, 0.353527074080303, -1.24760111091654, -1.00350339691945, 1.51646775988704], a = 0.2, v = 0.2, t = 0.2)
movej(p[-0.569240134230599, 0.11688105312818, 0.353371008370375, -1.24647161822885, -0.998517366102371, 1.51604836462348], a = 0.2, v = 0.2, t = 0.2)
movej(p[-0.569286102894896, 0.116952971081791, 0.353324899912895, -1.24469988886853, -0.998813711124078, 1.51888730140826], a = 0.2, v = 0.2, t = 0.2)
movej(p[-0.569176562688821, 0.116963997771993, 0.353556249227475, -1.24790338871087, -0.999679397729831, 1.51641685503688], a = 0.2, v = 0.2, t = 0.2)
movej(p[-0.56926056836123, 0.11687254339378, 0.353560875641715, -1.24804806520895, -0.999207094006471, 1.51538128780076], a = 0.2, v = 0.2, t = 0.2)
movej(p[-0.569110498313437, 0.116976254853639, 0.353464187876981, -1.24544249328302, -1.00033936200681, 1.51786646404964], a = 0.2, v = 0.2, t = 0.2)
movej(p[-0.569220552070277, 0.116830855983344, 0.353508082969217, -1.24829886732236, -0.9983821439509, 1.51418486955506], a = 0.2, v = 0.2, t = 0.2)
movej(p[-0.569152581921813, 0.117171790273282, 0.353520773472067, -1.24453708631441, -1.00555720576223, 1.51451572640534], a = 0.2, v = 0.2, t = 0.2)
movej(p[-0.569240717798476, 0.117130950055131, 0.353539355824616, -1.24655046962178, -1.00314284848753, 1.51967803628615], a = 0.2, v = 0.2, t = 0.2)
movej(p[-0.569244434745394, 0.116944911194511, 0.353476611130458, -1.24661687564293, -0.999419713197457, 1.51720237249429], a = 0.2, v = 0.2, t = 0.2)
movej(p[-0.569249601835764, 0.116766665098999, 0.353523647399567, -1.24771996543778, -0.99827286871738, 1.51534670506333], a = 0.2, v = 0.2, t = 0.2)
movej(p[-0.569210356253854, 0.117022702382365, 0.353637788075169, -1.24888157409919, -1.0031458151221, 1.51713594620766], a = 0.2, v = 0.2, t = 0.2)
movej(p[-0.569212823374161, 0.116880793386879, 0.353418845068162, -1.24488079708887, -0.999573105102888, 1.51525959252494], a = 0.2, v = 0.2, t = 0.2)
movej(p[-0.569237839623762, 0.116950845668921, 0.353608651034972, -1.24923398095471, -1.00000770225177, 1.51697005246715], a = 0.2, v = 0.2, t = 0.2)
movej(p[-0.569228745048281, 0.1168493399253, 0.353678493734725, -1.2484152994821, -1.00044849825616, 1.51425698165888], a = 0.2, v = 0.2, t = 0.2)
movej(p[-0.56923138328012, 0.117045604069362, 0.353644493065783, -1.24597104609283, -1.00298241271562, 1.51868005524504], a = 0.2, v = 0.2, t = 0.2)
movej(p[-0.569189595850469, 0.11707337118371, 0.353662036956001, -1.24739440681739, -1.003720736231, 1.51932899369453], a = 0.2, v = 0.2, t = 0.2)
movej(p[-0.569202518481402, 0.116871035548232, 0.353628882978479, -1.2483529299448, -1.00124561766481, 1.51639020558842], a = 0.2, v = 0.2, t = 0.2)
movej(p[-0.569159739779626, 0.116892555074006, 0.353611759232253, -1.2481715588872, -1.00122180170406, 1.51877455576462], a = 0.2, v = 0.2, t = 0.2)
movej(p[-0.56922119710667, 0.1166193274525, 0.353563180288269, -1.24857855349575, -0.996870095132889, 1.51667636472876], a = 0.2, v = 0.2, t = 0.2)
movej(p[-0.569165581909857, 0.116744030541875, 0.353564659944896, -1.2489777883689, -0.998724153881107, 1.51753313439798], a = 0.2, v = 0.2, t = 0.2)
movej(p[-0.569160878787759, 0.116813854592719, 0.353556144513827, -1.2473984041675, -1.00089634310365, 1.51508209901501], a = 0.2, v = 0.2, t = 0.2)
movej(p[-0.569175682170429, 0.116846852893714, 0.353476932191598, -1.24646730742025, -0.999736230208848, 1.51667682819195], a = 0.2, v = 0.2, t = 0.2)
movej(p[-0.569107433793212, 0.116732137784427, 0.353727444092929, -1.25138678943013, -1.00225299374288, 1.51555758927938], a = 0.2, v = 0.2, t = 0.2)
movej(p[-0.569330127291034, 0.116760918886396, 0.353571982605103, -1.24700594549332, -0.998781889198605, 1.51481324790209], a = 0.2, v = 0.2, t = 0.2)
movej(p[-0.56917373420686, 0.116957018887236, 0.353445887074282, -1.24541700074413, -1.00164475244912, 1.51625076072526], a = 0.2, v = 0.2, t = 0.2)
movej(p[-0.569167445776325, 0.11664795964741, 0.353575707534608, -1.25043433740008, -0.997222476921358, 1.51591781551072], a = 0.2, v = 0.2, t = 0.2)
movej(p[-0.569176916486857, 0.116887511861589, 0.353538857265633, -1.24623805576325, -1.00195833729974, 1.51798577145476], a = 0.2, v = 0.2, t = 0.2)
movej(p[-0.569126569519996, 0.116906276494318, 0.353566124305928, -1.24748188235363, -1.00143504310668, 1.51502638794026], a = 0.2, v = 0.2, t = 0.2)
movej(p[-0.569100101723797, 0.116864203070774, 0.353438212333089, -1.24633864729955, -1.00022742411545, 1.51647851185072], a = 0.2, v = 0.2, t = 0.2)
movej(p[-0.569225161094554, 0.116978456001499, 0.353377980849573, -1.24458738865869, -1.00085578624534, 1.51566181914086], a = 0.2, v = 0.2, t = 0.2)
movej(p[-0.569225161094554, 0.116978456001499, 0.353377980849573, -1.24458738865869, -1.00085578624534, 1.51566181914086], a = 0.2, v = 0.2, t = 0.2)
movej(p[-0.569284129290079, 0.116843397408728, 0.353366952321335, -1.24611431412477, -0.998457007489351, 1.51680794074035], a = 0.2, v = 0.2, t = 0.2)
movej(p[-0.569220112735116, 0.11697369714648, 0.353414724792827, -1.24348010247386, -0.998386595952081, 1.52012321689204], a = 0.2, v = 0.2, t = 0.2)
movej(p[-0.569224160976693, 0.116924041916479, 0.353528004004838, -1.24805032572974, -1.00159140608655, 1.51446968004785], a = 0.2, v = 0.2, t = 0.2)
movej(p[-0.569132379877547, 0.116888486084801, 0.353582163977818, -1.24821005740535, -1.000712636719, 1.51670468739014], a = 0.2, v = 0.2, t = 0.2)
movej(p[-0.569088806674562, 0.116824589897839, 0.353600255779092, -1.2510079853701, -1.00020004941959, 1.51812407238306], a = 0.2, v = 0.2, t = 0.2)
movej(p[-0.569038873160758, 0.116923497042274, 0.353599006387742, -1.25003486024231, -1.00084079196498, 1.51862320292706], a = 0.2, v = 0.2, t = 0.2)
movej(p[-0.569103098014701, 0.11682906246769, 0.353526341614577, -1.24937161796905, -0.99912154875531, 1.51749148750585], a = 0.2, v = 0.2, t = 0.2)
movej(p[-0.569224814397949, 0.116810124907129, 0.35346510640535, -1.24557275016463, -1.00138424980705, 1.51418472031446], a = 0.2, v = 0.2, t = 0.2)
movej(p[-0.56920259941305, 0.1169560100631, 0.353456955594758, -1.24587961247498, -1.00058459863169, 1.51694789746514], a = 0.2, v = 0.2, t = 0.2)
movej(p[-0.569244529324282, 0.116780865070971, 0.353498128574687, -1.2467781502043, -0.999475812762838, 1.51368721076119], a = 0.2, v = 0.2, t = 0.2)
movej(p[-0.569152448302538, 0.116900292857515, 0.353507125198267, -1.24745067708102, -0.999886654347719, 1.51767874584672], a = 0.2, v = 0.2, t = 0.2)
movej(p[-0.56919475062035, 0.11687846508221, 0.353589504274087, -1.24822041148822, -0.998869728433356, 1.51591991169952], a = 0.2, v = 0.2, t = 0.2)
movej(p[-0.569229106265554, 0.116946495833433, 0.353567885149901, -1.24551783612959, -1.00440495007856, 1.51401700764241], a = 0.2, v = 0.2, t = 0.2)
movej(p[-0.569229106265554, 0.116946495833433, 0.353567885149901, -1.24551783612959, -1.00440495007856, 1.51401700764241], a = 0.2, v = 0.2, t = 0.2)
movej(p[-0.569220928686701, 0.117032933541082, 0.353624650455331, -1.24761673704866, -1.00229963158262, 1.52033025610995], a = 0.2, v = 0.2, t = 0.2)
movej(p[-0.569166100859953, 0.117004929234514, 0.353610419565416, -1.24524132573427, -1.00278021174118, 1.52093628498151], a = 0.2, v = 0.2, t = 0.2)
movej(p[-0.569269688694764, 0.116743749210414, 0.35361584224837, -1.24740277233707, -1.00065093109837, 1.5137582724643], a = 0.2, v = 0.2, t = 0.2)
movej(p[-0.569204579815434, 0.116962591031348, 0.353490208848182, -1.24453916273487, -1.00139975832475, 1.52013997526809], a = 0.2, v = 0.2, t = 0.2)
movej(p[-0.569146186296645, 0.116891653409389, 0.353591038708611, -1.24617011147644, -0.998792939677944, 1.51922434818203], a = 0.2, v = 0.2, t = 0.2)
movej(p[-0.569167831626678, 0.116780447334696, 0.353532119877673, -1.24739925782017, -0.998216527531267, 1.51716042526012], a = 0.2, v = 0.2, t = 0.2)
movej(p[-0.569281699843874, 0.117089664765584, 0.353563481471178, -1.24350830937758, -1.00172484729897, 1.52061448822068], a = 0.2, v = 0.2, t = 0.2)
movej(p[-0.56915485108859, 0.116731609880087, 0.353513079167122, -1.24643913301992, -0.998938260869623, 1.5145917518659], a = 0.2, v = 0.2, t = 0.2)
movej(p[-0.569237367608523, 0.116932291036632, 0.353617098094947, -1.24613353113513, -1.00054525214925, 1.51868675198663], a = 0.2, v = 0.2, t = 0.2)
movej(p[-0.569114976670707, 0.116735826516088, 0.353421374691881, -1.24154967544568, -0.99953597680384, 1.51534210370783], a = 0.2, v = 0.2, t = 0.2)
movej(p[-0.569130728862869, 0.116686687779394, 0.35344763993504, -1.24503422039883, -0.99630809452968, 1.5154649003572], a = 0.2, v = 0.2, t = 0.2)
movej(p[-0.569261737296168, 0.116590701523658, 0.35350444529671, -1.24700007307697, -0.99656785221089, 1.5124359862349], a = 0.2, v = 0.2, t = 0.2)
movej(p[-0.569089643202108, 0.116852584078213, 0.353688541712779, -1.24698866973931, -1.00265386443273, 1.51645940681138], a = 0.2, v = 0.2, t = 0.2)
movej(p[-0.569036514214142, 0.11661140188741, 0.353513308606669, -1.2471178488834, -0.997942752459468, 1.51437335308512], a = 0.2, v = 0.2, t = 0.2)
movej(p[-0.569165083556374, 0.116911879155738, 0.353468126248871, -1.24440499290925, -1.00107681988256, 1.51722442374666], a = 0.2, v = 0.2, t = 0.2)
movej(p[-0.569137169489148, 0.116817239557808, 0.353550938635351, -1.24567271605942, -1.00277313321829, 1.51444764137061], a = 0.2, v = 0.2, t = 0.2)
movej(p[-0.569099361084886, 0.11686652141348, 0.353502318235634, -1.24763423785368, -0.999163736387066, 1.51916769084335], a = 0.2, v = 0.2, t = 0.2)
movej(p[-0.569185817440941, 0.11670024993699, 0.353642941436435, -1.24952960286361, -0.99971138030661, 1.51706300371241], a = 0.2, v = 0.2, t = 0.2)
movej(p[-0.569126108812809, 0.116812089272614, 0.353475444622335, -1.24496328851595, -1.0000575277282, 1.51655706907222], a = 0.2, v = 0.2, t = 0.2)
movej(p[-0.569200673482339, 0.116729201700311, 0.353600058066295, -1.2466946881104, -0.998656863991724, 1.51431643460426], a = 0.2, v = 0.2, t = 0.2)
movej(p[-0.569209284791538, 0.117104629686584, 0.353470176533825, -1.24288426422818, -1.00163127313212, 1.52111131964855], a = 0.2, v = 0.2, t = 0.2)
movej(p[-0.56927903624096, 0.116631730431152, 0.353543260181212, -1.24849344764379, -0.997495199033614, 1.51491510131766], a = 0.2, v = 0.2, t = 0.2)
movej(p[-0.569142996350305, 0.116728483859621, 0.35351689140744, -1.24915130134114, -0.996609690979978, 1.51490998150577], a = 0.2, v = 0.2, t = 0.2)
movej(p[-0.569348841242674, 0.116916735397516, 0.353494971353482, -1.24570094525789, -1.00026447202329, 1.51957281822837], a = 0.2, v = 0.2, t = 0.2)
movej(p[-0.5692073896626, 0.116757326823435, 0.353603006009977, -1.24886212471058, -1.00008733184733, 1.51380709775796], a = 0.2, v = 0.2, t = 0.2)
movej(p[-0.569131658566148, 0.116789324119697, 0.353503718427359, -1.245715668722, -1.0001968427191, 1.51411968065029], a = 0.2, v = 0.2, t = 0.2)
movej(p[-0.569131658566148, 0.116789324119697, 0.353503718427359, -1.245715668722, -1.0001968427191, 1.51411968065029], a = 0.2, v = 0.2, t = 0.2)
movej(p[-0.569171912480251, 0.116870490491221, 0.353489723337755, -1.24399791076289, -1.0022121427881, 1.512777345989], a = 0.2, v = 0.2, t = 0.2)
movej(p[-0.569107523017319, 0.116823607262643, 0.353527874614817, -1.24669034812973, -0.998426272759835, 1.51634304132933], a = 0.2, v = 0.2, t = 0.2)
movej(p[-0.569052925854358, 0.11693324190195, 0.353685573237705, -1.24648040189623, -1.00383622187377, 1.51774239443992], a = 0.2, v = 0.2, t = 0.2)
movej(p[-0.569201665690853, 0.11673595364802, 0.35351381720171, -1.24747683292439, -0.996393255927704, 1.51702445845676], a = 0.2, v = 0.2, t = 0.2)
movej(p[-0.569207855442376, 0.116875956995242, 0.353697774967903, -1.24804300946211, -1.00127497434342, 1.51756524569049], a = 0.2, v = 0.2, t = 0.2)
movej(p[-0.569148373812124, 0.117158062209943, 0.353705321059669, -1.24488031166111, -1.00520782875157, 1.52212397958811], a = 0.2, v = 0.2, t = 0.2)
movej(p[-0.569236288308436, 0.116805467424479, 0.353776561277255, -1.24914039553221, -1.00065150347433, 1.51777277526036], a = 0.2, v = 0.2, t = 0.2)
movej(p[-0.569074141180368, 0.117046408734814, 0.353703936186321, -1.24510788648174, -1.0041584742442, 1.51749301087337], a = 0.2, v = 0.2, t = 0.2)
movej(p[-0.569120863947519, 0.116719153211725, 0.353673848553683, -1.24841571112403, -0.998550511791154, 1.51488490121858], a = 0.2, v = 0.2, t = 0.2)
movej(p[-0.569125908912583, 0.116753266180069, 0.353787546679078, -1.24937736578895, -1.00237014659957, 1.51262819880964], a = 0.2, v = 0.2, t = 0.2)
movej(p[-0.569110691900475, 0.1167369895766, 0.353727698749105, -1.24981641793335, -0.99974581929378, 1.51433631560948], a = 0.2, v = 0.2, t = 0.2)
movej(p[-0.569183685215659, 0.116710385268562, 0.353710179139172, -1.24802052611042, -1.00093291125493, 1.5142268517137], a = 0.2, v = 0.2, t = 0.2)
movej(p[-0.568978962607801, 0.116803493896954, 0.353628753669259, -1.24759465017811, -1.00121315968797, 1.51441727459372], a = 0.2, v = 0.2, t = 0.2)
movej(p[-0.569210220964519, 0.116633338242709, 0.353647545044306, -1.2501716525982, -0.998714499278258, 1.51495010694001], a = 0.2, v = 0.2, t = 0.2)
movej(p[-0.569189304395268, 0.116824917038187, 0.353675182016901, -1.24886123527273, -1.00238051485092, 1.51412081068709], a = 0.2, v = 0.2, t = 0.2)
movej(p[-0.569165375712179, 0.116844902353833, 0.353527601139806, -1.24661024515927, -1.00038398480453, 1.51600934273067], a = 0.2, v = 0.2, t = 0.2)
movej(p[-0.569190386729565, 0.11686593485283, 0.35357423699506, -1.24555743802404, -1.00204329588032, 1.51320154372001], a = 0.2, v = 0.2, t = 0.2)
movej(p[-0.569068668593113, 0.116841219591802, 0.353572642902491, -1.24747861652262, -0.99790886839854, 1.51778658303134], a = 0.2, v = 0.2, t = 0.2)
movej(p[-0.569124965511824, 0.116783603928599, 0.353464763422063, -1.24622609392605, -0.999293848231432, 1.51574333499956], a = 0.2, v = 0.2, t = 0.2)
movej(p[-0.568982585706644, 0.116825502979788, 0.353620750955495, -1.24908502131788, -1.00127775862925, 1.5158623055866], a = 0.2, v = 0.2, t = 0.2)
movej(p[-0.569285509956772, 0.11693644495056, 0.353552238636854, -1.24212378213915, -1.00305286717358, 1.51469243986532], a = 0.2, v = 0.2, t = 0.2)
movej(p[-0.56917665731511, 0.116842029212727, 0.353548543930821, -1.2453261248371, -0.99955891081494, 1.51951161440537], a = 0.2, v = 0.2, t = 0.2)
movej(p[-0.569199956049123, 0.116730770534699, 0.353722127817045, -1.24874272738565, -0.998913585108126, 1.51336885046466], a = 0.2, v = 0.2, t = 0.2)
movej(p[-0.569109009027381, 0.116881261213536, 0.353645968872597, -1.24898421233511, -1.0021926257058, 1.51874898191479], a = 0.2, v = 0.2, t = 0.2)
movej(p[-0.569045654503623, 0.116906719707604, 0.353771614801298, -1.24796483384933, -1.00218472543698, 1.51769189914567], a = 0.2, v = 0.2, t = 0.2)
movej(p[-0.569291069436518, 0.116712061477057, 0.353603557239752, -1.24669588034008, -0.999425703815563, 1.51415533030874], a = 0.2, v = 0.2, t = 0.2)
movej(p[-0.569143315677612, 0.11686591932577, 0.353599439094715, -1.24627413553728, -1.00086840604482, 1.51715002335981], a = 0.2, v = 0.2, t = 0.2)
movej(p[-0.569127352537802, 0.116713344992926, 0.353751756530108, -1.24794941262822, -1.00200328245733, 1.51052776942632], a = 0.2, v = 0.2, t = 0.2)
movej(p[-0.569055444881179, 0.116819632759248, 0.353746403059325, -1.24789138031011, -1.00236533010224, 1.51427015772169], a = 0.2, v = 0.2, t = 0.2)
movej(p[-0.569037917432458, 0.11669643094297, 0.35373896525002, -1.24932171922124, -1.00052510700006, 1.51350760952304], a = 0.2, v = 0.2, t = 0.2)
movej(p[-0.569125078248392, 0.116675958738749, 0.353799704372669, -1.25056256475474, -1.00182506684035, 1.51480380860107], a = 0.2, v = 0.2, t = 0.2)
movej(p[-0.569119936927844, 0.116853159651757, 0.353683936401053, -1.24546920502786, -1.00369036030332, 1.51305919375592], a = 0.2, v = 0.2, t = 0.2)
movej(p[-0.569108650478529, 0.116769233327749, 0.353747926776895, -1.2471450042119, -1.00081569284368, 1.5164661337233], a = 0.2, v = 0.2, t = 0.2)
movej(p[-0.569017144591048, 0.116683062455556, 0.353625287536268, -1.24696087248018, -1.00025597439575, 1.51704516829234], a = 0.2, v = 0.2, t = 0.2)
movej(p[-0.569066899998585, 0.116746106019066, 0.35365374660373, -1.24622055015787, -1.00076488319749, 1.51513962033333], a = 0.2, v = 0.2, t = 0.2)
movej(p[-0.568984610407204, 0.116800149258344, 0.353704724161916, -1.2448912802512, -1.00370982335667, 1.51440280677634], a = 0.2, v = 0.2, t = 0.2)
movej(p[-0.569173009195406, 0.116504526557571, 0.353750890116811, -1.25100575375699, -0.997901634943281, 1.51430474340265], a = 0.2, v = 0.2, t = 0.2)
movej(p[-0.569136850375811, 0.116787632093374, 0.353668151459805, -1.24607395756209, -1.00296818367099, 1.51391420822884], a = 0.2, v = 0.2, t = 0.2)
movej(p[-0.569190668950247, 0.116756535045407, 0.353730077017158, -1.24845493423791, -1.00071500917599, 1.51824110211695], a = 0.2, v = 0.2, t = 0.2)
movej(p[-0.569188208201561, 0.116767835403255, 0.353596211799015, -1.24570483904886, -1.00003309666941, 1.51760691479811], a = 0.2, v = 0.2, t = 0.2)
movej(p[-0.569062463641902, 0.116748933376555, 0.353576019743578, -1.24988550742838, -0.999501601680799, 1.51539617945622], a = 0.2, v = 0.2, t = 0.2)
movej(p[-0.569184280921825, 0.116579050811404, 0.353664339358444, -1.24906517297542, -0.997202818029317, 1.51389827142802], a = 0.2, v = 0.2, t = 0.2)
movej(p[-0.569173867005138, 0.116740835747532, 0.35370679963142, -1.24954539611225, -1.00054225126275, 1.51846835692476], a = 0.2, v = 0.2, t = 0.2)
movej(p[-0.569237760445482, 0.116978888588131, 0.353591449627676, -1.24097150632049, -1.00323306397286, 1.51162754992829], a = 0.2, v = 0.2, t = 0.2)
movej(p[-0.569103003264867, 0.11681990320847, 0.353589240255207, -1.24670191928398, -0.999745368257653, 1.51827881309786], a = 0.2, v = 0.2, t = 0.2)
movej(p[-0.569180054109015, 0.116872592934973, 0.353616926535873, -1.24684887603553, -0.99929666855213, 1.51899179834667], a = 0.2, v = 0.2, t = 0.2)
movej(p[-0.569213349720066, 0.11692771012272, 0.353709609101113, -1.24530554709766, -1.00368117834287, 1.51503945308161], a = 0.2, v = 0.2, t = 0.2)
movej(p[-0.569219628150542, 0.116703581923582, 0.35366157430475, -1.24829266538189, -1.00060509639734, 1.51526602303326], a = 0.2, v = 0.2, t = 0.2)
movej(p[-0.569253866586122, 0.116710380771931, 0.353631655160542, -1.24789075738727, -1.00025456111069, 1.51541680381084], a = 0.2, v = 0.2, t = 0.2)
movej(p[-0.569254988620324, 0.116646992715829, 0.35361987443973, -1.24629534140925, -1.00077287081871, 1.51350681285902], a = 0.2, v = 0.2, t = 0.2)
movej(p[-0.569226128604023, 0.116781271225667, 0.353544194381228, -1.24509792486577, -1.00076097560007, 1.51822487570157], a = 0.2, v = 0.2, t = 0.2)
movej(p[-0.569267211792386, 0.116558621673394, 0.353805354042176, -1.25084727217091, -0.99883086039405, 1.51176984106799], a = 0.2, v = 0.2, t = 0.2)
movej(p[-0.569100698469618, 0.116764111582557, 0.353591630317305, -1.24599208548656, -0.999767242636035, 1.51687807018238], a = 0.2, v = 0.2, t = 0.2)
movej(p[-0.569151587189748, 0.116757362437522, 0.353659190195967, -1.24598645929935, -0.999728522662618, 1.51668233480005], a = 0.2, v = 0.2, t = 0.2)
movej(p[-0.569135548289661, 0.11672795145412, 0.353780579107072, -1.24897147799075, -1.00039021794119, 1.516060702759], a = 0.2, v = 0.2, t = 0.2)
movej(p[-0.569032839697128, 0.116739617118928, 0.353691110356748, -1.2465559809088, -1.0006194912641, 1.5164415618869], a = 0.2, v = 0.2, t = 0.2)
movej(p[-0.56913756832207, 0.116765685599706, 0.353635836046009, -1.2447995501166, -1.00187384340484, 1.51598520756985], a = 0.2, v = 0.2, t = 0.2)
movej(p[-0.569046688862838, 0.116799787380669, 0.35360866322089, -1.24357798639675, -1.00015329270651, 1.51727796510204], a = 0.2, v = 0.2, t = 0.2)
movej(p[-0.569106099847713, 0.116784259442949, 0.353597279107997, -1.24393282810688, -1.00184690530396, 1.51402031605929], a = 0.2, v = 0.2, t = 0.2)
movej(p[-0.569077201496122, 0.116696676616707, 0.35372909448579, -1.24787893465637, -1.0005044010298, 1.51648715765298], a = 0.2, v = 0.2, t = 0.2)
movej(p[-0.569052402603777, 0.116579039173822, 0.353764553574467, -1.24664939305137, -1.00123367762174, 1.51279365802462], a = 0.2, v = 0.2, t = 0.2)
movej(p[-0.569108497829422, 0.116710110091358, 0.353745967282854, -1.24788768875207, -0.999752248751946, 1.51615989390579], a = 0.2, v = 0.2, t = 0.2)
movej(p[-0.569094567241855, 0.116619755062114, 0.353979149030468, -1.25117795621945, -1.00133081225586, 1.51421657243582], a = 0.2, v = 0.2, t = 0.2)
movej(p[-0.569040451171258, 0.116654122919924, 0.35361493347444, -1.24702069083144, -1.00111790912713, 1.51317963964384], a = 0.2, v = 0.2, t = 0.2)
movej(p[-0.569054041786873, 0.116743136836746, 0.353680289405917, -1.24776412984151, -1.00060678937547, 1.51761024149686], a = 0.2, v = 0.2, t = 0.2)
movej(p[-0.569168409085536, 0.116577389692373, 0.353609408624821, -1.24755987498124, -0.997814803424555, 1.51477095956897], a = 0.2, v = 0.2, t = 0.2)
movej(p[-0.569105776784042, 0.116738034406162, 0.353708161350055, -1.24844634246141, -1.00186759847897, 1.51562711017418], a = 0.2, v = 0.2, t = 0.2)
movej(p[-0.568997857054034, 0.116639302603519, 0.353621535701303, -1.24734297050636, -0.99920655972134, 1.51669545757436], a = 0.2, v = 0.2, t = 0.2)
movej(p[-0.569163997991994, 0.116766664239076, 0.35369517544955, -1.24468489665033, -1.00107337602808, 1.5139487127315], a = 0.2, v = 0.2, t = 0.2)
movej(p[-0.569089396809599, 0.116718611506144, 0.353643774881041, -1.25030778797142, -0.998916311653374, 1.51531532218537], a = 0.2, v = 0.2, t = 0.2)
movej(p[-0.569262210244635, 0.116876519320223, 0.353642437374334, -1.24494525588528, -1.00375041938777, 1.5149352633321], a = 0.2, v = 0.2, t = 0.2)
movej(p[-0.569156262038853, 0.116729331399454, 0.353536945414112, -1.2463278647114, -0.997897823449094, 1.51385740956557], a = 0.2, v = 0.2, t = 0.2)
movej(p[-0.56910133035672, 0.116878050002725, 0.353632531382429, -1.24647791080648, -0.999554644956149, 1.51925880267516], a = 0.2, v = 0.2, t = 0.2)
movej(p[-0.56913887494478, 0.11676610592754, 0.353580520441866, -1.24662401156916, -1.00068359505033, 1.5165818248235], a = 0.2, v = 0.2, t = 0.2)
movej(p[-0.569070914706481, 0.11685673379113, 0.353586976938697, -1.24437801217817, -1.00051876147763, 1.51479317147343], a = 0.2, v = 0.2, t = 0.2)
movej(p[-0.569166316467403, 0.116862327569897, 0.353724499531939, -1.24750164766609, -1.0016606022986, 1.5147724925431], a = 0.2, v = 0.2, t = 0.2)
movej(p[-0.569261910276377, 0.116759762102413, 0.35368555073779, -1.24702620093422, -1.00038724252205, 1.51652275919971], a = 0.2, v = 0.2, t = 0.2)
movej(p[-0.569216277960482, 0.116913494206869, 0.353654091688128, -1.24744317536287, -1.00128269027582, 1.51811779150822], a = 0.2, v = 0.2, t = 0.2)
movej(p[-0.569116359514223, 0.116904974700328, 0.353781360899272, -1.24994669483018, -1.00344280100028, 1.51770572923338], a = 0.2, v = 0.2, t = 0.2)
movej(p[-0.569124164194582, 0.11702268805021, 0.35383861772615, -1.24885106622053, -1.00393762785412, 1.51933993409085], a = 0.2, v = 0.2, t = 0.2)
movej(p[-0.569234277355553, 0.116943795011294, 0.353571677957304, -1.24344282168406, -1.00162724680683, 1.5190867716272], a = 0.2, v = 0.2, t = 0.2)
movej(p[-0.56915999588014, 0.116767746557864, 0.353717865352299, -1.2499040812403, -1.00127173281796, 1.51688828669587], a = 0.2, v = 0.2, t = 0.2)
movej(p[-0.569228647966249, 0.116850608778791, 0.353601645373741, -1.24458849077287, -1.00208444258865, 1.51824550459548], a = 0.2, v = 0.2, t = 0.2)
movej(p[-0.569225256383546, 0.116676787854069, 0.35373992257105, -1.24699920494813, -1.00004034649541, 1.51504716847919], a = 0.2, v = 0.2, t = 0.2)
movej(p[-0.569051407742435, 0.116846284901188, 0.353728743080821, -1.24685286885886, -1.00486248306715, 1.51452282425165], a = 0.2, v = 0.2, t = 0.2)
movej(p[-0.569049848629665, 0.116828311526478, 0.353743283609315, -1.24716681355161, -1.0011598157654, 1.51952660215293], a = 0.2, v = 0.2, t = 0.2)
movej(p[-0.569097308183135, 0.11671143413604, 0.353678555127262, -1.24803288988199, -1.00137437814402, 1.51617164570073], a = 0.2, v = 0.2, t = 0.2)
movej(p[-0.569117760569173, 0.116638171111566, 0.353768994328664, -1.25040221071464, -0.999847727158656, 1.51879540513586], a = 0.2, v = 0.2, t = 0.2)
movej(p[-0.569134793851771, 0.116953006055341, 0.353724895740681, -1.24636952414321, -1.00363811939897, 1.51812574764713], a = 0.2, v = 0.2, t = 0.2)
movej(p[-0.56910308625002, 0.116788705314662, 0.353774883985334, -1.2465347831401, -1.00223188483135, 1.51766984170177], a = 0.2, v = 0.2, t = 0.2)
movej(p[-0.569089244490674, 0.116849051105566, 0.353820760354178, -1.24847136314926, -1.00371267299693, 1.51725308709349], a = 0.2, v = 0.2, t = 0.2)
movej(p[-0.569066075110588, 0.116797988753992, 0.353725071503844, -1.24883343040509, -1.00138381652903, 1.51777348977253], a = 0.2, v = 0.2, t = 0.2)
movej(p[-0.569035560027333, 0.116520070701219, 0.353850896245596, -1.25059217276298, -0.999015250522499, 1.51413562429727], a = 0.2, v = 0.2, t = 0.2)
movej(p[-0.569068775686507, 0.116563156916482, 0.353652999838251, -1.24622685507485, -0.999008110066902, 1.51414032796379], a = 0.2, v = 0.2, t = 0.2)
movej(p[-0.5690684437121, 0.116662199946458, 0.35381822422509, -1.24996613430702, -1.00026562333087, 1.51534680959879], a = 0.2, v = 0.2, t = 0.2)
movej(p[-0.569062158289569, 0.116763135078186, 0.353771032354531, -1.24786819299921, -1.00279753130221, 1.51641145694721], a = 0.2, v = 0.2, t = 0.2)
movej(p[-0.569153551810872, 0.116729714593459, 0.35370619729099, -1.24445821350893, -1.00064936944337, 1.51512687976821], a = 0.2, v = 0.2, t = 0.2)
movej(p[-0.56912712642771, 0.116680372869358, 0.353713707509863, -1.24497190576701, -0.999847530202094, 1.51571564787782], a = 0.2, v = 0.2, t = 0.2)
movej(p[-0.569191982373038, 0.116717886952463, 0.353733113434846, -1.24786913100358, -1.00151865256173, 1.51672019038781], a = 0.2, v = 0.2, t = 0.2)
movej(p[-0.569051787288215, 0.116825621056584, 0.353804688926469, -1.24770314472078, -1.00346019203242, 1.51447766633073], a = 0.2, v = 0.2, t = 0.2)
movej(p[-0.569023519156758, 0.116672093102716, 0.353751779663336, -1.24659856296479, -1.00257604106031, 1.51337726052634], a = 0.2, v = 0.2, t = 0.2)
movej(p[-0.569134977441676, 0.116731545578227, 0.353713633708391, -1.24614942653303, -1.00284037787137, 1.51241152149923], a = 0.2, v = 0.2, t = 0.2)
movej(p[-0.569153370482729, 0.11672187743778, 0.353834350621461, -1.24736715365831, -1.00440003269366, 1.5134967867782], a = 0.2, v = 0.2, t = 0.2)
movej(p[-0.569104758842936, 0.116651043235545, 0.353765806298062, -1.24774852858268, -1.00237671704946, 1.5117813370099], a = 0.2, v = 0.2, t = 0.2)
movej(p[-0.569142113885335, 0.116718756340274, 0.35371496658666, -1.244638940356, -1.00344147944523, 1.51408850870251], a = 0.2, v = 0.2, t = 0.2)
movej(p[-0.56910816854954, 0.116632820140257, 0.353654893933111, -1.24706758315563, -0.999890088242165, 1.51436477554589], a = 0.2, v = 0.2, t = 0.2)
movej(p[-0.569194540125823, 0.116773219723667, 0.353715888095034, -1.24729676134782, -1.00408147445447, 1.51652477339372], a = 0.2, v = 0.2, t = 0.2)
movej(p[-0.569096745059812, 0.116651038774571, 0.353639052681702, -1.24786271961353, -0.998111215575024, 1.51659993657834], a = 0.2, v = 0.2, t = 0.2)
movej(p[-0.569077447654016, 0.116816216597671, 0.353726482521491, -1.24717861913224, -1.00477938788535, 1.51620437065686], a = 0.2, v = 0.2, t = 0.2)
movej(p[-0.569171925234499, 0.116767028372618, 0.353779192627752, -1.24556732225361, -1.00328541118163, 1.51236161320714], a = 0.2, v = 0.2, t = 0.2)
movej(p[-0.569153942753239, 0.11669588064556, 0.353692302287079, -1.24664350811491, -0.998182731353886, 1.5142751518633], a = 0.2, v = 0.2, t = 0.2)
movej(p[-0.569157575095032, 0.116746395247499, 0.353883851108751, -1.24873652233645, -1.00400689479711, 1.51499649507122], a = 0.2, v = 0.2, t = 0.2)
movej(p[-0.569221885514984, 0.116702551163066, 0.353754469362953, -1.24629006894796, -1.00432801687359, 1.51270972247473], a = 0.2, v = 0.2, t = 0.2)
movej(p[-0.569128111476867, 0.116831298163221, 0.353878606100974, -1.24719428380057, -1.00624934753648, 1.51364492936618], a = 0.2, v = 0.2, t = 0.2)
movej(p[-0.569185943463127, 0.116656741802197, 0.353979794974824, -1.25013077725213, -1.00351390707922, 1.51146288921721], a = 0.2, v = 0.2, t = 0.2)
movej(p[-0.569103031231134, 0.116643961511175, 0.353970347967502, -1.25180197919924, -1.00146666937404, 1.51311123001863], a = 0.2, v = 0.2, t = 0.2)
movej(p[-0.569026645724002, 0.116598139041865, 0.35371664618271, -1.24876817342203, -1.00119831432273, 1.5122827671458], a = 0.2, v = 0.2, t = 0.2)
movej(p[-0.569073288443521, 0.116568655281119, 0.353861477134402, -1.2482006238815, -1.00102894750181, 1.5143519896838], a = 0.2, v = 0.2, t = 0.2)
movej(p[-0.569087382129005, 0.116760572515746, 0.353903136144022, -1.24772396185447, -1.00542292944327, 1.51382846979526], a = 0.2, v = 0.2, t = 0.2)
movej(p[-0.569144446151355, 0.116790522001332, 0.353875179290364, -1.24515706850016, -1.00450647008232, 1.51488382457568], a = 0.2, v = 0.2, t = 0.2)
end
