movej(p[0.411050872927547, 0.210955776725879, 0.317636207963473, -1.283, 0.713, -0.78], a = 0.2, v = 0.2, t = 0.1)
movej(p[0.411040747520495, 0.210956413069414, 0.31762440660474, -1.283, 0.713, -0.78], a = 0.2, v = 0.2, t = 0.1)
movej(p[0.411034238281421, 0.210956585770275, 0.317610293727107, -1.283, 0.713, -0.78], a = 0.2, v = 0.2, t = 0.1)
movej(p[0.411030460826714, 0.21095446204109, 0.317595637505927, -1.283, 0.713, -0.78], a = 0.2, v = 0.2, t = 0.1)
movej(p[0.411028912696261, 0.210950791225453, 0.317580477222365, -1.283, 0.713, -0.78], a = 0.2, v = 0.2, t = 0.1)
movej(p[0.411029475510818, 0.210946279474499, 0.317565085865307, -1.283, 0.713, -0.78], a = 0.2, v = 0.2, t = 0.1)
movej(p[0.411032404958042, 0.210942328323356, 0.317549324423571, -1.283, 0.713, -0.78], a = 0.2, v = 0.2, t = 0.1)
movej(p[0.411038148356746, 0.210939870989064, 0.317535190868586, -1.283, 0.713, -0.78], a = 0.2, v = 0.2, t = 0.1)
movej(p[0.411047001689425, 0.210939577912925, 0.317526318455619, -1.283, 0.713, -0.78], a = 0.2, v = 0.2, t = 0.1)
movej(p[0.41105768363604, 0.210941675169601, 0.317521940180623, -1.283, 0.713, -0.78], a = 0.2, v = 0.2, t = 0.1)
movej(p[0.411068266549111, 0.210944973832914, 0.317520419387639, -1.283, 0.713, -0.78], a = 0.2, v = 0.2, t = 0.1)
movej(p[0.411076704102796, 0.210947906519865, 0.3175207861792, -1.283, 0.713, -0.78], a = 0.2, v = 0.2, t = 0.1)
movej(p[0.411084332279017, 0.210949656797127, 0.317520695327401, -1.283, 0.713, -0.78], a = 0.2, v = 0.2, t = 0.1)
movej(p[0.411092013424217, 0.210950383308711, 0.317518219084412, -1.283, 0.713, -0.78], a = 0.2, v = 0.2, t = 0.1)
movej(p[0.411098184481759, 0.210951037800377, 0.317513820440476, -1.283, 0.713, -0.78], a = 0.2, v = 0.2, t = 0.1)
movej(p[0.41110208789128, 0.210952599654152, 0.317509601942178, -1.283, 0.713, -0.78], a = 0.2, v = 0.2, t = 0.1)
movej(p[0.411105287094947, 0.210955271876237, 0.317506930502487, -1.283, 0.713, -0.78], a = 0.2, v = 0.2, t = 0.1)
movej(p[0.411111371855154, 0.210958581750908, 0.317504270879789, -1.283, 0.713, -0.78], a = 0.2, v = 0.2, t = 0.1)
movej(p[0.41112054904202, 0.210962046832057, 0.317501258901725, -1.283, 0.713, -0.78], a = 0.2, v = 0.2, t = 0.1)
movej(p[0.41113051688436, 0.210965319648523, 0.317498034179184, -1.283, 0.713, -0.78], a = 0.2, v = 0.2, t = 0.1)
movej(p[0.411137320509486, 0.21096880464046, 0.317496304797406, -1.283, 0.713, -0.78], a = 0.2, v = 0.2, t = 0.1)
movej(p[0.411140957304784, 0.210973032461604, 0.317495814610366, -1.283, 0.713, -0.78], a = 0.2, v = 0.2, t = 0.1)
movej(p[0.411143062696091, 0.210977587978929, 0.317496878158836, -1.283, 0.713, -0.78], a = 0.2, v = 0.2, t = 0.1)
movej(p[0.411144992625387, 0.21098096028116, 0.317497075388585, -1.283, 0.713, -0.78], a = 0.2, v = 0.2, t = 0.1)
movej(p[0.411146192790008, 0.210982071644478, 0.317495598061452, -1.283, 0.713, -0.78], a = 0.2, v = 0.2, t = 0.1)
movej(p[0.411146026210612, 0.210980520661054, 0.317492904047584, -1.283, 0.713, -0.78], a = 0.2, v = 0.2, t = 0.1)
movej(p[0.41114468202555, 0.210976812461926, 0.317489531003299, -1.283, 0.713, -0.78], a = 0.2, v = 0.2, t = 0.1)
movej(p[0.411142677193259, 0.210970057478048, 0.317485480299868, -1.283, 0.713, -0.78], a = 0.2, v = 0.2, t = 0.1)
movej(p[0.411138446201971, 0.210961487265092, 0.317480204510105, -1.283, 0.713, -0.78], a = 0.2, v = 0.2, t = 0.1)
movej(p[0.411130759772516, 0.21095099635705, 0.317476943647998, -1.283, 0.713, -0.78], a = 0.2, v = 0.2, t = 0.1)
movej(p[0.411119537509455, 0.210939184259167, 0.317478623036097, -1.283, 0.713, -0.78], a = 0.2, v = 0.2, t = 0.1)
movej(p[0.411107408527261, 0.210927860662837, 0.317485928562984, -1.283, 0.713, -0.78], a = 0.2, v = 0.2, t = 0.1)
movej(p[0.411096321498816, 0.210918144531735, 0.317495754036085, -1.283, 0.713, -0.78], a = 0.2, v = 0.2, t = 0.1)
movej(p[0.411086609823912, 0.210910110836534, 0.31750622510432, -1.283, 0.713, -0.78], a = 0.2, v = 0.2, t = 0.1)
movej(p[0.411078082231796, 0.21090120007583, 0.317517465594451, -1.283, 0.713, -0.78], a = 0.2, v = 0.2, t = 0.1)
movej(p[0.411068997236333, 0.210890556606176, 0.31753028061537, -1.283, 0.713, -0.78], a = 0.2, v = 0.2, t = 0.1)
movej(p[0.411058262365475, 0.210877708600805, 0.317545089598038, -1.283, 0.713, -0.78], a = 0.2, v = 0.2, t = 0.1)
movej(p[0.41104610638481, 0.210863851642294, 0.317560205027238, -1.283, 0.713, -0.78], a = 0.2, v = 0.2, t = 0.1)
movej(p[0.411033446860727, 0.210850654660831, 0.317574715304949, -1.283, 0.713, -0.78], a = 0.2, v = 0.2, t = 0.1)
movej(p[0.411021671861496, 0.210839564616499, 0.317588050378545, -1.283, 0.713, -0.78], a = 0.2, v = 0.2, t = 0.1)
movej(p[0.411010974666948, 0.210830381527187, 0.317600578127166, -1.283, 0.713, -0.78], a = 0.2, v = 0.2, t = 0.1)
movej(p[0.411002851794972, 0.210824581068335, 0.317611158477914, -1.283, 0.713, -0.78], a = 0.2, v = 0.2, t = 0.1)
movej(p[0.410998889483254, 0.210823241562698, 0.317619479014345, -1.283, 0.713, -0.78], a = 0.2, v = 0.2, t = 0.1)
movej(p[0.411000318634224, 0.21082628985451, 0.317626310186611, -1.283, 0.713, -0.78], a = 0.2, v = 0.2, t = 0.1)
movej(p[0.41100676599386, 0.210832088373524, 0.317632759001539, -1.283, 0.713, -0.78], a = 0.2, v = 0.2, t = 0.1)
movej(p[0.411016967208794, 0.210839060832879, 0.317638464582001, -1.283, 0.713, -0.78], a = 0.2, v = 0.2, t = 0.1)
movej(p[0.41102930895274, 0.210845965125173, 0.317642942220362, -1.283, 0.713, -0.78], a = 0.2, v = 0.2, t = 0.1)
movej(p[0.411042687205128, 0.210852651548362, 0.317645220152311, -1.283, 0.713, -0.78], a = 0.2, v = 0.2, t = 0.1)
movej(p[0.411055679920608, 0.210858259077851, 0.31764742013765, -1.283, 0.713, -0.78], a = 0.2, v = 0.2, t = 0.1)
movej(p[0.411067861606301, 0.210863506225188, 0.317651229493173, -1.283, 0.713, -0.78], a = 0.2, v = 0.2, t = 0.1)
movej(p[0.411078247064914, 0.210867237855428, 0.317657919123892, -1.283, 0.713, -0.78], a = 0.2, v = 0.2, t = 0.1)
movej(p[0.411086282726821, 0.210870082157326, 0.317665955244439, -1.283, 0.713, -0.78], a = 0.2, v = 0.2, t = 0.1)
movej(p[0.411091741170698, 0.210873184150269, 0.317673240664277, -1.283, 0.713, -0.78], a = 0.2, v = 0.2, t = 0.1)
movej(p[0.411095788704876, 0.210878277977603, 0.317678988752147, -1.283, 0.713, -0.78], a = 0.2, v = 0.2, t = 0.1)
movej(p[0.411100025470691, 0.210884010206287, 0.317684541539982, -1.283, 0.713, -0.78], a = 0.2, v = 0.2, t = 0.1)
movej(p[0.411106453332096, 0.210887006201085, 0.317691376837557, -1.283, 0.713, -0.78], a = 0.2, v = 0.2, t = 0.1)
movej(p[0.411114939181018, 0.21088660560369, 0.317699394031006, -1.283, 0.713, -0.78], a = 0.2, v = 0.2, t = 0.1)
movej(p[0.411125395362537, 0.210885097543436, 0.317707595911968, -1.283, 0.713, -0.78], a = 0.2, v = 0.2, t = 0.1)
movej(p[0.411135763911588, 0.210884343129589, 0.317716598407473, -1.283, 0.713, -0.78], a = 0.2, v = 0.2, t = 0.1)
movej(p[0.411145822307316, 0.210884150259527, 0.317728182702252, -1.283, 0.713, -0.78], a = 0.2, v = 0.2, t = 0.1)
movej(p[0.41115571364714, 0.210884392188282, 0.317741784487133, -1.283, 0.713, -0.78], a = 0.2, v = 0.2, t = 0.1)
movej(p[0.4111662674845, 0.210883483328651, 0.317757136894506, -1.283, 0.713, -0.78], a = 0.2, v = 0.2, t = 0.1)
movej(p[0.411177176718199, 0.210881826076316, 0.317772513276877, -1.283, 0.713, -0.78], a = 0.2, v = 0.2, t = 0.1)
movej(p[0.411187647852255, 0.210879948317314, 0.317786254974105, -1.283, 0.713, -0.78], a = 0.2, v = 0.2, t = 0.1)
movej(p[0.411196789889643, 0.210878615760222, 0.317794459829009, -1.283, 0.713, -0.78], a = 0.2, v = 0.2, t = 0.1)
movej(p[0.411204037121647, 0.210878294524955, 0.317795171075922, -1.283, 0.713, -0.78], a = 0.2, v = 0.2, t = 0.1)
movej(p[0.411207675765614, 0.210878646845534, 0.317790333803313, -1.283, 0.713, -0.78], a = 0.2, v = 0.2, t = 0.1)
movej(p[0.41120651198762, 0.210879948042289, 0.317783918019277, -1.283, 0.713, -0.78], a = 0.2, v = 0.2, t = 0.1)
movej(p[0.411201989652996, 0.210881380185186, 0.317776605128516, -1.283, 0.713, -0.78], a = 0.2, v = 0.2, t = 0.1)
movej(p[0.411195934029633, 0.210882715291411, 0.317766986154816, -1.283, 0.713, -0.78], a = 0.2, v = 0.2, t = 0.1)
movej(p[0.411188687570913, 0.210884235948813, 0.317755538929515, -1.283, 0.713, -0.78], a = 0.2, v = 0.2, t = 0.1)
movej(p[0.411178774877806, 0.210885076635364, 0.317744977990756, -1.283, 0.713, -0.78], a = 0.2, v = 0.2, t = 0.1)
movej(p[0.411165869352903, 0.210884152937007, 0.317735994014502, -1.283, 0.713, -0.78], a = 0.2, v = 0.2, t = 0.1)
movej(p[0.411151847704739, 0.210880967423273, 0.317726457545658, -1.283, 0.713, -0.78], a = 0.2, v = 0.2, t = 0.1)
movej(p[0.411139171877655, 0.210875675494163, 0.31771399278501, -1.283, 0.713, -0.78], a = 0.2, v = 0.2, t = 0.1)
movej(p[0.411127573867422, 0.210868432273928, 0.317699185158215, -1.283, 0.713, -0.78], a = 0.2, v = 0.2, t = 0.1)
movej(p[0.411116040936664, 0.210860244004778, 0.317681789680342, -1.283, 0.713, -0.78], a = 0.2, v = 0.2, t = 0.1)
movej(p[0.411103581606432, 0.210851035759915, 0.317660864049701, -1.283, 0.713, -0.78], a = 0.2, v = 0.2, t = 0.1)
movej(p[0.411090073660697, 0.210841284616874, 0.317637297963021, -1.283, 0.713, -0.78], a = 0.2, v = 0.2, t = 0.1)
movej(p[0.411075410699937, 0.210831582204049, 0.317612699736497, -1.283, 0.713, -0.78], a = 0.2, v = 0.2, t = 0.1)
movej(p[0.411058631826209, 0.210823929067575, 0.317591027900198, -1.283, 0.713, -0.78], a = 0.2, v = 0.2, t = 0.1)
movej(p[0.411040676485552, 0.210817970081874, 0.317573076403094, -1.283, 0.713, -0.78], a = 0.2, v = 0.2, t = 0.1)
movej(p[0.411021442886951, 0.210812306124571, 0.317560897181874, -1.283, 0.713, -0.78], a = 0.2, v = 0.2, t = 0.1)
movej(p[0.411000106837649, 0.210804580276598, 0.317557071886552, -1.283, 0.713, -0.78], a = 0.2, v = 0.2, t = 0.1)
movej(p[0.410977932309557, 0.210796217593451, 0.317561306133294, -1.283, 0.713, -0.78], a = 0.2, v = 0.2, t = 0.1)
movej(p[0.410957022940849, 0.210789139386819, 0.317569514597042, -1.283, 0.713, -0.78], a = 0.2, v = 0.2, t = 0.1)
movej(p[0.410940840779548, 0.210784513897551, 0.317576741270249, -1.283, 0.713, -0.78], a = 0.2, v = 0.2, t = 0.1)
movej(p[0.410930231471678, 0.210782346727013, 0.317581982670766, -1.283, 0.713, -0.78], a = 0.2, v = 0.2, t = 0.1)
movej(p[0.410924812118061, 0.210782458882923, 0.317587192435965, -1.283, 0.713, -0.78], a = 0.2, v = 0.2, t = 0.1)
movej(p[0.410921638990684, 0.210783703151378, 0.317595234367801, -1.283, 0.713, -0.78], a = 0.2, v = 0.2, t = 0.1)
movej(p[0.410919810893528, 0.210786475008729, 0.317606974384395, -1.283, 0.713, -0.78], a = 0.2, v = 0.2, t = 0.1)
movej(p[0.410919487844791, 0.210790594021923, 0.317622630226621, -1.283, 0.713, -0.78], a = 0.2, v = 0.2, t = 0.1)
movej(p[0.410921275652138, 0.210795079694365, 0.317641356833832, -1.283, 0.713, -0.78], a = 0.2, v = 0.2, t = 0.1)
movej(p[0.410925890640305, 0.210798815682057, 0.317661253647175, -1.283, 0.713, -0.78], a = 0.2, v = 0.2, t = 0.1)
movej(p[0.410933281528217, 0.210802006456315, 0.317680656180321, -1.283, 0.713, -0.78], a = 0.2, v = 0.2, t = 0.1)
movej(p[0.410942427311924, 0.210805868307352, 0.317697323256338, -1.283, 0.713, -0.78], a = 0.2, v = 0.2, t = 0.1)
movej(p[0.410951234041394, 0.210811841791234, 0.317712383919284, -1.283, 0.713, -0.78], a = 0.2, v = 0.2, t = 0.1)
movej(p[0.410958246915118, 0.210819718011913, 0.317728315035125, -1.283, 0.713, -0.78], a = 0.2, v = 0.2, t = 0.1)
movej(p[0.410963398157763, 0.210829254440049, 0.317745934410698, -1.283, 0.713, -0.78], a = 0.2, v = 0.2, t = 0.1)
movej(p[0.410966270498793, 0.210838449976349, 0.317763891860494, -1.283, 0.713, -0.78], a = 0.2, v = 0.2, t = 0.1)
movej(p[0.410966719018762, 0.210846461936104, 0.317779938447911, -1.283, 0.713, -0.78], a = 0.2, v = 0.2, t = 0.1)
movej(p[0.410966511294298, 0.210853546717864, 0.317792896843914, -1.283, 0.713, -0.78], a = 0.2, v = 0.2, t = 0.1)
movej(p[0.410966781485242, 0.210858657120939, 0.317804103164954, -1.283, 0.713, -0.78], a = 0.2, v = 0.2, t = 0.1)
movej(p[0.410967657341964, 0.210862173028992, 0.317816022360169, -1.283, 0.713, -0.78], a = 0.2, v = 0.2, t = 0.1)
movej(p[0.410968206123819, 0.210866097821616, 0.317829897528144, -1.283, 0.713, -0.78], a = 0.2, v = 0.2, t = 0.1)
movej(p[0.410969253970028, 0.21087140409749, 0.317846350020468, -1.283, 0.713, -0.78], a = 0.2, v = 0.2, t = 0.1)
movej(p[0.410971512417546, 0.210876635525241, 0.31786373147793, -1.283, 0.713, -0.78], a = 0.2, v = 0.2, t = 0.1)
movej(p[0.410974275648478, 0.210880279849883, 0.317879866029449, -1.283, 0.713, -0.78], a = 0.2, v = 0.2, t = 0.1)
movej(p[0.410976333874205, 0.210883982316468, 0.317893611311586, -1.283, 0.713, -0.78], a = 0.2, v = 0.2, t = 0.1)
movej(p[0.41097629855227, 0.210887716864533, 0.3179039494075, -1.283, 0.713, -0.78], a = 0.2, v = 0.2, t = 0.1)
movej(p[0.41097278520753, 0.210890566564387, 0.317911068342496, -1.283, 0.713, -0.78], a = 0.2, v = 0.2, t = 0.1)
movej(p[0.410965294889882, 0.210891637330148, 0.317916190585483, -1.283, 0.713, -0.78], a = 0.2, v = 0.2, t = 0.1)
movej(p[0.410954795061062, 0.210890289971707, 0.317918700471134, -1.283, 0.713, -0.78], a = 0.2, v = 0.2, t = 0.1)
movej(p[0.410942634079641, 0.21088655839218, 0.317918990205698, -1.283, 0.713, -0.78], a = 0.2, v = 0.2, t = 0.1)
movej(p[0.410928740009679, 0.210881320140105, 0.317915700401893, -1.283, 0.713, -0.78], a = 0.2, v = 0.2, t = 0.1)
movej(p[0.410912414993397, 0.210876261145399, 0.317909739370694, -1.283, 0.713, -0.78], a = 0.2, v = 0.2, t = 0.1)
movej(p[0.410894549565559, 0.210871101330173, 0.317899157036924, -1.283, 0.713, -0.78], a = 0.2, v = 0.2, t = 0.1)
movej(p[0.410875813417345, 0.210865781442097, 0.31788531378431, -1.283, 0.713, -0.78], a = 0.2, v = 0.2, t = 0.1)
movej(p[0.410855866066174, 0.21085994601354, 0.31786994182917, -1.283, 0.713, -0.78], a = 0.2, v = 0.2, t = 0.1)
movej(p[0.41083592224147, 0.210853618843302, 0.317854677645473, -1.283, 0.713, -0.78], a = 0.2, v = 0.2, t = 0.1)
movej(p[0.410817005503882, 0.210847534668393, 0.3178393724578, -1.283, 0.713, -0.78], a = 0.2, v = 0.2, t = 0.1)
movej(p[0.410798735486527, 0.210840607468003, 0.317823691081374, -1.283, 0.713, -0.78], a = 0.2, v = 0.2, t = 0.1)
movej(p[0.410779991996682, 0.210832440784121, 0.317808901174788, -1.283, 0.713, -0.78], a = 0.2, v = 0.2, t = 0.1)
movej(p[0.410760432221162, 0.210821579632151, 0.31779628906535, -1.283, 0.713, -0.78], a = 0.2, v = 0.2, t = 0.1)
movej(p[0.410742401143652, 0.210810226007631, 0.317786764107865, -1.283, 0.713, -0.78], a = 0.2, v = 0.2, t = 0.1)
movej(p[0.410728682935428, 0.210801596988816, 0.317779051875476, -1.283, 0.713, -0.78], a = 0.2, v = 0.2, t = 0.1)
movej(p[0.41071949479625, 0.210796131575529, 0.317771886685595, -1.283, 0.713, -0.78], a = 0.2, v = 0.2, t = 0.1)
movej(p[0.410714567689705, 0.210793959278251, 0.317763585545515, -1.283, 0.713, -0.78], a = 0.2, v = 0.2, t = 0.1)
movej(p[0.410714284752012, 0.210794678776802, 0.317752727503882, -1.283, 0.713, -0.78], a = 0.2, v = 0.2, t = 0.1)
movej(p[0.410718707147962, 0.21079727038284, 0.317739034101448, -1.283, 0.713, -0.78], a = 0.2, v = 0.2, t = 0.1)
movej(p[0.410728391340083, 0.210800066467169, 0.317723973815084, -1.283, 0.713, -0.78], a = 0.2, v = 0.2, t = 0.1)
movej(p[0.410741000493995, 0.210800894765594, 0.317711870553939, -1.283, 0.713, -0.78], a = 0.2, v = 0.2, t = 0.1)
movej(p[0.410755899645762, 0.21080064559259, 0.317704303993595, -1.283, 0.713, -0.78], a = 0.2, v = 0.2, t = 0.1)
movej(p[0.410773453583323, 0.210800968441866, 0.317701558795703, -1.283, 0.713, -0.78], a = 0.2, v = 0.2, t = 0.1)
movej(p[0.410793026553288, 0.210804426103628, 0.31770081635387, -1.283, 0.713, -0.78], a = 0.2, v = 0.2, t = 0.1)
movej(p[0.410813702291708, 0.210811358457053, 0.317702398543099, -1.283, 0.713, -0.78], a = 0.2, v = 0.2, t = 0.1)
movej(p[0.410834509224426, 0.210821421149988, 0.317707694905132, -1.283, 0.713, -0.78], a = 0.2, v = 0.2, t = 0.1)
movej(p[0.410854764542267, 0.210833023535423, 0.317717784450036, -1.283, 0.713, -0.78], a = 0.2, v = 0.2, t = 0.1)
movej(p[0.410872762119953, 0.210844524866944, 0.317729030140041, -1.283, 0.713, -0.78], a = 0.2, v = 0.2, t = 0.1)
movej(p[0.410886248475124, 0.210855028955685, 0.317738582680538, -1.283, 0.713, -0.78], a = 0.2, v = 0.2, t = 0.1)
movej(p[0.410895472167152, 0.210862272626463, 0.317747985559247, -1.283, 0.713, -0.78], a = 0.2, v = 0.2, t = 0.1)
movej(p[0.41090223933626, 0.210866059530497, 0.317757086925414, -1.283, 0.713, -0.78], a = 0.2, v = 0.2, t = 0.1)
movej(p[0.410907527726084, 0.21086650999088, 0.317765503105041, -1.283, 0.713, -0.78], a = 0.2, v = 0.2, t = 0.1)
movej(p[0.41091120427421, 0.210865982948744, 0.317772606036721, -1.283, 0.713, -0.78], a = 0.2, v = 0.2, t = 0.1)
movej(p[0.4109132284167, 0.210865227941527, 0.317780347321388, -1.283, 0.713, -0.78], a = 0.2, v = 0.2, t = 0.1)
movej(p[0.410915207283227, 0.210865947053025, 0.317787907150547, -1.283, 0.713, -0.78], a = 0.2, v = 0.2, t = 0.1)
movej(p[0.410918010471958, 0.210868747550623, 0.317793054135989, -1.283, 0.713, -0.78], a = 0.2, v = 0.2, t = 0.1)
movej(p[0.410922963590193, 0.210873222387368, 0.317794602335865, -1.283, 0.713, -0.78], a = 0.2, v = 0.2, t = 0.1)
movej(p[0.410929455532301, 0.210877398398554, 0.317794603831059, -1.283, 0.713, -0.78], a = 0.2, v = 0.2, t = 0.1)
movej(p[0.410937005716848, 0.210880268593824, 0.317796219316258, -1.283, 0.713, -0.78], a = 0.2, v = 0.2, t = 0.1)
movej(p[0.410944685419752, 0.21088260326109, 0.317800441325147, -1.283, 0.713, -0.78], a = 0.2, v = 0.2, t = 0.1)
movej(p[0.410952175969954, 0.210884664003652, 0.317804985041221, -1.283, 0.713, -0.78], a = 0.2, v = 0.2, t = 0.1)
movej(p[0.410958715912923, 0.210885596531247, 0.31780901340705, -1.283, 0.713, -0.78], a = 0.2, v = 0.2, t = 0.1)
movej(p[0.410964606908338, 0.210884746533708, 0.317811735486072, -1.283, 0.713, -0.78], a = 0.2, v = 0.2, t = 0.1)
movej(p[0.410969960071694, 0.210882837550867, 0.317811946226646, -1.283, 0.713, -0.78], a = 0.2, v = 0.2, t = 0.1)
movej(p[0.410974833473081, 0.210880290671671, 0.31780577467941, -1.283, 0.713, -0.78], a = 0.2, v = 0.2, t = 0.1)
movej(p[0.41098015853768, 0.210878019409901, 0.317794337672328, -1.283, 0.713, -0.78], a = 0.2, v = 0.2, t = 0.1)
movej(p[0.410986349173569, 0.210876072429704, 0.317780143713705, -1.283, 0.713, -0.78], a = 0.2, v = 0.2, t = 0.1)
movej(p[0.410992733047921, 0.210873402872455, 0.317767477945613, -1.283, 0.713, -0.78], a = 0.2, v = 0.2, t = 0.1)
movej(p[0.410998130474813, 0.210868191786757, 0.317758029840734, -1.283, 0.713, -0.78], a = 0.2, v = 0.2, t = 0.1)
movej(p[0.411002381749074, 0.21085885936227, 0.317751354231073, -1.283, 0.713, -0.78], a = 0.2, v = 0.2, t = 0.1)
movej(p[0.411005764191978, 0.21084669681405, 0.31774604248091, -1.283, 0.713, -0.78], a = 0.2, v = 0.2, t = 0.1)
movej(p[0.411007175702099, 0.21083348940737, 0.31774164709572, -1.283, 0.713, -0.78], a = 0.2, v = 0.2, t = 0.1)
movej(p[0.41100568754776, 0.21082228025982, 0.317737645858302, -1.283, 0.713, -0.78], a = 0.2, v = 0.2, t = 0.1)
movej(p[0.411001796022019, 0.210812656874593, 0.31773457748248, -1.283, 0.713, -0.78], a = 0.2, v = 0.2, t = 0.1)
movej(p[0.410995445022444, 0.210804446701405, 0.31773054900552, -1.283, 0.713, -0.78], a = 0.2, v = 0.2, t = 0.1)
movej(p[0.410986067162435, 0.210795908651499, 0.317727710709122, -1.283, 0.713, -0.78], a = 0.2, v = 0.2, t = 0.1)
movej(p[0.410974399217104, 0.210788012229976, 0.317726577895422, -1.283, 0.713, -0.78], a = 0.2, v = 0.2, t = 0.1)
movej(p[0.410960322140472, 0.210780613710375, 0.317726478350348, -1.283, 0.713, -0.78], a = 0.2, v = 0.2, t = 0.1)
movej(p[0.410940625693478, 0.210773125588751, 0.317723606006472, -1.283, 0.713, -0.78], a = 0.2, v = 0.2, t = 0.1)
movej(p[0.410917161986812, 0.210765825652813, 0.317716580464584, -1.283, 0.713, -0.78], a = 0.2, v = 0.2, t = 0.1)
movej(p[0.410893642708323, 0.210757774863688, 0.317706454566706, -1.283, 0.713, -0.78], a = 0.2, v = 0.2, t = 0.1)
movej(p[0.41087507650206, 0.210750137139857, 0.317692535563558, -1.283, 0.713, -0.78], a = 0.2, v = 0.2, t = 0.1)
movej(p[0.410859766516328, 0.210744410827734, 0.317676487163751, -1.283, 0.713, -0.78], a = 0.2, v = 0.2, t = 0.1)
movej(p[0.410847853146428, 0.210740829483716, 0.317659686924388, -1.283, 0.713, -0.78], a = 0.2, v = 0.2, t = 0.1)
movej(p[0.410840108133431, 0.210738459396496, 0.317644549582704, -1.283, 0.713, -0.78], a = 0.2, v = 0.2, t = 0.1)
movej(p[0.410835209691139, 0.210737878101978, 0.31763169251664, -1.283, 0.713, -0.78], a = 0.2, v = 0.2, t = 0.1)
movej(p[0.410830996070283, 0.210740851841391, 0.317619775406076, -1.283, 0.713, -0.78], a = 0.2, v = 0.2, t = 0.1)
movej(p[0.410827393420059, 0.210748075889633, 0.317609851888939, -1.283, 0.713, -0.78], a = 0.2, v = 0.2, t = 0.1)
movej(p[0.410825236580178, 0.210756494371994, 0.317603042828029, -1.283, 0.713, -0.78], a = 0.2, v = 0.2, t = 0.1)
movej(p[0.410824632265259, 0.210764201993452, 0.317599329625647, -1.283, 0.713, -0.78], a = 0.2, v = 0.2, t = 0.1)
movej(p[0.410825577982151, 0.210771195487238, 0.317597248558077, -1.283, 0.713, -0.78], a = 0.2, v = 0.2, t = 0.1)
movej(p[0.410829644842461, 0.210778404855272, 0.317593648189656, -1.283, 0.713, -0.78], a = 0.2, v = 0.2, t = 0.1)
movej(p[0.410835969085455, 0.210784930509821, 0.317589489667774, -1.283, 0.713, -0.78], a = 0.2, v = 0.2, t = 0.1)
movej(p[0.410839486478702, 0.210789006010844, 0.317585126895586, -1.283, 0.713, -0.78], a = 0.2, v = 0.2, t = 0.1)
movej(p[0.410839514771625, 0.210790671226217, 0.317583151205511, -1.283, 0.713, -0.78], a = 0.2, v = 0.2, t = 0.1)
movej(p[0.410837143985468, 0.210790827358688, 0.317581601929986, -1.283, 0.713, -0.78], a = 0.2, v = 0.2, t = 0.1)
movej(p[0.410836589524259, 0.210791476248272, 0.317577037913326, -1.283, 0.713, -0.78], a = 0.2, v = 0.2, t = 0.1)
movej(p[0.410837607009746, 0.210792379198192, 0.317568117433085, -1.283, 0.713, -0.78], a = 0.2, v = 0.2, t = 0.1)
movej(p[0.410841102968698, 0.210793790524432, 0.317559039486002, -1.283, 0.713, -0.78], a = 0.2, v = 0.2, t = 0.1)
movej(p[0.410849649194843, 0.210796023146876, 0.317556547717614, -1.283, 0.713, -0.78], a = 0.2, v = 0.2, t = 0.1)
movej(p[0.410863039701847, 0.210799670487569, 0.317561901002778, -1.283, 0.713, -0.78], a = 0.2, v = 0.2, t = 0.1)
movej(p[0.410879901002917, 0.210804404414693, 0.317571219496068, -1.283, 0.713, -0.78], a = 0.2, v = 0.2, t = 0.1)
movej(p[0.410897811743274, 0.210809853615708, 0.317581975356898, -1.283, 0.713, -0.78], a = 0.2, v = 0.2, t = 0.1)
movej(p[0.410914085146105, 0.210815442577749, 0.317591918491645, -1.283, 0.713, -0.78], a = 0.2, v = 0.2, t = 0.1)
movej(p[0.410927346823132, 0.210821906370884, 0.317602389406875, -1.283, 0.713, -0.78], a = 0.2, v = 0.2, t = 0.1)
movej(p[0.410936861109426, 0.210828972619917, 0.317613874985393, -1.283, 0.713, -0.78], a = 0.2, v = 0.2, t = 0.1)
movej(p[0.410944032259453, 0.21083704869499, 0.317625224234166, -1.283, 0.713, -0.78], a = 0.2, v = 0.2, t = 0.1)
movej(p[0.410950689957626, 0.210844563484949, 0.317635824837352, -1.283, 0.713, -0.78], a = 0.2, v = 0.2, t = 0.1)
movej(p[0.410958323254897, 0.210849096837469, 0.317644536206515, -1.283, 0.713, -0.78], a = 0.2, v = 0.2, t = 0.1)
movej(p[0.410967806182872, 0.210850440037035, 0.317651403647156, -1.283, 0.713, -0.78], a = 0.2, v = 0.2, t = 0.1)
movej(p[0.410977642568897, 0.210850800535486, 0.317656102576804, -1.283, 0.713, -0.78], a = 0.2, v = 0.2, t = 0.1)
movej(p[0.410984811585952, 0.210852298843586, 0.317658775754744, -1.283, 0.713, -0.78], a = 0.2, v = 0.2, t = 0.1)
movej(p[0.410988228628945, 0.2108538618384, 0.31765970598826, -1.283, 0.713, -0.78], a = 0.2, v = 0.2, t = 0.1)
movej(p[0.41098878471177, 0.210853616885991, 0.317659103051937, -1.283, 0.713, -0.78], a = 0.2, v = 0.2, t = 0.1)
movej(p[0.410988763616427, 0.210850928716217, 0.317660660572803, -1.283, 0.713, -0.78], a = 0.2, v = 0.2, t = 0.1)
movej(p[0.410989103821104, 0.21084696249197, 0.317669333533716, -1.283, 0.713, -0.78], a = 0.2, v = 0.2, t = 0.1)
movej(p[0.410989638667247, 0.210841960020024, 0.317683600986153, -1.283, 0.713, -0.78], a = 0.2, v = 0.2, t = 0.1)
movej(p[0.410989816038911, 0.210837321394263, 0.317693971877163, -1.283, 0.713, -0.78], a = 0.2, v = 0.2, t = 0.1)
movej(p[0.410990557897847, 0.210834154864511, 0.317695993286485, -1.283, 0.713, -0.78], a = 0.2, v = 0.2, t = 0.1)
movej(p[0.410992102935445, 0.210832276892993, 0.317693975772471, -1.283, 0.713, -0.78], a = 0.2, v = 0.2, t = 0.1)
movej(p[0.410993609792658, 0.210829650326539, 0.3176982274639, -1.283, 0.713, -0.78], a = 0.2, v = 0.2, t = 0.1)
movej(p[0.410993524465006, 0.210825635793178, 0.317708098024273, -1.283, 0.713, -0.78], a = 0.2, v = 0.2, t = 0.1)
movej(p[0.410990777828837, 0.210820801086291, 0.317720169395035, -1.283, 0.713, -0.78], a = 0.2, v = 0.2, t = 0.1)
movej(p[0.410985698936464, 0.210815804337511, 0.317731449580977, -1.283, 0.713, -0.78], a = 0.2, v = 0.2, t = 0.1)
movej(p[0.410978867313209, 0.210810344453271, 0.317741198377353, -1.283, 0.713, -0.78], a = 0.2, v = 0.2, t = 0.1)
movej(p[0.410971661189882, 0.210803942965355, 0.317747370557281, -1.283, 0.713, -0.78], a = 0.2, v = 0.2, t = 0.1)
movej(p[0.410964083905707, 0.210796996927067, 0.317749585517919, -1.283, 0.713, -0.78], a = 0.2, v = 0.2, t = 0.1)
movej(p[0.410956583475371, 0.210791059937115, 0.31774800176444, -1.283, 0.713, -0.78], a = 0.2, v = 0.2, t = 0.1)
movej(p[0.410949167045725, 0.210789109072069, 0.317743187781693, -1.283, 0.713, -0.78], a = 0.2, v = 0.2, t = 0.1)
movej(p[0.410941975752249, 0.210791619011048, 0.317735568485566, -1.283, 0.713, -0.78], a = 0.2, v = 0.2, t = 0.1)
movej(p[0.410935524822381, 0.210797344533811, 0.317724760614734, -1.283, 0.713, -0.78], a = 0.2, v = 0.2, t = 0.1)
movej(p[0.41092831324665, 0.210802728999722, 0.317713528814552, -1.283, 0.713, -0.78], a = 0.2, v = 0.2, t = 0.1)
movej(p[0.410919952351384, 0.210806565509171, 0.317702055831043, -1.283, 0.713, -0.78], a = 0.2, v = 0.2, t = 0.1)
movej(p[0.41091075225759, 0.210808248117711, 0.317691828535178, -1.283, 0.713, -0.78], a = 0.2, v = 0.2, t = 0.1)
movej(p[0.410901688302595, 0.210809655890231, 0.317682003262186, -1.283, 0.713, -0.78], a = 0.2, v = 0.2, t = 0.1)
movej(p[0.410893184055722, 0.210810951592494, 0.31767047514097, -1.283, 0.713, -0.78], a = 0.2, v = 0.2, t = 0.1)
movej(p[0.410886499501977, 0.210812238729204, 0.317654781276777, -1.283, 0.713, -0.78], a = 0.2, v = 0.2, t = 0.1)
movej(p[0.410882735676951, 0.210811912478255, 0.317637152653164, -1.283, 0.713, -0.78], a = 0.2, v = 0.2, t = 0.1)
movej(p[0.410884229278033, 0.210809597615902, 0.317620972360797, -1.283, 0.713, -0.78], a = 0.2, v = 0.2, t = 0.1)
movej(p[0.410892021357008, 0.210804430595662, 0.317609795691879, -1.283, 0.713, -0.78], a = 0.2, v = 0.2, t = 0.1)
movej(p[0.410905369684131, 0.210797948766832, 0.317604101967963, -1.283, 0.713, -0.78], a = 0.2, v = 0.2, t = 0.1)
movej(p[0.410920784746285, 0.210790780244889, 0.317602079978362, -1.283, 0.713, -0.78], a = 0.2, v = 0.2, t = 0.1)
movej(p[0.410934260948194, 0.21078663321325, 0.317602807567327, -1.283, 0.713, -0.78], a = 0.2, v = 0.2, t = 0.1)
movej(p[0.410946472934817, 0.210785818642547, 0.317602691316367, -1.283, 0.713, -0.78], a = 0.2, v = 0.2, t = 0.1)
movej(p[0.410958763471774, 0.21078939101584, 0.31760228653078, -1.283, 0.713, -0.78], a = 0.2, v = 0.2, t = 0.1)
movej(p[0.410971616679574, 0.21079628923323, 0.317602622321025, -1.283, 0.713, -0.78], a = 0.2, v = 0.2, t = 0.1)
movej(p[0.41098490386199, 0.210807329487835, 0.317603126763966, -1.283, 0.713, -0.78], a = 0.2, v = 0.2, t = 0.1)
movej(p[0.410997400809594, 0.210821241034299, 0.317601910849675, -1.283, 0.713, -0.78], a = 0.2, v = 0.2, t = 0.1)
movej(p[0.411008719539462, 0.210836134880108, 0.317598391741523, -1.283, 0.713, -0.78], a = 0.2, v = 0.2, t = 0.1)
movej(p[0.411018639139702, 0.210848234158603, 0.317594046595956, -1.283, 0.713, -0.78], a = 0.2, v = 0.2, t = 0.1)
movej(p[0.411027748863998, 0.210856296110503, 0.317591261624717, -1.283, 0.713, -0.78], a = 0.2, v = 0.2, t = 0.1)
movej(p[0.411036054945107, 0.210860717162637, 0.31758962914665, -1.283, 0.713, -0.78], a = 0.2, v = 0.2, t = 0.1)
movej(p[0.411042549432361, 0.210863544794742, 0.317588712493503, -1.283, 0.713, -0.78], a = 0.2, v = 0.2, t = 0.1)
movej(p[0.411046510488879, 0.210865463351005, 0.317586552223121, -1.283, 0.713, -0.78], a = 0.2, v = 0.2, t = 0.1)
movej(p[0.411047263610755, 0.210864977628338, 0.317581736578727, -1.283, 0.713, -0.78], a = 0.2, v = 0.2, t = 0.1)
movej(p[0.411046962501082, 0.21086242302221, 0.317573632164035, -1.283, 0.713, -0.78], a = 0.2, v = 0.2, t = 0.1)
movej(p[0.411047905265031, 0.210859492873553, 0.31756397227796, -1.283, 0.713, -0.78], a = 0.2, v = 0.2, t = 0.1)
movej(p[0.411050548209356, 0.210857030352343, 0.317558505805919, -1.283, 0.713, -0.78], a = 0.2, v = 0.2, t = 0.1)
movej(p[0.411052941134456, 0.210852504956544, 0.317559830226294, -1.283, 0.713, -0.78], a = 0.2, v = 0.2, t = 0.1)
movej(p[0.411055626614231, 0.210844886523419, 0.317567847059154, -1.283, 0.713, -0.78], a = 0.2, v = 0.2, t = 0.1)
movej(p[0.411057513217414, 0.210835081819145, 0.317580193337319, -1.283, 0.713, -0.78], a = 0.2, v = 0.2, t = 0.1)
movej(p[0.411059135237415, 0.210827098805038, 0.317595287208191, -1.283, 0.713, -0.78], a = 0.2, v = 0.2, t = 0.1)
movej(p[0.411060215155551, 0.210823135763936, 0.317610098638609, -1.283, 0.713, -0.78], a = 0.2, v = 0.2, t = 0.1)
movej(p[0.411062427913133, 0.21082296257997, 0.317619668001242, -1.283, 0.713, -0.78], a = 0.2, v = 0.2, t = 0.1)
movej(p[0.41106559737524, 0.210823209734278, 0.317625080233471, -1.283, 0.713, -0.78], a = 0.2, v = 0.2, t = 0.1)
movej(p[0.411068760176824, 0.210822405303016, 0.317627753577161, -1.283, 0.713, -0.78], a = 0.2, v = 0.2, t = 0.1)
movej(p[0.41107224334188, 0.210821369151714, 0.317631055843, -1.283, 0.713, -0.78], a = 0.2, v = 0.2, t = 0.1)
movej(p[0.411075303530339, 0.210822686937807, 0.31763539522722, -1.283, 0.713, -0.78], a = 0.2, v = 0.2, t = 0.1)
movej(p[0.411073320387154, 0.21082471395461, 0.317641696684511, -1.283, 0.713, -0.78], a = 0.2, v = 0.2, t = 0.1)
movej(p[0.411066209137193, 0.210825871464747, 0.317648668211982, -1.283, 0.713, -0.78], a = 0.2, v = 0.2, t = 0.1)
movej(p[0.411055822784266, 0.210824968282333, 0.317655108700116, -1.283, 0.713, -0.78], a = 0.2, v = 0.2, t = 0.1)
movej(p[0.411044734611428, 0.210822482102366, 0.317658867077596, -1.283, 0.713, -0.78], a = 0.2, v = 0.2, t = 0.1)
movej(p[0.411032632133736, 0.210818807826037, 0.317659602496642, -1.283, 0.713, -0.78], a = 0.2, v = 0.2, t = 0.1)
movej(p[0.411019394179111, 0.210813990026042, 0.317658611140728, -1.283, 0.713, -0.78], a = 0.2, v = 0.2, t = 0.1)
movej(p[0.411007311510598, 0.210809035949489, 0.317656604442164, -1.283, 0.713, -0.78], a = 0.2, v = 0.2, t = 0.1)
movej(p[0.41099588155163, 0.210803323932929, 0.317654686946715, -1.283, 0.713, -0.78], a = 0.2, v = 0.2, t = 0.1)
movej(p[0.410983667445354, 0.210796478872064, 0.317650091953067, -1.283, 0.713, -0.78], a = 0.2, v = 0.2, t = 0.1)
movej(p[0.410970417147543, 0.210788569811433, 0.317639869847762, -1.283, 0.713, -0.78], a = 0.2, v = 0.2, t = 0.1)
movej(p[0.41095557523177, 0.210780369448988, 0.317625064594574, -1.283, 0.713, -0.78], a = 0.2, v = 0.2, t = 0.1)
movej(p[0.410939021094755, 0.210774483221109, 0.317608989501385, -1.283, 0.713, -0.78], a = 0.2, v = 0.2, t = 0.1)
movej(p[0.410921238941287, 0.210771720175762, 0.317594379458523, -1.283, 0.713, -0.78], a = 0.2, v = 0.2, t = 0.1)
movej(p[0.410904726292719, 0.210770557580414, 0.317580972323433, -1.283, 0.713, -0.78], a = 0.2, v = 0.2, t = 0.1)
movej(p[0.410889878526152, 0.210767974533301, 0.317568239945116, -1.283, 0.713, -0.78], a = 0.2, v = 0.2, t = 0.1)
movej(p[0.410875780888186, 0.210763593117518, 0.31755605347083, -1.283, 0.713, -0.78], a = 0.2, v = 0.2, t = 0.1)
movej(p[0.410862402705018, 0.210758539334256, 0.317543655129213, -1.283, 0.713, -0.78], a = 0.2, v = 0.2, t = 0.1)
movej(p[0.410851835850228, 0.21075469082835, 0.317531117140732, -1.283, 0.713, -0.78], a = 0.2, v = 0.2, t = 0.1)
movej(p[0.41084484496829, 0.210752286474725, 0.31751845286944, -1.283, 0.713, -0.78], a = 0.2, v = 0.2, t = 0.1)
movej(p[0.410842548885941, 0.210751043889523, 0.317509653600728, -1.283, 0.713, -0.78], a = 0.2, v = 0.2, t = 0.1)
movej(p[0.410843936438481, 0.210751338315344, 0.317506253184961, -1.283, 0.713, -0.78], a = 0.2, v = 0.2, t = 0.1)
movej(p[0.410848300147507, 0.210752956639162, 0.317510075605733, -1.283, 0.713, -0.78], a = 0.2, v = 0.2, t = 0.1)
movej(p[0.410855127493407, 0.210757083473095, 0.317519551964456, -1.283, 0.713, -0.78], a = 0.2, v = 0.2, t = 0.1)
movej(p[0.410864590523234, 0.210763169457145, 0.31753322024184, -1.283, 0.713, -0.78], a = 0.2, v = 0.2, t = 0.1)
movej(p[0.410876484255132, 0.210770976894663, 0.317548866813539, -1.283, 0.713, -0.78], a = 0.2, v = 0.2, t = 0.1)
movej(p[0.410889636715959, 0.210780454051065, 0.317564668495941, -1.283, 0.713, -0.78], a = 0.2, v = 0.2, t = 0.1)
movej(p[0.410903472016988, 0.210791294305197, 0.317580631742064, -1.283, 0.713, -0.78], a = 0.2, v = 0.2, t = 0.1)
movej(p[0.410917127131159, 0.210803094568792, 0.317596777170861, -1.283, 0.713, -0.78], a = 0.2, v = 0.2, t = 0.1)
movej(p[0.410930897597604, 0.210814527492027, 0.317611914815499, -1.283, 0.713, -0.78], a = 0.2, v = 0.2, t = 0.1)
movej(p[0.410945027252778, 0.210825830164353, 0.31762324882291, -1.283, 0.713, -0.78], a = 0.2, v = 0.2, t = 0.1)
movej(p[0.410959063400085, 0.210836323107745, 0.317630466130145, -1.283, 0.713, -0.78], a = 0.2, v = 0.2, t = 0.1)
movej(p[0.41097186111533, 0.210845652367082, 0.317634143356104, -1.283, 0.713, -0.78], a = 0.2, v = 0.2, t = 0.1)
movej(p[0.410981953983813, 0.210853441562035, 0.317635794541665, -1.283, 0.713, -0.78], a = 0.2, v = 0.2, t = 0.1)
movej(p[0.410988531690893, 0.210861292267221, 0.317637614874503, -1.283, 0.713, -0.78], a = 0.2, v = 0.2, t = 0.1)
movej(p[0.410991750658772, 0.210868572003805, 0.317640654931421, -1.283, 0.713, -0.78], a = 0.2, v = 0.2, t = 0.1)
movej(p[0.410991711908722, 0.210873926414251, 0.317643964977526, -1.283, 0.713, -0.78], a = 0.2, v = 0.2, t = 0.1)
movej(p[0.410989314616015, 0.210877226350553, 0.317646245991791, -1.283, 0.713, -0.78], a = 0.2, v = 0.2, t = 0.1)
movej(p[0.410984294563571, 0.210879329856354, 0.317644091149384, -1.283, 0.713, -0.78], a = 0.2, v = 0.2, t = 0.1)
movej(p[0.410978291182917, 0.210879364186171, 0.317637546151355, -1.283, 0.713, -0.78], a = 0.2, v = 0.2, t = 0.1)
movej(p[0.410972146944198, 0.210875612810382, 0.317629251121021, -1.283, 0.713, -0.78], a = 0.2, v = 0.2, t = 0.1)
movej(p[0.410966305651526, 0.210868119576796, 0.317624056570958, -1.283, 0.713, -0.78], a = 0.2, v = 0.2, t = 0.1)
movej(p[0.410959220579876, 0.210859175508102, 0.317625259022174, -1.283, 0.713, -0.78], a = 0.2, v = 0.2, t = 0.1)
movej(p[0.41095023110258, 0.210851094060062, 0.317633792769505, -1.283, 0.713, -0.78], a = 0.2, v = 0.2, t = 0.1)
movej(p[0.410939278017639, 0.210845199021201, 0.317647745189084, -1.283, 0.713, -0.78], a = 0.2, v = 0.2, t = 0.1)
movej(p[0.410928722051871, 0.210840446373838, 0.317664906316662, -1.283, 0.713, -0.78], a = 0.2, v = 0.2, t = 0.1)
movej(p[0.410921663259027, 0.210833747463094, 0.317683424784429, -1.283, 0.713, -0.78], a = 0.2, v = 0.2, t = 0.1)
movej(p[0.410917237921701, 0.210825468384107, 0.317700444781187, -1.283, 0.713, -0.78], a = 0.2, v = 0.2, t = 0.1)
movej(p[0.41091327576103, 0.210815947623408, 0.31771353798601, -1.283, 0.713, -0.78], a = 0.2, v = 0.2, t = 0.1)
movej(p[0.410907228393969, 0.210804527274039, 0.317719658652472, -1.283, 0.713, -0.78], a = 0.2, v = 0.2, t = 0.1)
movej(p[0.410900566341664, 0.210792296004156, 0.317721778604626, -1.283, 0.713, -0.78], a = 0.2, v = 0.2, t = 0.1)
movej(p[0.410895937393152, 0.210784554628562, 0.317722892070193, -1.283, 0.713, -0.78], a = 0.2, v = 0.2, t = 0.1)
movej(p[0.410894733917666, 0.210785027556344, 0.317725415802958, -1.283, 0.713, -0.78], a = 0.2, v = 0.2, t = 0.1)
movej(p[0.410897323427039, 0.210792442573429, 0.317728270799954, -1.283, 0.713, -0.78], a = 0.2, v = 0.2, t = 0.1)
movej(p[0.410904244400961, 0.210803657357773, 0.317731982082896, -1.283, 0.713, -0.78], a = 0.2, v = 0.2, t = 0.1)
movej(p[0.410916025075604, 0.210818435375732, 0.317736619547304, -1.283, 0.713, -0.78], a = 0.2, v = 0.2, t = 0.1)
movej(p[0.410931755664289, 0.210835961022454, 0.317740814439394, -1.283, 0.713, -0.78], a = 0.2, v = 0.2, t = 0.1)
movej(p[0.410949166712376, 0.210855724733096, 0.317744655445793, -1.283, 0.713, -0.78], a = 0.2, v = 0.2, t = 0.1)
movej(p[0.410965567341155, 0.210875277232498, 0.317746530252652, -1.283, 0.713, -0.78], a = 0.2, v = 0.2, t = 0.1)
movej(p[0.410982592644124, 0.210892034484207, 0.317746471507472, -1.283, 0.713, -0.78], a = 0.2, v = 0.2, t = 0.1)
movej(p[0.411000468697297, 0.210903919668472, 0.317744863179472, -1.283, 0.713, -0.78], a = 0.2, v = 0.2, t = 0.1)
movej(p[0.411017163352601, 0.21091130740318, 0.317742702569334, -1.283, 0.713, -0.78], a = 0.2, v = 0.2, t = 0.1)
movej(p[0.411029972741029, 0.210914529282401, 0.317742812398221, -1.283, 0.713, -0.78], a = 0.2, v = 0.2, t = 0.1)
movej(p[0.411038013244728, 0.210915363657113, 0.3177439877212, -1.283, 0.713, -0.78], a = 0.2, v = 0.2, t = 0.1)
movej(p[0.411041588866992, 0.210914688460617, 0.317744329735986, -1.283, 0.713, -0.78], a = 0.2, v = 0.2, t = 0.1)
movej(p[0.411041652518559, 0.210914680447357, 0.3177394455393, -1.283, 0.713, -0.78], a = 0.2, v = 0.2, t = 0.1)
movej(p[0.411038404775547, 0.210914487546303, 0.317728367758317, -1.283, 0.713, -0.78], a = 0.2, v = 0.2, t = 0.1)
movej(p[0.411030489651221, 0.210911812017221, 0.317708967120208, -1.283, 0.713, -0.78], a = 0.2, v = 0.2, t = 0.1)
movej(p[0.411019128238758, 0.210907475037875, 0.317686919304715, -1.283, 0.713, -0.78], a = 0.2, v = 0.2, t = 0.1)
movej(p[0.41100549503168, 0.210902458098936, 0.317670129662687, -1.283, 0.713, -0.78], a = 0.2, v = 0.2, t = 0.1)
movej(p[0.410994154757284, 0.210897424482077, 0.317665735037341, -1.283, 0.713, -0.78], a = 0.2, v = 0.2, t = 0.1)
movej(p[0.410986561398072, 0.21089139096677, 0.317670360407155, -1.283, 0.713, -0.78], a = 0.2, v = 0.2, t = 0.1)
movej(p[0.410983888427707, 0.210885021248845, 0.317675286975229, -1.283, 0.713, -0.78], a = 0.2, v = 0.2, t = 0.1)
movej(p[0.410985691212204, 0.210879557093788, 0.317675891613606, -1.283, 0.713, -0.78], a = 0.2, v = 0.2, t = 0.1)
movej(p[0.410989485832215, 0.210875084555775, 0.317672030804533, -1.283, 0.713, -0.78], a = 0.2, v = 0.2, t = 0.1)
movej(p[0.410993265759695, 0.210870323726509, 0.3176658710004, -1.283, 0.713, -0.78], a = 0.2, v = 0.2, t = 0.1)
movej(p[0.41099554210568, 0.21086506636046, 0.317660403536437, -1.283, 0.713, -0.78], a = 0.2, v = 0.2, t = 0.1)
movej(p[0.410995445669461, 0.210859750411896, 0.317659086662517, -1.283, 0.713, -0.78], a = 0.2, v = 0.2, t = 0.1)
movej(p[0.410992463657917, 0.210854994972966, 0.3176600206431, -1.283, 0.713, -0.78], a = 0.2, v = 0.2, t = 0.1)
movej(p[0.41098771045659, 0.210850815915697, 0.31765943325524, -1.283, 0.713, -0.78], a = 0.2, v = 0.2, t = 0.1)
movej(p[0.410981536717576, 0.210846339988728, 0.317655680810658, -1.283, 0.713, -0.78], a = 0.2, v = 0.2, t = 0.1)
movej(p[0.410973297052262, 0.210839665649436, 0.317648667506405, -1.283, 0.713, -0.78], a = 0.2, v = 0.2, t = 0.1)
movej(p[0.410961755605804, 0.210828301466007, 0.317639105788483, -1.283, 0.713, -0.78], a = 0.2, v = 0.2, t = 0.1)
movej(p[0.410947758909297, 0.210813471948154, 0.317626885212058, -1.283, 0.713, -0.78], a = 0.2, v = 0.2, t = 0.1)
movej(p[0.410932231494091, 0.210798393864451, 0.317612828721071, -1.283, 0.713, -0.78], a = 0.2, v = 0.2, t = 0.1)
movej(p[0.410917804376866, 0.210787172918783, 0.317597984121248, -1.283, 0.713, -0.78], a = 0.2, v = 0.2, t = 0.1)
movej(p[0.410905400686825, 0.210779773624164, 0.317584023907478, -1.283, 0.713, -0.78], a = 0.2, v = 0.2, t = 0.1)
movej(p[0.41089458129259, 0.210774662811879, 0.317570665301893, -1.283, 0.713, -0.78], a = 0.2, v = 0.2, t = 0.1)
movej(p[0.410881666811793, 0.210767876548899, 0.317556628198506, -1.283, 0.713, -0.78], a = 0.2, v = 0.2, t = 0.1)
movej(p[0.410864415184537, 0.210757787145775, 0.317541305588688, -1.283, 0.713, -0.78], a = 0.2, v = 0.2, t = 0.1)
movej(p[0.410843375644921, 0.210744075599841, 0.317524800952889, -1.283, 0.713, -0.78], a = 0.2, v = 0.2, t = 0.1)
movej(p[0.410823674642536, 0.210729666757659, 0.317505189511331, -1.283, 0.713, -0.78], a = 0.2, v = 0.2, t = 0.1)
movej(p[0.410807025313478, 0.21071724095633, 0.317485434035476, -1.283, 0.713, -0.78], a = 0.2, v = 0.2, t = 0.1)
movej(p[0.410794086356745, 0.21071014035206, 0.317468067001686, -1.283, 0.713, -0.78], a = 0.2, v = 0.2, t = 0.1)
movej(p[0.410785834575046, 0.210709132672423, 0.317459101282889, -1.283, 0.713, -0.78], a = 0.2, v = 0.2, t = 0.1)
movej(p[0.410782393582078, 0.21071432249105, 0.317456261854247, -1.283, 0.713, -0.78], a = 0.2, v = 0.2, t = 0.1)
movej(p[0.410784028714608, 0.210722089570671, 0.317460335498778, -1.283, 0.713, -0.78], a = 0.2, v = 0.2, t = 0.1)
movej(p[0.410789027043455, 0.210729288947602, 0.317473692889599, -1.283, 0.713, -0.78], a = 0.2, v = 0.2, t = 0.1)
movej(p[0.410796130657901, 0.210734228870897, 0.317494947198542, -1.283, 0.713, -0.78], a = 0.2, v = 0.2, t = 0.1)
movej(p[0.410803941701843, 0.210738569785584, 0.317519328409816, -1.283, 0.713, -0.78], a = 0.2, v = 0.2, t = 0.1)
movej(p[0.410812999857948, 0.210744138957618, 0.317537698097479, -1.283, 0.713, -0.78], a = 0.2, v = 0.2, t = 0.1)
movej(p[0.4108248749496, 0.210750825834831, 0.317548456848586, -1.283, 0.713, -0.78], a = 0.2, v = 0.2, t = 0.1)
movej(p[0.410839408741478, 0.210757351607177, 0.317554464231539, -1.283, 0.713, -0.78], a = 0.2, v = 0.2, t = 0.1)
movej(p[0.410854755208059, 0.210764134220452, 0.317559637131081, -1.283, 0.713, -0.78], a = 0.2, v = 0.2, t = 0.1)
movej(p[0.410869899482535, 0.210771189510861, 0.317564968316861, -1.283, 0.713, -0.78], a = 0.2, v = 0.2, t = 0.1)
movej(p[0.410884975407752, 0.210777559406651, 0.317572422995894, -1.283, 0.713, -0.78], a = 0.2, v = 0.2, t = 0.1)
movej(p[0.41090009729844, 0.210782961735145, 0.317583402752898, -1.283, 0.713, -0.78], a = 0.2, v = 0.2, t = 0.1)
movej(p[0.410914684354014, 0.21078836664743, 0.317599867187716, -1.283, 0.713, -0.78], a = 0.2, v = 0.2, t = 0.1)
movej(p[0.410928333273769, 0.210795459276232, 0.317620162812446, -1.283, 0.713, -0.78], a = 0.2, v = 0.2, t = 0.1)
movej(p[0.410940181688938, 0.210804141752639, 0.317641377481697, -1.283, 0.713, -0.78], a = 0.2, v = 0.2, t = 0.1)
movej(p[0.410950256544994, 0.210811513289234, 0.317658642437175, -1.283, 0.713, -0.78], a = 0.2, v = 0.2, t = 0.1)
movej(p[0.410957999427208, 0.210816116613033, 0.317671845565366, -1.283, 0.713, -0.78], a = 0.2, v = 0.2, t = 0.1)
movej(p[0.410963749021435, 0.210819105449752, 0.317682845852785, -1.283, 0.713, -0.78], a = 0.2, v = 0.2, t = 0.1)
movej(p[0.410967780523482, 0.210823497623701, 0.317693655525733, -1.283, 0.713, -0.78], a = 0.2, v = 0.2, t = 0.1)
movej(p[0.410971356465667, 0.210829320787581, 0.3177031371373, -1.283, 0.713, -0.78], a = 0.2, v = 0.2, t = 0.1)
movej(p[0.410973807177297, 0.210835213081965, 0.317710763382012, -1.283, 0.713, -0.78], a = 0.2, v = 0.2, t = 0.1)
movej(p[0.410973637477775, 0.210840080103442, 0.317716477249705, -1.283, 0.713, -0.78], a = 0.2, v = 0.2, t = 0.1)
movej(p[0.410971377996486, 0.210845138138382, 0.317720834698942, -1.283, 0.713, -0.78], a = 0.2, v = 0.2, t = 0.1)
movej(p[0.410968458093759, 0.210848831507369, 0.317726153913413, -1.283, 0.713, -0.78], a = 0.2, v = 0.2, t = 0.1)
movej(p[0.410965047808241, 0.210850323522353, 0.317732163095468, -1.283, 0.713, -0.78], a = 0.2, v = 0.2, t = 0.1)
movej(p[0.410961988779576, 0.210848531712759, 0.317739406239744, -1.283, 0.713, -0.78], a = 0.2, v = 0.2, t = 0.1)
movej(p[0.410957983402468, 0.210845709621633, 0.31774607856392, -1.283, 0.713, -0.78], a = 0.2, v = 0.2, t = 0.1)
movej(p[0.410954260288151, 0.210843329547815, 0.317750477660122, -1.283, 0.713, -0.78], a = 0.2, v = 0.2, t = 0.1)
movej(p[0.410948876851671, 0.21084136004132, 0.317752488852265, -1.283, 0.713, -0.78], a = 0.2, v = 0.2, t = 0.1)
movej(p[0.410941630137214, 0.210838669404342, 0.317752529549039, -1.283, 0.713, -0.78], a = 0.2, v = 0.2, t = 0.1)
movej(p[0.410933190140794, 0.210835266482961, 0.317753143450913, -1.283, 0.713, -0.78], a = 0.2, v = 0.2, t = 0.1)
movej(p[0.410922967412855, 0.210832232525866, 0.317754318372115, -1.283, 0.713, -0.78], a = 0.2, v = 0.2, t = 0.1)
movej(p[0.410910353848946, 0.210828515062882, 0.31775540297133, -1.283, 0.713, -0.78], a = 0.2, v = 0.2, t = 0.1)
movej(p[0.410896320057566, 0.21082252460688, 0.317755191939549, -1.283, 0.713, -0.78], a = 0.2, v = 0.2, t = 0.1)
movej(p[0.410882867572655, 0.210812826960353, 0.317751586807711, -1.283, 0.713, -0.78], a = 0.2, v = 0.2, t = 0.1)
movej(p[0.410873387991104, 0.210800176739439, 0.317739611562351, -1.283, 0.713, -0.78], a = 0.2, v = 0.2, t = 0.1)
movej(p[0.410865343275262, 0.210786997691319, 0.317721934858652, -1.283, 0.713, -0.78], a = 0.2, v = 0.2, t = 0.1)
movej(p[0.41085723159121, 0.210776772095008, 0.317700786998998, -1.283, 0.713, -0.78], a = 0.2, v = 0.2, t = 0.1)
movej(p[0.410846731846614, 0.210771782585914, 0.317683325623783, -1.283, 0.713, -0.78], a = 0.2, v = 0.2, t = 0.1)
movej(p[0.410834128869865, 0.210770019123937, 0.317669981794013, -1.283, 0.713, -0.78], a = 0.2, v = 0.2, t = 0.1)
movej(p[0.410819888735774, 0.2107696605739, 0.317661053922042, -1.283, 0.713, -0.78], a = 0.2, v = 0.2, t = 0.1)
movej(p[0.410803883268373, 0.210769073432188, 0.317656194440804, -1.283, 0.713, -0.78], a = 0.2, v = 0.2, t = 0.1)
movej(p[0.410788198521201, 0.210770120331161, 0.317651154827457, -1.283, 0.713, -0.78], a = 0.2, v = 0.2, t = 0.1)
movej(p[0.41077486923442, 0.210773008274912, 0.317644263888784, -1.283, 0.713, -0.78], a = 0.2, v = 0.2, t = 0.1)
movej(p[0.410765746957801, 0.210777291410159, 0.317633931453314, -1.283, 0.713, -0.78], a = 0.2, v = 0.2, t = 0.1)
movej(p[0.41076161359464, 0.210782264287566, 0.317621648545015, -1.283, 0.713, -0.78], a = 0.2, v = 0.2, t = 0.1)
movej(p[0.410762413400815, 0.210788129880506, 0.317607498460968, -1.283, 0.713, -0.78], a = 0.2, v = 0.2, t = 0.1)
movej(p[0.410768018730398, 0.210796655652907, 0.317594055341567, -1.283, 0.713, -0.78], a = 0.2, v = 0.2, t = 0.1)
movej(p[0.410776374599415, 0.210807869873351, 0.317583295570064, -1.283, 0.713, -0.78], a = 0.2, v = 0.2, t = 0.1)
movej(p[0.410785955100079, 0.210822124630289, 0.317575451699993, -1.283, 0.713, -0.78], a = 0.2, v = 0.2, t = 0.1)
movej(p[0.410798006263214, 0.210837146450631, 0.317567929467432, -1.283, 0.713, -0.78], a = 0.2, v = 0.2, t = 0.1)
movej(p[0.410814113374591, 0.210850339598165, 0.317561039203707, -1.283, 0.713, -0.78], a = 0.2, v = 0.2, t = 0.1)
movej(p[0.410833865272927, 0.210859734874132, 0.317556251825757, -1.283, 0.713, -0.78], a = 0.2, v = 0.2, t = 0.1)
movej(p[0.410855228586353, 0.21086726343375, 0.317550944701248, -1.283, 0.713, -0.78], a = 0.2, v = 0.2, t = 0.1)
movej(p[0.410875907346768, 0.210873046824109, 0.317544806156008, -1.283, 0.713, -0.78], a = 0.2, v = 0.2, t = 0.1)
movej(p[0.41089494482812, 0.210875558902409, 0.317539243064026, -1.283, 0.713, -0.78], a = 0.2, v = 0.2, t = 0.1)
movej(p[0.410912821291674, 0.210874922720735, 0.317535962753419, -1.283, 0.713, -0.78], a = 0.2, v = 0.2, t = 0.1)
movej(p[0.410929424425194, 0.210872330655528, 0.317534031008804, -1.283, 0.713, -0.78], a = 0.2, v = 0.2, t = 0.1)
movej(p[0.410944609597263, 0.210870003652277, 0.317531969493314, -1.283, 0.713, -0.78], a = 0.2, v = 0.2, t = 0.1)
movej(p[0.410956041209185, 0.21086770977332, 0.317530148583324, -1.283, 0.713, -0.78], a = 0.2, v = 0.2, t = 0.1)
movej(p[0.410962707262943, 0.210867104415472, 0.317529812879328, -1.283, 0.713, -0.78], a = 0.2, v = 0.2, t = 0.1)
movej(p[0.410964308215764, 0.21086809059767, 0.317530208199121, -1.283, 0.713, -0.78], a = 0.2, v = 0.2, t = 0.1)
movej(p[0.410963474690879, 0.21087031572704, 0.317531630192284, -1.283, 0.713, -0.78], a = 0.2, v = 0.2, t = 0.1)
movej(p[0.410962233654636, 0.210872577574611, 0.317534018303589, -1.283, 0.713, -0.78], a = 0.2, v = 0.2, t = 0.1)
movej(p[0.410961761869124, 0.210874668816448, 0.317537701389797, -1.283, 0.713, -0.78], a = 0.2, v = 0.2, t = 0.1)
movej(p[0.410961624762746, 0.21087596100967, 0.317541420851655, -1.283, 0.713, -0.78], a = 0.2, v = 0.2, t = 0.1)
movej(p[0.41096233591159, 0.210876242248217, 0.317543566094113, -1.283, 0.713, -0.78], a = 0.2, v = 0.2, t = 0.1)
movej(p[0.410962120665209, 0.210876034397306, 0.317544284912584, -1.283, 0.713, -0.78], a = 0.2, v = 0.2, t = 0.1)
movej(p[0.410959607585332, 0.210875163119678, 0.317546084144037, -1.283, 0.713, -0.78], a = 0.2, v = 0.2, t = 0.1)
movej(p[0.410952828837382, 0.210873791099745, 0.317549226104817, -1.283, 0.713, -0.78], a = 0.2, v = 0.2, t = 0.1)
movej(p[0.410941667528792, 0.210871193728878, 0.317552898547756, -1.283, 0.713, -0.78], a = 0.2, v = 0.2, t = 0.1)
movej(p[0.410924906265347, 0.21086826489393, 0.317555091872989, -1.283, 0.713, -0.78], a = 0.2, v = 0.2, t = 0.1)
movej(p[0.410904097943722, 0.210864750818658, 0.317556941134497, -1.283, 0.713, -0.78], a = 0.2, v = 0.2, t = 0.1)
movej(p[0.410881984138203, 0.210861209732945, 0.317557277393943, -1.283, 0.713, -0.78], a = 0.2, v = 0.2, t = 0.1)
movej(p[0.410862572522916, 0.210858829706656, 0.31755595788198, -1.283, 0.713, -0.78], a = 0.2, v = 0.2, t = 0.1)
movej(p[0.410848456025456, 0.21085936597856, 0.317552693293658, -1.283, 0.713, -0.78], a = 0.2, v = 0.2, t = 0.1)
movej(p[0.41083944096186, 0.210863113583585, 0.31754931076414, -1.283, 0.713, -0.78], a = 0.2, v = 0.2, t = 0.1)
movej(p[0.410833350571422, 0.210867585201287, 0.317547673914594, -1.283, 0.713, -0.78], a = 0.2, v = 0.2, t = 0.1)
movej(p[0.410826485091284, 0.210869247313761, 0.317548163022557, -1.283, 0.713, -0.78], a = 0.2, v = 0.2, t = 0.1)
movej(p[0.410819999734062, 0.210866755053957, 0.3175528797765, -1.283, 0.713, -0.78], a = 0.2, v = 0.2, t = 0.1)
movej(p[0.410815181635714, 0.210862439216044, 0.31756329912746, -1.283, 0.713, -0.78], a = 0.2, v = 0.2, t = 0.1)
movej(p[0.410813171543197, 0.210858894506796, 0.317576679149261, -1.283, 0.713, -0.78], a = 0.2, v = 0.2, t = 0.1)
movej(p[0.410811889813394, 0.210854925368365, 0.317588515848794, -1.283, 0.713, -0.78], a = 0.2, v = 0.2, t = 0.1)
movej(p[0.410810918988763, 0.210846869019119, 0.317592436329551, -1.283, 0.713, -0.78], a = 0.2, v = 0.2, t = 0.1)
movej(p[0.410811046877038, 0.210833263944188, 0.317589235292265, -1.283, 0.713, -0.78], a = 0.2, v = 0.2, t = 0.1)
movej(p[0.410812683699964, 0.21081779413845, 0.31758122170854, -1.283, 0.713, -0.78], a = 0.2, v = 0.2, t = 0.1)
movej(p[0.41081394470582, 0.21080479989919, 0.317573040487891, -1.283, 0.713, -0.78], a = 0.2, v = 0.2, t = 0.1)
movej(p[0.410813249214977, 0.210795575998449, 0.31756643731164, -1.283, 0.713, -0.78], a = 0.2, v = 0.2, t = 0.1)
movej(p[0.410812323121778, 0.210787588441556, 0.31756073261101, -1.283, 0.713, -0.78], a = 0.2, v = 0.2, t = 0.1)
movej(p[0.410813056084984, 0.210778587038277, 0.31755259325674, -1.283, 0.713, -0.78], a = 0.2, v = 0.2, t = 0.1)
movej(p[0.410816404810235, 0.210770414199833, 0.317542741894806, -1.283, 0.713, -0.78], a = 0.2, v = 0.2, t = 0.1)
movej(p[0.410822909320177, 0.210767589561704, 0.317536563725266, -1.283, 0.713, -0.78], a = 0.2, v = 0.2, t = 0.1)
movej(p[0.41083245573562, 0.210770333484436, 0.317541638372568, -1.283, 0.713, -0.78], a = 0.2, v = 0.2, t = 0.1)
movej(p[0.410843759286083, 0.210775908198975, 0.317559486560032, -1.283, 0.713, -0.78], a = 0.2, v = 0.2, t = 0.1)
movej(p[0.410856393920592, 0.210781658768326, 0.317585807076534, -1.283, 0.713, -0.78], a = 0.2, v = 0.2, t = 0.1)
movej(p[0.410869227280611, 0.210786834235648, 0.317616128407683, -1.283, 0.713, -0.78], a = 0.2, v = 0.2, t = 0.1)
movej(p[0.410881247775885, 0.210793016799062, 0.317643508529834, -1.283, 0.713, -0.78], a = 0.2, v = 0.2, t = 0.1)
movej(p[0.410892399460791, 0.210800000647928, 0.317663190390741, -1.283, 0.713, -0.78], a = 0.2, v = 0.2, t = 0.1)
movej(p[0.410903378347137, 0.210808861270381, 0.317671343809492, -1.283, 0.713, -0.78], a = 0.2, v = 0.2, t = 0.1)
movej(p[0.410913172360847, 0.210818757116219, 0.317670842921664, -1.283, 0.713, -0.78], a = 0.2, v = 0.2, t = 0.1)
movej(p[0.410919934386258, 0.210829982712222, 0.317663461943904, -1.283, 0.713, -0.78], a = 0.2, v = 0.2, t = 0.1)
movej(p[0.410923789667682, 0.210840988410957, 0.317654815008175, -1.283, 0.713, -0.78], a = 0.2, v = 0.2, t = 0.1)
movej(p[0.410926357907606, 0.210851144528179, 0.317647348395042, -1.283, 0.713, -0.78], a = 0.2, v = 0.2, t = 0.1)
movej(p[0.410925832915846, 0.21086009233442, 0.317641963913347, -1.283, 0.713, -0.78], a = 0.2, v = 0.2, t = 0.1)
movej(p[0.410920364229966, 0.210869301732769, 0.31763492376592, -1.283, 0.713, -0.78], a = 0.2, v = 0.2, t = 0.1)
movej(p[0.410910838189268, 0.21087798302028, 0.317625185213627, -1.283, 0.713, -0.78], a = 0.2, v = 0.2, t = 0.1)
movej(p[0.410900196692609, 0.210884347065269, 0.317615624703743, -1.283, 0.713, -0.78], a = 0.2, v = 0.2, t = 0.1)
movej(p[0.410891599797408, 0.210887868976289, 0.317610101766693, -1.283, 0.713, -0.78], a = 0.2, v = 0.2, t = 0.1)
movej(p[0.410887286038021, 0.210890448377726, 0.317607583664792, -1.283, 0.713, -0.78], a = 0.2, v = 0.2, t = 0.1)
movej(p[0.41088743714198, 0.210892866247734, 0.317605136927531, -1.283, 0.713, -0.78], a = 0.2, v = 0.2, t = 0.1)
movej(p[0.410891158524818, 0.210894848413709, 0.317602736414915, -1.283, 0.713, -0.78], a = 0.2, v = 0.2, t = 0.1)
movej(p[0.410896706085255, 0.210896665842762, 0.317599212283983, -1.283, 0.713, -0.78], a = 0.2, v = 0.2, t = 0.1)
movej(p[0.410902261297886, 0.210899239919197, 0.317595133359231, -1.283, 0.713, -0.78], a = 0.2, v = 0.2, t = 0.1)
movej(p[0.410906022752545, 0.210902829403938, 0.317591589791658, -1.283, 0.713, -0.78], a = 0.2, v = 0.2, t = 0.1)
movej(p[0.410907003961531, 0.210906240523477, 0.317591021778968, -1.283, 0.713, -0.78], a = 0.2, v = 0.2, t = 0.1)
movej(p[0.41090601452051, 0.210908273702156, 0.31759425943567, -1.283, 0.713, -0.78], a = 0.2, v = 0.2, t = 0.1)
movej(p[0.41090402934507, 0.210907739486835, 0.317599217444088, -1.283, 0.713, -0.78], a = 0.2, v = 0.2, t = 0.1)
movej(p[0.410900580249725, 0.210905296864126, 0.31760399212016, -1.283, 0.713, -0.78], a = 0.2, v = 0.2, t = 0.1)
movej(p[0.410893243358913, 0.210901056163298, 0.317607858171726, -1.283, 0.713, -0.78], a = 0.2, v = 0.2, t = 0.1)
movej(p[0.410882337313247, 0.210896259284686, 0.317610910507802, -1.283, 0.713, -0.78], a = 0.2, v = 0.2, t = 0.1)
movej(p[0.410870406986981, 0.210891015635058, 0.317611947803205, -1.283, 0.713, -0.78], a = 0.2, v = 0.2, t = 0.1)
movej(p[0.410857680117362, 0.210886164236629, 0.317610125224541, -1.283, 0.713, -0.78], a = 0.2, v = 0.2, t = 0.1)
movej(p[0.410842641337864, 0.21088080961628, 0.317606824217856, -1.283, 0.713, -0.78], a = 0.2, v = 0.2, t = 0.1)
movej(p[0.410824986165683, 0.210875818093091, 0.317603392143336, -1.283, 0.713, -0.78], a = 0.2, v = 0.2, t = 0.1)
movej(p[0.410806471306432, 0.210871648635714, 0.317598998762964, -1.283, 0.713, -0.78], a = 0.2, v = 0.2, t = 0.1)
movej(p[0.410789033426536, 0.210869852263462, 0.317594152163594, -1.283, 0.713, -0.78], a = 0.2, v = 0.2, t = 0.1)
movej(p[0.410772419714816, 0.210868007124099, 0.31758980845048, -1.283, 0.713, -0.78], a = 0.2, v = 0.2, t = 0.1)
movej(p[0.410756441188441, 0.210864660635131, 0.317585027505229, -1.283, 0.713, -0.78], a = 0.2, v = 0.2, t = 0.1)
movej(p[0.410739672554594, 0.210859116781782, 0.317578308492137, -1.283, 0.713, -0.78], a = 0.2, v = 0.2, t = 0.1)
movej(p[0.410721179746448, 0.210851970938429, 0.317568855322316, -1.283, 0.713, -0.78], a = 0.2, v = 0.2, t = 0.1)
movej(p[0.410703230022502, 0.21084425685559, 0.317558599089957, -1.283, 0.713, -0.78], a = 0.2, v = 0.2, t = 0.1)
movej(p[0.410689059190957, 0.210835851982935, 0.317549955554917, -1.283, 0.713, -0.78], a = 0.2, v = 0.2, t = 0.1)
movej(p[0.410679255807351, 0.210827342152569, 0.317546013351218, -1.283, 0.713, -0.78], a = 0.2, v = 0.2, t = 0.1)
movej(p[0.410673771037559, 0.210819852886363, 0.31754965931255, -1.283, 0.713, -0.78], a = 0.2, v = 0.2, t = 0.1)
movej(p[0.410671227855073, 0.21081445254665, 0.31756161797526, -1.283, 0.713, -0.78], a = 0.2, v = 0.2, t = 0.1)
movej(p[0.410672645022451, 0.210812380046147, 0.317577964156536, -1.283, 0.713, -0.78], a = 0.2, v = 0.2, t = 0.1)
movej(p[0.410679743301299, 0.210813962043724, 0.317596097636678, -1.283, 0.713, -0.78], a = 0.2, v = 0.2, t = 0.1)
movej(p[0.410693041862296, 0.210818281483066, 0.317611975761667, -1.283, 0.713, -0.78], a = 0.2, v = 0.2, t = 0.1)
movej(p[0.410711520293908, 0.21082477924247, 0.317623372125382, -1.283, 0.713, -0.78], a = 0.2, v = 0.2, t = 0.1)
movej(p[0.410731950628248, 0.210833253568224, 0.317630068957822, -1.283, 0.713, -0.78], a = 0.2, v = 0.2, t = 0.1)
movej(p[0.410751828960591, 0.210843171755297, 0.317631500920626, -1.283, 0.713, -0.78], a = 0.2, v = 0.2, t = 0.1)
movej(p[0.410769134886587, 0.210852293667655, 0.317631555932752, -1.283, 0.713, -0.78], a = 0.2, v = 0.2, t = 0.1)
movej(p[0.41078420843605, 0.210859153284129, 0.317632140734784, -1.283, 0.713, -0.78], a = 0.2, v = 0.2, t = 0.1)
movej(p[0.410798301467472, 0.210863979336176, 0.317634388299906, -1.283, 0.713, -0.78], a = 0.2, v = 0.2, t = 0.1)
movej(p[0.410812873061483, 0.21086822420221, 0.317637860233709, -1.283, 0.713, -0.78], a = 0.2, v = 0.2, t = 0.1)
movej(p[0.410827016584843, 0.210873350174843, 0.317641227078602, -1.283, 0.713, -0.78], a = 0.2, v = 0.2, t = 0.1)
movej(p[0.410838385226656, 0.21088003494007, 0.317644012765988, -1.283, 0.713, -0.78], a = 0.2, v = 0.2, t = 0.1)
movej(p[0.410846137084842, 0.210887005651575, 0.317643306639386, -1.283, 0.713, -0.78], a = 0.2, v = 0.2, t = 0.1)
movej(p[0.41085115367161, 0.210893062328712, 0.31763961055602, -1.283, 0.713, -0.78], a = 0.2, v = 0.2, t = 0.1)
movej(p[0.410854453025927, 0.210897793739345, 0.317633135842165, -1.283, 0.713, -0.78], a = 0.2, v = 0.2, t = 0.1)
movej(p[0.410857190344195, 0.210903167050887, 0.317626190367539, -1.283, 0.713, -0.78], a = 0.2, v = 0.2, t = 0.1)
movej(p[0.410859472099866, 0.210907998144105, 0.317618482308485, -1.283, 0.713, -0.78], a = 0.2, v = 0.2, t = 0.1)
movej(p[0.410860414445154, 0.210912336323953, 0.317610486940828, -1.283, 0.713, -0.78], a = 0.2, v = 0.2, t = 0.1)
movej(p[0.410859193103266, 0.210914720511107, 0.317604398502473, -1.283, 0.713, -0.78], a = 0.2, v = 0.2, t = 0.1)
movej(p[0.410856382618412, 0.21091552566891, 0.31760207972245, -1.283, 0.713, -0.78], a = 0.2, v = 0.2, t = 0.1)
movej(p[0.4108530355394, 0.210914699319368, 0.317605027904691, -1.283, 0.713, -0.78], a = 0.2, v = 0.2, t = 0.1)
movej(p[0.41084909294149, 0.210914039611406, 0.317610957050002, -1.283, 0.713, -0.78], a = 0.2, v = 0.2, t = 0.1)
movej(p[0.410843732662355, 0.210915326035184, 0.317618392702929, -1.283, 0.713, -0.78], a = 0.2, v = 0.2, t = 0.1)
movej(p[0.410836682262151, 0.210919180385991, 0.317625782962656, -1.283, 0.713, -0.78], a = 0.2, v = 0.2, t = 0.1)
movej(p[0.410828656253417, 0.210925444938692, 0.317630275963018, -1.283, 0.713, -0.78], a = 0.2, v = 0.2, t = 0.1)
movej(p[0.410819098180798, 0.21093342861416, 0.317630543512733, -1.283, 0.713, -0.78], a = 0.2, v = 0.2, t = 0.1)
movej(p[0.410806213969755, 0.210942562425263, 0.317626578050022, -1.283, 0.713, -0.78], a = 0.2, v = 0.2, t = 0.1)
movej(p[0.410789043155515, 0.2109496791963, 0.317621752274918, -1.283, 0.713, -0.78], a = 0.2, v = 0.2, t = 0.1)
movej(p[0.410767341374311, 0.210953395052593, 0.317614910202895, -1.283, 0.713, -0.78], a = 0.2, v = 0.2, t = 0.1)
movej(p[0.410742927522678, 0.210950756741786, 0.317603095600382, -1.283, 0.713, -0.78], a = 0.2, v = 0.2, t = 0.1)
movej(p[0.410719209812097, 0.21094067027718, 0.317585755409883, -1.283, 0.713, -0.78], a = 0.2, v = 0.2, t = 0.1)
movej(p[0.410697649750036, 0.210925188488939, 0.317567116773484, -1.283, 0.713, -0.78], a = 0.2, v = 0.2, t = 0.1)
movej(p[0.410679702718704, 0.210910933762821, 0.317551349021531, -1.283, 0.713, -0.78], a = 0.2, v = 0.2, t = 0.1)
movej(p[0.410664032842385, 0.210900246334195, 0.317537988480131, -1.283, 0.713, -0.78], a = 0.2, v = 0.2, t = 0.1)
movej(p[0.410649139404043, 0.210893609920853, 0.317525449547668, -1.283, 0.713, -0.78], a = 0.2, v = 0.2, t = 0.1)
movej(p[0.410633540524497, 0.21088895622887, 0.317514189965711, -1.283, 0.713, -0.78], a = 0.2, v = 0.2, t = 0.1)
movej(p[0.41061772571948, 0.210884538182529, 0.317502650033398, -1.283, 0.713, -0.78], a = 0.2, v = 0.2, t = 0.1)
movej(p[0.410602835833773, 0.210876891309564, 0.317489492573061, -1.283, 0.713, -0.78], a = 0.2, v = 0.2, t = 0.1)
movej(p[0.410590633516086, 0.21086151896471, 0.31747594522141, -1.283, 0.713, -0.78], a = 0.2, v = 0.2, t = 0.1)
movej(p[0.410580659445753, 0.210841619091648, 0.317466504104415, -1.283, 0.713, -0.78], a = 0.2, v = 0.2, t = 0.1)
movej(p[0.410570314914692, 0.210821698677718, 0.317462705397005, -1.283, 0.713, -0.78], a = 0.2, v = 0.2, t = 0.1)
movej(p[0.410557949620217, 0.210805960212547, 0.31746299331642, -1.283, 0.713, -0.78], a = 0.2, v = 0.2, t = 0.1)
movej(p[0.410545346057328, 0.210794701134626, 0.317464413851842, -1.283, 0.713, -0.78], a = 0.2, v = 0.2, t = 0.1)
movej(p[0.410536292860046, 0.210788366230014, 0.317463296386617, -1.283, 0.713, -0.78], a = 0.2, v = 0.2, t = 0.1)
movej(p[0.410532598043137, 0.210787044025103, 0.317458234817376, -1.283, 0.713, -0.78], a = 0.2, v = 0.2, t = 0.1)
movej(p[0.410532473000656, 0.2107903881317, 0.317453316385975, -1.283, 0.713, -0.78], a = 0.2, v = 0.2, t = 0.1)
movej(p[0.410534160730038, 0.210796557750823, 0.317450651906024, -1.283, 0.713, -0.78], a = 0.2, v = 0.2, t = 0.1)
movej(p[0.41053778794929, 0.210803469053703, 0.317450320486348, -1.283, 0.713, -0.78], a = 0.2, v = 0.2, t = 0.1)
movej(p[0.410544154368397, 0.210809531334104, 0.317452386404567, -1.283, 0.713, -0.78], a = 0.2, v = 0.2, t = 0.1)
movej(p[0.410553415858951, 0.210813864804978, 0.317456257902455, -1.283, 0.713, -0.78], a = 0.2, v = 0.2, t = 0.1)
movej(p[0.410565712881701, 0.21081754601713, 0.317460287535887, -1.283, 0.713, -0.78], a = 0.2, v = 0.2, t = 0.1)
movej(p[0.410579634920912, 0.210821044988422, 0.317459966610531, -1.283, 0.713, -0.78], a = 0.2, v = 0.2, t = 0.1)
movej(p[0.410594117431116, 0.210824900008606, 0.317453946500018, -1.283, 0.713, -0.78], a = 0.2, v = 0.2, t = 0.1)
movej(p[0.410608111101249, 0.210828650702292, 0.3174422589344, -1.283, 0.713, -0.78], a = 0.2, v = 0.2, t = 0.1)
movej(p[0.410621303260422, 0.210830523002409, 0.317429145008457, -1.283, 0.713, -0.78], a = 0.2, v = 0.2, t = 0.1)
movej(p[0.410633504000696, 0.210828163106581, 0.317417183911666, -1.283, 0.713, -0.78], a = 0.2, v = 0.2, t = 0.1)
movej(p[0.410644289450633, 0.21082152960335, 0.317406827461573, -1.283, 0.713, -0.78], a = 0.2, v = 0.2, t = 0.1)
movej(p[0.410655061301225, 0.210814578112488, 0.317396154036836, -1.283, 0.713, -0.78], a = 0.2, v = 0.2, t = 0.1)
movej(p[0.410666448353723, 0.210808473047059, 0.317382799198368, -1.283, 0.713, -0.78], a = 0.2, v = 0.2, t = 0.1)
movej(p[0.410678169827963, 0.21080072966219, 0.317360617222905, -1.283, 0.713, -0.78], a = 0.2, v = 0.2, t = 0.1)
movej(p[0.410688010006874, 0.210788139482422, 0.317332813287367, -1.283, 0.713, -0.78], a = 0.2, v = 0.2, t = 0.1)
movej(p[0.410694652705135, 0.210771380537559, 0.317304515067425, -1.283, 0.713, -0.78], a = 0.2, v = 0.2, t = 0.1)
movej(p[0.410699066186102, 0.210756333817933, 0.317282935619766, -1.283, 0.713, -0.78], a = 0.2, v = 0.2, t = 0.1)
movej(p[0.410702611721724, 0.210745567548227, 0.317266655947326, -1.283, 0.713, -0.78], a = 0.2, v = 0.2, t = 0.1)
movej(p[0.410704364735908, 0.210738208532847, 0.317254258854807, -1.283, 0.713, -0.78], a = 0.2, v = 0.2, t = 0.1)
movej(p[0.410703417127473, 0.2107340018154, 0.317244669611324, -1.283, 0.713, -0.78], a = 0.2, v = 0.2, t = 0.1)
movej(p[0.4106995981047, 0.210731294747469, 0.317237604785405, -1.283, 0.713, -0.78], a = 0.2, v = 0.2, t = 0.1)
movej(p[0.410691915037454, 0.210729074943998, 0.317233286880791, -1.283, 0.713, -0.78], a = 0.2, v = 0.2, t = 0.1)
movej(p[0.410680193077861, 0.210724898983897, 0.317232529235414, -1.283, 0.713, -0.78], a = 0.2, v = 0.2, t = 0.1)
movej(p[0.410663745220419, 0.210718004781913, 0.317235441847059, -1.283, 0.713, -0.78], a = 0.2, v = 0.2, t = 0.1)
movej(p[0.410644735437154, 0.210709939841294, 0.317240117287146, -1.283, 0.713, -0.78], a = 0.2, v = 0.2, t = 0.1)
movej(p[0.410626149369916, 0.21070026351307, 0.317244605955406, -1.283, 0.713, -0.78], a = 0.2, v = 0.2, t = 0.1)
movej(p[0.410608995532603, 0.210690493011933, 0.317247731178433, -1.283, 0.713, -0.78], a = 0.2, v = 0.2, t = 0.1)
movej(p[0.410594106682924, 0.210681424295434, 0.317249520726222, -1.283, 0.713, -0.78], a = 0.2, v = 0.2, t = 0.1)
movej(p[0.410583165086547, 0.210672875901838, 0.317251686019192, -1.283, 0.713, -0.78], a = 0.2, v = 0.2, t = 0.1)
movej(p[0.410577988249094, 0.21066592902054, 0.317252782235971, -1.283, 0.713, -0.78], a = 0.2, v = 0.2, t = 0.1)
movej(p[0.41057614164722, 0.210660000325935, 0.317255778138473, -1.283, 0.713, -0.78], a = 0.2, v = 0.2, t = 0.1)
movej(p[0.410575671038807, 0.21065445308213, 0.317264228388166, -1.283, 0.713, -0.78], a = 0.2, v = 0.2, t = 0.1)
movej(p[0.410577010595902, 0.210648603137979, 0.317281034971585, -1.283, 0.713, -0.78], a = 0.2, v = 0.2, t = 0.1)
movej(p[0.41058173152756, 0.210645073718254, 0.317301009122122, -1.283, 0.713, -0.78], a = 0.2, v = 0.2, t = 0.1)
movej(p[0.410588135682592, 0.21064898273544, 0.317316253157184, -1.283, 0.713, -0.78], a = 0.2, v = 0.2, t = 0.1)
movej(p[0.41059368711911, 0.210661550395576, 0.31732390045542, -1.283, 0.713, -0.78], a = 0.2, v = 0.2, t = 0.1)
movej(p[0.410598422370784, 0.21068094557858, 0.317328394235656, -1.283, 0.713, -0.78], a = 0.2, v = 0.2, t = 0.1)
movej(p[0.410603132101354, 0.21070320134722, 0.317334656296835, -1.283, 0.713, -0.78], a = 0.2, v = 0.2, t = 0.1)
movej(p[0.410610351635303, 0.210723423906336, 0.317343159855288, -1.283, 0.713, -0.78], a = 0.2, v = 0.2, t = 0.1)
movej(p[0.410620237277427, 0.210738842040222, 0.317351354138127, -1.283, 0.713, -0.78], a = 0.2, v = 0.2, t = 0.1)
movej(p[0.410632489922883, 0.210750349949266, 0.317359172609959, -1.283, 0.713, -0.78], a = 0.2, v = 0.2, t = 0.1)
movej(p[0.410645697810077, 0.210761316233855, 0.317367921876167, -1.283, 0.713, -0.78], a = 0.2, v = 0.2, t = 0.1)
movej(p[0.410660312264009, 0.210773272284414, 0.317377548888543, -1.283, 0.713, -0.78], a = 0.2, v = 0.2, t = 0.1)
movej(p[0.410675320981355, 0.210786207930158, 0.317386913924519, -1.283, 0.713, -0.78], a = 0.2, v = 0.2, t = 0.1)
movej(p[0.410687439963075, 0.210799549571017, 0.317394821118601, -1.283, 0.713, -0.78], a = 0.2, v = 0.2, t = 0.1)
movej(p[0.410695058953654, 0.21081292245867, 0.317400472431403, -1.283, 0.713, -0.78], a = 0.2, v = 0.2, t = 0.1)
movej(p[0.410697601396646, 0.210825413035424, 0.317404926054308, -1.283, 0.713, -0.78], a = 0.2, v = 0.2, t = 0.1)
movej(p[0.410696896963666, 0.210835756392859, 0.317409239721442, -1.283, 0.713, -0.78], a = 0.2, v = 0.2, t = 0.1)
movej(p[0.410693468229696, 0.210843855249658, 0.317414061738854, -1.283, 0.713, -0.78], a = 0.2, v = 0.2, t = 0.1)
movej(p[0.41068732012228, 0.210849266160571, 0.317420025457182, -1.283, 0.713, -0.78], a = 0.2, v = 0.2, t = 0.1)
movej(p[0.410679078829521, 0.210851773594092, 0.317427086114502, -1.283, 0.713, -0.78], a = 0.2, v = 0.2, t = 0.1)
movej(p[0.410670851279147, 0.210852493948806, 0.317435071287632, -1.283, 0.713, -0.78], a = 0.2, v = 0.2, t = 0.1)
movej(p[0.410664447418866, 0.210852176616713, 0.317442840568348, -1.283, 0.713, -0.78], a = 0.2, v = 0.2, t = 0.1)
movej(p[0.410661031318181, 0.210852363582726, 0.317448509210586, -1.283, 0.713, -0.78], a = 0.2, v = 0.2, t = 0.1)
movej(p[0.410658799895453, 0.210854490794676, 0.317452403199663, -1.283, 0.713, -0.78], a = 0.2, v = 0.2, t = 0.1)
movej(p[0.410655308832264, 0.210858417451042, 0.31745673388051, -1.283, 0.713, -0.78], a = 0.2, v = 0.2, t = 0.1)
movej(p[0.410648178689655, 0.210860285037841, 0.31746596457712, -1.283, 0.713, -0.78], a = 0.2, v = 0.2, t = 0.1)
movej(p[0.410637935468931, 0.210857334931685, 0.31747830294058, -1.283, 0.713, -0.78], a = 0.2, v = 0.2, t = 0.1)
movej(p[0.4106274132529, 0.210851396719709, 0.317488480190618, -1.283, 0.713, -0.78], a = 0.2, v = 0.2, t = 0.1)
movej(p[0.410619080420873, 0.210844787248913, 0.317490940807045, -1.283, 0.713, -0.78], a = 0.2, v = 0.2, t = 0.1)
movej(p[0.410612194113974, 0.210837223459129, 0.31748563345145, -1.283, 0.713, -0.78], a = 0.2, v = 0.2, t = 0.1)
movej(p[0.410604965737405, 0.210829899535934, 0.317475405624398, -1.283, 0.713, -0.78], a = 0.2, v = 0.2, t = 0.1)
movej(p[0.41059710707399, 0.210825020710769, 0.317462816219037, -1.283, 0.713, -0.78], a = 0.2, v = 0.2, t = 0.1)
movej(p[0.410589767572141, 0.210821354482731, 0.317447887323245, -1.283, 0.713, -0.78], a = 0.2, v = 0.2, t = 0.1)
movej(p[0.410585150271484, 0.210810394199072, 0.317428708359775, -1.283, 0.713, -0.78], a = 0.2, v = 0.2, t = 0.1)
movej(p[0.410579632269104, 0.210789007920606, 0.317405916742476, -1.283, 0.713, -0.78], a = 0.2, v = 0.2, t = 0.1)
movej(p[0.410570380852314, 0.210760129762665, 0.317381880281105, -1.283, 0.713, -0.78], a = 0.2, v = 0.2, t = 0.1)
movej(p[0.410554430689034, 0.210730083877866, 0.317357738698575, -1.283, 0.713, -0.78], a = 0.2, v = 0.2, t = 0.1)
movej(p[0.410533978723456, 0.210704064514977, 0.317335367697416, -1.283, 0.713, -0.78], a = 0.2, v = 0.2, t = 0.1)
movej(p[0.410512446178105, 0.210684301938579, 0.317317027581664, -1.283, 0.713, -0.78], a = 0.2, v = 0.2, t = 0.1)
movej(p[0.410494812486306, 0.210672977646738, 0.317305959931016, -1.283, 0.713, -0.78], a = 0.2, v = 0.2, t = 0.1)
movej(p[0.410481479522109, 0.210666583936746, 0.317301072370557, -1.283, 0.713, -0.78], a = 0.2, v = 0.2, t = 0.1)
movej(p[0.41047028173749, 0.210663453611969, 0.317298857789916, -1.283, 0.713, -0.78], a = 0.2, v = 0.2, t = 0.1)
movej(p[0.41045972309662, 0.210662104812809, 0.31729786637637, -1.283, 0.713, -0.78], a = 0.2, v = 0.2, t = 0.1)
movej(p[0.410450115897514, 0.210660813360673, 0.317297948630319, -1.283, 0.713, -0.78], a = 0.2, v = 0.2, t = 0.1)
movej(p[0.410441895181263, 0.210658599480857, 0.317297756595245, -1.283, 0.713, -0.78], a = 0.2, v = 0.2, t = 0.1)
movej(p[0.410433758205999, 0.210655982638369, 0.317297868853668, -1.283, 0.713, -0.78], a = 0.2, v = 0.2, t = 0.1)
movej(p[0.410425045260137, 0.210653790293279, 0.317298273983785, -1.283, 0.713, -0.78], a = 0.2, v = 0.2, t = 0.1)
movej(p[0.410416168529867, 0.210652007285808, 0.317298813156362, -1.283, 0.713, -0.78], a = 0.2, v = 0.2, t = 0.1)
movej(p[0.410409232219123, 0.210648962481505, 0.317295560480997, -1.283, 0.713, -0.78], a = 0.2, v = 0.2, t = 0.1)
movej(p[0.410408051986935, 0.210645113336634, 0.317288219009977, -1.283, 0.713, -0.78], a = 0.2, v = 0.2, t = 0.1)
movej(p[0.410413237912802, 0.210640798081941, 0.317279758145255, -1.283, 0.713, -0.78], a = 0.2, v = 0.2, t = 0.1)
movej(p[0.410420555667585, 0.210636217490316, 0.317273440203953, -1.283, 0.713, -0.78], a = 0.2, v = 0.2, t = 0.1)
movej(p[0.410426932010562, 0.210632474683248, 0.317268835262314, -1.283, 0.713, -0.78], a = 0.2, v = 0.2, t = 0.1)
movej(p[0.410433068374689, 0.210631155172872, 0.317265229994271, -1.283, 0.713, -0.78], a = 0.2, v = 0.2, t = 0.1)
movej(p[0.410440280213144, 0.210634754587692, 0.317262852843026, -1.283, 0.713, -0.78], a = 0.2, v = 0.2, t = 0.1)
movej(p[0.410448199668205, 0.21064205237471, 0.317263358462642, -1.283, 0.713, -0.78], a = 0.2, v = 0.2, t = 0.1)
movej(p[0.410456637969792, 0.210649140815472, 0.317266072951523, -1.283, 0.713, -0.78], a = 0.2, v = 0.2, t = 0.1)
movej(p[0.410469692784454, 0.210654137809667, 0.317273057547227, -1.283, 0.713, -0.78], a = 0.2, v = 0.2, t = 0.1)
movej(p[0.410485892312688, 0.210658940503016, 0.317283070546758, -1.283, 0.713, -0.78], a = 0.2, v = 0.2, t = 0.1)
movej(p[0.410502185337306, 0.210665639383173, 0.317294432914664, -1.283, 0.713, -0.78], a = 0.2, v = 0.2, t = 0.1)
movej(p[0.410512126919493, 0.210673213010019, 0.317300068000556, -1.283, 0.713, -0.78], a = 0.2, v = 0.2, t = 0.1)
movej(p[0.410517966836517, 0.210679865691043, 0.317295973810849, -1.283, 0.713, -0.78], a = 0.2, v = 0.2, t = 0.1)
movej(p[0.410522544221697, 0.210683403498033, 0.31728236142136, -1.283, 0.713, -0.78], a = 0.2, v = 0.2, t = 0.1)
movej(p[0.410527455859549, 0.21068468758242, 0.317265403515979, -1.283, 0.713, -0.78], a = 0.2, v = 0.2, t = 0.1)
movej(p[0.410530445282781, 0.210683741046708, 0.317250891126276, -1.283, 0.713, -0.78], a = 0.2, v = 0.2, t = 0.1)
movej(p[0.410529982336449, 0.210682599133637, 0.31724128069823, -1.283, 0.713, -0.78], a = 0.2, v = 0.2, t = 0.1)
movej(p[0.410526442435392, 0.210682069032493, 0.317236163660973, -1.283, 0.713, -0.78], a = 0.2, v = 0.2, t = 0.1)
movej(p[0.410521273591744, 0.210681920577082, 0.31723406706699, -1.283, 0.713, -0.78], a = 0.2, v = 0.2, t = 0.1)
movej(p[0.410514967018617, 0.210680508221356, 0.317233645014027, -1.283, 0.713, -0.78], a = 0.2, v = 0.2, t = 0.1)
movej(p[0.410508826039306, 0.210677710063622, 0.317234723251197, -1.283, 0.713, -0.78], a = 0.2, v = 0.2, t = 0.1)
movej(p[0.410503341485645, 0.210672734692851, 0.317237179689641, -1.283, 0.713, -0.78], a = 0.2, v = 0.2, t = 0.1)
movej(p[0.41049833685177, 0.210664852098142, 0.317239799468147, -1.283, 0.713, -0.78], a = 0.2, v = 0.2, t = 0.1)
movej(p[0.410491291110689, 0.210652041773222, 0.317238795833711, -1.283, 0.713, -0.78], a = 0.2, v = 0.2, t = 0.1)
movej(p[0.410482700294499, 0.210636906443458, 0.317231741077363, -1.283, 0.713, -0.78], a = 0.2, v = 0.2, t = 0.1)
movej(p[0.410474613658747, 0.210622336821341, 0.317219357460824, -1.283, 0.713, -0.78], a = 0.2, v = 0.2, t = 0.1)
movej(p[0.410469456525559, 0.210610248570631, 0.317204440528933, -1.283, 0.713, -0.78], a = 0.2, v = 0.2, t = 0.1)
movej(p[0.410466130945199, 0.210599827480132, 0.317189781339287, -1.283, 0.713, -0.78], a = 0.2, v = 0.2, t = 0.1)
movej(p[0.410462396923443, 0.210590354554891, 0.317177506572898, -1.283, 0.713, -0.78], a = 0.2, v = 0.2, t = 0.1)
movej(p[0.410458137521291, 0.21058418596476, 0.3171695059911, -1.283, 0.713, -0.78], a = 0.2, v = 0.2, t = 0.1)
movej(p[0.41045432417098, 0.210582577979257, 0.317166781866465, -1.283, 0.713, -0.78], a = 0.2, v = 0.2, t = 0.1)
movej(p[0.410450936907297, 0.210584220555241, 0.317167151084391, -1.283, 0.713, -0.78], a = 0.2, v = 0.2, t = 0.1)
movej(p[0.410448020175101, 0.210586744132015, 0.317166704135221, -1.283, 0.713, -0.78], a = 0.2, v = 0.2, t = 0.1)
movej(p[0.410444316909213, 0.210588597129064, 0.317163217862182, -1.283, 0.713, -0.78], a = 0.2, v = 0.2, t = 0.1)
movej(p[0.410439434599368, 0.210590041954095, 0.31715603978241, -1.283, 0.713, -0.78], a = 0.2, v = 0.2, t = 0.1)
movej(p[0.410433670299774, 0.210591212166671, 0.31714712485029, -1.283, 0.713, -0.78], a = 0.2, v = 0.2, t = 0.1)
movej(p[0.41042760614901, 0.210591870849601, 0.317138971000751, -1.283, 0.713, -0.78], a = 0.2, v = 0.2, t = 0.1)
movej(p[0.410422208907077, 0.210592485149971, 0.317133278734807, -1.283, 0.713, -0.78], a = 0.2, v = 0.2, t = 0.1)
movej(p[0.410418471705652, 0.21059250156611, 0.317130665905494, -1.283, 0.713, -0.78], a = 0.2, v = 0.2, t = 0.1)
movej(p[0.410415560086772, 0.210593073576271, 0.317130374557119, -1.283, 0.713, -0.78], a = 0.2, v = 0.2, t = 0.1)
movej(p[0.410412746979219, 0.210593845033778, 0.317130703745829, -1.283, 0.713, -0.78], a = 0.2, v = 0.2, t = 0.1)
movej(p[0.410408317583734, 0.210595525672904, 0.317130101326731, -1.283, 0.713, -0.78], a = 0.2, v = 0.2, t = 0.1)
movej(p[0.410401622404678, 0.210594867950004, 0.317127782582245, -1.283, 0.713, -0.78], a = 0.2, v = 0.2, t = 0.1)
movej(p[0.410391564387125, 0.210592180199028, 0.317125263724648, -1.283, 0.713, -0.78], a = 0.2, v = 0.2, t = 0.1)
movej(p[0.410377201043886, 0.210587425676034, 0.317123036582956, -1.283, 0.713, -0.78], a = 0.2, v = 0.2, t = 0.1)
movej(p[0.410361960189022, 0.210583746329325, 0.317121268565761, -1.283, 0.713, -0.78], a = 0.2, v = 0.2, t = 0.1)
movej(p[0.41034807710407, 0.210579544866467, 0.317121083765731, -1.283, 0.713, -0.78], a = 0.2, v = 0.2, t = 0.1)
movej(p[0.41033818981418, 0.210571922734849, 0.317124714378659, -1.283, 0.713, -0.78], a = 0.2, v = 0.2, t = 0.1)
movej(p[0.410332354557997, 0.210559983619172, 0.317133105228922, -1.283, 0.713, -0.78], a = 0.2, v = 0.2, t = 0.1)
movej(p[0.410331280783817, 0.210546340079575, 0.317144553777051, -1.283, 0.713, -0.78], a = 0.2, v = 0.2, t = 0.1)
movej(p[0.410335395536102, 0.210536319649294, 0.317156463483496, -1.283, 0.713, -0.78], a = 0.2, v = 0.2, t = 0.1)
movej(p[0.410344785311134, 0.210532066093788, 0.317167391468828, -1.283, 0.713, -0.78], a = 0.2, v = 0.2, t = 0.1)
movej(p[0.41035921135948, 0.210532945703845, 0.317178111052089, -1.283, 0.713, -0.78], a = 0.2, v = 0.2, t = 0.1)
movej(p[0.410377567116991, 0.210535678974614, 0.317189531361283, -1.283, 0.713, -0.78], a = 0.2, v = 0.2, t = 0.1)
movej(p[0.410397779830301, 0.210539750509946, 0.317200918683738, -1.283, 0.713, -0.78], a = 0.2, v = 0.2, t = 0.1)
movej(p[0.410418193251747, 0.210544645303731, 0.317211930059704, -1.283, 0.713, -0.78], a = 0.2, v = 0.2, t = 0.1)
movej(p[0.410438263434752, 0.210551478924379, 0.317223054743968, -1.283, 0.713, -0.78], a = 0.2, v = 0.2, t = 0.1)
movej(p[0.410456703973338, 0.210558627847467, 0.317233549885194, -1.283, 0.713, -0.78], a = 0.2, v = 0.2, t = 0.1)
movej(p[0.410473216595414, 0.210564852449123, 0.317243367531164, -1.283, 0.713, -0.78], a = 0.2, v = 0.2, t = 0.1)
movej(p[0.410487775792848, 0.210569354253514, 0.317252080528886, -1.283, 0.713, -0.78], a = 0.2, v = 0.2, t = 0.1)
movej(p[0.410500075288395, 0.210572255885373, 0.317260980943924, -1.283, 0.713, -0.78], a = 0.2, v = 0.2, t = 0.1)
movej(p[0.410510041522198, 0.210575645381414, 0.317269620448677, -1.283, 0.713, -0.78], a = 0.2, v = 0.2, t = 0.1)
movej(p[0.410515862730572, 0.210578917319302, 0.317278659419665, -1.283, 0.713, -0.78], a = 0.2, v = 0.2, t = 0.1)
movej(p[0.410518113123973, 0.210582851786083, 0.317286390209514, -1.283, 0.713, -0.78], a = 0.2, v = 0.2, t = 0.1)
movej(p[0.410516704458915, 0.210586808179611, 0.317292546183686, -1.283, 0.713, -0.78], a = 0.2, v = 0.2, t = 0.1)
movej(p[0.410513072852223, 0.210587579078427, 0.31729695118015, -1.283, 0.713, -0.78], a = 0.2, v = 0.2, t = 0.1)
movej(p[0.410507307047497, 0.21058277122154, 0.317302825085922, -1.283, 0.713, -0.78], a = 0.2, v = 0.2, t = 0.1)
movej(p[0.410501988867478, 0.210574634678747, 0.317309338306375, -1.283, 0.713, -0.78], a = 0.2, v = 0.2, t = 0.1)
movej(p[0.410498835888063, 0.210569684841096, 0.317316433863226, -1.283, 0.713, -0.78], a = 0.2, v = 0.2, t = 0.1)
movej(p[0.410497896404721, 0.210569104131738, 0.317319697817529, -1.283, 0.713, -0.78], a = 0.2, v = 0.2, t = 0.1)
movej(p[0.410497869029415, 0.21057245817327, 0.317315981875388, -1.283, 0.713, -0.78], a = 0.2, v = 0.2, t = 0.1)
movej(p[0.410498031404552, 0.210579926582184, 0.317304108389817, -1.283, 0.713, -0.78], a = 0.2, v = 0.2, t = 0.1)
movej(p[0.410498039324717, 0.210590693338473, 0.317289432061179, -1.283, 0.713, -0.78], a = 0.2, v = 0.2, t = 0.1)
movej(p[0.410497706922158, 0.210603757723327, 0.317275537459748, -1.283, 0.713, -0.78], a = 0.2, v = 0.2, t = 0.1)
movej(p[0.41049596276544, 0.210617752788059, 0.317264018929265, -1.283, 0.713, -0.78], a = 0.2, v = 0.2, t = 0.1)
movej(p[0.410492725471092, 0.210629669133267, 0.317253125763601, -1.283, 0.713, -0.78], a = 0.2, v = 0.2, t = 0.1)
movej(p[0.410487904262227, 0.210638070138325, 0.317240465027165, -1.283, 0.713, -0.78], a = 0.2, v = 0.2, t = 0.1)
movej(p[0.410481589985193, 0.210644101078844, 0.317223866436171, -1.283, 0.713, -0.78], a = 0.2, v = 0.2, t = 0.1)
movej(p[0.410475122105077, 0.21065000935882, 0.317205474173109, -1.283, 0.713, -0.78], a = 0.2, v = 0.2, t = 0.1)
movej(p[0.410469626858475, 0.210654974241443, 0.317187813209904, -1.283, 0.713, -0.78], a = 0.2, v = 0.2, t = 0.1)
movej(p[0.410464491097411, 0.210659418414883, 0.317172233631838, -1.283, 0.713, -0.78], a = 0.2, v = 0.2, t = 0.1)
movej(p[0.4104584567913, 0.210664100447673, 0.317158964870452, -1.283, 0.713, -0.78], a = 0.2, v = 0.2, t = 0.1)
movej(p[0.410449821217899, 0.210670026949745, 0.317147669773851, -1.283, 0.713, -0.78], a = 0.2, v = 0.2, t = 0.1)
movej(p[0.410437885022612, 0.210675802425665, 0.317139021228831, -1.283, 0.713, -0.78], a = 0.2, v = 0.2, t = 0.1)
movej(p[0.410422148062211, 0.210679335799931, 0.317133933872479, -1.283, 0.713, -0.78], a = 0.2, v = 0.2, t = 0.1)
movej(p[0.410403105850684, 0.210680636787432, 0.317130523270527, -1.283, 0.713, -0.78], a = 0.2, v = 0.2, t = 0.1)
movej(p[0.410383466808569, 0.210681283992646, 0.317127117862003, -1.283, 0.713, -0.78], a = 0.2, v = 0.2, t = 0.1)
movej(p[0.410366061633523, 0.210681600320904, 0.317123232366659, -1.283, 0.713, -0.78], a = 0.2, v = 0.2, t = 0.1)
movej(p[0.41035124189418, 0.210682436292796, 0.317119704999398, -1.283, 0.713, -0.78], a = 0.2, v = 0.2, t = 0.1)
movej(p[0.410338320483858, 0.210683109522748, 0.317117238401192, -1.283, 0.713, -0.78], a = 0.2, v = 0.2, t = 0.1)
movej(p[0.410327649639603, 0.210683431445224, 0.317115616729275, -1.283, 0.713, -0.78], a = 0.2, v = 0.2, t = 0.1)
movej(p[0.410319810608429, 0.210684015875572, 0.317114095118806, -1.283, 0.713, -0.78], a = 0.2, v = 0.2, t = 0.1)
movej(p[0.410314905610578, 0.210685467175699, 0.317111963302437, -1.283, 0.713, -0.78], a = 0.2, v = 0.2, t = 0.1)
movej(p[0.410311281070454, 0.210688857606288, 0.31710829059345, -1.283, 0.713, -0.78], a = 0.2, v = 0.2, t = 0.1)
movej(p[0.410309287238647, 0.210694586958259, 0.317107575462891, -1.283, 0.713, -0.78], a = 0.2, v = 0.2, t = 0.1)
movej(p[0.410308658186009, 0.210703312993177, 0.317113371287802, -1.283, 0.713, -0.78], a = 0.2, v = 0.2, t = 0.1)
movej(p[0.410310424850036, 0.210714208251241, 0.317124607190433, -1.283, 0.713, -0.78], a = 0.2, v = 0.2, t = 0.1)
movej(p[0.41031586415788, 0.210724740797215, 0.31713760521007, -1.283, 0.713, -0.78], a = 0.2, v = 0.2, t = 0.1)
movej(p[0.410325003599591, 0.210732932024079, 0.317150041387042, -1.283, 0.713, -0.78], a = 0.2, v = 0.2, t = 0.1)
movej(p[0.410337967887207, 0.210739811341614, 0.317160025609339, -1.283, 0.713, -0.78], a = 0.2, v = 0.2, t = 0.1)
movej(p[0.410353978214394, 0.21074721639171, 0.31716711949131, -1.283, 0.713, -0.78], a = 0.2, v = 0.2, t = 0.1)
movej(p[0.410372347930488, 0.210756586824303, 0.31717268080758, -1.283, 0.713, -0.78], a = 0.2, v = 0.2, t = 0.1)
movej(p[0.410392917449245, 0.210768364255777, 0.317180405193574, -1.283, 0.713, -0.78], a = 0.2, v = 0.2, t = 0.1)
movej(p[0.410414481142901, 0.21078111913684, 0.317191945597724, -1.283, 0.713, -0.78], a = 0.2, v = 0.2, t = 0.1)
movej(p[0.410435621790075, 0.21079315569372, 0.31720689632943, -1.283, 0.713, -0.78], a = 0.2, v = 0.2, t = 0.1)
movej(p[0.410455076076075, 0.210802842342076, 0.317221303586278, -1.283, 0.713, -0.78], a = 0.2, v = 0.2, t = 0.1)
movej(p[0.410472500229472, 0.210809645010643, 0.317231919487406, -1.283, 0.713, -0.78], a = 0.2, v = 0.2, t = 0.1)
movej(p[0.41048823427105, 0.210813336271531, 0.317236658797236, -1.283, 0.713, -0.78], a = 0.2, v = 0.2, t = 0.1)
movej(p[0.410499671998889, 0.210814165470418, 0.317235169486965, -1.283, 0.713, -0.78], a = 0.2, v = 0.2, t = 0.1)
movej(p[0.410505073321499, 0.210813152032935, 0.317229105106409, -1.283, 0.713, -0.78], a = 0.2, v = 0.2, t = 0.1)
movej(p[0.410503013856858, 0.210810179454383, 0.31722189701747, -1.283, 0.713, -0.78], a = 0.2, v = 0.2, t = 0.1)
movej(p[0.410495219435392, 0.210805428667046, 0.317216606725636, -1.283, 0.713, -0.78], a = 0.2, v = 0.2, t = 0.1)
movej(p[0.410483681992359, 0.21079939932828, 0.317212459024189, -1.283, 0.713, -0.78], a = 0.2, v = 0.2, t = 0.1)
movej(p[0.410470865158802, 0.210791763022022, 0.317206885043537, -1.283, 0.713, -0.78], a = 0.2, v = 0.2, t = 0.1)
movej(p[0.410457048523885, 0.210782171721321, 0.317198744979689, -1.283, 0.713, -0.78], a = 0.2, v = 0.2, t = 0.1)
movej(p[0.410441939109076, 0.2107708529954, 0.317188844115097, -1.283, 0.713, -0.78], a = 0.2, v = 0.2, t = 0.1)
movej(p[0.410425662250236, 0.210758889071135, 0.317175812263675, -1.283, 0.713, -0.78], a = 0.2, v = 0.2, t = 0.1)
movej(p[0.410409353087782, 0.210745897574859, 0.317159940252885, -1.283, 0.713, -0.78], a = 0.2, v = 0.2, t = 0.1)
movej(p[0.410392817676379, 0.210730478445683, 0.317141752299971, -1.283, 0.713, -0.78], a = 0.2, v = 0.2, t = 0.1)
movej(p[0.410377372495516, 0.210712975647326, 0.317120520102304, -1.283, 0.713, -0.78], a = 0.2, v = 0.2, t = 0.1)
movej(p[0.410362375324413, 0.210694434409205, 0.317097245786591, -1.283, 0.713, -0.78], a = 0.2, v = 0.2, t = 0.1)
movej(p[0.410348743188798, 0.210675822673388, 0.317072978829356, -1.283, 0.713, -0.78], a = 0.2, v = 0.2, t = 0.1)
movej(p[0.410336245991116, 0.210658130700739, 0.31705266812952, -1.283, 0.713, -0.78], a = 0.2, v = 0.2, t = 0.1)
movej(p[0.410326816461813, 0.210643159798531, 0.317038182671598, -1.283, 0.713, -0.78], a = 0.2, v = 0.2, t = 0.1)
movej(p[0.410321930938613, 0.210631244901672, 0.317030293626477, -1.283, 0.713, -0.78], a = 0.2, v = 0.2, t = 0.1)
movej(p[0.410324006914179, 0.210622153975947, 0.317026787948666, -1.283, 0.713, -0.78], a = 0.2, v = 0.2, t = 0.1)
movej(p[0.410332119840784, 0.21061513420281, 0.317024375751124, -1.283, 0.713, -0.78], a = 0.2, v = 0.2, t = 0.1)
movej(p[0.410344997767211, 0.210609304384376, 0.317020808430422, -1.283, 0.713, -0.78], a = 0.2, v = 0.2, t = 0.1)
movej(p[0.410360675659651, 0.210604728402305, 0.317014167295526, -1.283, 0.713, -0.78], a = 0.2, v = 0.2, t = 0.1)
movej(p[0.410378631129131, 0.210603541874352, 0.317005594239409, -1.283, 0.713, -0.78], a = 0.2, v = 0.2, t = 0.1)
movej(p[0.41039901583667, 0.210606164002995, 0.31699632468678, -1.283, 0.713, -0.78], a = 0.2, v = 0.2, t = 0.1)
movej(p[0.410421030321319, 0.210610902563812, 0.316986590257366, -1.283, 0.713, -0.78], a = 0.2, v = 0.2, t = 0.1)
movej(p[0.410443424421234, 0.210616183581976, 0.316977660885264, -1.283, 0.713, -0.78], a = 0.2, v = 0.2, t = 0.1)
movej(p[0.410464148240882, 0.210622230170711, 0.31696989493034, -1.283, 0.713, -0.78], a = 0.2, v = 0.2, t = 0.1)
movej(p[0.410483036300441, 0.210630311747969, 0.316962434876714, -1.283, 0.713, -0.78], a = 0.2, v = 0.2, t = 0.1)
movej(p[0.410499753207295, 0.210639508139457, 0.316953086754452, -1.283, 0.713, -0.78], a = 0.2, v = 0.2, t = 0.1)
movej(p[0.410514576464356, 0.210648061539232, 0.316942372538083, -1.283, 0.713, -0.78], a = 0.2, v = 0.2, t = 0.1)
movej(p[0.410526648347135, 0.210655578936769, 0.316933279169926, -1.283, 0.713, -0.78], a = 0.2, v = 0.2, t = 0.1)
movej(p[0.410535930724492, 0.210662458556417, 0.316931346957952, -1.283, 0.713, -0.78], a = 0.2, v = 0.2, t = 0.1)
movej(p[0.41054194642168, 0.21066897493153, 0.316934312957905, -1.283, 0.713, -0.78], a = 0.2, v = 0.2, t = 0.1)
movej(p[0.410545046826075, 0.210674741932169, 0.316937265735617, -1.283, 0.713, -0.78], a = 0.2, v = 0.2, t = 0.1)
movej(p[0.410545397365609, 0.210679587016463, 0.316935077008541, -1.283, 0.713, -0.78], a = 0.2, v = 0.2, t = 0.1)
movej(p[0.410542935365383, 0.210683864355832, 0.31692835806913, -1.283, 0.713, -0.78], a = 0.2, v = 0.2, t = 0.1)
movej(p[0.410537385169525, 0.210687628062792, 0.316919933631116, -1.283, 0.713, -0.78], a = 0.2, v = 0.2, t = 0.1)
movej(p[0.410528759082181, 0.210689904219442, 0.316913719069262, -1.283, 0.713, -0.78], a = 0.2, v = 0.2, t = 0.1)
movej(p[0.410518823179665, 0.210688874222635, 0.316909432073369, -1.283, 0.713, -0.78], a = 0.2, v = 0.2, t = 0.1)
movej(p[0.410507850263357, 0.210684843801842, 0.316904474690802, -1.283, 0.713, -0.78], a = 0.2, v = 0.2, t = 0.1)
movej(p[0.410494745243101, 0.210679106027138, 0.316897858944168, -1.283, 0.713, -0.78], a = 0.2, v = 0.2, t = 0.1)
movej(p[0.410477793282296, 0.210674128443559, 0.316891588769324, -1.283, 0.713, -0.78], a = 0.2, v = 0.2, t = 0.1)
movej(p[0.410456503345487, 0.210669328998139, 0.316891020955657, -1.283, 0.713, -0.78], a = 0.2, v = 0.2, t = 0.1)
movej(p[0.41043208500101, 0.210664432825066, 0.316894894867918, -1.283, 0.713, -0.78], a = 0.2, v = 0.2, t = 0.1)
movej(p[0.410406118857916, 0.210659384908787, 0.316899542146486, -1.283, 0.713, -0.78], a = 0.2, v = 0.2, t = 0.1)
movej(p[0.410380900110071, 0.210654656037088, 0.316901661045157, -1.283, 0.713, -0.78], a = 0.2, v = 0.2, t = 0.1)
movej(p[0.410358411765068, 0.210649144605882, 0.316899499609502, -1.283, 0.713, -0.78], a = 0.2, v = 0.2, t = 0.1)
movej(p[0.410339904199664, 0.210641682475498, 0.31689458728572, -1.283, 0.713, -0.78], a = 0.2, v = 0.2, t = 0.1)
movej(p[0.41032615331424, 0.210630994884315, 0.316888458611984, -1.283, 0.713, -0.78], a = 0.2, v = 0.2, t = 0.1)
movej(p[0.410316469576394, 0.210617995810301, 0.316884665110552, -1.283, 0.713, -0.78], a = 0.2, v = 0.2, t = 0.1)
movej(p[0.410308508061261, 0.210605288592278, 0.316882618522688, -1.283, 0.713, -0.78], a = 0.2, v = 0.2, t = 0.1)
movej(p[0.410300131998821, 0.210594609376161, 0.316879878021431, -1.283, 0.713, -0.78], a = 0.2, v = 0.2, t = 0.1)
movej(p[0.410291281762097, 0.21058612487636, 0.316873199646249, -1.283, 0.713, -0.78], a = 0.2, v = 0.2, t = 0.1)
movej(p[0.410282236556152, 0.210579142300445, 0.316861897088044, -1.283, 0.713, -0.78], a = 0.2, v = 0.2, t = 0.1)
movej(p[0.410274151006099, 0.210573809735209, 0.316847118356895, -1.283, 0.713, -0.78], a = 0.2, v = 0.2, t = 0.1)
movej(p[0.410267803116719, 0.21056985568059, 0.316831239940397, -1.283, 0.713, -0.78], a = 0.2, v = 0.2, t = 0.1)
movej(p[0.410264650937383, 0.210565417867684, 0.316816645243585, -1.283, 0.713, -0.78], a = 0.2, v = 0.2, t = 0.1)
movej(p[0.410265790182517, 0.210558453731532, 0.316804898954376, -1.283, 0.713, -0.78], a = 0.2, v = 0.2, t = 0.1)
movej(p[0.41027132918557, 0.210550471554169, 0.316797717817995, -1.283, 0.713, -0.78], a = 0.2, v = 0.2, t = 0.1)
movej(p[0.41028040303966, 0.210544091800189, 0.316794858344424, -1.283, 0.713, -0.78], a = 0.2, v = 0.2, t = 0.1)
movej(p[0.41029133149537, 0.210543268655212, 0.316794200790521, -1.283, 0.713, -0.78], a = 0.2, v = 0.2, t = 0.1)
movej(p[0.410303417653413, 0.210547806672729, 0.316794097636317, -1.283, 0.713, -0.78], a = 0.2, v = 0.2, t = 0.1)
movej(p[0.41031595398656, 0.210554800809488, 0.316794446500524, -1.283, 0.713, -0.78], a = 0.2, v = 0.2, t = 0.1)
movej(p[0.4103288673577, 0.210562082299751, 0.316794407266401, -1.283, 0.713, -0.78], a = 0.2, v = 0.2, t = 0.1)
movej(p[0.410341167467383, 0.210569984436569, 0.316789883620027, -1.283, 0.713, -0.78], a = 0.2, v = 0.2, t = 0.1)
movej(p[0.410352404179359, 0.210578162916877, 0.316782057954636, -1.283, 0.713, -0.78], a = 0.2, v = 0.2, t = 0.1)
movej(p[0.410362342374425, 0.210584253250387, 0.316771678100178, -1.283, 0.713, -0.78], a = 0.2, v = 0.2, t = 0.1)
movej(p[0.410371183275488, 0.210586848500881, 0.31676185664574, -1.283, 0.713, -0.78], a = 0.2, v = 0.2, t = 0.1)
movej(p[0.410379788841554, 0.210588642039874, 0.316752153821431, -1.283, 0.713, -0.78], a = 0.2, v = 0.2, t = 0.1)
movej(p[0.410388490998652, 0.210592550617216, 0.316742997281801, -1.283, 0.713, -0.78], a = 0.2, v = 0.2, t = 0.1)
movej(p[0.410396682224088, 0.210598963009925, 0.316734992291758, -1.283, 0.713, -0.78], a = 0.2, v = 0.2, t = 0.1)
movej(p[0.410403453646975, 0.21060558284914, 0.316725939296626, -1.283, 0.713, -0.78], a = 0.2, v = 0.2, t = 0.1)
movej(p[0.410408506310533, 0.21061172678936, 0.316715905547947, -1.283, 0.713, -0.78], a = 0.2, v = 0.2, t = 0.1)
movej(p[0.410413107101123, 0.210616754552585, 0.316706854125965, -1.283, 0.713, -0.78], a = 0.2, v = 0.2, t = 0.1)
movej(p[0.410416258073967, 0.210619974163351, 0.31669893016227, -1.283, 0.713, -0.78], a = 0.2, v = 0.2, t = 0.1)
movej(p[0.410416445837406, 0.210620560026115, 0.316692173288753, -1.283, 0.713, -0.78], a = 0.2, v = 0.2, t = 0.1)
movej(p[0.410412885380814, 0.210617305956687, 0.3166836903853, -1.283, 0.713, -0.78], a = 0.2, v = 0.2, t = 0.1)
movej(p[0.410405398338316, 0.210610674487408, 0.316672855900594, -1.283, 0.713, -0.78], a = 0.2, v = 0.2, t = 0.1)
movej(p[0.410393853887683, 0.210601813067259, 0.316659264920587, -1.283, 0.713, -0.78], a = 0.2, v = 0.2, t = 0.1)
movej(p[0.410379440659444, 0.210593020881386, 0.316644710206874, -1.283, 0.713, -0.78], a = 0.2, v = 0.2, t = 0.1)
movej(p[0.410363354849909, 0.210584316161173, 0.316629676199336, -1.283, 0.713, -0.78], a = 0.2, v = 0.2, t = 0.1)
movej(p[0.410345778859882, 0.210576241707284, 0.316615202834698, -1.283, 0.713, -0.78], a = 0.2, v = 0.2, t = 0.1)
movej(p[0.410326109125985, 0.210567106376827, 0.316602543552614, -1.283, 0.713, -0.78], a = 0.2, v = 0.2, t = 0.1)
movej(p[0.410304369573333, 0.210555341273954, 0.316592494344543, -1.283, 0.713, -0.78], a = 0.2, v = 0.2, t = 0.1)
movej(p[0.410280884042065, 0.210536728475207, 0.316585338849811, -1.283, 0.713, -0.78], a = 0.2, v = 0.2, t = 0.1)
movej(p[0.410260457865025, 0.210516762988951, 0.31657830082089, -1.283, 0.713, -0.78], a = 0.2, v = 0.2, t = 0.1)
movej(p[0.41024667053165, 0.210501950495, 0.316570686112599, -1.283, 0.713, -0.78], a = 0.2, v = 0.2, t = 0.1)
movej(p[0.410242180885792, 0.210498946973308, 0.316562267924996, -1.283, 0.713, -0.78], a = 0.2, v = 0.2, t = 0.1)
movej(p[0.410243339081587, 0.21050471332467, 0.316556066829249, -1.283, 0.713, -0.78], a = 0.2, v = 0.2, t = 0.1)
movej(p[0.41024669429768, 0.210514768239891, 0.316553983437332, -1.283, 0.713, -0.78], a = 0.2, v = 0.2, t = 0.1)
movej(p[0.410250304825233, 0.210527736200361, 0.316555125866773, -1.283, 0.713, -0.78], a = 0.2, v = 0.2, t = 0.1)
movej(p[0.410254383702691, 0.210543126810174, 0.316559789433464, -1.283, 0.713, -0.78], a = 0.2, v = 0.2, t = 0.1)
movej(p[0.410259281203782, 0.210560703304567, 0.316566812759877, -1.283, 0.713, -0.78], a = 0.2, v = 0.2, t = 0.1)
movej(p[0.410265698513854, 0.210579089160776, 0.316574424696614, -1.283, 0.713, -0.78], a = 0.2, v = 0.2, t = 0.1)
movej(p[0.410275016339282, 0.210596607131677, 0.316581009998188, -1.283, 0.713, -0.78], a = 0.2, v = 0.2, t = 0.1)
movej(p[0.410288137847218, 0.210612701051554, 0.316586149575355, -1.283, 0.713, -0.78], a = 0.2, v = 0.2, t = 0.1)
movej(p[0.410304102891031, 0.210627707909299, 0.316589941723253, -1.283, 0.713, -0.78], a = 0.2, v = 0.2, t = 0.1)
movej(p[0.410321043882037, 0.210641157213175, 0.316590663838899, -1.283, 0.713, -0.78], a = 0.2, v = 0.2, t = 0.1)
movej(p[0.410337185998574, 0.21065307344322, 0.316588371138263, -1.283, 0.713, -0.78], a = 0.2, v = 0.2, t = 0.1)
movej(p[0.410351672911006, 0.210663333095424, 0.316583023868226, -1.283, 0.713, -0.78], a = 0.2, v = 0.2, t = 0.1)
movej(p[0.410364834288001, 0.210672685480764, 0.316577141479845, -1.283, 0.713, -0.78], a = 0.2, v = 0.2, t = 0.1)
movej(p[0.410377275159485, 0.210681596095222, 0.316571521402916, -1.283, 0.713, -0.78], a = 0.2, v = 0.2, t = 0.1)
movej(p[0.410390161982109, 0.210691982803747, 0.316565685752596, -1.283, 0.713, -0.78], a = 0.2, v = 0.2, t = 0.1)
movej(p[0.410402777909476, 0.210704596736348, 0.316560071934819, -1.283, 0.713, -0.78], a = 0.2, v = 0.2, t = 0.1)
movej(p[0.410414444858982, 0.210717452618013, 0.316554650282781, -1.283, 0.713, -0.78], a = 0.2, v = 0.2, t = 0.1)
movej(p[0.41042442499625, 0.210727530159661, 0.316547266607243, -1.283, 0.713, -0.78], a = 0.2, v = 0.2, t = 0.1)
movej(p[0.410432469822283, 0.210734728689872, 0.316535335334474, -1.283, 0.713, -0.78], a = 0.2, v = 0.2, t = 0.1)
movej(p[0.410437682626972, 0.210739434038792, 0.316517700174684, -1.283, 0.713, -0.78], a = 0.2, v = 0.2, t = 0.1)
movej(p[0.410438976173203, 0.210741746609919, 0.316498065167505, -1.283, 0.713, -0.78], a = 0.2, v = 0.2, t = 0.1)
movej(p[0.410436819537101, 0.210741839731738, 0.316479080984139, -1.283, 0.713, -0.78], a = 0.2, v = 0.2, t = 0.1)
movej(p[0.410432839469886, 0.210740839915714, 0.316461617594924, -1.283, 0.713, -0.78], a = 0.2, v = 0.2, t = 0.1)
movej(p[0.410428842987051, 0.210740057956572, 0.316444884864936, -1.283, 0.713, -0.78], a = 0.2, v = 0.2, t = 0.1)
movej(p[0.410424097454458, 0.210739730907362, 0.316428509749846, -1.283, 0.713, -0.78], a = 0.2, v = 0.2, t = 0.1)
movej(p[0.410417908090927, 0.210739861034362, 0.316411138036975, -1.283, 0.713, -0.78], a = 0.2, v = 0.2, t = 0.1)
movej(p[0.410411574525866, 0.210738677501493, 0.31638924937805, -1.283, 0.713, -0.78], a = 0.2, v = 0.2, t = 0.1)
movej(p[0.410406656300828, 0.210733716147758, 0.316364207090243, -1.283, 0.713, -0.78], a = 0.2, v = 0.2, t = 0.1)
movej(p[0.410402458992797, 0.210724230220583, 0.31633775616733, -1.283, 0.713, -0.78], a = 0.2, v = 0.2, t = 0.1)
movej(p[0.410398742595338, 0.210710780786809, 0.31631299887202, -1.283, 0.713, -0.78], a = 0.2, v = 0.2, t = 0.1)
movej(p[0.410393678140589, 0.210695321363505, 0.316293918871543, -1.283, 0.713, -0.78], a = 0.2, v = 0.2, t = 0.1)
movej(p[0.410387230157597, 0.21068060209251, 0.316277298035592, -1.283, 0.713, -0.78], a = 0.2, v = 0.2, t = 0.1)
movej(p[0.410380296440037, 0.210669846529588, 0.316258392173114, -1.283, 0.713, -0.78], a = 0.2, v = 0.2, t = 0.1)
movej(p[0.410372739764593, 0.210663081854228, 0.316236912341143, -1.283, 0.713, -0.78], a = 0.2, v = 0.2, t = 0.1)
movej(p[0.410364873537273, 0.210657423196556, 0.316215166739516, -1.283, 0.713, -0.78], a = 0.2, v = 0.2, t = 0.1)
movej(p[0.410356536938116, 0.210651008221662, 0.316194951321079, -1.283, 0.713, -0.78], a = 0.2, v = 0.2, t = 0.1)
movej(p[0.410348153047487, 0.210644010932998, 0.316175679128591, -1.283, 0.713, -0.78], a = 0.2, v = 0.2, t = 0.1)
movej(p[0.410340561340633, 0.210636129736532, 0.316159390946302, -1.283, 0.713, -0.78], a = 0.2, v = 0.2, t = 0.1)
movej(p[0.410333600059454, 0.210626550291087, 0.316147979547776, -1.283, 0.713, -0.78], a = 0.2, v = 0.2, t = 0.1)
movej(p[0.410326313280068, 0.21061566682224, 0.316141980048628, -1.283, 0.713, -0.78], a = 0.2, v = 0.2, t = 0.1)
movej(p[0.410318047119399, 0.210605278278338, 0.316139508172136, -1.283, 0.713, -0.78], a = 0.2, v = 0.2, t = 0.1)
movej(p[0.410309691213565, 0.210596331232239, 0.316138522032798, -1.283, 0.713, -0.78], a = 0.2, v = 0.2, t = 0.1)
movej(p[0.410301953249286, 0.210587958364288, 0.316139874603722, -1.283, 0.713, -0.78], a = 0.2, v = 0.2, t = 0.1)
movej(p[0.410294980129724, 0.210578410285874, 0.316143932119733, -1.283, 0.713, -0.78], a = 0.2, v = 0.2, t = 0.1)
movej(p[0.410288104845425, 0.210566121011226, 0.316151535181184, -1.283, 0.713, -0.78], a = 0.2, v = 0.2, t = 0.1)
movej(p[0.410281340029331, 0.210552061110129, 0.316160515097295, -1.283, 0.713, -0.78], a = 0.2, v = 0.2, t = 0.1)
movej(p[0.41027434248259, 0.210538715273082, 0.316169188984032, -1.283, 0.713, -0.78], a = 0.2, v = 0.2, t = 0.1)
movej(p[0.410266806774379, 0.210528381878201, 0.31617723748414, -1.283, 0.713, -0.78], a = 0.2, v = 0.2, t = 0.1)
movej(p[0.410257972721395, 0.210520958619029, 0.316181992649767, -1.283, 0.713, -0.78], a = 0.2, v = 0.2, t = 0.1)
movej(p[0.410246578965715, 0.210516123642083, 0.316183790463838, -1.283, 0.713, -0.78], a = 0.2, v = 0.2, t = 0.1)
movej(p[0.410233120841775, 0.210513563071628, 0.316184039503941, -1.283, 0.713, -0.78], a = 0.2, v = 0.2, t = 0.1)
movej(p[0.410219189709163, 0.210514072864552, 0.316185337975089, -1.283, 0.713, -0.78], a = 0.2, v = 0.2, t = 0.1)
movej(p[0.410206237143717, 0.210517034057899, 0.316188537885761, -1.283, 0.713, -0.78], a = 0.2, v = 0.2, t = 0.1)
movej(p[0.410195596409953, 0.210522967021541, 0.316191443894088, -1.283, 0.713, -0.78], a = 0.2, v = 0.2, t = 0.1)
movej(p[0.410188601277351, 0.210530945145976, 0.316191900688768, -1.283, 0.713, -0.78], a = 0.2, v = 0.2, t = 0.1)
movej(p[0.410185208013954, 0.210539300555084, 0.316189174374195, -1.283, 0.713, -0.78], a = 0.2, v = 0.2, t = 0.1)
movej(p[0.410183671203876, 0.210546340192213, 0.316185941787788, -1.283, 0.713, -0.78], a = 0.2, v = 0.2, t = 0.1)
movej(p[0.410182707859803, 0.210552038114797, 0.316182561293234, -1.283, 0.713, -0.78], a = 0.2, v = 0.2, t = 0.1)
movej(p[0.41018269745038, 0.210556693118837, 0.31618014584089, -1.283, 0.713, -0.78], a = 0.2, v = 0.2, t = 0.1)
movej(p[0.41018483712116, 0.210561139177031, 0.316178947607403, -1.283, 0.713, -0.78], a = 0.2, v = 0.2, t = 0.1)
movej(p[0.410189120745222, 0.210566598636794, 0.316178832260146, -1.283, 0.713, -0.78], a = 0.2, v = 0.2, t = 0.1)
movej(p[0.410194337778567, 0.21057347506002, 0.3161794243114, -1.283, 0.713, -0.78], a = 0.2, v = 0.2, t = 0.1)
movej(p[0.410199220176754, 0.210580624588733, 0.316180789846142, -1.283, 0.713, -0.78], a = 0.2, v = 0.2, t = 0.1)
