movej(p[0.446981776109081, 0.0576777615815219, 0.34333778070928, -1.222, 0.971, -1.041], a = 0.2, v = 0.2, t = 0.1)
movej(p[0.44697375950373, 0.0576791377216557, 0.343333017733112, -1.222, 0.971, -1.041], a = 0.2, v = 0.2, t = 0.1)
movej(p[0.446966945370804, 0.0576819287185011, 0.343323373768052, -1.222, 0.971, -1.041], a = 0.2, v = 0.2, t = 0.1)
movej(p[0.446960928115563, 0.0576859979732506, 0.34331200110068, -1.222, 0.971, -1.041], a = 0.2, v = 0.2, t = 0.1)
movej(p[0.44695721178263, 0.057691009143612, 0.343301583325719, -1.222, 0.971, -1.041], a = 0.2, v = 0.2, t = 0.1)
movej(p[0.446955141719644, 0.0576946841235372, 0.343294155889096, -1.222, 0.971, -1.041], a = 0.2, v = 0.2, t = 0.1)
movej(p[0.446955051545666, 0.0576958265594518, 0.343288465284749, -1.222, 0.971, -1.041], a = 0.2, v = 0.2, t = 0.1)
movej(p[0.446957222855731, 0.0576939146793148, 0.343284580499435, -1.222, 0.971, -1.041], a = 0.2, v = 0.2, t = 0.1)
movej(p[0.446962913891896, 0.0576890530944696, 0.34328453043788, -1.222, 0.971, -1.041], a = 0.2, v = 0.2, t = 0.1)
movej(p[0.446973710394955, 0.0576835457539122, 0.343289498376959, -1.222, 0.971, -1.041], a = 0.2, v = 0.2, t = 0.1)
movej(p[0.44699003051076, 0.0576802636056246, 0.343299312567639, -1.222, 0.971, -1.041], a = 0.2, v = 0.2, t = 0.1)
movej(p[0.447009064996617, 0.0576806310157478, 0.343310200202137, -1.222, 0.971, -1.041], a = 0.2, v = 0.2, t = 0.1)
movej(p[0.447028323688738, 0.0576841004064635, 0.343320692345858, -1.222, 0.971, -1.041], a = 0.2, v = 0.2, t = 0.1)
movej(p[0.447045351247159, 0.0576886001233728, 0.343330021086231, -1.222, 0.971, -1.041], a = 0.2, v = 0.2, t = 0.1)
movej(p[0.447061354466187, 0.0576934971281999, 0.343339106556966, -1.222, 0.971, -1.041], a = 0.2, v = 0.2, t = 0.1)
movej(p[0.447077927347643, 0.0576978346129307, 0.343348298554598, -1.222, 0.971, -1.041], a = 0.2, v = 0.2, t = 0.1)
movej(p[0.447095438852914, 0.0577017584116476, 0.343357790557588, -1.222, 0.971, -1.041], a = 0.2, v = 0.2, t = 0.1)
movej(p[0.447113346230581, 0.0577043550580238, 0.343369559074516, -1.222, 0.971, -1.041], a = 0.2, v = 0.2, t = 0.1)
movej(p[0.447130809154471, 0.0577062453280684, 0.343382722852825, -1.222, 0.971, -1.041], a = 0.2, v = 0.2, t = 0.1)
movej(p[0.447148006667613, 0.0577075508721873, 0.343397335238301, -1.222, 0.971, -1.041], a = 0.2, v = 0.2, t = 0.1)
movej(p[0.44716559773516, 0.0577098369402413, 0.343410804172535, -1.222, 0.971, -1.041], a = 0.2, v = 0.2, t = 0.1)
movej(p[0.447182864971543, 0.0577126536123563, 0.343422967183836, -1.222, 0.971, -1.041], a = 0.2, v = 0.2, t = 0.1)
movej(p[0.447198834304292, 0.0577160055630147, 0.343434240279387, -1.222, 0.971, -1.041], a = 0.2, v = 0.2, t = 0.1)
movej(p[0.447211543415405, 0.0577175294383582, 0.343445429658041, -1.222, 0.971, -1.041], a = 0.2, v = 0.2, t = 0.1)
movej(p[0.447218911113893, 0.0577152028512243, 0.343455228880271, -1.222, 0.971, -1.041], a = 0.2, v = 0.2, t = 0.1)
movej(p[0.447219873808175, 0.0577085151419924, 0.343462109945519, -1.222, 0.971, -1.041], a = 0.2, v = 0.2, t = 0.1)
movej(p[0.447214854336494, 0.0576993626080224, 0.343464047172137, -1.222, 0.971, -1.041], a = 0.2, v = 0.2, t = 0.1)
movej(p[0.447205983331068, 0.0576911670624929, 0.343461382277729, -1.222, 0.971, -1.041], a = 0.2, v = 0.2, t = 0.1)
movej(p[0.447194761819916, 0.0576857216667271, 0.343452455442319, -1.222, 0.971, -1.041], a = 0.2, v = 0.2, t = 0.1)
movej(p[0.447182017684945, 0.0576823036894072, 0.343437449230943, -1.222, 0.971, -1.041], a = 0.2, v = 0.2, t = 0.1)
movej(p[0.447168033335161, 0.0576807321051375, 0.343418574285804, -1.222, 0.971, -1.041], a = 0.2, v = 0.2, t = 0.1)
movej(p[0.447153270194828, 0.0576803064745832, 0.343398914279289, -1.222, 0.971, -1.041], a = 0.2, v = 0.2, t = 0.1)
movej(p[0.447138027591731, 0.0576802222592526, 0.343378117072659, -1.222, 0.971, -1.041], a = 0.2, v = 0.2, t = 0.1)
movej(p[0.447123286671363, 0.0576791744098708, 0.34335594006972, -1.222, 0.971, -1.041], a = 0.2, v = 0.2, t = 0.1)
movej(p[0.44710895746258, 0.0576764127395542, 0.343333330247679, -1.222, 0.971, -1.041], a = 0.2, v = 0.2, t = 0.1)
movej(p[0.44709487839647, 0.0576728111163961, 0.343311722272367, -1.222, 0.971, -1.041], a = 0.2, v = 0.2, t = 0.1)
movej(p[0.44708002299758, 0.0576683419949875, 0.343293229809885, -1.222, 0.971, -1.041], a = 0.2, v = 0.2, t = 0.1)
movej(p[0.447065325486043, 0.0576641584586118, 0.343279756803427, -1.222, 0.971, -1.041], a = 0.2, v = 0.2, t = 0.1)
movej(p[0.447052990893992, 0.057660259811221, 0.343272217177942, -1.222, 0.971, -1.041], a = 0.2, v = 0.2, t = 0.1)
movej(p[0.447044674218589, 0.0576572678223585, 0.343269510055133, -1.222, 0.971, -1.041], a = 0.2, v = 0.2, t = 0.1)
movej(p[0.447041541454675, 0.0576552227929659, 0.343270527346164, -1.222, 0.971, -1.041], a = 0.2, v = 0.2, t = 0.1)
movej(p[0.447045316875264, 0.0576540421159589, 0.343272682963519, -1.222, 0.971, -1.041], a = 0.2, v = 0.2, t = 0.1)
movej(p[0.447056189988385, 0.0576533306300287, 0.343274957847215, -1.222, 0.971, -1.041], a = 0.2, v = 0.2, t = 0.1)
movej(p[0.447072270606119, 0.0576529746399294, 0.343276767921896, -1.222, 0.971, -1.041], a = 0.2, v = 0.2, t = 0.1)
movej(p[0.447089331276431, 0.0576525757568806, 0.343279921989561, -1.222, 0.971, -1.041], a = 0.2, v = 0.2, t = 0.1)
movej(p[0.447105541831102, 0.057652182047241, 0.343285980465192, -1.222, 0.971, -1.041], a = 0.2, v = 0.2, t = 0.1)
movej(p[0.447120876181785, 0.057651752414841, 0.343295928211978, -1.222, 0.971, -1.041], a = 0.2, v = 0.2, t = 0.1)
movej(p[0.447134331035706, 0.0576519874249041, 0.343309938561911, -1.222, 0.971, -1.041], a = 0.2, v = 0.2, t = 0.1)
movej(p[0.4471446383021, 0.0576532178249408, 0.343325017431173, -1.222, 0.971, -1.041], a = 0.2, v = 0.2, t = 0.1)
movej(p[0.447151346734028, 0.057655895425173, 0.343338299339924, -1.222, 0.971, -1.041], a = 0.2, v = 0.2, t = 0.1)
movej(p[0.447156298401817, 0.0576604019100509, 0.3433504783839, -1.222, 0.971, -1.041], a = 0.2, v = 0.2, t = 0.1)
movej(p[0.447160503226948, 0.0576660473990411, 0.343360419269106, -1.222, 0.971, -1.041], a = 0.2, v = 0.2, t = 0.1)
movej(p[0.447163941790419, 0.0576711742108801, 0.343367153904777, -1.222, 0.971, -1.041], a = 0.2, v = 0.2, t = 0.1)
movej(p[0.447167140826371, 0.0576759953952951, 0.343368524901063, -1.222, 0.971, -1.041], a = 0.2, v = 0.2, t = 0.1)
movej(p[0.447168853491721, 0.0576810660618271, 0.343366766403603, -1.222, 0.971, -1.041], a = 0.2, v = 0.2, t = 0.1)
movej(p[0.447169287848104, 0.0576868616253745, 0.343364009257306, -1.222, 0.971, -1.041], a = 0.2, v = 0.2, t = 0.1)
movej(p[0.447168141546932, 0.0576923738762968, 0.343362147829522, -1.222, 0.971, -1.041], a = 0.2, v = 0.2, t = 0.1)
movej(p[0.447165488816468, 0.0576975410737054, 0.3433608592035, -1.222, 0.971, -1.041], a = 0.2, v = 0.2, t = 0.1)
movej(p[0.447161126911574, 0.0577026319270127, 0.343357006271071, -1.222, 0.971, -1.041], a = 0.2, v = 0.2, t = 0.1)
movej(p[0.447154555001374, 0.0577065865846856, 0.343348627577378, -1.222, 0.971, -1.041], a = 0.2, v = 0.2, t = 0.1)
movej(p[0.447144943370605, 0.057708554581569, 0.343338079600215, -1.222, 0.971, -1.041], a = 0.2, v = 0.2, t = 0.1)
movej(p[0.447132926362187, 0.057709648914918, 0.343328176952731, -1.222, 0.971, -1.041], a = 0.2, v = 0.2, t = 0.1)
movej(p[0.447120335881253, 0.0577108582768307, 0.343318556239108, -1.222, 0.971, -1.041], a = 0.2, v = 0.2, t = 0.1)
movej(p[0.447109401713933, 0.0577112265759409, 0.343307785598283, -1.222, 0.971, -1.041], a = 0.2, v = 0.2, t = 0.1)
movej(p[0.447100773332462, 0.0577090728664302, 0.343294367747392, -1.222, 0.971, -1.041], a = 0.2, v = 0.2, t = 0.1)
movej(p[0.447092916753753, 0.0577055386149378, 0.343277927025955, -1.222, 0.971, -1.041], a = 0.2, v = 0.2, t = 0.1)
movej(p[0.447086501991509, 0.0577015451187711, 0.343259345931511, -1.222, 0.971, -1.041], a = 0.2, v = 0.2, t = 0.1)
movej(p[0.447081151919262, 0.0576978286690708, 0.343240397776493, -1.222, 0.971, -1.041], a = 0.2, v = 0.2, t = 0.1)
movej(p[0.447076844932969, 0.0576938122151837, 0.343221971712637, -1.222, 0.971, -1.041], a = 0.2, v = 0.2, t = 0.1)
movej(p[0.447073858017306, 0.0576885193708408, 0.343203786735772, -1.222, 0.971, -1.041], a = 0.2, v = 0.2, t = 0.1)
movej(p[0.447073060237246, 0.0576824071618512, 0.343187839097255, -1.222, 0.971, -1.041], a = 0.2, v = 0.2, t = 0.1)
movej(p[0.447075910283256, 0.05767717655348, 0.343174869390289, -1.222, 0.971, -1.041], a = 0.2, v = 0.2, t = 0.1)
movej(p[0.447082848962683, 0.0576735051184748, 0.34316687453952, -1.222, 0.971, -1.041], a = 0.2, v = 0.2, t = 0.1)
movej(p[0.447092924302444, 0.0576699613292793, 0.343162161797448, -1.222, 0.971, -1.041], a = 0.2, v = 0.2, t = 0.1)
movej(p[0.447105257623371, 0.0576650654364223, 0.343161205194051, -1.222, 0.971, -1.041], a = 0.2, v = 0.2, t = 0.1)
movej(p[0.447118228419495, 0.0576596899738205, 0.343163268461054, -1.222, 0.971, -1.041], a = 0.2, v = 0.2, t = 0.1)
movej(p[0.44713112462584, 0.0576545535464124, 0.343167281667426, -1.222, 0.971, -1.041], a = 0.2, v = 0.2, t = 0.1)
movej(p[0.447143242942021, 0.057650417977371, 0.343171512247721, -1.222, 0.971, -1.041], a = 0.2, v = 0.2, t = 0.1)
movej(p[0.447154273704223, 0.0576469969467571, 0.343175462788415, -1.222, 0.971, -1.041], a = 0.2, v = 0.2, t = 0.1)
movej(p[0.447164848335541, 0.0576436004994619, 0.343179398023003, -1.222, 0.971, -1.041], a = 0.2, v = 0.2, t = 0.1)
movej(p[0.447175169191775, 0.0576397471753383, 0.343183390692512, -1.222, 0.971, -1.041], a = 0.2, v = 0.2, t = 0.1)
movej(p[0.447185167897881, 0.0576365127691601, 0.343187094175451, -1.222, 0.971, -1.041], a = 0.2, v = 0.2, t = 0.1)
movej(p[0.447194691308468, 0.0576348867199135, 0.343190342984715, -1.222, 0.971, -1.041], a = 0.2, v = 0.2, t = 0.1)
movej(p[0.44720376814784, 0.0576348817563728, 0.343195763188066, -1.222, 0.971, -1.041], a = 0.2, v = 0.2, t = 0.1)
movej(p[0.447212662127602, 0.0576359594957701, 0.343204509080176, -1.222, 0.971, -1.041], a = 0.2, v = 0.2, t = 0.1)
movej(p[0.447220361968826, 0.0576387915190899, 0.343216161759011, -1.222, 0.971, -1.041], a = 0.2, v = 0.2, t = 0.1)
movej(p[0.447225043014907, 0.0576445313306638, 0.343227602286127, -1.222, 0.971, -1.041], a = 0.2, v = 0.2, t = 0.1)
movej(p[0.447225563583179, 0.0576538051876077, 0.343235616010108, -1.222, 0.971, -1.041], a = 0.2, v = 0.2, t = 0.1)
movej(p[0.447222479151283, 0.0576655446773603, 0.343239455344716, -1.222, 0.971, -1.041], a = 0.2, v = 0.2, t = 0.1)
movej(p[0.447216315632553, 0.0576784171049044, 0.343240846438888, -1.222, 0.971, -1.041], a = 0.2, v = 0.2, t = 0.1)
movej(p[0.447206565840078, 0.0576910336999787, 0.343240147779159, -1.222, 0.971, -1.041], a = 0.2, v = 0.2, t = 0.1)
movej(p[0.447192235655507, 0.0577019093528635, 0.343238520284919, -1.222, 0.971, -1.041], a = 0.2, v = 0.2, t = 0.1)
movej(p[0.447174410679058, 0.0577101349129007, 0.343237466968893, -1.222, 0.971, -1.041], a = 0.2, v = 0.2, t = 0.1)
movej(p[0.447154976583833, 0.0577154093067281, 0.343237072037838, -1.222, 0.971, -1.041], a = 0.2, v = 0.2, t = 0.1)
movej(p[0.447135406969483, 0.0577200666188617, 0.343237062347941, -1.222, 0.971, -1.041], a = 0.2, v = 0.2, t = 0.1)
movej(p[0.447115882087033, 0.0577259419602429, 0.343238266330491, -1.222, 0.971, -1.041], a = 0.2, v = 0.2, t = 0.1)
movej(p[0.447096812518056, 0.057732855233149, 0.343241464763038, -1.222, 0.971, -1.041], a = 0.2, v = 0.2, t = 0.1)
movej(p[0.447079057268223, 0.0577399466872098, 0.343246899801645, -1.222, 0.971, -1.041], a = 0.2, v = 0.2, t = 0.1)
movej(p[0.447064275877, 0.0577455333710947, 0.343253526129337, -1.222, 0.971, -1.041], a = 0.2, v = 0.2, t = 0.1)
movej(p[0.447053166395436, 0.057750448088649, 0.343259921401398, -1.222, 0.971, -1.041], a = 0.2, v = 0.2, t = 0.1)
movej(p[0.447045252656846, 0.0577548319121867, 0.343264892849248, -1.222, 0.971, -1.041], a = 0.2, v = 0.2, t = 0.1)
movej(p[0.447038661816528, 0.0577577790546098, 0.343269333910883, -1.222, 0.971, -1.041], a = 0.2, v = 0.2, t = 0.1)
movej(p[0.447033145609157, 0.057757855442662, 0.34327436140868, -1.222, 0.971, -1.041], a = 0.2, v = 0.2, t = 0.1)
movej(p[0.447030457045552, 0.0577549285109447, 0.343280891952414, -1.222, 0.971, -1.041], a = 0.2, v = 0.2, t = 0.1)
movej(p[0.447031977471099, 0.0577506004620413, 0.343288484160383, -1.222, 0.971, -1.041], a = 0.2, v = 0.2, t = 0.1)
movej(p[0.447038887084273, 0.0577455820486657, 0.343296573139551, -1.222, 0.971, -1.041], a = 0.2, v = 0.2, t = 0.1)
movej(p[0.447051212785306, 0.0577401769564166, 0.343305027149891, -1.222, 0.971, -1.041], a = 0.2, v = 0.2, t = 0.1)
movej(p[0.447068848100618, 0.05773410562481, 0.343312903192829, -1.222, 0.971, -1.041], a = 0.2, v = 0.2, t = 0.1)
movej(p[0.447090716116491, 0.0577282647918273, 0.343319767088869, -1.222, 0.971, -1.041], a = 0.2, v = 0.2, t = 0.1)
movej(p[0.447115171037838, 0.0577235196637327, 0.343324744194281, -1.222, 0.971, -1.041], a = 0.2, v = 0.2, t = 0.1)
movej(p[0.447140738898103, 0.0577206614243048, 0.343326526638346, -1.222, 0.971, -1.041], a = 0.2, v = 0.2, t = 0.1)
movej(p[0.447166943244437, 0.0577182236260255, 0.343324407364235, -1.222, 0.971, -1.041], a = 0.2, v = 0.2, t = 0.1)
movej(p[0.447193040883939, 0.0577151238944325, 0.343321554903286, -1.222, 0.971, -1.041], a = 0.2, v = 0.2, t = 0.1)
movej(p[0.447218403901879, 0.0577109379275229, 0.343319193443351, -1.222, 0.971, -1.041], a = 0.2, v = 0.2, t = 0.1)
movej(p[0.447241668424905, 0.0577056117892776, 0.34331628815769, -1.222, 0.971, -1.041], a = 0.2, v = 0.2, t = 0.1)
movej(p[0.447261504315796, 0.0576995123948628, 0.343311856670998, -1.222, 0.971, -1.041], a = 0.2, v = 0.2, t = 0.1)
movej(p[0.447277316433361, 0.0576937162665648, 0.343306187937817, -1.222, 0.971, -1.041], a = 0.2, v = 0.2, t = 0.1)
movej(p[0.447290043942874, 0.057689857110601, 0.343301277804229, -1.222, 0.971, -1.041], a = 0.2, v = 0.2, t = 0.1)
movej(p[0.447300667317155, 0.0576874401750894, 0.343297594084965, -1.222, 0.971, -1.041], a = 0.2, v = 0.2, t = 0.1)
movej(p[0.447308226167792, 0.0576852303439475, 0.343295091344794, -1.222, 0.971, -1.041], a = 0.2, v = 0.2, t = 0.1)
movej(p[0.447312037892318, 0.0576833079317482, 0.343295501602607, -1.222, 0.971, -1.041], a = 0.2, v = 0.2, t = 0.1)
movej(p[0.447312826704074, 0.057680947742155, 0.343296688664989, -1.222, 0.971, -1.041], a = 0.2, v = 0.2, t = 0.1)
movej(p[0.447311921552308, 0.0576779577756273, 0.343297659739879, -1.222, 0.971, -1.041], a = 0.2, v = 0.2, t = 0.1)
movej(p[0.447309010927235, 0.0576749635117679, 0.343294490746249, -1.222, 0.971, -1.041], a = 0.2, v = 0.2, t = 0.1)
movej(p[0.447303687329445, 0.0576731884721905, 0.343286787089256, -1.222, 0.971, -1.041], a = 0.2, v = 0.2, t = 0.1)
movej(p[0.447295710919438, 0.0576727162388081, 0.343273992057953, -1.222, 0.971, -1.041], a = 0.2, v = 0.2, t = 0.1)
movej(p[0.447284878243249, 0.0576725071726133, 0.34325754408872, -1.222, 0.971, -1.041], a = 0.2, v = 0.2, t = 0.1)
movej(p[0.447271065455472, 0.0576720465528413, 0.343240326551606, -1.222, 0.971, -1.041], a = 0.2, v = 0.2, t = 0.1)
movej(p[0.447253888825941, 0.0576702446226224, 0.343223829396989, -1.222, 0.971, -1.041], a = 0.2, v = 0.2, t = 0.1)
movej(p[0.447232769562342, 0.057666072771169, 0.34320872950396, -1.222, 0.971, -1.041], a = 0.2, v = 0.2, t = 0.1)
movej(p[0.44720706022433, 0.0576599148400034, 0.343194133741126, -1.222, 0.971, -1.041], a = 0.2, v = 0.2, t = 0.1)
movej(p[0.447177917790834, 0.0576544226024277, 0.343179983541362, -1.222, 0.971, -1.041], a = 0.2, v = 0.2, t = 0.1)
movej(p[0.447147926665654, 0.0576514251612497, 0.343168706695624, -1.222, 0.971, -1.041], a = 0.2, v = 0.2, t = 0.1)
movej(p[0.447119710569998, 0.0576517834534486, 0.343161658637619, -1.222, 0.971, -1.041], a = 0.2, v = 0.2, t = 0.1)
movej(p[0.447095745652113, 0.0576544836052145, 0.343158077640519, -1.222, 0.971, -1.041], a = 0.2, v = 0.2, t = 0.1)
movej(p[0.447076512888952, 0.0576588668003529, 0.343156237770262, -1.222, 0.971, -1.041], a = 0.2, v = 0.2, t = 0.1)
movej(p[0.447061498613246, 0.057664735084021, 0.343153785529489, -1.222, 0.971, -1.041], a = 0.2, v = 0.2, t = 0.1)
movej(p[0.44704963782179, 0.0576717033609132, 0.343150217193294, -1.222, 0.971, -1.041], a = 0.2, v = 0.2, t = 0.1)
movej(p[0.447040845088503, 0.0576787309245729, 0.343146575773881, -1.222, 0.971, -1.041], a = 0.2, v = 0.2, t = 0.1)
movej(p[0.44703491912929, 0.0576859695983063, 0.343144707999004, -1.222, 0.971, -1.041], a = 0.2, v = 0.2, t = 0.1)
movej(p[0.447029744906559, 0.057696616362619, 0.343144536275973, -1.222, 0.971, -1.041], a = 0.2, v = 0.2, t = 0.1)
movej(p[0.447025031944157, 0.0577121970098528, 0.343146340635741, -1.222, 0.971, -1.041], a = 0.2, v = 0.2, t = 0.1)
movej(p[0.447020488659815, 0.0577326066172641, 0.343149369635033, -1.222, 0.971, -1.041], a = 0.2, v = 0.2, t = 0.1)
movej(p[0.447017392233803, 0.0577539851868386, 0.343154639082337, -1.222, 0.971, -1.041], a = 0.2, v = 0.2, t = 0.1)
movej(p[0.447015379947652, 0.0577738573331191, 0.343161775787155, -1.222, 0.971, -1.041], a = 0.2, v = 0.2, t = 0.1)
movej(p[0.447013498657941, 0.0577915342873109, 0.343171292023991, -1.222, 0.971, -1.041], a = 0.2, v = 0.2, t = 0.1)
movej(p[0.447011504033305, 0.057807192164177, 0.343182645170718, -1.222, 0.971, -1.041], a = 0.2, v = 0.2, t = 0.1)
movej(p[0.447009064209121, 0.0578209459247745, 0.343194706646888, -1.222, 0.971, -1.041], a = 0.2, v = 0.2, t = 0.1)
movej(p[0.447006786488461, 0.0578317602945241, 0.343205114638889, -1.222, 0.971, -1.041], a = 0.2, v = 0.2, t = 0.1)
movej(p[0.447004576892688, 0.0578390913032587, 0.343215174505859, -1.222, 0.971, -1.041], a = 0.2, v = 0.2, t = 0.1)
movej(p[0.447002708864195, 0.0578454076590258, 0.343225897381237, -1.222, 0.971, -1.041], a = 0.2, v = 0.2, t = 0.1)
movej(p[0.447001001743307, 0.0578526890837628, 0.343237450361203, -1.222, 0.971, -1.041], a = 0.2, v = 0.2, t = 0.1)
movej(p[0.446999472155614, 0.0578598674700533, 0.343248506911874, -1.222, 0.971, -1.041], a = 0.2, v = 0.2, t = 0.1)
movej(p[0.446996282694968, 0.0578645065520795, 0.343256264046896, -1.222, 0.971, -1.041], a = 0.2, v = 0.2, t = 0.1)
movej(p[0.44699021871769, 0.0578659503079469, 0.343259860626321, -1.222, 0.971, -1.041], a = 0.2, v = 0.2, t = 0.1)
movej(p[0.446980267507892, 0.0578658033286353, 0.343260863682479, -1.222, 0.971, -1.041], a = 0.2, v = 0.2, t = 0.1)
movej(p[0.446967594800338, 0.0578637543434452, 0.343261013325142, -1.222, 0.971, -1.041], a = 0.2, v = 0.2, t = 0.1)
movej(p[0.446951644037248, 0.0578604648677446, 0.343258531272876, -1.222, 0.971, -1.041], a = 0.2, v = 0.2, t = 0.1)
movej(p[0.446932638268881, 0.0578571192160767, 0.3432517214229, -1.222, 0.971, -1.041], a = 0.2, v = 0.2, t = 0.1)
movej(p[0.446911623134182, 0.0578539401648656, 0.343242538639879, -1.222, 0.971, -1.041], a = 0.2, v = 0.2, t = 0.1)
movej(p[0.446888340310128, 0.057851859544411, 0.343233758651918, -1.222, 0.971, -1.041], a = 0.2, v = 0.2, t = 0.1)
movej(p[0.446864335430554, 0.0578510042494719, 0.343226333834871, -1.222, 0.971, -1.041], a = 0.2, v = 0.2, t = 0.1)
movej(p[0.446842261316816, 0.057851746807364, 0.343218604015179, -1.222, 0.971, -1.041], a = 0.2, v = 0.2, t = 0.1)
movej(p[0.446823406802092, 0.0578517770970972, 0.343209980665826, -1.222, 0.971, -1.041], a = 0.2, v = 0.2, t = 0.1)
movej(p[0.446809007518789, 0.0578490062528508, 0.343200110244532, -1.222, 0.971, -1.041], a = 0.2, v = 0.2, t = 0.1)
movej(p[0.446799504249803, 0.0578418169885791, 0.343190634125505, -1.222, 0.971, -1.041], a = 0.2, v = 0.2, t = 0.1)
movej(p[0.44679679385022, 0.0578296091838629, 0.343182280636467, -1.222, 0.971, -1.041], a = 0.2, v = 0.2, t = 0.1)
movej(p[0.446799960845364, 0.0578142731404809, 0.343174578538302, -1.222, 0.971, -1.041], a = 0.2, v = 0.2, t = 0.1)
movej(p[0.446807392662185, 0.0577982665262052, 0.343167179081418, -1.222, 0.971, -1.041], a = 0.2, v = 0.2, t = 0.1)
movej(p[0.446817836467537, 0.0577825804059695, 0.34316217395088, -1.222, 0.971, -1.041], a = 0.2, v = 0.2, t = 0.1)
movej(p[0.446830787213762, 0.0577674734621932, 0.343161422477015, -1.222, 0.971, -1.041], a = 0.2, v = 0.2, t = 0.1)
movej(p[0.446847422917976, 0.0577527171045769, 0.343164928677981, -1.222, 0.971, -1.041], a = 0.2, v = 0.2, t = 0.1)
movej(p[0.446869440708142, 0.0577391376430947, 0.343171789317095, -1.222, 0.971, -1.041], a = 0.2, v = 0.2, t = 0.1)
movej(p[0.446895654049818, 0.0577268719531468, 0.343181007985233, -1.222, 0.971, -1.041], a = 0.2, v = 0.2, t = 0.1)
movej(p[0.446922785527736, 0.05771812952978, 0.343191513152279, -1.222, 0.971, -1.041], a = 0.2, v = 0.2, t = 0.1)
movej(p[0.446949621739999, 0.0577124117713512, 0.343200618687515, -1.222, 0.971, -1.041], a = 0.2, v = 0.2, t = 0.1)
movej(p[0.446975770718544, 0.0577092046778209, 0.343207133165325, -1.222, 0.971, -1.041], a = 0.2, v = 0.2, t = 0.1)
movej(p[0.447001062630194, 0.0577065580306206, 0.34321031304672, -1.222, 0.971, -1.041], a = 0.2, v = 0.2, t = 0.1)
movej(p[0.44702356309349, 0.0577040773052553, 0.343213462333485, -1.222, 0.971, -1.041], a = 0.2, v = 0.2, t = 0.1)
movej(p[0.447042037764766, 0.0577013842868841, 0.343218826762748, -1.222, 0.971, -1.041], a = 0.2, v = 0.2, t = 0.1)
movej(p[0.447056041376412, 0.0576989627797015, 0.343227170070235, -1.222, 0.971, -1.041], a = 0.2, v = 0.2, t = 0.1)
movej(p[0.44706498441503, 0.0576975089014866, 0.343236215004973, -1.222, 0.971, -1.041], a = 0.2, v = 0.2, t = 0.1)
movej(p[0.447068178328234, 0.0576982830768641, 0.343244111549023, -1.222, 0.971, -1.041], a = 0.2, v = 0.2, t = 0.1)
movej(p[0.447066004625036, 0.0577022033006217, 0.343250288186465, -1.222, 0.971, -1.041], a = 0.2, v = 0.2, t = 0.1)
movej(p[0.44705952544378, 0.0577087293546921, 0.343254767623542, -1.222, 0.971, -1.041], a = 0.2, v = 0.2, t = 0.1)
movej(p[0.447049950925395, 0.0577159995901605, 0.343260324363317, -1.222, 0.971, -1.041], a = 0.2, v = 0.2, t = 0.1)
movej(p[0.447037777224586, 0.0577222039061132, 0.343266159719877, -1.222, 0.971, -1.041], a = 0.2, v = 0.2, t = 0.1)
movej(p[0.447022774484801, 0.0577264763694667, 0.343270160299064, -1.222, 0.971, -1.041], a = 0.2, v = 0.2, t = 0.1)
movej(p[0.447005864243871, 0.057730848625252, 0.343267003761873, -1.222, 0.971, -1.041], a = 0.2, v = 0.2, t = 0.1)
movej(p[0.446987210298679, 0.0577364109572726, 0.343256610661409, -1.222, 0.971, -1.041], a = 0.2, v = 0.2, t = 0.1)
movej(p[0.446967482480316, 0.0577428470297286, 0.343242305211259, -1.222, 0.971, -1.041], a = 0.2, v = 0.2, t = 0.1)
movej(p[0.446945765691192, 0.0577475922880115, 0.343227724979849, -1.222, 0.971, -1.041], a = 0.2, v = 0.2, t = 0.1)
movej(p[0.446922918526318, 0.0577495450154371, 0.343214768258241, -1.222, 0.971, -1.041], a = 0.2, v = 0.2, t = 0.1)
movej(p[0.446899754704572, 0.0577499641231048, 0.343203104322333, -1.222, 0.971, -1.041], a = 0.2, v = 0.2, t = 0.1)
movej(p[0.446877657837693, 0.0577508864195644, 0.343193565484857, -1.222, 0.971, -1.041], a = 0.2, v = 0.2, t = 0.1)
movej(p[0.446859311272957, 0.0577526990713516, 0.343186464449308, -1.222, 0.971, -1.041], a = 0.2, v = 0.2, t = 0.1)
movej(p[0.446845775926915, 0.0577547458797159, 0.343182584279072, -1.222, 0.971, -1.041], a = 0.2, v = 0.2, t = 0.1)
movej(p[0.446837036654056, 0.0577565094721546, 0.343181281479544, -1.222, 0.971, -1.041], a = 0.2, v = 0.2, t = 0.1)
movej(p[0.446832758964718, 0.0577578560700548, 0.343182150156712, -1.222, 0.971, -1.041], a = 0.2, v = 0.2, t = 0.1)
movej(p[0.44683160252376, 0.0577597122697828, 0.343185602111358, -1.222, 0.971, -1.041], a = 0.2, v = 0.2, t = 0.1)
movej(p[0.446832365890858, 0.0577630385402519, 0.343190484114271, -1.222, 0.971, -1.041], a = 0.2, v = 0.2, t = 0.1)
movej(p[0.446834902434056, 0.0577687035501959, 0.343195124553144, -1.222, 0.971, -1.041], a = 0.2, v = 0.2, t = 0.1)
movej(p[0.446840027735246, 0.0577768818978273, 0.343198289287531, -1.222, 0.971, -1.041], a = 0.2, v = 0.2, t = 0.1)
movej(p[0.446848908659877, 0.0577866547317322, 0.343200921288321, -1.222, 0.971, -1.041], a = 0.2, v = 0.2, t = 0.1)
movej(p[0.446860902670352, 0.0577958227024305, 0.343202079162238, -1.222, 0.971, -1.041], a = 0.2, v = 0.2, t = 0.1)
movej(p[0.446875536679728, 0.0578027801943451, 0.343202350335333, -1.222, 0.971, -1.041], a = 0.2, v = 0.2, t = 0.1)
movej(p[0.4468919055475, 0.0578063554786183, 0.343202391117861, -1.222, 0.971, -1.041], a = 0.2, v = 0.2, t = 0.1)
movej(p[0.446908319351441, 0.05780448973837, 0.34320392985062, -1.222, 0.971, -1.041], a = 0.2, v = 0.2, t = 0.1)
movej(p[0.446923502713553, 0.0577965240582528, 0.343205576955429, -1.222, 0.971, -1.041], a = 0.2, v = 0.2, t = 0.1)
movej(p[0.446936448442479, 0.0577837217398025, 0.343206677937214, -1.222, 0.971, -1.041], a = 0.2, v = 0.2, t = 0.1)
movej(p[0.446946969503979, 0.0577697312289287, 0.34320670640483, -1.222, 0.971, -1.041], a = 0.2, v = 0.2, t = 0.1)
movej(p[0.446955412191318, 0.0577560624754956, 0.343205614699247, -1.222, 0.971, -1.041], a = 0.2, v = 0.2, t = 0.1)
movej(p[0.44696204260707, 0.0577438491967431, 0.34320169715677, -1.222, 0.971, -1.041], a = 0.2, v = 0.2, t = 0.1)
movej(p[0.446967494937906, 0.0577330010287666, 0.343192481981567, -1.222, 0.971, -1.041], a = 0.2, v = 0.2, t = 0.1)
movej(p[0.446970954438379, 0.0577240205195389, 0.343178947401319, -1.222, 0.971, -1.041], a = 0.2, v = 0.2, t = 0.1)
movej(p[0.446971722448096, 0.0577181997464784, 0.343165472853273, -1.222, 0.971, -1.041], a = 0.2, v = 0.2, t = 0.1)
movej(p[0.446970101423075, 0.0577149760155897, 0.343155853919442, -1.222, 0.971, -1.041], a = 0.2, v = 0.2, t = 0.1)
movej(p[0.446966220041655, 0.057712885104637, 0.343152431651969, -1.222, 0.971, -1.041], a = 0.2, v = 0.2, t = 0.1)
movej(p[0.446960173460043, 0.0577100119390236, 0.343153510219615, -1.222, 0.971, -1.041], a = 0.2, v = 0.2, t = 0.1)
movej(p[0.446950708155496, 0.0577070315574287, 0.343157474589094, -1.222, 0.971, -1.041], a = 0.2, v = 0.2, t = 0.1)
movej(p[0.446937541474678, 0.057705632805839, 0.343161600446123, -1.222, 0.971, -1.041], a = 0.2, v = 0.2, t = 0.1)
movej(p[0.44692133169621, 0.0577044045910708, 0.343163545747514, -1.222, 0.971, -1.041], a = 0.2, v = 0.2, t = 0.1)
movej(p[0.446903294386286, 0.0577029339069664, 0.343162588275335, -1.222, 0.971, -1.041], a = 0.2, v = 0.2, t = 0.1)
movej(p[0.446884230187082, 0.0577014066585995, 0.343158822079621, -1.222, 0.971, -1.041], a = 0.2, v = 0.2, t = 0.1)
movej(p[0.446864996309316, 0.057701006475918, 0.343152755210501, -1.222, 0.971, -1.041], a = 0.2, v = 0.2, t = 0.1)
movej(p[0.446845793702652, 0.0577012537106359, 0.343145601386538, -1.222, 0.971, -1.041], a = 0.2, v = 0.2, t = 0.1)
movej(p[0.446827160010286, 0.0577010418713221, 0.343137901378948, -1.222, 0.971, -1.041], a = 0.2, v = 0.2, t = 0.1)
movej(p[0.446809748046325, 0.0576993312647121, 0.343128808284751, -1.222, 0.971, -1.041], a = 0.2, v = 0.2, t = 0.1)
movej(p[0.44679441003959, 0.0576955615503574, 0.343116594563898, -1.222, 0.971, -1.041], a = 0.2, v = 0.2, t = 0.1)
movej(p[0.446781555727062, 0.0576900787384067, 0.343101985768994, -1.222, 0.971, -1.041], a = 0.2, v = 0.2, t = 0.1)
movej(p[0.446770396433874, 0.0576827984142947, 0.343085812664828, -1.222, 0.971, -1.041], a = 0.2, v = 0.2, t = 0.1)
movej(p[0.446760225273017, 0.0576742334182981, 0.343070671294468, -1.222, 0.971, -1.041], a = 0.2, v = 0.2, t = 0.1)
movej(p[0.446752169315812, 0.0576644462875504, 0.343058368474822, -1.222, 0.971, -1.041], a = 0.2, v = 0.2, t = 0.1)
movej(p[0.446746836485204, 0.057654266811614, 0.343050633159614, -1.222, 0.971, -1.041], a = 0.2, v = 0.2, t = 0.1)
movej(p[0.446745508455857, 0.0576442528047109, 0.343047472373984, -1.222, 0.971, -1.041], a = 0.2, v = 0.2, t = 0.1)
movej(p[0.446748889284956, 0.0576346536430691, 0.343046830093376, -1.222, 0.971, -1.041], a = 0.2, v = 0.2, t = 0.1)
movej(p[0.446757031372306, 0.057626506498595, 0.343047159481439, -1.222, 0.971, -1.041], a = 0.2, v = 0.2, t = 0.1)
movej(p[0.446768872940409, 0.0576196122261939, 0.343049097007161, -1.222, 0.971, -1.041], a = 0.2, v = 0.2, t = 0.1)
movej(p[0.44678304099149, 0.0576118739335543, 0.343053329462902, -1.222, 0.971, -1.041], a = 0.2, v = 0.2, t = 0.1)
movej(p[0.446798969961769, 0.0576032149353991, 0.343057953812671, -1.222, 0.971, -1.041], a = 0.2, v = 0.2, t = 0.1)
movej(p[0.446815441572684, 0.0575950336131989, 0.343062114798844, -1.222, 0.971, -1.041], a = 0.2, v = 0.2, t = 0.1)
movej(p[0.446830797140507, 0.0575881893789235, 0.343064104937786, -1.222, 0.971, -1.041], a = 0.2, v = 0.2, t = 0.1)
movej(p[0.446843878268312, 0.0575820867636368, 0.343064443369465, -1.222, 0.971, -1.041], a = 0.2, v = 0.2, t = 0.1)
movej(p[0.446853781095352, 0.0575763957773698, 0.343062166201063, -1.222, 0.971, -1.041], a = 0.2, v = 0.2, t = 0.1)
movej(p[0.446860585881815, 0.0575720766962599, 0.343057992402008, -1.222, 0.971, -1.041], a = 0.2, v = 0.2, t = 0.1)
movej(p[0.446865188515909, 0.057569808689296, 0.343052296721292, -1.222, 0.971, -1.041], a = 0.2, v = 0.2, t = 0.1)
movej(p[0.446865201266525, 0.0575685091907776, 0.34304706417344, -1.222, 0.971, -1.041], a = 0.2, v = 0.2, t = 0.1)
movej(p[0.446859164466304, 0.057567895853755, 0.343042531026102, -1.222, 0.971, -1.041], a = 0.2, v = 0.2, t = 0.1)
movej(p[0.446846769184651, 0.0575678616793142, 0.343038779560011, -1.222, 0.971, -1.041], a = 0.2, v = 0.2, t = 0.1)
movej(p[0.446830320964537, 0.0575703808829519, 0.343033848036198, -1.222, 0.971, -1.041], a = 0.2, v = 0.2, t = 0.1)
movej(p[0.446810835703372, 0.0575748693891897, 0.343026521338504, -1.222, 0.971, -1.041], a = 0.2, v = 0.2, t = 0.1)
movej(p[0.446788262088635, 0.0575811425720686, 0.343017722857028, -1.222, 0.971, -1.041], a = 0.2, v = 0.2, t = 0.1)
movej(p[0.446764396998123, 0.0575877099638261, 0.34300947210583, -1.222, 0.971, -1.041], a = 0.2, v = 0.2, t = 0.1)
movej(p[0.446741251005483, 0.057593580187661, 0.342999916421248, -1.222, 0.971, -1.041], a = 0.2, v = 0.2, t = 0.1)
movej(p[0.446720351483113, 0.0575969793894359, 0.342988339883553, -1.222, 0.971, -1.041], a = 0.2, v = 0.2, t = 0.1)
movej(p[0.446701668340165, 0.0575977791681688, 0.342975832374265, -1.222, 0.971, -1.041], a = 0.2, v = 0.2, t = 0.1)
movej(p[0.446684595476401, 0.0575961488675325, 0.342963577216342, -1.222, 0.971, -1.041], a = 0.2, v = 0.2, t = 0.1)
movej(p[0.44666823797859, 0.0575934812297876, 0.342953972393167, -1.222, 0.971, -1.041], a = 0.2, v = 0.2, t = 0.1)
movej(p[0.446652693516806, 0.0575916084706801, 0.342945515406814, -1.222, 0.971, -1.041], a = 0.2, v = 0.2, t = 0.1)
movej(p[0.446639047728219, 0.0575917649708256, 0.342935331622275, -1.222, 0.971, -1.041], a = 0.2, v = 0.2, t = 0.1)
movej(p[0.446628427032806, 0.0575940315576596, 0.342920821427856, -1.222, 0.971, -1.041], a = 0.2, v = 0.2, t = 0.1)
movej(p[0.446620770999218, 0.0575993238500039, 0.342903631784159, -1.222, 0.971, -1.041], a = 0.2, v = 0.2, t = 0.1)
movej(p[0.446615756234317, 0.057607608737104, 0.342886936497976, -1.222, 0.971, -1.041], a = 0.2, v = 0.2, t = 0.1)
movej(p[0.4466130698844, 0.0576178855085856, 0.342872422246013, -1.222, 0.971, -1.041], a = 0.2, v = 0.2, t = 0.1)
movej(p[0.446612522472157, 0.05762783516989, 0.34286108123822, -1.222, 0.971, -1.041], a = 0.2, v = 0.2, t = 0.1)
movej(p[0.446613604480862, 0.0576377638499443, 0.342852734917082, -1.222, 0.971, -1.041], a = 0.2, v = 0.2, t = 0.1)
movej(p[0.446616040423565, 0.0576479295033462, 0.342848070229733, -1.222, 0.971, -1.041], a = 0.2, v = 0.2, t = 0.1)
movej(p[0.446621310253075, 0.0576579246047027, 0.342845902778971, -1.222, 0.971, -1.041], a = 0.2, v = 0.2, t = 0.1)
movej(p[0.44662891832551, 0.0576663621237747, 0.342847236587332, -1.222, 0.971, -1.041], a = 0.2, v = 0.2, t = 0.1)
movej(p[0.44663844775478, 0.0576734925642862, 0.342852278881441, -1.222, 0.971, -1.041], a = 0.2, v = 0.2, t = 0.1)
movej(p[0.446649080171216, 0.0576798748907085, 0.342860841101491, -1.222, 0.971, -1.041], a = 0.2, v = 0.2, t = 0.1)
movej(p[0.44666025394332, 0.0576859045180953, 0.342871493627602, -1.222, 0.971, -1.041], a = 0.2, v = 0.2, t = 0.1)
movej(p[0.446670912992165, 0.0576915286859181, 0.34288291209856, -1.222, 0.971, -1.041], a = 0.2, v = 0.2, t = 0.1)
movej(p[0.446680664995778, 0.057696032260192, 0.342894267355241, -1.222, 0.971, -1.041], a = 0.2, v = 0.2, t = 0.1)
movej(p[0.446689143519045, 0.0576994261767626, 0.342906084430705, -1.222, 0.971, -1.041], a = 0.2, v = 0.2, t = 0.1)
movej(p[0.446696247692591, 0.0577027279179375, 0.342916161179607, -1.222, 0.971, -1.041], a = 0.2, v = 0.2, t = 0.1)
movej(p[0.446701153653335, 0.0577063606933221, 0.342922144638656, -1.222, 0.971, -1.041], a = 0.2, v = 0.2, t = 0.1)
movej(p[0.446703265578019, 0.0577095246729158, 0.342923877675372, -1.222, 0.971, -1.041], a = 0.2, v = 0.2, t = 0.1)
movej(p[0.446703420983392, 0.0577114841890914, 0.342923194825075, -1.222, 0.971, -1.041], a = 0.2, v = 0.2, t = 0.1)
movej(p[0.446702900022476, 0.0577124655521818, 0.342924786838332, -1.222, 0.971, -1.041], a = 0.2, v = 0.2, t = 0.1)
movej(p[0.446702100146805, 0.0577119992575368, 0.342930399560685, -1.222, 0.971, -1.041], a = 0.2, v = 0.2, t = 0.1)
movej(p[0.446699162053815, 0.0577105998220441, 0.342940376636353, -1.222, 0.971, -1.041], a = 0.2, v = 0.2, t = 0.1)
movej(p[0.446693673094524, 0.0577074587122284, 0.342949318489015, -1.222, 0.971, -1.041], a = 0.2, v = 0.2, t = 0.1)
movej(p[0.446684568647012, 0.0577031149278023, 0.342954765273052, -1.222, 0.971, -1.041], a = 0.2, v = 0.2, t = 0.1)
movej(p[0.446671419689765, 0.0576971026955537, 0.342956544881354, -1.222, 0.971, -1.041], a = 0.2, v = 0.2, t = 0.1)
movej(p[0.44665344748052, 0.0576901423761157, 0.342955859399628, -1.222, 0.971, -1.041], a = 0.2, v = 0.2, t = 0.1)
movej(p[0.446632085417717, 0.0576829253106171, 0.342953814802266, -1.222, 0.971, -1.041], a = 0.2, v = 0.2, t = 0.1)
movej(p[0.446609613428522, 0.0576760946534527, 0.342948473540681, -1.222, 0.971, -1.041], a = 0.2, v = 0.2, t = 0.1)
movej(p[0.446586444715637, 0.0576699569328473, 0.342941667430631, -1.222, 0.971, -1.041], a = 0.2, v = 0.2, t = 0.1)
movej(p[0.446563113428924, 0.0576650450713813, 0.342934350454531, -1.222, 0.971, -1.041], a = 0.2, v = 0.2, t = 0.1)
movej(p[0.446540431762301, 0.0576598029167354, 0.342930036496272, -1.222, 0.971, -1.041], a = 0.2, v = 0.2, t = 0.1)
movej(p[0.446519538916538, 0.0576533203153909, 0.342928040845567, -1.222, 0.971, -1.041], a = 0.2, v = 0.2, t = 0.1)
movej(p[0.446500167788458, 0.0576460584122939, 0.342926101364882, -1.222, 0.971, -1.041], a = 0.2, v = 0.2, t = 0.1)
movej(p[0.44648298265274, 0.057639720985714, 0.342922062400077, -1.222, 0.971, -1.041], a = 0.2, v = 0.2, t = 0.1)
movej(p[0.446469699649838, 0.057633894688864, 0.342916180312954, -1.222, 0.971, -1.041], a = 0.2, v = 0.2, t = 0.1)
movej(p[0.44646127169561, 0.0576281615086281, 0.342910951786592, -1.222, 0.971, -1.041], a = 0.2, v = 0.2, t = 0.1)
movej(p[0.446457921935478, 0.0576227080853723, 0.342908347388802, -1.222, 0.971, -1.041], a = 0.2, v = 0.2, t = 0.1)
movej(p[0.446459261664826, 0.0576175293662957, 0.342908335430601, -1.222, 0.971, -1.041], a = 0.2, v = 0.2, t = 0.1)
movej(p[0.446464882920496, 0.0576127458140534, 0.342910999079346, -1.222, 0.971, -1.041], a = 0.2, v = 0.2, t = 0.1)
movej(p[0.446473711542965, 0.0576074216668549, 0.342917639985603, -1.222, 0.971, -1.041], a = 0.2, v = 0.2, t = 0.1)
movej(p[0.44648504953816, 0.0576024843161396, 0.342929118656427, -1.222, 0.971, -1.041], a = 0.2, v = 0.2, t = 0.1)
movej(p[0.446499298684554, 0.0575970765209573, 0.342942992707324, -1.222, 0.971, -1.041], a = 0.2, v = 0.2, t = 0.1)
movej(p[0.446516232285464, 0.0575906293526555, 0.342955850376168, -1.222, 0.971, -1.041], a = 0.2, v = 0.2, t = 0.1)
movej(p[0.446535600197559, 0.0575844448922564, 0.342963669972107, -1.222, 0.971, -1.041], a = 0.2, v = 0.2, t = 0.1)
movej(p[0.446555598807827, 0.0575796274786036, 0.342968460164803, -1.222, 0.971, -1.041], a = 0.2, v = 0.2, t = 0.1)
movej(p[0.446575573536112, 0.0575772399363687, 0.342971838869438, -1.222, 0.971, -1.041], a = 0.2, v = 0.2, t = 0.1)
movej(p[0.446594588145927, 0.0575783417592988, 0.342975486608027, -1.222, 0.971, -1.041], a = 0.2, v = 0.2, t = 0.1)
movej(p[0.446612613140149, 0.057582923250192, 0.34297812952034, -1.222, 0.971, -1.041], a = 0.2, v = 0.2, t = 0.1)
movej(p[0.446629037567493, 0.0575906766295475, 0.342978425364855, -1.222, 0.971, -1.041], a = 0.2, v = 0.2, t = 0.1)
movej(p[0.446643409926225, 0.0575991642580221, 0.342976093183182, -1.222, 0.971, -1.041], a = 0.2, v = 0.2, t = 0.1)
movej(p[0.446655896870105, 0.0576067416489715, 0.34297368497203, -1.222, 0.971, -1.041], a = 0.2, v = 0.2, t = 0.1)
movej(p[0.44666630291239, 0.0576127422879148, 0.342973018724904, -1.222, 0.971, -1.041], a = 0.2, v = 0.2, t = 0.1)
movej(p[0.446675135394385, 0.0576179084915699, 0.342973675757326, -1.222, 0.971, -1.041], a = 0.2, v = 0.2, t = 0.1)
movej(p[0.446681942718731, 0.0576222260589413, 0.342974481204556, -1.222, 0.971, -1.041], a = 0.2, v = 0.2, t = 0.1)
movej(p[0.446686707022384, 0.0576222595720332, 0.3429774207388, -1.222, 0.971, -1.041], a = 0.2, v = 0.2, t = 0.1)
movej(p[0.44668791801703, 0.0576164509719008, 0.342982888900965, -1.222, 0.971, -1.041], a = 0.2, v = 0.2, t = 0.1)
movej(p[0.446684281561614, 0.0576069412036388, 0.34298724735489, -1.222, 0.971, -1.041], a = 0.2, v = 0.2, t = 0.1)
movej(p[0.446676851263649, 0.0575984964502237, 0.342985347349653, -1.222, 0.971, -1.041], a = 0.2, v = 0.2, t = 0.1)
movej(p[0.446665728887593, 0.0575930118853818, 0.342977133400641, -1.222, 0.971, -1.041], a = 0.2, v = 0.2, t = 0.1)
movej(p[0.446651116038326, 0.0575899091225363, 0.342964358411286, -1.222, 0.971, -1.041], a = 0.2, v = 0.2, t = 0.1)
movej(p[0.446634476153208, 0.057589043636593, 0.342948780576283, -1.222, 0.971, -1.041], a = 0.2, v = 0.2, t = 0.1)
movej(p[0.446616803404458, 0.0575895038903837, 0.342933402405682, -1.222, 0.971, -1.041], a = 0.2, v = 0.2, t = 0.1)
movej(p[0.446598252414647, 0.057591455597898, 0.342920026361057, -1.222, 0.971, -1.041], a = 0.2, v = 0.2, t = 0.1)
movej(p[0.446578314639469, 0.0575940129580827, 0.342909348624272, -1.222, 0.971, -1.041], a = 0.2, v = 0.2, t = 0.1)
movej(p[0.44655791502226, 0.0575965670870259, 0.342900542688089, -1.222, 0.971, -1.041], a = 0.2, v = 0.2, t = 0.1)
movej(p[0.446537230317322, 0.0575985140441202, 0.342891818289215, -1.222, 0.971, -1.041], a = 0.2, v = 0.2, t = 0.1)
movej(p[0.446516540216324, 0.0575989302591653, 0.34288325811172, -1.222, 0.971, -1.041], a = 0.2, v = 0.2, t = 0.1)
movej(p[0.446496539733849, 0.0575980377250738, 0.342875615822559, -1.222, 0.971, -1.041], a = 0.2, v = 0.2, t = 0.1)
movej(p[0.446479790560886, 0.057595763353984, 0.342870468758228, -1.222, 0.971, -1.041], a = 0.2, v = 0.2, t = 0.1)
movej(p[0.446467622862117, 0.0575920207222661, 0.342868103028639, -1.222, 0.971, -1.041], a = 0.2, v = 0.2, t = 0.1)
movej(p[0.44646008651426, 0.057587965168467, 0.342868966738863, -1.222, 0.971, -1.041], a = 0.2, v = 0.2, t = 0.1)
movej(p[0.446456162251412, 0.0575839146931309, 0.342872774066095, -1.222, 0.971, -1.041], a = 0.2, v = 0.2, t = 0.1)
movej(p[0.446454248688602, 0.0575807618124071, 0.342878384299113, -1.222, 0.971, -1.041], a = 0.2, v = 0.2, t = 0.1)
movej(p[0.446454697906737, 0.0575780766324142, 0.342883185069204, -1.222, 0.971, -1.041], a = 0.2, v = 0.2, t = 0.1)
movej(p[0.446457468911488, 0.0575765940919037, 0.342885247604611, -1.222, 0.971, -1.041], a = 0.2, v = 0.2, t = 0.1)
movej(p[0.446460998677672, 0.0575759981460064, 0.342879108113983, -1.222, 0.971, -1.041], a = 0.2, v = 0.2, t = 0.1)
movej(p[0.446465859985121, 0.0575762006868787, 0.342866087341154, -1.222, 0.971, -1.041], a = 0.2, v = 0.2, t = 0.1)
movej(p[0.446473279559568, 0.057577416589213, 0.342849927638169, -1.222, 0.971, -1.041], a = 0.2, v = 0.2, t = 0.1)
movej(p[0.446485755309608, 0.0575799078242607, 0.342837329589833, -1.222, 0.971, -1.041], a = 0.2, v = 0.2, t = 0.1)
movej(p[0.446501643021515, 0.0575836907046845, 0.342829659950007, -1.222, 0.971, -1.041], a = 0.2, v = 0.2, t = 0.1)
movej(p[0.446519482344487, 0.0575881810253403, 0.342827109257101, -1.222, 0.971, -1.041], a = 0.2, v = 0.2, t = 0.1)
movej(p[0.446538422625764, 0.0575934000340014, 0.342828310105025, -1.222, 0.971, -1.041], a = 0.2, v = 0.2, t = 0.1)
movej(p[0.446557266515863, 0.0575980944572738, 0.3428320736519, -1.222, 0.971, -1.041], a = 0.2, v = 0.2, t = 0.1)
movej(p[0.446574723055346, 0.0576025680471873, 0.342837246155799, -1.222, 0.971, -1.041], a = 0.2, v = 0.2, t = 0.1)
movej(p[0.446589591403522, 0.0576073163422038, 0.342844373183647, -1.222, 0.971, -1.041], a = 0.2, v = 0.2, t = 0.1)
movej(p[0.446601135293752, 0.057612086477619, 0.342852765187131, -1.222, 0.971, -1.041], a = 0.2, v = 0.2, t = 0.1)
movej(p[0.446609075784886, 0.0576160073284963, 0.342859913986397, -1.222, 0.971, -1.041], a = 0.2, v = 0.2, t = 0.1)
movej(p[0.446613830524913, 0.0576193246518361, 0.342862981261758, -1.222, 0.971, -1.041], a = 0.2, v = 0.2, t = 0.1)
movej(p[0.44661632949168, 0.0576213852557614, 0.342862504037955, -1.222, 0.971, -1.041], a = 0.2, v = 0.2, t = 0.1)
movej(p[0.446615996403427, 0.057622346107575, 0.342860830899584, -1.222, 0.971, -1.041], a = 0.2, v = 0.2, t = 0.1)
movej(p[0.446611583701013, 0.0576229480691683, 0.342859902255067, -1.222, 0.971, -1.041], a = 0.2, v = 0.2, t = 0.1)
movej(p[0.446602783104833, 0.0576260816061129, 0.342856773729519, -1.222, 0.971, -1.041], a = 0.2, v = 0.2, t = 0.1)
movej(p[0.446589976238665, 0.057632547235085, 0.342850182556791, -1.222, 0.971, -1.041], a = 0.2, v = 0.2, t = 0.1)
movej(p[0.446574003006375, 0.0576413717570232, 0.342841557999308, -1.222, 0.971, -1.041], a = 0.2, v = 0.2, t = 0.1)
movej(p[0.446555728831294, 0.0576504798543643, 0.34283249383261, -1.222, 0.971, -1.041], a = 0.2, v = 0.2, t = 0.1)
movej(p[0.446536056641265, 0.0576584819708259, 0.342825595344905, -1.222, 0.971, -1.041], a = 0.2, v = 0.2, t = 0.1)
movej(p[0.446514753435687, 0.0576635347629067, 0.342824179791904, -1.222, 0.971, -1.041], a = 0.2, v = 0.2, t = 0.1)
movej(p[0.446493657670645, 0.0576659315148621, 0.342827652920656, -1.222, 0.971, -1.041], a = 0.2, v = 0.2, t = 0.1)
movej(p[0.446474227340123, 0.0576664986227644, 0.342835656669619, -1.222, 0.971, -1.041], a = 0.2, v = 0.2, t = 0.1)
movej(p[0.446456133250306, 0.057666141166436, 0.342845667100611, -1.222, 0.971, -1.041], a = 0.2, v = 0.2, t = 0.1)
movej(p[0.446439922755952, 0.0576657472009753, 0.342854424137726, -1.222, 0.971, -1.041], a = 0.2, v = 0.2, t = 0.1)
movej(p[0.44642465979155, 0.0576650254330387, 0.342862510975223, -1.222, 0.971, -1.041], a = 0.2, v = 0.2, t = 0.1)
movej(p[0.446409915521286, 0.0576639179027744, 0.342869052303153, -1.222, 0.971, -1.041], a = 0.2, v = 0.2, t = 0.1)
movej(p[0.446397281047353, 0.0576623898962112, 0.342874101156922, -1.222, 0.971, -1.041], a = 0.2, v = 0.2, t = 0.1)
movej(p[0.44638886948745, 0.0576606407927213, 0.34287799061678, -1.222, 0.971, -1.041], a = 0.2, v = 0.2, t = 0.1)
movej(p[0.44638614464697, 0.0576586112275222, 0.342880641287537, -1.222, 0.971, -1.041], a = 0.2, v = 0.2, t = 0.1)
movej(p[0.446388513110232, 0.0576570383291819, 0.342880723522509, -1.222, 0.971, -1.041], a = 0.2, v = 0.2, t = 0.1)
movej(p[0.446395301245092, 0.0576556103091223, 0.342877409915135, -1.222, 0.971, -1.041], a = 0.2, v = 0.2, t = 0.1)
movej(p[0.446405564887513, 0.0576526214474454, 0.342873559332305, -1.222, 0.971, -1.041], a = 0.2, v = 0.2, t = 0.1)
movej(p[0.446418775307531, 0.0576472494983934, 0.342870946852197, -1.222, 0.971, -1.041], a = 0.2, v = 0.2, t = 0.1)
movej(p[0.446434201425942, 0.0576404104826804, 0.342871141171164, -1.222, 0.971, -1.041], a = 0.2, v = 0.2, t = 0.1)
movej(p[0.446450810807983, 0.0576328287432256, 0.342873325891755, -1.222, 0.971, -1.041], a = 0.2, v = 0.2, t = 0.1)
movej(p[0.446467478463153, 0.0576260456259664, 0.342876522405226, -1.222, 0.971, -1.041], a = 0.2, v = 0.2, t = 0.1)
movej(p[0.446484504262322, 0.0576213844905646, 0.342879490631874, -1.222, 0.971, -1.041], a = 0.2, v = 0.2, t = 0.1)
movej(p[0.446503239120707, 0.0576195712457943, 0.342880020218216, -1.222, 0.971, -1.041], a = 0.2, v = 0.2, t = 0.1)
movej(p[0.446522600160811, 0.0576190241978393, 0.342878515420356, -1.222, 0.971, -1.041], a = 0.2, v = 0.2, t = 0.1)
movej(p[0.446536980776153, 0.0576180823597467, 0.342875611331273, -1.222, 0.971, -1.041], a = 0.2, v = 0.2, t = 0.1)
movej(p[0.446544085297463, 0.0576155685766288, 0.342874211646884, -1.222, 0.971, -1.041], a = 0.2, v = 0.2, t = 0.1)
movej(p[0.446545255454398, 0.0576114554019923, 0.342874765203708, -1.222, 0.971, -1.041], a = 0.2, v = 0.2, t = 0.1)
movej(p[0.446543190255308, 0.0576074994185291, 0.342874776760236, -1.222, 0.971, -1.041], a = 0.2, v = 0.2, t = 0.1)
movej(p[0.446540393753257, 0.0576056238508113, 0.342871656846933, -1.222, 0.971, -1.041], a = 0.2, v = 0.2, t = 0.1)
movej(p[0.446537795586944, 0.0576057692351741, 0.342865704577433, -1.222, 0.971, -1.041], a = 0.2, v = 0.2, t = 0.1)
movej(p[0.446534226989589, 0.0576058483273755, 0.342860659846882, -1.222, 0.971, -1.041], a = 0.2, v = 0.2, t = 0.1)
movej(p[0.446528619396042, 0.0576052139375112, 0.342858085984977, -1.222, 0.971, -1.041], a = 0.2, v = 0.2, t = 0.1)
movej(p[0.446519740573561, 0.0576039440783975, 0.34285675238639, -1.222, 0.971, -1.041], a = 0.2, v = 0.2, t = 0.1)
movej(p[0.446508060773528, 0.057600632334892, 0.342855769828943, -1.222, 0.971, -1.041], a = 0.2, v = 0.2, t = 0.1)
movej(p[0.446493290048751, 0.0575962690584527, 0.342854538159639, -1.222, 0.971, -1.041], a = 0.2, v = 0.2, t = 0.1)
movej(p[0.446475807508767, 0.0575919842104955, 0.342852243496328, -1.222, 0.971, -1.041], a = 0.2, v = 0.2, t = 0.1)
movej(p[0.446456692598286, 0.0575888456365819, 0.342847606096076, -1.222, 0.971, -1.041], a = 0.2, v = 0.2, t = 0.1)
movej(p[0.446436894948301, 0.0575857374375204, 0.342839537077818, -1.222, 0.971, -1.041], a = 0.2, v = 0.2, t = 0.1)
movej(p[0.446418615707774, 0.057580110663285, 0.342825634741738, -1.222, 0.971, -1.041], a = 0.2, v = 0.2, t = 0.1)
movej(p[0.44640133562174, 0.0575715515708725, 0.342806108288714, -1.222, 0.971, -1.041], a = 0.2, v = 0.2, t = 0.1)
movej(p[0.446383805493087, 0.057560345269614, 0.342783093226939, -1.222, 0.971, -1.041], a = 0.2, v = 0.2, t = 0.1)
movej(p[0.446367208741994, 0.0575481001804631, 0.342757432280993, -1.222, 0.971, -1.041], a = 0.2, v = 0.2, t = 0.1)
movej(p[0.446354825775955, 0.0575366759406229, 0.342733643901179, -1.222, 0.971, -1.041], a = 0.2, v = 0.2, t = 0.1)
movej(p[0.446348946213743, 0.0575275031100446, 0.342714945239827, -1.222, 0.971, -1.041], a = 0.2, v = 0.2, t = 0.1)
movej(p[0.44634777685993, 0.0575232151060595, 0.342703557106771, -1.222, 0.971, -1.041], a = 0.2, v = 0.2, t = 0.1)
movej(p[0.446350550391228, 0.0575247577170753, 0.342698379252834, -1.222, 0.971, -1.041], a = 0.2, v = 0.2, t = 0.1)
movej(p[0.446356922340645, 0.0575299624471402, 0.342696137508074, -1.222, 0.971, -1.041], a = 0.2, v = 0.2, t = 0.1)
movej(p[0.446366238473406, 0.0575352212485031, 0.342698316894134, -1.222, 0.971, -1.041], a = 0.2, v = 0.2, t = 0.1)
movej(p[0.446377946941142, 0.0575377465310434, 0.342705121177298, -1.222, 0.971, -1.041], a = 0.2, v = 0.2, t = 0.1)
movej(p[0.446391953546875, 0.0575370571766, 0.34271463672065, -1.222, 0.971, -1.041], a = 0.2, v = 0.2, t = 0.1)
movej(p[0.446407456592522, 0.057535078034863, 0.342724447001719, -1.222, 0.971, -1.041], a = 0.2, v = 0.2, t = 0.1)
movej(p[0.446423510000662, 0.0575341390526351, 0.342731742681364, -1.222, 0.971, -1.041], a = 0.2, v = 0.2, t = 0.1)
movej(p[0.446439587308385, 0.0575344294600604, 0.342735236227543, -1.222, 0.971, -1.041], a = 0.2, v = 0.2, t = 0.1)
movej(p[0.446454996397087, 0.0575342966072677, 0.342730063180035, -1.222, 0.971, -1.041], a = 0.2, v = 0.2, t = 0.1)
movej(p[0.446468005782541, 0.0575338531872376, 0.342718303741155, -1.222, 0.971, -1.041], a = 0.2, v = 0.2, t = 0.1)
movej(p[0.446478648408204, 0.0575326754840235, 0.342702854932912, -1.222, 0.971, -1.041], a = 0.2, v = 0.2, t = 0.1)
movej(p[0.446486885770335, 0.0575294092685547, 0.342694270209815, -1.222, 0.971, -1.041], a = 0.2, v = 0.2, t = 0.1)
movej(p[0.446492863389613, 0.0575251966584091, 0.342691886866675, -1.222, 0.971, -1.041], a = 0.2, v = 0.2, t = 0.1)
movej(p[0.446495176902669, 0.0575225322806023, 0.342692663615181, -1.222, 0.971, -1.041], a = 0.2, v = 0.2, t = 0.1)
movej(p[0.446494042768962, 0.0575250734616244, 0.34269317883916, -1.222, 0.971, -1.041], a = 0.2, v = 0.2, t = 0.1)
movej(p[0.446489056731022, 0.0575316813983646, 0.342694511111915, -1.222, 0.971, -1.041], a = 0.2, v = 0.2, t = 0.1)
movej(p[0.446480027837785, 0.0575411440856697, 0.34269826564689, -1.222, 0.971, -1.041], a = 0.2, v = 0.2, t = 0.1)
movej(p[0.446467986703678, 0.0575529501983149, 0.342702433955494, -1.222, 0.971, -1.041], a = 0.2, v = 0.2, t = 0.1)
movej(p[0.446454383966653, 0.0575644981229857, 0.342705608948289, -1.222, 0.971, -1.041], a = 0.2, v = 0.2, t = 0.1)
movej(p[0.446439114562313, 0.0575736509536674, 0.342707976947996, -1.222, 0.971, -1.041], a = 0.2, v = 0.2, t = 0.1)
movej(p[0.446421741710632, 0.0575788269122194, 0.342709745813038, -1.222, 0.971, -1.041], a = 0.2, v = 0.2, t = 0.1)
movej(p[0.446403380459144, 0.0575805742445614, 0.342709539692983, -1.222, 0.971, -1.041], a = 0.2, v = 0.2, t = 0.1)
movej(p[0.44638452952556, 0.057578849590004, 0.342706859146647, -1.222, 0.971, -1.041], a = 0.2, v = 0.2, t = 0.1)
movej(p[0.446365657825292, 0.0575740275070172, 0.342702779306251, -1.222, 0.971, -1.041], a = 0.2, v = 0.2, t = 0.1)
movej(p[0.446347012459396, 0.0575674775105536, 0.342698778849535, -1.222, 0.971, -1.041], a = 0.2, v = 0.2, t = 0.1)
movej(p[0.446329593765163, 0.0575616144327006, 0.342694244743634, -1.222, 0.971, -1.041], a = 0.2, v = 0.2, t = 0.1)
movej(p[0.446313900395719, 0.0575579806316947, 0.342688319434974, -1.222, 0.971, -1.041], a = 0.2, v = 0.2, t = 0.1)
movej(p[0.446300747068434, 0.0575561136918403, 0.342680285989578, -1.222, 0.971, -1.041], a = 0.2, v = 0.2, t = 0.1)
movej(p[0.446287956144153, 0.0575534275489924, 0.342672029108469, -1.222, 0.971, -1.041], a = 0.2, v = 0.2, t = 0.1)
movej(p[0.446272159300298, 0.0575456952994093, 0.342668347375372, -1.222, 0.971, -1.041], a = 0.2, v = 0.2, t = 0.1)
movej(p[0.446253316999243, 0.0575354807845315, 0.342672005311917, -1.222, 0.971, -1.041], a = 0.2, v = 0.2, t = 0.1)
movej(p[0.446236057159734, 0.0575262613425886, 0.342682349704571, -1.222, 0.971, -1.041], a = 0.2, v = 0.2, t = 0.1)
movej(p[0.446226710726278, 0.0575218365264846, 0.342694059690399, -1.222, 0.971, -1.041], a = 0.2, v = 0.2, t = 0.1)
movej(p[0.446226351893851, 0.0575220459439968, 0.342702893728468, -1.222, 0.971, -1.041], a = 0.2, v = 0.2, t = 0.1)
movej(p[0.446234063536912, 0.0575246400557455, 0.342707850789646, -1.222, 0.971, -1.041], a = 0.2, v = 0.2, t = 0.1)
movej(p[0.446248082661975, 0.0575277310881763, 0.342711471039083, -1.222, 0.971, -1.041], a = 0.2, v = 0.2, t = 0.1)
movej(p[0.446266501390256, 0.0575306886682134, 0.342715865318868, -1.222, 0.971, -1.041], a = 0.2, v = 0.2, t = 0.1)
movej(p[0.446288354423071, 0.0575344327558493, 0.342720496144993, -1.222, 0.971, -1.041], a = 0.2, v = 0.2, t = 0.1)
movej(p[0.44631218215938, 0.0575393855469348, 0.342724041240452, -1.222, 0.971, -1.041], a = 0.2, v = 0.2, t = 0.1)
movej(p[0.446336747701968, 0.0575456920457987, 0.342725609569323, -1.222, 0.971, -1.041], a = 0.2, v = 0.2, t = 0.1)
movej(p[0.446361839573076, 0.0575535708449043, 0.34272776189155, -1.222, 0.971, -1.041], a = 0.2, v = 0.2, t = 0.1)
movej(p[0.44638736245246, 0.0575621730659324, 0.342732342716728, -1.222, 0.971, -1.041], a = 0.2, v = 0.2, t = 0.1)
movej(p[0.446412628435172, 0.0575691087127741, 0.342738880903289, -1.222, 0.971, -1.041], a = 0.2, v = 0.2, t = 0.1)
movej(p[0.44643544533106, 0.0575728073415439, 0.342745679475585, -1.222, 0.971, -1.041], a = 0.2, v = 0.2, t = 0.1)
movej(p[0.446453997973632, 0.0575739191733966, 0.342751417790192, -1.222, 0.971, -1.041], a = 0.2, v = 0.2, t = 0.1)
movej(p[0.446466834604034, 0.057573647212756, 0.342758439937038, -1.222, 0.971, -1.041], a = 0.2, v = 0.2, t = 0.1)
movej(p[0.446473415816292, 0.0575712627967586, 0.342766729045287, -1.222, 0.971, -1.041], a = 0.2, v = 0.2, t = 0.1)
movej(p[0.446473167363342, 0.0575647016002807, 0.342772776832726, -1.222, 0.971, -1.041], a = 0.2, v = 0.2, t = 0.1)
movej(p[0.446468582924952, 0.0575557170259984, 0.342774745738668, -1.222, 0.971, -1.041], a = 0.2, v = 0.2, t = 0.1)
movej(p[0.446462586160478, 0.0575466695599107, 0.342772603766157, -1.222, 0.971, -1.041], a = 0.2, v = 0.2, t = 0.1)
movej(p[0.44645622425913, 0.0575420172891359, 0.342766866737843, -1.222, 0.971, -1.041], a = 0.2, v = 0.2, t = 0.1)
movej(p[0.446448439101239, 0.0575411498227467, 0.342756171251847, -1.222, 0.971, -1.041], a = 0.2, v = 0.2, t = 0.1)
movej(p[0.446438160162257, 0.0575435865837177, 0.342741626024508, -1.222, 0.971, -1.041], a = 0.2, v = 0.2, t = 0.1)
movej(p[0.446424941142511, 0.057547244600387, 0.34272541552433, -1.222, 0.971, -1.041], a = 0.2, v = 0.2, t = 0.1)
movej(p[0.446409698007048, 0.0575505824560085, 0.342708372615918, -1.222, 0.971, -1.041], a = 0.2, v = 0.2, t = 0.1)
movej(p[0.446392426744911, 0.0575523192842933, 0.342691660859527, -1.222, 0.971, -1.041], a = 0.2, v = 0.2, t = 0.1)
movej(p[0.446372430019761, 0.057551479103993, 0.342676860655936, -1.222, 0.971, -1.041], a = 0.2, v = 0.2, t = 0.1)
movej(p[0.446350325422838, 0.0575476882800374, 0.342663915907981, -1.222, 0.971, -1.041], a = 0.2, v = 0.2, t = 0.1)
movej(p[0.446327963495467, 0.0575411185324564, 0.342650393952502, -1.222, 0.971, -1.041], a = 0.2, v = 0.2, t = 0.1)
movej(p[0.44630653535014, 0.0575335507547908, 0.342635102721452, -1.222, 0.971, -1.041], a = 0.2, v = 0.2, t = 0.1)
movej(p[0.446286096085612, 0.0575263785705062, 0.342619751836065, -1.222, 0.971, -1.041], a = 0.2, v = 0.2, t = 0.1)
movej(p[0.446264858273352, 0.0575210816914572, 0.342606003546944, -1.222, 0.971, -1.041], a = 0.2, v = 0.2, t = 0.1)
movej(p[0.446243231005637, 0.0575174669237537, 0.342595627084608, -1.222, 0.971, -1.041], a = 0.2, v = 0.2, t = 0.1)
movej(p[0.446221843787276, 0.0575155908000236, 0.34258910684224, -1.222, 0.971, -1.041], a = 0.2, v = 0.2, t = 0.1)
movej(p[0.446202868150343, 0.0575150427102916, 0.342584269830907, -1.222, 0.971, -1.041], a = 0.2, v = 0.2, t = 0.1)
movej(p[0.446189910438801, 0.0575153162879113, 0.34258106691772, -1.222, 0.971, -1.041], a = 0.2, v = 0.2, t = 0.1)
movej(p[0.446183617486381, 0.0575162660222163, 0.342580146276863, -1.222, 0.971, -1.041], a = 0.2, v = 0.2, t = 0.1)
movej(p[0.44618219752677, 0.0575175572505376, 0.342583577202267, -1.222, 0.971, -1.041], a = 0.2, v = 0.2, t = 0.1)
movej(p[0.446184134583296, 0.0575179220754126, 0.342591109182937, -1.222, 0.971, -1.041], a = 0.2, v = 0.2, t = 0.1)
movej(p[0.446190276986794, 0.0575168844465612, 0.342600482546348, -1.222, 0.971, -1.041], a = 0.2, v = 0.2, t = 0.1)
movej(p[0.446202286245023, 0.0575147635406594, 0.34260968171908, -1.222, 0.971, -1.041], a = 0.2, v = 0.2, t = 0.1)
movej(p[0.446218741359041, 0.0575132779622443, 0.34261824240979, -1.222, 0.971, -1.041], a = 0.2, v = 0.2, t = 0.1)
movej(p[0.446236587621137, 0.0575131935157724, 0.34262784783841, -1.222, 0.971, -1.041], a = 0.2, v = 0.2, t = 0.1)
movej(p[0.446254217741607, 0.0575140839310502, 0.342639124051687, -1.222, 0.971, -1.041], a = 0.2, v = 0.2, t = 0.1)
movej(p[0.446271567974215, 0.057516050398403, 0.342653346829356, -1.222, 0.971, -1.041], a = 0.2, v = 0.2, t = 0.1)
movej(p[0.446287921499294, 0.057519826434376, 0.342669334934334, -1.222, 0.971, -1.041], a = 0.2, v = 0.2, t = 0.1)
movej(p[0.446302821142832, 0.0575255641957569, 0.342685133833371, -1.222, 0.971, -1.041], a = 0.2, v = 0.2, t = 0.1)
movej(p[0.446316239330234, 0.0575323776479481, 0.342698089680702, -1.222, 0.971, -1.041], a = 0.2, v = 0.2, t = 0.1)
movej(p[0.446328783155314, 0.0575401523833751, 0.342704689580656, -1.222, 0.971, -1.041], a = 0.2, v = 0.2, t = 0.1)
movej(p[0.446339156008911, 0.0575477628555555, 0.342707370914367, -1.222, 0.971, -1.041], a = 0.2, v = 0.2, t = 0.1)
movej(p[0.446345389568846, 0.0575520401039791, 0.342709317376401, -1.222, 0.971, -1.041], a = 0.2, v = 0.2, t = 0.1)
movej(p[0.446349233095371, 0.0575521100964124, 0.342712189726295, -1.222, 0.971, -1.041], a = 0.2, v = 0.2, t = 0.1)
movej(p[0.446351544282382, 0.0575489630842959, 0.342713875995946, -1.222, 0.971, -1.041], a = 0.2, v = 0.2, t = 0.1)
movej(p[0.446353267392227, 0.0575446372251296, 0.342709749891738, -1.222, 0.971, -1.041], a = 0.2, v = 0.2, t = 0.1)
movej(p[0.446353186368787, 0.057538877008199, 0.342699632886939, -1.222, 0.971, -1.041], a = 0.2, v = 0.2, t = 0.1)
movej(p[0.446352445835785, 0.0575312945711441, 0.342684917682279, -1.222, 0.971, -1.041], a = 0.2, v = 0.2, t = 0.1)
movej(p[0.44635320659805, 0.0575241577694024, 0.342669900445027, -1.222, 0.971, -1.041], a = 0.2, v = 0.2, t = 0.1)
movej(p[0.446354896008693, 0.0575172275461729, 0.342658207905582, -1.222, 0.971, -1.041], a = 0.2, v = 0.2, t = 0.1)
movej(p[0.446356077485831, 0.0575127715912622, 0.342650808155072, -1.222, 0.971, -1.041], a = 0.2, v = 0.2, t = 0.1)
movej(p[0.446355402378836, 0.0575121060580751, 0.342646795909177, -1.222, 0.971, -1.041], a = 0.2, v = 0.2, t = 0.1)
movej(p[0.446351146122232, 0.0575145448154471, 0.342643445471115, -1.222, 0.971, -1.041], a = 0.2, v = 0.2, t = 0.1)
movej(p[0.446343767681787, 0.0575179017937371, 0.342639977916019, -1.222, 0.971, -1.041], a = 0.2, v = 0.2, t = 0.1)
movej(p[0.446334210855129, 0.0575198688030635, 0.342635654701063, -1.222, 0.971, -1.041], a = 0.2, v = 0.2, t = 0.1)
movej(p[0.446324430535073, 0.0575204837690698, 0.342629641672342, -1.222, 0.971, -1.041], a = 0.2, v = 0.2, t = 0.1)
movej(p[0.446316470600357, 0.0575181061381793, 0.342621806237787, -1.222, 0.971, -1.041], a = 0.2, v = 0.2, t = 0.1)
movej(p[0.446311222587436, 0.0575122041977609, 0.342612464573659, -1.222, 0.971, -1.041], a = 0.2, v = 0.2, t = 0.1)
movej(p[0.446308538580588, 0.0575036755508619, 0.342604513431709, -1.222, 0.971, -1.041], a = 0.2, v = 0.2, t = 0.1)
movej(p[0.44630805441515, 0.0574947954772386, 0.342600279770495, -1.222, 0.971, -1.041], a = 0.2, v = 0.2, t = 0.1)
movej(p[0.446309884158222, 0.0574869823707868, 0.34260087257895, -1.222, 0.971, -1.041], a = 0.2, v = 0.2, t = 0.1)
movej(p[0.446315095224757, 0.0574807657354894, 0.342603989902504, -1.222, 0.971, -1.041], a = 0.2, v = 0.2, t = 0.1)
movej(p[0.446324736346478, 0.0574762802810883, 0.34260471342223, -1.222, 0.971, -1.041], a = 0.2, v = 0.2, t = 0.1)
movej(p[0.446340353978828, 0.0574749231945932, 0.342598862218849, -1.222, 0.971, -1.041], a = 0.2, v = 0.2, t = 0.1)
movej(p[0.446360527979916, 0.0574757335359552, 0.342588605915422, -1.222, 0.971, -1.041], a = 0.2, v = 0.2, t = 0.1)
movej(p[0.446381594584239, 0.057476921972102, 0.342578491445697, -1.222, 0.971, -1.041], a = 0.2, v = 0.2, t = 0.1)
movej(p[0.44640119745719, 0.0574773443600407, 0.342570523836613, -1.222, 0.971, -1.041], a = 0.2, v = 0.2, t = 0.1)
movej(p[0.446418890174396, 0.0574789042470564, 0.342563637921979, -1.222, 0.971, -1.041], a = 0.2, v = 0.2, t = 0.1)
movej(p[0.44643514600183, 0.0574830059653526, 0.342555159665822, -1.222, 0.971, -1.041], a = 0.2, v = 0.2, t = 0.1)
movej(p[0.446450024783824, 0.0574893336824128, 0.342544904432075, -1.222, 0.971, -1.041], a = 0.2, v = 0.2, t = 0.1)
movej(p[0.446464880057345, 0.057495053324945, 0.342532718821754, -1.222, 0.971, -1.041], a = 0.2, v = 0.2, t = 0.1)
movej(p[0.446479334823448, 0.0574991944436543, 0.342517387829524, -1.222, 0.971, -1.041], a = 0.2, v = 0.2, t = 0.1)
movej(p[0.446491837204319, 0.0574998162632572, 0.342499004340004, -1.222, 0.971, -1.041], a = 0.2, v = 0.2, t = 0.1)
movej(p[0.446502180206996, 0.05749891694847, 0.342476231004817, -1.222, 0.971, -1.041], a = 0.2, v = 0.2, t = 0.1)
movej(p[0.446512460392092, 0.0574972829938911, 0.342450958677168, -1.222, 0.971, -1.041], a = 0.2, v = 0.2, t = 0.1)
movej(p[0.446526921807582, 0.0574969207738946, 0.342426223464541, -1.222, 0.971, -1.041], a = 0.2, v = 0.2, t = 0.1)
movej(p[0.446544858303747, 0.0574978881356752, 0.342402307526957, -1.222, 0.971, -1.041], a = 0.2, v = 0.2, t = 0.1)
movej(p[0.446561583463684, 0.0574993918459632, 0.342381731896069, -1.222, 0.971, -1.041], a = 0.2, v = 0.2, t = 0.1)
movej(p[0.446570990004924, 0.0575004300853299, 0.342366505972947, -1.222, 0.971, -1.041], a = 0.2, v = 0.2, t = 0.1)
movej(p[0.446570848886066, 0.0574988548036333, 0.342358524780552, -1.222, 0.971, -1.041], a = 0.2, v = 0.2, t = 0.1)
movej(p[0.446562974101353, 0.0574942036566124, 0.342355498791275, -1.222, 0.971, -1.041], a = 0.2, v = 0.2, t = 0.1)
movej(p[0.446551165208969, 0.0574881945370561, 0.342354121525573, -1.222, 0.971, -1.041], a = 0.2, v = 0.2, t = 0.1)
movej(p[0.446538471881576, 0.0574839795683182, 0.342354175277187, -1.222, 0.971, -1.041], a = 0.2, v = 0.2, t = 0.1)
movej(p[0.446524986524897, 0.0574813993692874, 0.342354702766719, -1.222, 0.971, -1.041], a = 0.2, v = 0.2, t = 0.1)
movej(p[0.446508885137049, 0.0574787036567677, 0.342356658830209, -1.222, 0.971, -1.041], a = 0.2, v = 0.2, t = 0.1)
movej(p[0.446488830056696, 0.0574743956925006, 0.34236014204624, -1.222, 0.971, -1.041], a = 0.2, v = 0.2, t = 0.1)
movej(p[0.446465226799172, 0.0574695774371158, 0.34236318148785, -1.222, 0.971, -1.041], a = 0.2, v = 0.2, t = 0.1)
movej(p[0.446440591696077, 0.0574651343973838, 0.342363961287467, -1.222, 0.971, -1.041], a = 0.2, v = 0.2, t = 0.1)
movej(p[0.44641819915533, 0.0574623958518276, 0.342361301948426, -1.222, 0.971, -1.041], a = 0.2, v = 0.2, t = 0.1)
movej(p[0.446400483322226, 0.0574614202258054, 0.34235723491114, -1.222, 0.971, -1.041], a = 0.2, v = 0.2, t = 0.1)
movej(p[0.446387137740249, 0.0574615786623061, 0.342352292112886, -1.222, 0.971, -1.041], a = 0.2, v = 0.2, t = 0.1)
movej(p[0.446376335067557, 0.0574623117463039, 0.34234814176187, -1.222, 0.971, -1.041], a = 0.2, v = 0.2, t = 0.1)
movej(p[0.446368011187689, 0.0574632265208143, 0.34234614745183, -1.222, 0.971, -1.041], a = 0.2, v = 0.2, t = 0.1)
movej(p[0.44636267296762, 0.0574640018972891, 0.342347752456134, -1.222, 0.971, -1.041], a = 0.2, v = 0.2, t = 0.1)
movej(p[0.446361303511227, 0.0574635841624089, 0.342350859584995, -1.222, 0.971, -1.041], a = 0.2, v = 0.2, t = 0.1)
movej(p[0.446363819310812, 0.0574629476190862, 0.342354418279846, -1.222, 0.971, -1.041], a = 0.2, v = 0.2, t = 0.1)
movej(p[0.446370538572437, 0.0574648866226341, 0.342357578482286, -1.222, 0.971, -1.041], a = 0.2, v = 0.2, t = 0.1)
movej(p[0.446380976931107, 0.0574698432014259, 0.342360493161164, -1.222, 0.971, -1.041], a = 0.2, v = 0.2, t = 0.1)
movej(p[0.4463931360081, 0.0574767804213949, 0.342364410966644, -1.222, 0.971, -1.041], a = 0.2, v = 0.2, t = 0.1)
movej(p[0.446405748863388, 0.0574828752889219, 0.34237049613495, -1.222, 0.971, -1.041], a = 0.2, v = 0.2, t = 0.1)
movej(p[0.446417065445429, 0.0574870095730866, 0.342381017350771, -1.222, 0.971, -1.041], a = 0.2, v = 0.2, t = 0.1)
movej(p[0.446426904495528, 0.0574884652653637, 0.342394627743644, -1.222, 0.971, -1.041], a = 0.2, v = 0.2, t = 0.1)
movej(p[0.446431351605144, 0.0574857875679713, 0.342410712256497, -1.222, 0.971, -1.041], a = 0.2, v = 0.2, t = 0.1)
movej(p[0.446431215565764, 0.0574797509112443, 0.342426503712252, -1.222, 0.971, -1.041], a = 0.2, v = 0.2, t = 0.1)
movej(p[0.446429030657163, 0.0574723708504723, 0.342441035357114, -1.222, 0.971, -1.041], a = 0.2, v = 0.2, t = 0.1)
movej(p[0.446430354339334, 0.0574671200216625, 0.342454419157894, -1.222, 0.971, -1.041], a = 0.2, v = 0.2, t = 0.1)
movej(p[0.446435993952439, 0.0574639287196103, 0.342465986533968, -1.222, 0.971, -1.041], a = 0.2, v = 0.2, t = 0.1)
movej(p[0.446444863691095, 0.0574634414121985, 0.342474322267749, -1.222, 0.971, -1.041], a = 0.2, v = 0.2, t = 0.1)
movej(p[0.446456395577072, 0.0574663258056446, 0.342475829745532, -1.222, 0.971, -1.041], a = 0.2, v = 0.2, t = 0.1)
movej(p[0.446466484405859, 0.0574712375666548, 0.342474356411395, -1.222, 0.971, -1.041], a = 0.2, v = 0.2, t = 0.1)
movej(p[0.446471202348901, 0.0574761362510658, 0.342474095364484, -1.222, 0.971, -1.041], a = 0.2, v = 0.2, t = 0.1)
movej(p[0.446467490791464, 0.0574802261005621, 0.342479490403917, -1.222, 0.971, -1.041], a = 0.2, v = 0.2, t = 0.1)
movej(p[0.446457226251797, 0.0574852940006324, 0.342487286073889, -1.222, 0.971, -1.041], a = 0.2, v = 0.2, t = 0.1)
movej(p[0.446442015027435, 0.0574913028767259, 0.342493127424375, -1.222, 0.971, -1.041], a = 0.2, v = 0.2, t = 0.1)
movej(p[0.446422052140425, 0.0574950427019496, 0.342489003489908, -1.222, 0.971, -1.041], a = 0.2, v = 0.2, t = 0.1)
movej(p[0.446399922823981, 0.0574964561609799, 0.342476816209804, -1.222, 0.971, -1.041], a = 0.2, v = 0.2, t = 0.1)
movej(p[0.446378348531916, 0.0574969376152979, 0.342461373593135, -1.222, 0.971, -1.041], a = 0.2, v = 0.2, t = 0.1)
movej(p[0.446360070209806, 0.0574981234826791, 0.342449209087703, -1.222, 0.971, -1.041], a = 0.2, v = 0.2, t = 0.1)
movej(p[0.446343542485871, 0.0574979027342074, 0.342440304445899, -1.222, 0.971, -1.041], a = 0.2, v = 0.2, t = 0.1)
movej(p[0.446327580113753, 0.0574948808813807, 0.342432312063223, -1.222, 0.971, -1.041], a = 0.2, v = 0.2, t = 0.1)
movej(p[0.446312928054308, 0.0574896122016712, 0.342421573747799, -1.222, 0.971, -1.041], a = 0.2, v = 0.2, t = 0.1)
movej(p[0.446297715293135, 0.0574865474987531, 0.342408394997194, -1.222, 0.971, -1.041], a = 0.2, v = 0.2, t = 0.1)
movej(p[0.446282334709402, 0.0574866624980684, 0.342394325274482, -1.222, 0.971, -1.041], a = 0.2, v = 0.2, t = 0.1)
movej(p[0.446268006884536, 0.0574886958582044, 0.342383994506641, -1.222, 0.971, -1.041], a = 0.2, v = 0.2, t = 0.1)
movej(p[0.446256462468168, 0.0574900119214563, 0.342377704405987, -1.222, 0.971, -1.041], a = 0.2, v = 0.2, t = 0.1)
movej(p[0.446247692522553, 0.0574893145774124, 0.342375622100968, -1.222, 0.971, -1.041], a = 0.2, v = 0.2, t = 0.1)
movej(p[0.446239294379452, 0.0574862833002181, 0.342376162838446, -1.222, 0.971, -1.041], a = 0.2, v = 0.2, t = 0.1)
movej(p[0.446231786550075, 0.0574818543114535, 0.342378278896474, -1.222, 0.971, -1.041], a = 0.2, v = 0.2, t = 0.1)
movej(p[0.446225282177606, 0.0574758725035736, 0.342380591860648, -1.222, 0.971, -1.041], a = 0.2, v = 0.2, t = 0.1)
movej(p[0.446217423613966, 0.0574676845953193, 0.342384372222659, -1.222, 0.971, -1.041], a = 0.2, v = 0.2, t = 0.1)
movej(p[0.446209568857417, 0.0574583868783566, 0.342387934742671, -1.222, 0.971, -1.041], a = 0.2, v = 0.2, t = 0.1)
movej(p[0.446204210548163, 0.057449926908555, 0.342390242266429, -1.222, 0.971, -1.041], a = 0.2, v = 0.2, t = 0.1)
movej(p[0.446206735404917, 0.0574459300854074, 0.342390061467936, -1.222, 0.971, -1.041], a = 0.2, v = 0.2, t = 0.1)
movej(p[0.446217096202677, 0.0574465990122533, 0.342389008267268, -1.222, 0.971, -1.041], a = 0.2, v = 0.2, t = 0.1)
movej(p[0.446233139295318, 0.0574510298639764, 0.342388127508206, -1.222, 0.971, -1.041], a = 0.2, v = 0.2, t = 0.1)
movej(p[0.446251956068543, 0.0574582479311761, 0.342387613637284, -1.222, 0.971, -1.041], a = 0.2, v = 0.2, t = 0.1)
movej(p[0.4462704602015, 0.0574684982128033, 0.342386520244379, -1.222, 0.971, -1.041], a = 0.2, v = 0.2, t = 0.1)
movej(p[0.44628765325805, 0.0574804643146346, 0.34238433911544, -1.222, 0.971, -1.041], a = 0.2, v = 0.2, t = 0.1)
movej(p[0.446304400076729, 0.0574918778349637, 0.342381335738701, -1.222, 0.971, -1.041], a = 0.2, v = 0.2, t = 0.1)
movej(p[0.446320866304562, 0.0575000566462879, 0.342380012166542, -1.222, 0.971, -1.041], a = 0.2, v = 0.2, t = 0.1)
movej(p[0.446336203260128, 0.0575055794548666, 0.342381294913352, -1.222, 0.971, -1.041], a = 0.2, v = 0.2, t = 0.1)
movej(p[0.446349709097932, 0.0575096765727727, 0.342383707284811, -1.222, 0.971, -1.041], a = 0.2, v = 0.2, t = 0.1)
movej(p[0.446360500401056, 0.0575125755225407, 0.342385846572812, -1.222, 0.971, -1.041], a = 0.2, v = 0.2, t = 0.1)
movej(p[0.446368526203219, 0.0575145449018779, 0.34238814929048, -1.222, 0.971, -1.041], a = 0.2, v = 0.2, t = 0.1)
movej(p[0.44637364636039, 0.0575157846440843, 0.3423910113612, -1.222, 0.971, -1.041], a = 0.2, v = 0.2, t = 0.1)
movej(p[0.446375827334244, 0.0575176670582225, 0.342394206128806, -1.222, 0.971, -1.041], a = 0.2, v = 0.2, t = 0.1)
movej(p[0.446373867777299, 0.0575207567240057, 0.342396500028962, -1.222, 0.971, -1.041], a = 0.2, v = 0.2, t = 0.1)
movej(p[0.44636643804379, 0.0575248452875751, 0.342398513694259, -1.222, 0.971, -1.041], a = 0.2, v = 0.2, t = 0.1)
movej(p[0.446353608098052, 0.0575278471838614, 0.342399257584736, -1.222, 0.971, -1.041], a = 0.2, v = 0.2, t = 0.1)
movej(p[0.446337135778672, 0.0575282590401159, 0.342398064884165, -1.222, 0.971, -1.041], a = 0.2, v = 0.2, t = 0.1)
movej(p[0.446318772262445, 0.0575270478488386, 0.342395705812214, -1.222, 0.971, -1.041], a = 0.2, v = 0.2, t = 0.1)
movej(p[0.446300276514515, 0.0575244108998145, 0.342393152576352, -1.222, 0.971, -1.041], a = 0.2, v = 0.2, t = 0.1)
movej(p[0.446282321982985, 0.0575195756928289, 0.342392512499068, -1.222, 0.971, -1.041], a = 0.2, v = 0.2, t = 0.1)
movej(p[0.44626463919493, 0.0575132258677718, 0.342393818969646, -1.222, 0.971, -1.041], a = 0.2, v = 0.2, t = 0.1)
movej(p[0.446247986750159, 0.0575065771658058, 0.342395677587227, -1.222, 0.971, -1.041], a = 0.2, v = 0.2, t = 0.1)
movej(p[0.44623329499968, 0.0575018456812326, 0.342396530484984, -1.222, 0.971, -1.041], a = 0.2, v = 0.2, t = 0.1)
movej(p[0.446221589191039, 0.0574995303762975, 0.342396662064299, -1.222, 0.971, -1.041], a = 0.2, v = 0.2, t = 0.1)
movej(p[0.446213107176152, 0.0575007189013382, 0.342397738682941, -1.222, 0.971, -1.041], a = 0.2, v = 0.2, t = 0.1)
movej(p[0.446208527056891, 0.057504769099781, 0.342399536015722, -1.222, 0.971, -1.041], a = 0.2, v = 0.2, t = 0.1)
movej(p[0.44620767598988, 0.0575105619387881, 0.342400629380336, -1.222, 0.971, -1.041], a = 0.2, v = 0.2, t = 0.1)
movej(p[0.446210221707556, 0.0575169597035552, 0.342400698557655, -1.222, 0.971, -1.041], a = 0.2, v = 0.2, t = 0.1)
movej(p[0.446215470526246, 0.0575221914790856, 0.342400396396849, -1.222, 0.971, -1.041], a = 0.2, v = 0.2, t = 0.1)
movej(p[0.446222401919073, 0.0575251059746877, 0.342400049975327, -1.222, 0.971, -1.041], a = 0.2, v = 0.2, t = 0.1)
movej(p[0.44623238019341, 0.0575254602535017, 0.342397740390781, -1.222, 0.971, -1.041], a = 0.2, v = 0.2, t = 0.1)
movej(p[0.44624700628075, 0.0575242522923215, 0.342391534446462, -1.222, 0.971, -1.041], a = 0.2, v = 0.2, t = 0.1)
movej(p[0.446264504308074, 0.0575201599901639, 0.342379237194988, -1.222, 0.971, -1.041], a = 0.2, v = 0.2, t = 0.1)
movej(p[0.446283377958815, 0.0575159932233924, 0.342366837702442, -1.222, 0.971, -1.041], a = 0.2, v = 0.2, t = 0.1)
movej(p[0.446301999622578, 0.0575133152474487, 0.342358896003345, -1.222, 0.971, -1.041], a = 0.2, v = 0.2, t = 0.1)
movej(p[0.446321500105165, 0.0575147199838654, 0.342358043580041, -1.222, 0.971, -1.041], a = 0.2, v = 0.2, t = 0.1)
movej(p[0.446340949947654, 0.0575183865830548, 0.342363707027006, -1.222, 0.971, -1.041], a = 0.2, v = 0.2, t = 0.1)
movej(p[0.4463588398245, 0.0575216584486011, 0.342373618428485, -1.222, 0.971, -1.041], a = 0.2, v = 0.2, t = 0.1)
movej(p[0.446372167265785, 0.0575190722911556, 0.342383127645459, -1.222, 0.971, -1.041], a = 0.2, v = 0.2, t = 0.1)
movej(p[0.446381032625426, 0.057511722044974, 0.342387129134869, -1.222, 0.971, -1.041], a = 0.2, v = 0.2, t = 0.1)
movej(p[0.446386780698146, 0.0575028320594812, 0.342387308942961, -1.222, 0.971, -1.041], a = 0.2, v = 0.2, t = 0.1)
movej(p[0.446391233284595, 0.0574965200968983, 0.342389820673692, -1.222, 0.971, -1.041], a = 0.2, v = 0.2, t = 0.1)
movej(p[0.446394708924316, 0.0574918602659755, 0.342395850245675, -1.222, 0.971, -1.041], a = 0.2, v = 0.2, t = 0.1)
movej(p[0.446397232605199, 0.057487264157857, 0.342403628684655, -1.222, 0.971, -1.041], a = 0.2, v = 0.2, t = 0.1)
movej(p[0.446398845004536, 0.0574824559841265, 0.342411674688803, -1.222, 0.971, -1.041], a = 0.2, v = 0.2, t = 0.1)
movej(p[0.446398578170633, 0.057477608902731, 0.342419025600421, -1.222, 0.971, -1.041], a = 0.2, v = 0.2, t = 0.1)
movej(p[0.446396931971989, 0.0574729491924114, 0.342422949191221, -1.222, 0.971, -1.041], a = 0.2, v = 0.2, t = 0.1)
movej(p[0.446394596202189, 0.0574680887756205, 0.34242258800005, -1.222, 0.971, -1.041], a = 0.2, v = 0.2, t = 0.1)
movej(p[0.446391606135124, 0.0574632241992004, 0.34241949782834, -1.222, 0.971, -1.041], a = 0.2, v = 0.2, t = 0.1)
movej(p[0.446386146711542, 0.0574581146012758, 0.342416230886008, -1.222, 0.971, -1.041], a = 0.2, v = 0.2, t = 0.1)
movej(p[0.446376189695694, 0.0574521301059797, 0.34241448594118, -1.222, 0.971, -1.041], a = 0.2, v = 0.2, t = 0.1)
movej(p[0.446363222377357, 0.0574460472126985, 0.342414186692987, -1.222, 0.971, -1.041], a = 0.2, v = 0.2, t = 0.1)
movej(p[0.446348903009325, 0.0574418811308183, 0.342414209029423, -1.222, 0.971, -1.041], a = 0.2, v = 0.2, t = 0.1)
movej(p[0.446335359370211, 0.0574421771867305, 0.342410966802035, -1.222, 0.971, -1.041], a = 0.2, v = 0.2, t = 0.1)
movej(p[0.446321692588752, 0.0574468967897103, 0.342402574636267, -1.222, 0.971, -1.041], a = 0.2, v = 0.2, t = 0.1)
movej(p[0.446305873330473, 0.0574536710098547, 0.342388165555938, -1.222, 0.971, -1.041], a = 0.2, v = 0.2, t = 0.1)
movej(p[0.446287213014957, 0.0574597123687373, 0.342370384800929, -1.222, 0.971, -1.041], a = 0.2, v = 0.2, t = 0.1)
movej(p[0.446265818881201, 0.0574637484878018, 0.342351614864388, -1.222, 0.971, -1.041], a = 0.2, v = 0.2, t = 0.1)
movej(p[0.446241263291163, 0.0574655611163971, 0.342332949270144, -1.222, 0.971, -1.041], a = 0.2, v = 0.2, t = 0.1)
movej(p[0.44621421547908, 0.0574657492634874, 0.342314535163699, -1.222, 0.971, -1.041], a = 0.2, v = 0.2, t = 0.1)
movej(p[0.446185867320236, 0.0574645949224519, 0.342296648657418, -1.222, 0.971, -1.041], a = 0.2, v = 0.2, t = 0.1)
movej(p[0.44615873971877, 0.0574643012623731, 0.342281211988883, -1.222, 0.971, -1.041], a = 0.2, v = 0.2, t = 0.1)
movej(p[0.446135454368452, 0.0574655527482942, 0.342270779297162, -1.222, 0.971, -1.041], a = 0.2, v = 0.2, t = 0.1)
movej(p[0.446117535533928, 0.0574678582851226, 0.342267772234769, -1.222, 0.971, -1.041], a = 0.2, v = 0.2, t = 0.1)
movej(p[0.446105435779651, 0.0574699088512785, 0.342271060356251, -1.222, 0.971, -1.041], a = 0.2, v = 0.2, t = 0.1)
movej(p[0.446099193585864, 0.0574696380646298, 0.342277937123756, -1.222, 0.971, -1.041], a = 0.2, v = 0.2, t = 0.1)
movej(p[0.446097390941824, 0.0574662168379377, 0.34228399395555, -1.222, 0.971, -1.041], a = 0.2, v = 0.2, t = 0.1)
movej(p[0.446098118386261, 0.0574572995966959, 0.34228974314734, -1.222, 0.971, -1.041], a = 0.2, v = 0.2, t = 0.1)
movej(p[0.44609539265817, 0.0574445444103352, 0.342295637262394, -1.222, 0.971, -1.041], a = 0.2, v = 0.2, t = 0.1)
movej(p[0.446092326532789, 0.0574328078105458, 0.342303561871251, -1.222, 0.971, -1.041], a = 0.2, v = 0.2, t = 0.1)
movej(p[0.446092476224475, 0.0574270432784544, 0.342314747973171, -1.222, 0.971, -1.041], a = 0.2, v = 0.2, t = 0.1)
movej(p[0.446101141164807, 0.0574292453704252, 0.342328223760123, -1.222, 0.971, -1.041], a = 0.2, v = 0.2, t = 0.1)
movej(p[0.446116399271376, 0.0574369911953572, 0.34234283187999, -1.222, 0.971, -1.041], a = 0.2, v = 0.2, t = 0.1)
movej(p[0.446135685991661, 0.057446890786191, 0.342356159829569, -1.222, 0.971, -1.041], a = 0.2, v = 0.2, t = 0.1)
movej(p[0.446157004611809, 0.0574564365514875, 0.342365616874029, -1.222, 0.971, -1.041], a = 0.2, v = 0.2, t = 0.1)
movej(p[0.446179014534194, 0.0574642489223097, 0.342372611836482, -1.222, 0.971, -1.041], a = 0.2, v = 0.2, t = 0.1)
movej(p[0.446201149388909, 0.0574708431869799, 0.342378889138627, -1.222, 0.971, -1.041], a = 0.2, v = 0.2, t = 0.1)
movej(p[0.446223003276332, 0.0574784639409638, 0.342385511817481, -1.222, 0.971, -1.041], a = 0.2, v = 0.2, t = 0.1)
movej(p[0.446244952692454, 0.0574877407923348, 0.342393002893544, -1.222, 0.971, -1.041], a = 0.2, v = 0.2, t = 0.1)
movej(p[0.446267236772971, 0.0574972863615001, 0.342401895580639, -1.222, 0.971, -1.041], a = 0.2, v = 0.2, t = 0.1)
movej(p[0.446288684372517, 0.0575048943783758, 0.342409166192303, -1.222, 0.971, -1.041], a = 0.2, v = 0.2, t = 0.1)
movej(p[0.44630721005092, 0.0575101571693479, 0.34241662450933, -1.222, 0.971, -1.041], a = 0.2, v = 0.2, t = 0.1)
movej(p[0.446322146223033, 0.0575151625830618, 0.342426816146596, -1.222, 0.971, -1.041], a = 0.2, v = 0.2, t = 0.1)
movej(p[0.446334236423215, 0.0575204613867586, 0.342442405968659, -1.222, 0.971, -1.041], a = 0.2, v = 0.2, t = 0.1)
movej(p[0.446343480327107, 0.0575247722514879, 0.342458803496128, -1.222, 0.971, -1.041], a = 0.2, v = 0.2, t = 0.1)
movej(p[0.446348258590624, 0.0575256419874066, 0.342474187906848, -1.222, 0.971, -1.041], a = 0.2, v = 0.2, t = 0.1)
movej(p[0.446346902230609, 0.0575220363881789, 0.342490618152851, -1.222, 0.971, -1.041], a = 0.2, v = 0.2, t = 0.1)
movej(p[0.446340554593652, 0.0575147404186161, 0.342509223479379, -1.222, 0.971, -1.041], a = 0.2, v = 0.2, t = 0.1)
movej(p[0.44633207496391, 0.0575051042646558, 0.342528081793547, -1.222, 0.971, -1.041], a = 0.2, v = 0.2, t = 0.1)
movej(p[0.446323549443139, 0.0574965725746842, 0.342541837811242, -1.222, 0.971, -1.041], a = 0.2, v = 0.2, t = 0.1)
movej(p[0.446316154528275, 0.0574897239501326, 0.342549839528364, -1.222, 0.971, -1.041], a = 0.2, v = 0.2, t = 0.1)
movej(p[0.446309038271635, 0.0574842097251387, 0.342553673323892, -1.222, 0.971, -1.041], a = 0.2, v = 0.2, t = 0.1)
movej(p[0.446303110226453, 0.057479389007616, 0.342555996138971, -1.222, 0.971, -1.041], a = 0.2, v = 0.2, t = 0.1)
movej(p[0.446298447968552, 0.0574762368223025, 0.342556935283271, -1.222, 0.971, -1.041], a = 0.2, v = 0.2, t = 0.1)
movej(p[0.446294874524099, 0.0574745297959211, 0.342555247460509, -1.222, 0.971, -1.041], a = 0.2, v = 0.2, t = 0.1)
movej(p[0.446291454184638, 0.0574728412384753, 0.34255023286833, -1.222, 0.971, -1.041], a = 0.2, v = 0.2, t = 0.1)
movej(p[0.446287868085249, 0.057470558109409, 0.342542914664805, -1.222, 0.971, -1.041], a = 0.2, v = 0.2, t = 0.1)
movej(p[0.446285462765415, 0.057467787561614, 0.342534673470692, -1.222, 0.971, -1.041], a = 0.2, v = 0.2, t = 0.1)
movej(p[0.446286409641232, 0.0574638683148937, 0.342526413539074, -1.222, 0.971, -1.041], a = 0.2, v = 0.2, t = 0.1)
movej(p[0.446290377116972, 0.0574586437947685, 0.342518398681825, -1.222, 0.971, -1.041], a = 0.2, v = 0.2, t = 0.1)
movej(p[0.446296339230788, 0.0574537130680205, 0.342511305769477, -1.222, 0.971, -1.041], a = 0.2, v = 0.2, t = 0.1)
movej(p[0.446303734102988, 0.0574493541428852, 0.342505892084428, -1.222, 0.971, -1.041], a = 0.2, v = 0.2, t = 0.1)
movej(p[0.446313820770077, 0.0574456656013937, 0.342503212175715, -1.222, 0.971, -1.041], a = 0.2, v = 0.2, t = 0.1)
movej(p[0.446328515566425, 0.0574429264468704, 0.342500863638558, -1.222, 0.971, -1.041], a = 0.2, v = 0.2, t = 0.1)
movej(p[0.446347437860254, 0.0574415877100841, 0.342496553384497, -1.222, 0.971, -1.041], a = 0.2, v = 0.2, t = 0.1)
movej(p[0.446368335259359, 0.0574418977122266, 0.342487266943934, -1.222, 0.971, -1.041], a = 0.2, v = 0.2, t = 0.1)
movej(p[0.446388486478784, 0.0574443047539959, 0.342474220160476, -1.222, 0.971, -1.041], a = 0.2, v = 0.2, t = 0.1)
movej(p[0.446406118369907, 0.0574492141338769, 0.342458788722351, -1.222, 0.971, -1.041], a = 0.2, v = 0.2, t = 0.1)
movej(p[0.446421891390483, 0.0574549425972669, 0.342443081254347, -1.222, 0.971, -1.041], a = 0.2, v = 0.2, t = 0.1)
movej(p[0.446434533452198, 0.0574591844086937, 0.342428821195251, -1.222, 0.971, -1.041], a = 0.2, v = 0.2, t = 0.1)
movej(p[0.446443476402506, 0.0574607665767749, 0.342419204779237, -1.222, 0.971, -1.041], a = 0.2, v = 0.2, t = 0.1)
movej(p[0.446448799866356, 0.057461437527553, 0.342414704282966, -1.222, 0.971, -1.041], a = 0.2, v = 0.2, t = 0.1)
movej(p[0.446452225867262, 0.0574619957993433, 0.342414124863946, -1.222, 0.971, -1.041], a = 0.2, v = 0.2, t = 0.1)
movej(p[0.446456144272021, 0.0574617264806937, 0.34241543354596, -1.222, 0.971, -1.041], a = 0.2, v = 0.2, t = 0.1)
movej(p[0.446461584613201, 0.0574587642061016, 0.342419250899897, -1.222, 0.971, -1.041], a = 0.2, v = 0.2, t = 0.1)
movej(p[0.446466008885527, 0.0574531144104065, 0.342424950521989, -1.222, 0.971, -1.041], a = 0.2, v = 0.2, t = 0.1)
movej(p[0.44646584141246, 0.0574454982030672, 0.342432153332519, -1.222, 0.971, -1.041], a = 0.2, v = 0.2, t = 0.1)
movej(p[0.446461217767311, 0.057439341365209, 0.342438402396699, -1.222, 0.971, -1.041], a = 0.2, v = 0.2, t = 0.1)
movej(p[0.446453307717547, 0.0574349606409914, 0.342440444866052, -1.222, 0.971, -1.041], a = 0.2, v = 0.2, t = 0.1)
movej(p[0.446440671545251, 0.0574300728278834, 0.342436868501036, -1.222, 0.971, -1.041], a = 0.2, v = 0.2, t = 0.1)
movej(p[0.446423675498387, 0.0574240814480389, 0.342427511182533, -1.222, 0.971, -1.041], a = 0.2, v = 0.2, t = 0.1)
movej(p[0.446406285678934, 0.0574195707094006, 0.342415325967503, -1.222, 0.971, -1.041], a = 0.2, v = 0.2, t = 0.1)
movej(p[0.446394036929956, 0.0574200932191579, 0.342407676845721, -1.222, 0.971, -1.041], a = 0.2, v = 0.2, t = 0.1)
movej(p[0.446386436717185, 0.0574256012907923, 0.342404157691603, -1.222, 0.971, -1.041], a = 0.2, v = 0.2, t = 0.1)
movej(p[0.446379585221212, 0.0574343051831977, 0.342401598286805, -1.222, 0.971, -1.041], a = 0.2, v = 0.2, t = 0.1)
movej(p[0.446368928880779, 0.0574436140394029, 0.342399076650287, -1.222, 0.971, -1.041], a = 0.2, v = 0.2, t = 0.1)
movej(p[0.446353515873001, 0.0574513914330919, 0.342400293812416, -1.222, 0.971, -1.041], a = 0.2, v = 0.2, t = 0.1)
movej(p[0.446335193039948, 0.0574587479443337, 0.342403478129809, -1.222, 0.971, -1.041], a = 0.2, v = 0.2, t = 0.1)
movej(p[0.446319614726503, 0.0574663698717561, 0.342403461349364, -1.222, 0.971, -1.041], a = 0.2, v = 0.2, t = 0.1)
movej(p[0.446307714006489, 0.0574733651065541, 0.342398318371311, -1.222, 0.971, -1.041], a = 0.2, v = 0.2, t = 0.1)
movej(p[0.446297430198721, 0.0574769252682707, 0.342389276419456, -1.222, 0.971, -1.041], a = 0.2, v = 0.2, t = 0.1)
movej(p[0.446283804649482, 0.0574743052750734, 0.342376791644024, -1.222, 0.971, -1.041], a = 0.2, v = 0.2, t = 0.1)
movej(p[0.446267731978501, 0.0574674759337655, 0.342361231367875, -1.222, 0.971, -1.041], a = 0.2, v = 0.2, t = 0.1)
movej(p[0.446252870807098, 0.0574580036675064, 0.342349139038305, -1.222, 0.971, -1.041], a = 0.2, v = 0.2, t = 0.1)
movej(p[0.44624453212965, 0.0574492715772959, 0.342343288011645, -1.222, 0.971, -1.041], a = 0.2, v = 0.2, t = 0.1)
movej(p[0.446242355436809, 0.05744166406799, 0.342343189358538, -1.222, 0.971, -1.041], a = 0.2, v = 0.2, t = 0.1)
movej(p[0.446245169519203, 0.0574352196368326, 0.342347381907683, -1.222, 0.971, -1.041], a = 0.2, v = 0.2, t = 0.1)
movej(p[0.446252422054309, 0.0574298893005439, 0.342353475579696, -1.222, 0.971, -1.041], a = 0.2, v = 0.2, t = 0.1)
movej(p[0.446262300868721, 0.0574252842162886, 0.342359734153159, -1.222, 0.971, -1.041], a = 0.2, v = 0.2, t = 0.1)
movej(p[0.446273501891295, 0.0574206685822973, 0.342365115604465, -1.222, 0.971, -1.041], a = 0.2, v = 0.2, t = 0.1)
movej(p[0.446282244477603, 0.0574162111413704, 0.342369114184092, -1.222, 0.971, -1.041], a = 0.2, v = 0.2, t = 0.1)
movej(p[0.446289302157123, 0.0574131215217792, 0.342374563858447, -1.222, 0.971, -1.041], a = 0.2, v = 0.2, t = 0.1)
movej(p[0.446297173431835, 0.0574112609921589, 0.342382602774913, -1.222, 0.971, -1.041], a = 0.2, v = 0.2, t = 0.1)
movej(p[0.44630628173761, 0.0574090458896554, 0.342392882845817, -1.222, 0.971, -1.041], a = 0.2, v = 0.2, t = 0.1)
movej(p[0.446316882152429, 0.0574068906031051, 0.3424027349475, -1.222, 0.971, -1.041], a = 0.2, v = 0.2, t = 0.1)
movej(p[0.446328647146946, 0.0574068393610099, 0.34240976743129, -1.222, 0.971, -1.041], a = 0.2, v = 0.2, t = 0.1)
movej(p[0.446341856972715, 0.0574107968872874, 0.342415774224686, -1.222, 0.971, -1.041], a = 0.2, v = 0.2, t = 0.1)
movej(p[0.44635570743971, 0.0574175513581718, 0.342419254505725, -1.222, 0.971, -1.041], a = 0.2, v = 0.2, t = 0.1)
movej(p[0.446368919697106, 0.0574248049774519, 0.342418521490147, -1.222, 0.971, -1.041], a = 0.2, v = 0.2, t = 0.1)
movej(p[0.446383252337704, 0.0574287082711199, 0.342409997956372, -1.222, 0.971, -1.041], a = 0.2, v = 0.2, t = 0.1)
movej(p[0.446398313666504, 0.0574305109440531, 0.342396667816722, -1.222, 0.971, -1.041], a = 0.2, v = 0.2, t = 0.1)
movej(p[0.446411958327017, 0.0574320055304189, 0.342383773670915, -1.222, 0.971, -1.041], a = 0.2, v = 0.2, t = 0.1)
movej(p[0.4464211810414, 0.0574349148798925, 0.342376237044942, -1.222, 0.971, -1.041], a = 0.2, v = 0.2, t = 0.1)
movej(p[0.446425614287378, 0.0574375120592567, 0.34237476879958, -1.222, 0.971, -1.041], a = 0.2, v = 0.2, t = 0.1)
movej(p[0.446426497630479, 0.0574387886760417, 0.342378059342931, -1.222, 0.971, -1.041], a = 0.2, v = 0.2, t = 0.1)
movej(p[0.446424752437525, 0.0574409605712941, 0.34238595036318, -1.222, 0.971, -1.041], a = 0.2, v = 0.2, t = 0.1)
movej(p[0.446421467294865, 0.0574452301480361, 0.342397250845743, -1.222, 0.971, -1.041], a = 0.2, v = 0.2, t = 0.1)
movej(p[0.446417898787869, 0.0574507340571659, 0.342408484244699, -1.222, 0.971, -1.041], a = 0.2, v = 0.2, t = 0.1)
movej(p[0.446414830776919, 0.0574565283551335, 0.342416990563343, -1.222, 0.971, -1.041], a = 0.2, v = 0.2, t = 0.1)
movej(p[0.446411996021122, 0.0574620534582581, 0.342422360644724, -1.222, 0.971, -1.041], a = 0.2, v = 0.2, t = 0.1)
movej(p[0.44640775916522, 0.0574650699307646, 0.342425282663663, -1.222, 0.971, -1.041], a = 0.2, v = 0.2, t = 0.1)
movej(p[0.446398556646952, 0.0574623250743306, 0.342425645140825, -1.222, 0.971, -1.041], a = 0.2, v = 0.2, t = 0.1)
movej(p[0.446385124823914, 0.0574553336312966, 0.342424942182677, -1.222, 0.971, -1.041], a = 0.2, v = 0.2, t = 0.1)
movej(p[0.446370056284843, 0.0574483553628465, 0.342428105694761, -1.222, 0.971, -1.041], a = 0.2, v = 0.2, t = 0.1)
movej(p[0.44635630481654, 0.0574439762771075, 0.342438300053083, -1.222, 0.971, -1.041], a = 0.2, v = 0.2, t = 0.1)
movej(p[0.446344300374603, 0.057442034386477, 0.34245152644717, -1.222, 0.971, -1.041], a = 0.2, v = 0.2, t = 0.1)
movej(p[0.446334555498027, 0.0574420980048821, 0.34246619236614, -1.222, 0.971, -1.041], a = 0.2, v = 0.2, t = 0.1)
movej(p[0.446326236654545, 0.0574428011326843, 0.342481552944268, -1.222, 0.971, -1.041], a = 0.2, v = 0.2, t = 0.1)
movej(p[0.446319026802503, 0.0574423612909006, 0.34249893119866, -1.222, 0.971, -1.041], a = 0.2, v = 0.2, t = 0.1)
movej(p[0.446312373797996, 0.0574411639950065, 0.34251625953218, -1.222, 0.971, -1.041], a = 0.2, v = 0.2, t = 0.1)
movej(p[0.446306739952155, 0.0574405870777347, 0.342529883476414, -1.222, 0.971, -1.041], a = 0.2, v = 0.2, t = 0.1)
movej(p[0.446302093196094, 0.057440456637879, 0.342536757746161, -1.222, 0.971, -1.041], a = 0.2, v = 0.2, t = 0.1)
movej(p[0.446297565904002, 0.0574407079472043, 0.342536402970264, -1.222, 0.971, -1.041], a = 0.2, v = 0.2, t = 0.1)
movej(p[0.446293071360986, 0.0574416955026996, 0.342531160570602, -1.222, 0.971, -1.041], a = 0.2, v = 0.2, t = 0.1)
movej(p[0.446288501242127, 0.0574431034379438, 0.342523891712166, -1.222, 0.971, -1.041], a = 0.2, v = 0.2, t = 0.1)
movej(p[0.44628478238913, 0.0574452403739446, 0.342517064285864, -1.222, 0.971, -1.041], a = 0.2, v = 0.2, t = 0.1)
movej(p[0.446283020210887, 0.0574481476490519, 0.342512276026442, -1.222, 0.971, -1.041], a = 0.2, v = 0.2, t = 0.1)
movej(p[0.446284348728079, 0.0574515350110074, 0.34251082986357, -1.222, 0.971, -1.041], a = 0.2, v = 0.2, t = 0.1)
movej(p[0.446289730187377, 0.057452544846374, 0.342511659945105, -1.222, 0.971, -1.041], a = 0.2, v = 0.2, t = 0.1)
movej(p[0.446298267071189, 0.0574482493607104, 0.34250982984847, -1.222, 0.971, -1.041], a = 0.2, v = 0.2, t = 0.1)
movej(p[0.446309263607901, 0.0574405424107686, 0.342505663640731, -1.222, 0.971, -1.041], a = 0.2, v = 0.2, t = 0.1)
movej(p[0.446320306474193, 0.0574347121242635, 0.342501992938709, -1.222, 0.971, -1.041], a = 0.2, v = 0.2, t = 0.1)
movej(p[0.446330974321337, 0.0574345587662729, 0.342503562142534, -1.222, 0.971, -1.041], a = 0.2, v = 0.2, t = 0.1)
movej(p[0.446341458113632, 0.0574389920344442, 0.342510201583657, -1.222, 0.971, -1.041], a = 0.2, v = 0.2, t = 0.1)
movej(p[0.446352173037305, 0.0574459323365799, 0.342520579536247, -1.222, 0.971, -1.041], a = 0.2, v = 0.2, t = 0.1)
movej(p[0.446363587079809, 0.05745479848268, 0.342534735911773, -1.222, 0.971, -1.041], a = 0.2, v = 0.2, t = 0.1)
movej(p[0.446376243157004, 0.057465412714922, 0.342552007996475, -1.222, 0.971, -1.041], a = 0.2, v = 0.2, t = 0.1)
movej(p[0.446390457163047, 0.0574774598165293, 0.342569908276279, -1.222, 0.971, -1.041], a = 0.2, v = 0.2, t = 0.1)
movej(p[0.446404719927116, 0.0574892914943852, 0.342585207968408, -1.222, 0.971, -1.041], a = 0.2, v = 0.2, t = 0.1)
movej(p[0.446416180053442, 0.0574986939709243, 0.342593662079213, -1.222, 0.971, -1.041], a = 0.2, v = 0.2, t = 0.1)
movej(p[0.446422621842175, 0.0575047630247406, 0.342594821923041, -1.222, 0.971, -1.041], a = 0.2, v = 0.2, t = 0.1)
movej(p[0.44642415168621, 0.057508295881786, 0.342590099705731, -1.222, 0.971, -1.041], a = 0.2, v = 0.2, t = 0.1)
movej(p[0.44642171908963, 0.0575119152740917, 0.34258181217062, -1.222, 0.971, -1.041], a = 0.2, v = 0.2, t = 0.1)
movej(p[0.446417138574976, 0.0575152157873804, 0.342574374927882, -1.222, 0.971, -1.041], a = 0.2, v = 0.2, t = 0.1)
movej(p[0.4464115335691, 0.0575166980884231, 0.34256935857485, -1.222, 0.971, -1.041], a = 0.2, v = 0.2, t = 0.1)
movej(p[0.446405589848298, 0.0575151084938393, 0.342568052241016, -1.222, 0.971, -1.041], a = 0.2, v = 0.2, t = 0.1)
movej(p[0.446399751219123, 0.0575115343575914, 0.342569153302068, -1.222, 0.971, -1.041], a = 0.2, v = 0.2, t = 0.1)
movej(p[0.446395155091138, 0.0575078191893324, 0.342569048034074, -1.222, 0.971, -1.041], a = 0.2, v = 0.2, t = 0.1)
movej(p[0.446390644575508, 0.0575039840179228, 0.342565108576496, -1.222, 0.971, -1.041], a = 0.2, v = 0.2, t = 0.1)
movej(p[0.446385266627918, 0.0574996346732016, 0.342556784687188, -1.222, 0.971, -1.041], a = 0.2, v = 0.2, t = 0.1)
movej(p[0.446377334342452, 0.0574950829692972, 0.342544651189924, -1.222, 0.971, -1.041], a = 0.2, v = 0.2, t = 0.1)
movej(p[0.44636754303366, 0.0574904200619496, 0.342530975511067, -1.222, 0.971, -1.041], a = 0.2, v = 0.2, t = 0.1)
movej(p[0.446356582815821, 0.0574843733932283, 0.342516340546486, -1.222, 0.971, -1.041], a = 0.2, v = 0.2, t = 0.1)
movej(p[0.446345199513352, 0.0574758859450127, 0.342501007854267, -1.222, 0.971, -1.041], a = 0.2, v = 0.2, t = 0.1)
movej(p[0.446332394340212, 0.0574660132401988, 0.3424867907901, -1.222, 0.971, -1.041], a = 0.2, v = 0.2, t = 0.1)
movej(p[0.446316264607117, 0.0574554022993031, 0.342475555423369, -1.222, 0.971, -1.041], a = 0.2, v = 0.2, t = 0.1)
movej(p[0.446296710436314, 0.0574447328909799, 0.342467901338104, -1.222, 0.971, -1.041], a = 0.2, v = 0.2, t = 0.1)
movej(p[0.446275674354064, 0.0574337000225256, 0.342461370302792, -1.222, 0.971, -1.041], a = 0.2, v = 0.2, t = 0.1)
movej(p[0.446254682578602, 0.0574230335329325, 0.342453422324137, -1.222, 0.971, -1.041], a = 0.2, v = 0.2, t = 0.1)
movej(p[0.44623446192892, 0.0574141368905584, 0.342442423826697, -1.222, 0.971, -1.041], a = 0.2, v = 0.2, t = 0.1)
movej(p[0.446215192825662, 0.0574069374511349, 0.342429037208543, -1.222, 0.971, -1.041], a = 0.2, v = 0.2, t = 0.1)
movej(p[0.44619685885639, 0.0574012808331099, 0.34241200094759, -1.222, 0.971, -1.041], a = 0.2, v = 0.2, t = 0.1)
movej(p[0.446180339606291, 0.0573963556261188, 0.342391489018323, -1.222, 0.971, -1.041], a = 0.2, v = 0.2, t = 0.1)
movej(p[0.446167568239828, 0.0573935383807833, 0.342366209855592, -1.222, 0.971, -1.041], a = 0.2, v = 0.2, t = 0.1)
movej(p[0.446160434861834, 0.0573927698188171, 0.342337738487906, -1.222, 0.971, -1.041], a = 0.2, v = 0.2, t = 0.1)
movej(p[0.446158791070838, 0.0573935668220211, 0.342310369008279, -1.222, 0.971, -1.041], a = 0.2, v = 0.2, t = 0.1)
movej(p[0.446159976941316, 0.0573951556454198, 0.342289981028256, -1.222, 0.971, -1.041], a = 0.2, v = 0.2, t = 0.1)
movej(p[0.446162879681766, 0.0573979798082212, 0.342276799931475, -1.222, 0.971, -1.041], a = 0.2, v = 0.2, t = 0.1)
movej(p[0.446167520819119, 0.0574010681328023, 0.342270493506232, -1.222, 0.971, -1.041], a = 0.2, v = 0.2, t = 0.1)
movej(p[0.446175701760147, 0.0574044428335861, 0.342267921753615, -1.222, 0.971, -1.041], a = 0.2, v = 0.2, t = 0.1)
movej(p[0.446186329352873, 0.0574085750780132, 0.342267960039904, -1.222, 0.971, -1.041], a = 0.2, v = 0.2, t = 0.1)
movej(p[0.446197349627795, 0.0574137776436096, 0.342269565384995, -1.222, 0.971, -1.041], a = 0.2, v = 0.2, t = 0.1)
movej(p[0.446206244103086, 0.0574177964380468, 0.342272210696803, -1.222, 0.971, -1.041], a = 0.2, v = 0.2, t = 0.1)
movej(p[0.44621288360678, 0.0574194055114495, 0.342274234900223, -1.222, 0.971, -1.041], a = 0.2, v = 0.2, t = 0.1)
movej(p[0.446216745383507, 0.0574183402237405, 0.342274058569266, -1.222, 0.971, -1.041], a = 0.2, v = 0.2, t = 0.1)
movej(p[0.446218257607326, 0.0574165476223062, 0.342272423530362, -1.222, 0.971, -1.041], a = 0.2, v = 0.2, t = 0.1)
movej(p[0.446217396030676, 0.057414236832487, 0.342270116728011, -1.222, 0.971, -1.041], a = 0.2, v = 0.2, t = 0.1)
movej(p[0.446213164229373, 0.0574100151107992, 0.342264185588178, -1.222, 0.971, -1.041], a = 0.2, v = 0.2, t = 0.1)
movej(p[0.446206665468241, 0.0574059636621258, 0.34225684640032, -1.222, 0.971, -1.041], a = 0.2, v = 0.2, t = 0.1)
movej(p[0.446200838052674, 0.0574036604911358, 0.342250648719044, -1.222, 0.971, -1.041], a = 0.2, v = 0.2, t = 0.1)
movej(p[0.446200109358147, 0.0574051797549325, 0.342251278508534, -1.222, 0.971, -1.041], a = 0.2, v = 0.2, t = 0.1)
movej(p[0.446204372990442, 0.0574101297433092, 0.342257349077266, -1.222, 0.971, -1.041], a = 0.2, v = 0.2, t = 0.1)
movej(p[0.446211622148402, 0.0574167479250259, 0.3422684549086, -1.222, 0.971, -1.041], a = 0.2, v = 0.2, t = 0.1)
movej(p[0.446219543647979, 0.0574233988196561, 0.34228461900966, -1.222, 0.971, -1.041], a = 0.2, v = 0.2, t = 0.1)
movej(p[0.446226111560051, 0.0574299033055454, 0.342303484506535, -1.222, 0.971, -1.041], a = 0.2, v = 0.2, t = 0.1)
movej(p[0.446231188191166, 0.0574382449175763, 0.342319495388436, -1.222, 0.971, -1.041], a = 0.2, v = 0.2, t = 0.1)
movej(p[0.44623562500445, 0.057448975395966, 0.342329384069208, -1.222, 0.971, -1.041], a = 0.2, v = 0.2, t = 0.1)
movej(p[0.446239748300518, 0.0574591061231815, 0.342333740448968, -1.222, 0.971, -1.041], a = 0.2, v = 0.2, t = 0.1)
movej(p[0.446242497105471, 0.0574671583560159, 0.34233546686917, -1.222, 0.971, -1.041], a = 0.2, v = 0.2, t = 0.1)
movej(p[0.446243041256836, 0.0574726541279993, 0.342338253604643, -1.222, 0.971, -1.041], a = 0.2, v = 0.2, t = 0.1)
movej(p[0.446240573167953, 0.0574768889436731, 0.342342845196031, -1.222, 0.971, -1.041], a = 0.2, v = 0.2, t = 0.1)
movej(p[0.446234084806867, 0.0574802936552127, 0.342349448834025, -1.222, 0.971, -1.041], a = 0.2, v = 0.2, t = 0.1)
movej(p[0.446223371530318, 0.0574834662527048, 0.342355771426827, -1.222, 0.971, -1.041], a = 0.2, v = 0.2, t = 0.1)
movej(p[0.446209869356538, 0.0574857467136798, 0.342359495545911, -1.222, 0.971, -1.041], a = 0.2, v = 0.2, t = 0.1)
movej(p[0.446194697966233, 0.0574867193423432, 0.342358096634657, -1.222, 0.971, -1.041], a = 0.2, v = 0.2, t = 0.1)
movej(p[0.446179968344727, 0.0574876584440074, 0.342349842054635, -1.222, 0.971, -1.041], a = 0.2, v = 0.2, t = 0.1)
movej(p[0.446167135589007, 0.0574891554816771, 0.342337538949992, -1.222, 0.971, -1.041], a = 0.2, v = 0.2, t = 0.1)
movej(p[0.446155506917215, 0.0574904050553546, 0.342326377327486, -1.222, 0.971, -1.041], a = 0.2, v = 0.2, t = 0.1)
movej(p[0.446143297878583, 0.0574909157983168, 0.342319125342495, -1.222, 0.971, -1.041], a = 0.2, v = 0.2, t = 0.1)
movej(p[0.446129240066648, 0.0574902540253503, 0.342317864121202, -1.222, 0.971, -1.041], a = 0.2, v = 0.2, t = 0.1)
movej(p[0.446113360028606, 0.0574887191697646, 0.342319450804885, -1.222, 0.971, -1.041], a = 0.2, v = 0.2, t = 0.1)
movej(p[0.446096608362879, 0.0574864272532849, 0.342320852218541, -1.222, 0.971, -1.041], a = 0.2, v = 0.2, t = 0.1)
movej(p[0.446081062134388, 0.0574838433173597, 0.342319596068141, -1.222, 0.971, -1.041], a = 0.2, v = 0.2, t = 0.1)
movej(p[0.446068437067258, 0.057480705263427, 0.342316258593274, -1.222, 0.971, -1.041], a = 0.2, v = 0.2, t = 0.1)
movej(p[0.446059692259299, 0.0574778104199036, 0.342311152600252, -1.222, 0.971, -1.041], a = 0.2, v = 0.2, t = 0.1)
movej(p[0.446055455580368, 0.0574764876233505, 0.342305417593722, -1.222, 0.971, -1.041], a = 0.2, v = 0.2, t = 0.1)
movej(p[0.44605603772287, 0.0574768724382108, 0.342301678096211, -1.222, 0.971, -1.041], a = 0.2, v = 0.2, t = 0.1)
movej(p[0.446061555342623, 0.0574777712742643, 0.342300497625961, -1.222, 0.971, -1.041], a = 0.2, v = 0.2, t = 0.1)
movej(p[0.446071311144248, 0.0574777142469776, 0.342300314408784, -1.222, 0.971, -1.041], a = 0.2, v = 0.2, t = 0.1)
movej(p[0.446085093831597, 0.0574762548839985, 0.342299938653363, -1.222, 0.971, -1.041], a = 0.2, v = 0.2, t = 0.1)
movej(p[0.446100781009861, 0.0574710712659508, 0.342296430248019, -1.222, 0.971, -1.041], a = 0.2, v = 0.2, t = 0.1)
movej(p[0.446114988379176, 0.0574631608481626, 0.342292917189445, -1.222, 0.971, -1.041], a = 0.2, v = 0.2, t = 0.1)
movej(p[0.446128621450157, 0.0574548866566277, 0.34229274524447, -1.222, 0.971, -1.041], a = 0.2, v = 0.2, t = 0.1)
movej(p[0.446144877062723, 0.0574472678224789, 0.342301592225724, -1.222, 0.971, -1.041], a = 0.2, v = 0.2, t = 0.1)
movej(p[0.446164690543549, 0.057440524501326, 0.342315763057225, -1.222, 0.971, -1.041], a = 0.2, v = 0.2, t = 0.1)
movej(p[0.446185246240109, 0.0574370435448085, 0.34233123201306, -1.222, 0.971, -1.041], a = 0.2, v = 0.2, t = 0.1)
movej(p[0.446203043196228, 0.0574406911434792, 0.342343692382831, -1.222, 0.971, -1.041], a = 0.2, v = 0.2, t = 0.1)
movej(p[0.446218183938138, 0.0574503080014429, 0.342352276491831, -1.222, 0.971, -1.041], a = 0.2, v = 0.2, t = 0.1)
movej(p[0.446232191166815, 0.0574629341937556, 0.342358284950325, -1.222, 0.971, -1.041], a = 0.2, v = 0.2, t = 0.1)
movej(p[0.446244580173477, 0.0574759652847014, 0.34236343334626, -1.222, 0.971, -1.041], a = 0.2, v = 0.2, t = 0.1)
movej(p[0.446254927691195, 0.0574880883149967, 0.342368704700501, -1.222, 0.971, -1.041], a = 0.2, v = 0.2, t = 0.1)
movej(p[0.446263308661961, 0.0574978435188866, 0.34237462382029, -1.222, 0.971, -1.041], a = 0.2, v = 0.2, t = 0.1)
movej(p[0.446269688264994, 0.0575039676904179, 0.342382107009196, -1.222, 0.971, -1.041], a = 0.2, v = 0.2, t = 0.1)
movej(p[0.446273288364647, 0.0575061057027765, 0.342391713619402, -1.222, 0.971, -1.041], a = 0.2, v = 0.2, t = 0.1)
movej(p[0.446273809438612, 0.0575045832529331, 0.342401560094731, -1.222, 0.971, -1.041], a = 0.2, v = 0.2, t = 0.1)
movej(p[0.446272025689726, 0.0575011818304503, 0.34240933867005, -1.222, 0.971, -1.041], a = 0.2, v = 0.2, t = 0.1)
movej(p[0.446269965380141, 0.0574984624655995, 0.342412685361734, -1.222, 0.971, -1.041], a = 0.2, v = 0.2, t = 0.1)
movej(p[0.446266203276386, 0.0574979486525923, 0.342412482271781, -1.222, 0.971, -1.041], a = 0.2, v = 0.2, t = 0.1)
movej(p[0.446258786909497, 0.0574993808882873, 0.342410370441039, -1.222, 0.971, -1.041], a = 0.2, v = 0.2, t = 0.1)
movej(p[0.446247505523289, 0.0575011990656277, 0.342407567605443, -1.222, 0.971, -1.041], a = 0.2, v = 0.2, t = 0.1)
movej(p[0.446233541830817, 0.0575016505407999, 0.342403947687664, -1.222, 0.971, -1.041], a = 0.2, v = 0.2, t = 0.1)
movej(p[0.446216828058068, 0.0574995659383519, 0.342399490544842, -1.222, 0.971, -1.041], a = 0.2, v = 0.2, t = 0.1)
movej(p[0.446196742475436, 0.0574961361776125, 0.342391923673851, -1.222, 0.971, -1.041], a = 0.2, v = 0.2, t = 0.1)
movej(p[0.446173753636515, 0.057492450781098, 0.342379610036143, -1.222, 0.971, -1.041], a = 0.2, v = 0.2, t = 0.1)
movej(p[0.446149803934869, 0.0574893386240793, 0.34236462147221, -1.222, 0.971, -1.041], a = 0.2, v = 0.2, t = 0.1)
movej(p[0.446126793904252, 0.0574875298681872, 0.342349708887621, -1.222, 0.971, -1.041], a = 0.2, v = 0.2, t = 0.1)
movej(p[0.446104788830938, 0.0574872018492236, 0.34233630624706, -1.222, 0.971, -1.041], a = 0.2, v = 0.2, t = 0.1)
movej(p[0.446085365337092, 0.0574887556438741, 0.34232182214916, -1.222, 0.971, -1.041], a = 0.2, v = 0.2, t = 0.1)
movej(p[0.446068816038152, 0.0574914278325355, 0.3423057570334, -1.222, 0.971, -1.041], a = 0.2, v = 0.2, t = 0.1)
