movej(p[0.412660533370132, 0.212110395198443, 0.320503747417449, -1.283, 0.713, -0.78], a = 0.2, v = 0.2, t = 0.1)
movej(p[0.412664277400254, 0.212112987889064, 0.320504568820996, -1.283, 0.713, -0.78], a = 0.2, v = 0.2, t = 0.1)
movej(p[0.412670040107059, 0.212117792038439, 0.320503784647501, -1.283, 0.713, -0.78], a = 0.2, v = 0.2, t = 0.1)
movej(p[0.412677040089718, 0.212124869139725, 0.320503474105791, -1.283, 0.713, -0.78], a = 0.2, v = 0.2, t = 0.1)
movej(p[0.41268581324198, 0.212134040584471, 0.320505001369574, -1.283, 0.713, -0.78], a = 0.2, v = 0.2, t = 0.1)
movej(p[0.41269737204107, 0.212143843821799, 0.320508139906731, -1.283, 0.713, -0.78], a = 0.2, v = 0.2, t = 0.1)
movej(p[0.412711462692243, 0.212153417391744, 0.320511760264315, -1.283, 0.713, -0.78], a = 0.2, v = 0.2, t = 0.1)
movej(p[0.412726171788243, 0.212161122383804, 0.320514972735046, -1.283, 0.713, -0.78], a = 0.2, v = 0.2, t = 0.1)
movej(p[0.412738883775145, 0.212167333617734, 0.320517732633247, -1.283, 0.713, -0.78], a = 0.2, v = 0.2, t = 0.1)
movej(p[0.412749233340621, 0.212172676161224, 0.320519189771713, -1.283, 0.713, -0.78], a = 0.2, v = 0.2, t = 0.1)
movej(p[0.412756984784661, 0.212178180225693, 0.320519708264357, -1.283, 0.713, -0.78], a = 0.2, v = 0.2, t = 0.1)
movej(p[0.412762350943304, 0.212183419984635, 0.320519219222801, -1.283, 0.713, -0.78], a = 0.2, v = 0.2, t = 0.1)
movej(p[0.412766794239806, 0.212187836010759, 0.320518503494871, -1.283, 0.713, -0.78], a = 0.2, v = 0.2, t = 0.1)
movej(p[0.412770500918477, 0.212191505757073, 0.320517777836394, -1.283, 0.713, -0.78], a = 0.2, v = 0.2, t = 0.1)
movej(p[0.41277203941927, 0.21219518986176, 0.320518221612195, -1.283, 0.713, -0.78], a = 0.2, v = 0.2, t = 0.1)
movej(p[0.412768288490462, 0.212197809996315, 0.320520525969371, -1.283, 0.713, -0.78], a = 0.2, v = 0.2, t = 0.1)
movej(p[0.412759270492575, 0.21219740044598, 0.3205225691795, -1.283, 0.713, -0.78], a = 0.2, v = 0.2, t = 0.1)
movej(p[0.412747156241655, 0.212192331947342, 0.320522480004375, -1.283, 0.713, -0.78], a = 0.2, v = 0.2, t = 0.1)
movej(p[0.41273416634953, 0.212183584915739, 0.320519120899327, -1.283, 0.713, -0.78], a = 0.2, v = 0.2, t = 0.1)
movej(p[0.412720558218807, 0.212173075182382, 0.320513193185012, -1.283, 0.713, -0.78], a = 0.2, v = 0.2, t = 0.1)
movej(p[0.412705157269428, 0.212161245096242, 0.32050591910121, -1.283, 0.713, -0.78], a = 0.2, v = 0.2, t = 0.1)
movej(p[0.412687325285661, 0.212147700184453, 0.320497335224373, -1.283, 0.713, -0.78], a = 0.2, v = 0.2, t = 0.1)
movej(p[0.412667417929707, 0.212132988304802, 0.320488721209628, -1.283, 0.713, -0.78], a = 0.2, v = 0.2, t = 0.1)
movej(p[0.412646795455605, 0.212117792964733, 0.320483083217069, -1.283, 0.713, -0.78], a = 0.2, v = 0.2, t = 0.1)
movej(p[0.412626809075476, 0.21210369122985, 0.320482158496214, -1.283, 0.713, -0.78], a = 0.2, v = 0.2, t = 0.1)
movej(p[0.412608617047147, 0.212091407584844, 0.320483502603212, -1.283, 0.713, -0.78], a = 0.2, v = 0.2, t = 0.1)
movej(p[0.412593341301726, 0.212082577345436, 0.320484669996387, -1.283, 0.713, -0.78], a = 0.2, v = 0.2, t = 0.1)
movej(p[0.412580599209612, 0.212077351310119, 0.320485666709208, -1.283, 0.713, -0.78], a = 0.2, v = 0.2, t = 0.1)
movej(p[0.412570149974954, 0.212074749614861, 0.320488196803243, -1.283, 0.713, -0.78], a = 0.2, v = 0.2, t = 0.1)
movej(p[0.412562259822612, 0.212074304244488, 0.320491495294755, -1.283, 0.713, -0.78], a = 0.2, v = 0.2, t = 0.1)
movej(p[0.412557946741845, 0.212075484921341, 0.32049162297196, -1.283, 0.713, -0.78], a = 0.2, v = 0.2, t = 0.1)
movej(p[0.412557452380731, 0.212077383437702, 0.320488505095645, -1.283, 0.713, -0.78], a = 0.2, v = 0.2, t = 0.1)
movej(p[0.412560091006567, 0.212078799482029, 0.320483845419565, -1.283, 0.713, -0.78], a = 0.2, v = 0.2, t = 0.1)
movej(p[0.412565561885988, 0.212080004121145, 0.320481478562376, -1.283, 0.713, -0.78], a = 0.2, v = 0.2, t = 0.1)
movej(p[0.412573403939714, 0.212082443101084, 0.320482951080026, -1.283, 0.713, -0.78], a = 0.2, v = 0.2, t = 0.1)
movej(p[0.412584188745051, 0.21208573069792, 0.320488233965021, -1.283, 0.713, -0.78], a = 0.2, v = 0.2, t = 0.1)
movej(p[0.412597119695769, 0.212088670303978, 0.320497274098801, -1.283, 0.713, -0.78], a = 0.2, v = 0.2, t = 0.1)
movej(p[0.41261214473059, 0.212089529000094, 0.320508153747077, -1.283, 0.713, -0.78], a = 0.2, v = 0.2, t = 0.1)
movej(p[0.412628045188753, 0.212089921478541, 0.320518362273115, -1.283, 0.713, -0.78], a = 0.2, v = 0.2, t = 0.1)
movej(p[0.412643186249996, 0.212091063986477, 0.320523839181556, -1.283, 0.713, -0.78], a = 0.2, v = 0.2, t = 0.1)
movej(p[0.412656675143411, 0.212093179818565, 0.320522797427744, -1.283, 0.713, -0.78], a = 0.2, v = 0.2, t = 0.1)
movej(p[0.412668767932878, 0.212095923294189, 0.320514909461377, -1.283, 0.713, -0.78], a = 0.2, v = 0.2, t = 0.1)
movej(p[0.412679271514195, 0.212099693281447, 0.320502951946101, -1.283, 0.713, -0.78], a = 0.2, v = 0.2, t = 0.1)
movej(p[0.412687017259191, 0.212104133376317, 0.320491915289451, -1.283, 0.713, -0.78], a = 0.2, v = 0.2, t = 0.1)
movej(p[0.412690915259241, 0.212108514120822, 0.320482623704539, -1.283, 0.713, -0.78], a = 0.2, v = 0.2, t = 0.1)
movej(p[0.412691512370283, 0.212111872946358, 0.320472827434206, -1.283, 0.713, -0.78], a = 0.2, v = 0.2, t = 0.1)
movej(p[0.412688347519332, 0.212113978299369, 0.320461716787368, -1.283, 0.713, -0.78], a = 0.2, v = 0.2, t = 0.1)
movej(p[0.412680624025333, 0.212113837441339, 0.320452688272016, -1.283, 0.713, -0.78], a = 0.2, v = 0.2, t = 0.1)
movej(p[0.412668013688397, 0.212110056573373, 0.320449801872567, -1.283, 0.713, -0.78], a = 0.2, v = 0.2, t = 0.1)
movej(p[0.412651725644124, 0.212103051008014, 0.320452262949107, -1.283, 0.713, -0.78], a = 0.2, v = 0.2, t = 0.1)
movej(p[0.412633172416233, 0.212094270176228, 0.32045591541362, -1.283, 0.713, -0.78], a = 0.2, v = 0.2, t = 0.1)
movej(p[0.412614228284634, 0.212084867426798, 0.320457494097592, -1.283, 0.713, -0.78], a = 0.2, v = 0.2, t = 0.1)
movej(p[0.412595987666117, 0.212075387913524, 0.32045633899707, -1.283, 0.713, -0.78], a = 0.2, v = 0.2, t = 0.1)
movej(p[0.41257902814762, 0.212066193022446, 0.320453527500779, -1.283, 0.713, -0.78], a = 0.2, v = 0.2, t = 0.1)
movej(p[0.412563762309808, 0.21205752982514, 0.320449086716463, -1.283, 0.713, -0.78], a = 0.2, v = 0.2, t = 0.1)
movej(p[0.412550708917316, 0.21205061454321, 0.320444369650503, -1.283, 0.713, -0.78], a = 0.2, v = 0.2, t = 0.1)
movej(p[0.412540686114614, 0.212045592572997, 0.320440968545509, -1.283, 0.713, -0.78], a = 0.2, v = 0.2, t = 0.1)
movej(p[0.412534962187137, 0.212041753245114, 0.320440755861114, -1.283, 0.713, -0.78], a = 0.2, v = 0.2, t = 0.1)
movej(p[0.412534054483007, 0.21203855693844, 0.320444179558218, -1.283, 0.713, -0.78], a = 0.2, v = 0.2, t = 0.1)
movej(p[0.412537043345057, 0.212037383199124, 0.32045060889906, -1.283, 0.713, -0.78], a = 0.2, v = 0.2, t = 0.1)
movej(p[0.412542571165946, 0.212039598930603, 0.32045858871104, -1.283, 0.713, -0.78], a = 0.2, v = 0.2, t = 0.1)
movej(p[0.412550641033349, 0.21204496764782, 0.320465255968087, -1.283, 0.713, -0.78], a = 0.2, v = 0.2, t = 0.1)
movej(p[0.412560257541568, 0.21205248778214, 0.320471224638249, -1.283, 0.713, -0.78], a = 0.2, v = 0.2, t = 0.1)
movej(p[0.41256959821303, 0.212060993393153, 0.320477232471795, -1.283, 0.713, -0.78], a = 0.2, v = 0.2, t = 0.1)
movej(p[0.412577156198425, 0.212069951107865, 0.320483930950422, -1.283, 0.713, -0.78], a = 0.2, v = 0.2, t = 0.1)
movej(p[0.41258359854242, 0.212079224890193, 0.320490897940747, -1.283, 0.713, -0.78], a = 0.2, v = 0.2, t = 0.1)
movej(p[0.412590392564947, 0.212089963482484, 0.320499237687416, -1.283, 0.713, -0.78], a = 0.2, v = 0.2, t = 0.1)
movej(p[0.41259738150546, 0.212101772885085, 0.320510011823795, -1.283, 0.713, -0.78], a = 0.2, v = 0.2, t = 0.1)
movej(p[0.412603802839286, 0.212112666248, 0.320522159512846, -1.283, 0.713, -0.78], a = 0.2, v = 0.2, t = 0.1)
movej(p[0.412608758600698, 0.212122594842147, 0.320533595884303, -1.283, 0.713, -0.78], a = 0.2, v = 0.2, t = 0.1)
movej(p[0.412612063117171, 0.212131934600266, 0.32054406140341, -1.283, 0.713, -0.78], a = 0.2, v = 0.2, t = 0.1)
movej(p[0.412614200377671, 0.212139628067064, 0.320553955205468, -1.283, 0.713, -0.78], a = 0.2, v = 0.2, t = 0.1)
movej(p[0.412614602247811, 0.212143723361519, 0.320562927190796, -1.283, 0.713, -0.78], a = 0.2, v = 0.2, t = 0.1)
movej(p[0.412612627914966, 0.212143154335731, 0.320569449815994, -1.283, 0.713, -0.78], a = 0.2, v = 0.2, t = 0.1)
movej(p[0.412607335527505, 0.212139351367304, 0.320571841278331, -1.283, 0.713, -0.78], a = 0.2, v = 0.2, t = 0.1)
movej(p[0.412598089047413, 0.212133544460279, 0.320568637787626, -1.283, 0.713, -0.78], a = 0.2, v = 0.2, t = 0.1)
movej(p[0.412585100624973, 0.212127778315022, 0.320561322113808, -1.283, 0.713, -0.78], a = 0.2, v = 0.2, t = 0.1)
movej(p[0.412569509613331, 0.212122332816877, 0.320551144276321, -1.283, 0.713, -0.78], a = 0.2, v = 0.2, t = 0.1)
movej(p[0.412552898789996, 0.212115673566615, 0.32054017516081, -1.283, 0.713, -0.78], a = 0.2, v = 0.2, t = 0.1)
movej(p[0.412536031642482, 0.212106882146107, 0.3205294097165, -1.283, 0.713, -0.78], a = 0.2, v = 0.2, t = 0.1)
movej(p[0.41251891043266, 0.212096726944779, 0.320518896918621, -1.283, 0.713, -0.78], a = 0.2, v = 0.2, t = 0.1)
movej(p[0.41250312702713, 0.212087650459408, 0.320507689956091, -1.283, 0.713, -0.78], a = 0.2, v = 0.2, t = 0.1)
movej(p[0.412490389547798, 0.212078797391577, 0.32049533083637, -1.283, 0.713, -0.78], a = 0.2, v = 0.2, t = 0.1)
movej(p[0.412481068126152, 0.212068648602886, 0.320482843356416, -1.283, 0.713, -0.78], a = 0.2, v = 0.2, t = 0.1)
movej(p[0.41247489171476, 0.212058125545352, 0.320472703647177, -1.283, 0.713, -0.78], a = 0.2, v = 0.2, t = 0.1)
movej(p[0.412470499821405, 0.212049047869882, 0.320465501715851, -1.283, 0.713, -0.78], a = 0.2, v = 0.2, t = 0.1)
movej(p[0.412467818894354, 0.212042835626999, 0.320460773890505, -1.283, 0.713, -0.78], a = 0.2, v = 0.2, t = 0.1)
movej(p[0.412467457873369, 0.21203937530449, 0.32045674554432, -1.283, 0.713, -0.78], a = 0.2, v = 0.2, t = 0.1)
movej(p[0.412470649368842, 0.21203857692903, 0.320452522011762, -1.283, 0.713, -0.78], a = 0.2, v = 0.2, t = 0.1)
movej(p[0.412478105937642, 0.212040472329393, 0.320448475652387, -1.283, 0.713, -0.78], a = 0.2, v = 0.2, t = 0.1)
movej(p[0.41248857705908, 0.212045565361751, 0.320447195361704, -1.283, 0.713, -0.78], a = 0.2, v = 0.2, t = 0.1)
movej(p[0.412501468660157, 0.212053370048098, 0.320450206769632, -1.283, 0.713, -0.78], a = 0.2, v = 0.2, t = 0.1)
movej(p[0.412517174840539, 0.212062377743003, 0.320456423710705, -1.283, 0.713, -0.78], a = 0.2, v = 0.2, t = 0.1)
movej(p[0.412535273542247, 0.212071810804569, 0.320463102215327, -1.283, 0.713, -0.78], a = 0.2, v = 0.2, t = 0.1)
movej(p[0.412554460351524, 0.212082112276157, 0.320470017937045, -1.283, 0.713, -0.78], a = 0.2, v = 0.2, t = 0.1)
movej(p[0.412573316653194, 0.212092890069932, 0.320481592230529, -1.283, 0.713, -0.78], a = 0.2, v = 0.2, t = 0.1)
movej(p[0.412591329685576, 0.212102654354393, 0.320497822534728, -1.283, 0.713, -0.78], a = 0.2, v = 0.2, t = 0.1)
movej(p[0.412608073939871, 0.212110430339372, 0.320514536228357, -1.283, 0.713, -0.78], a = 0.2, v = 0.2, t = 0.1)
movej(p[0.412622250987233, 0.212117915437058, 0.320528090047439, -1.283, 0.713, -0.78], a = 0.2, v = 0.2, t = 0.1)
movej(p[0.412634178869658, 0.212124513009704, 0.320538457034805, -1.283, 0.713, -0.78], a = 0.2, v = 0.2, t = 0.1)
movej(p[0.412644410069971, 0.212130236679454, 0.320546436579074, -1.283, 0.713, -0.78], a = 0.2, v = 0.2, t = 0.1)
movej(p[0.412652488246194, 0.212133921543947, 0.320553007151239, -1.283, 0.713, -0.78], a = 0.2, v = 0.2, t = 0.1)
movej(p[0.412657271079602, 0.212135526030695, 0.320559673708662, -1.283, 0.713, -0.78], a = 0.2, v = 0.2, t = 0.1)
movej(p[0.412658466353863, 0.212134137691687, 0.320566867374573, -1.283, 0.713, -0.78], a = 0.2, v = 0.2, t = 0.1)
movej(p[0.412657216315968, 0.212129382946869, 0.320573834489398, -1.283, 0.713, -0.78], a = 0.2, v = 0.2, t = 0.1)
movej(p[0.41265401688853, 0.212121542111498, 0.320577436650658, -1.283, 0.713, -0.78], a = 0.2, v = 0.2, t = 0.1)
movej(p[0.412648563623118, 0.212112029206219, 0.320576111213556, -1.283, 0.713, -0.78], a = 0.2, v = 0.2, t = 0.1)
movej(p[0.412641171558538, 0.212102756669107, 0.320570622977525, -1.283, 0.713, -0.78], a = 0.2, v = 0.2, t = 0.1)
movej(p[0.412631136223685, 0.212093808640358, 0.320564187057163, -1.283, 0.713, -0.78], a = 0.2, v = 0.2, t = 0.1)
movej(p[0.412617480690668, 0.212085232843603, 0.320559388337642, -1.283, 0.713, -0.78], a = 0.2, v = 0.2, t = 0.1)
movej(p[0.412600142718157, 0.212076993014388, 0.320555576653672, -1.283, 0.713, -0.78], a = 0.2, v = 0.2, t = 0.1)
movej(p[0.412581045993769, 0.212068822138758, 0.320550601521703, -1.283, 0.713, -0.78], a = 0.2, v = 0.2, t = 0.1)
movej(p[0.412562916105578, 0.212059535671225, 0.320542421221958, -1.283, 0.713, -0.78], a = 0.2, v = 0.2, t = 0.1)
movej(p[0.412546589044132, 0.212048510956438, 0.320531574452972, -1.283, 0.713, -0.78], a = 0.2, v = 0.2, t = 0.1)
movej(p[0.412531665219894, 0.212037143750334, 0.320520573090851, -1.283, 0.713, -0.78], a = 0.2, v = 0.2, t = 0.1)
movej(p[0.41251828788455, 0.212027353955892, 0.320510740066247, -1.283, 0.713, -0.78], a = 0.2, v = 0.2, t = 0.1)
movej(p[0.412507267338086, 0.212019983549367, 0.320502426588377, -1.283, 0.713, -0.78], a = 0.2, v = 0.2, t = 0.1)
movej(p[0.41249953648946, 0.212016333191257, 0.320495496406909, -1.283, 0.713, -0.78], a = 0.2, v = 0.2, t = 0.1)
movej(p[0.412496132664014, 0.212016585479766, 0.320490685060441, -1.283, 0.713, -0.78], a = 0.2, v = 0.2, t = 0.1)
movej(p[0.412497389658089, 0.212019632717726, 0.320487848921038, -1.283, 0.713, -0.78], a = 0.2, v = 0.2, t = 0.1)
movej(p[0.412502394524222, 0.212023871761935, 0.320486679021388, -1.283, 0.713, -0.78], a = 0.2, v = 0.2, t = 0.1)
movej(p[0.412509246279075, 0.212028602982888, 0.320485333730443, -1.283, 0.713, -0.78], a = 0.2, v = 0.2, t = 0.1)
movej(p[0.412516948614927, 0.212034088402516, 0.320482152752618, -1.283, 0.713, -0.78], a = 0.2, v = 0.2, t = 0.1)
movej(p[0.412525443898823, 0.212040973951942, 0.32047636977634, -1.283, 0.713, -0.78], a = 0.2, v = 0.2, t = 0.1)
movej(p[0.412535509966371, 0.212048286272465, 0.320469780610787, -1.283, 0.713, -0.78], a = 0.2, v = 0.2, t = 0.1)
movej(p[0.412547494880546, 0.212055420449014, 0.32046344426206, -1.283, 0.713, -0.78], a = 0.2, v = 0.2, t = 0.1)
movej(p[0.412560319552515, 0.212062038478991, 0.320458300314928, -1.283, 0.713, -0.78], a = 0.2, v = 0.2, t = 0.1)
movej(p[0.412572443468663, 0.212067847149374, 0.320454911956679, -1.283, 0.713, -0.78], a = 0.2, v = 0.2, t = 0.1)
movej(p[0.412584109723917, 0.212073435098675, 0.320453627496885, -1.283, 0.713, -0.78], a = 0.2, v = 0.2, t = 0.1)
movej(p[0.412596797772087, 0.212077856505099, 0.320452960778908, -1.283, 0.713, -0.78], a = 0.2, v = 0.2, t = 0.1)
movej(p[0.41261129337522, 0.212080210223413, 0.320451653680624, -1.283, 0.713, -0.78], a = 0.2, v = 0.2, t = 0.1)
movej(p[0.412626842915475, 0.212080463312186, 0.320448517834659, -1.283, 0.713, -0.78], a = 0.2, v = 0.2, t = 0.1)
movej(p[0.412641411126091, 0.21207951995685, 0.320444972141615, -1.283, 0.713, -0.78], a = 0.2, v = 0.2, t = 0.1)
movej(p[0.412653465001025, 0.212078350615558, 0.320443150346894, -1.283, 0.713, -0.78], a = 0.2, v = 0.2, t = 0.1)
movej(p[0.412661784677252, 0.212076980605895, 0.320442652256525, -1.283, 0.713, -0.78], a = 0.2, v = 0.2, t = 0.1)
movej(p[0.412665625973251, 0.212076400995385, 0.320443222566702, -1.283, 0.713, -0.78], a = 0.2, v = 0.2, t = 0.1)
movej(p[0.412665272640153, 0.212075835266819, 0.3204421971717, -1.283, 0.713, -0.78], a = 0.2, v = 0.2, t = 0.1)
movej(p[0.412660769547454, 0.212074765959756, 0.320440543451182, -1.283, 0.713, -0.78], a = 0.2, v = 0.2, t = 0.1)
movej(p[0.412652907664681, 0.212072121955894, 0.320437936116367, -1.283, 0.713, -0.78], a = 0.2, v = 0.2, t = 0.1)
movej(p[0.412642467214151, 0.2120685055921, 0.320436882127451, -1.283, 0.713, -0.78], a = 0.2, v = 0.2, t = 0.1)
movej(p[0.412629501777247, 0.212064156504372, 0.320437048521037, -1.283, 0.713, -0.78], a = 0.2, v = 0.2, t = 0.1)
movej(p[0.412614124978258, 0.21205955124792, 0.320438548864951, -1.283, 0.713, -0.78], a = 0.2, v = 0.2, t = 0.1)
movej(p[0.412596601652205, 0.212055306772098, 0.320441815859906, -1.283, 0.713, -0.78], a = 0.2, v = 0.2, t = 0.1)
movej(p[0.412579097042971, 0.212050509661382, 0.320446129536453, -1.283, 0.713, -0.78], a = 0.2, v = 0.2, t = 0.1)
movej(p[0.412563559582409, 0.212044959106211, 0.32044987150192, -1.283, 0.713, -0.78], a = 0.2, v = 0.2, t = 0.1)
movej(p[0.412550258976446, 0.212039164553315, 0.320451461681709, -1.283, 0.713, -0.78], a = 0.2, v = 0.2, t = 0.1)
movej(p[0.412539230188258, 0.21203437043229, 0.320450598563702, -1.283, 0.713, -0.78], a = 0.2, v = 0.2, t = 0.1)
movej(p[0.412530708042039, 0.212031120224195, 0.32044872138066, -1.283, 0.713, -0.78], a = 0.2, v = 0.2, t = 0.1)
movej(p[0.412524911263025, 0.212029802864914, 0.320446236665669, -1.283, 0.713, -0.78], a = 0.2, v = 0.2, t = 0.1)
movej(p[0.412521791496303, 0.212029386502606, 0.320444742949488, -1.283, 0.713, -0.78], a = 0.2, v = 0.2, t = 0.1)
movej(p[0.412520794767875, 0.212029367632083, 0.320447206018579, -1.283, 0.713, -0.78], a = 0.2, v = 0.2, t = 0.1)
movej(p[0.412521936385694, 0.212029148281116, 0.3204543484405, -1.283, 0.713, -0.78], a = 0.2, v = 0.2, t = 0.1)
movej(p[0.412524974970458, 0.212030705015656, 0.320465112774442, -1.283, 0.713, -0.78], a = 0.2, v = 0.2, t = 0.1)
movej(p[0.412531786088171, 0.212034396051514, 0.320478384017443, -1.283, 0.713, -0.78], a = 0.2, v = 0.2, t = 0.1)
movej(p[0.412542732364285, 0.212040440280203, 0.320493575727445, -1.283, 0.713, -0.78], a = 0.2, v = 0.2, t = 0.1)
movej(p[0.412553880085634, 0.212048294685104, 0.320511609263604, -1.283, 0.713, -0.78], a = 0.2, v = 0.2, t = 0.1)
movej(p[0.41256212199322, 0.212057541865229, 0.320529167821292, -1.283, 0.713, -0.78], a = 0.2, v = 0.2, t = 0.1)
movej(p[0.412567967572147, 0.212067775743532, 0.32054359387189, -1.283, 0.713, -0.78], a = 0.2, v = 0.2, t = 0.1)
movej(p[0.412574485337327, 0.212077546177846, 0.320554467903865, -1.283, 0.713, -0.78], a = 0.2, v = 0.2, t = 0.1)
movej(p[0.412583250605995, 0.212086415838292, 0.320563289501551, -1.283, 0.713, -0.78], a = 0.2, v = 0.2, t = 0.1)
movej(p[0.412593172148144, 0.212093291038556, 0.320571198531309, -1.283, 0.713, -0.78], a = 0.2, v = 0.2, t = 0.1)
movej(p[0.412603318012752, 0.212098310799312, 0.320577095599421, -1.283, 0.713, -0.78], a = 0.2, v = 0.2, t = 0.1)
movej(p[0.412612777705917, 0.212103295606986, 0.320578084770628, -1.283, 0.713, -0.78], a = 0.2, v = 0.2, t = 0.1)
movej(p[0.412621439124618, 0.212110061017945, 0.320574571765269, -1.283, 0.713, -0.78], a = 0.2, v = 0.2, t = 0.1)
movej(p[0.412629343980156, 0.212117834700486, 0.320568540589623, -1.283, 0.713, -0.78], a = 0.2, v = 0.2, t = 0.1)
movej(p[0.412635709020117, 0.212123757097165, 0.320563493939063, -1.283, 0.713, -0.78], a = 0.2, v = 0.2, t = 0.1)
movej(p[0.412639397535368, 0.212127021389924, 0.320559658612998, -1.283, 0.713, -0.78], a = 0.2, v = 0.2, t = 0.1)
movej(p[0.412640043526619, 0.212128173911241, 0.320556807001363, -1.283, 0.713, -0.78], a = 0.2, v = 0.2, t = 0.1)
movej(p[0.412636352858493, 0.21212732961499, 0.32055388724236, -1.283, 0.713, -0.78], a = 0.2, v = 0.2, t = 0.1)
movej(p[0.412628254190402, 0.212124794265959, 0.320550421685056, -1.283, 0.713, -0.78], a = 0.2, v = 0.2, t = 0.1)
movej(p[0.412616734123136, 0.21212142536957, 0.320545214854512, -1.283, 0.713, -0.78], a = 0.2, v = 0.2, t = 0.1)
movej(p[0.412602778179971, 0.212117797424244, 0.320537287691773, -1.283, 0.713, -0.78], a = 0.2, v = 0.2, t = 0.1)
movej(p[0.412586289740723, 0.212114951592252, 0.320528028214011, -1.283, 0.713, -0.78], a = 0.2, v = 0.2, t = 0.1)
movej(p[0.412566402940418, 0.212112501342519, 0.320517478807256, -1.283, 0.713, -0.78], a = 0.2, v = 0.2, t = 0.1)
movej(p[0.412544012288366, 0.2121090552943, 0.320504600742131, -1.283, 0.713, -0.78], a = 0.2, v = 0.2, t = 0.1)
movej(p[0.412520068216508, 0.212103394753388, 0.320488893418443, -1.283, 0.713, -0.78], a = 0.2, v = 0.2, t = 0.1)
movej(p[0.412494611707889, 0.212095340215042, 0.320471160912953, -1.283, 0.713, -0.78], a = 0.2, v = 0.2, t = 0.1)
movej(p[0.412469898520441, 0.212084629459176, 0.320452783717521, -1.283, 0.713, -0.78], a = 0.2, v = 0.2, t = 0.1)
movej(p[0.412447948308438, 0.212072300287774, 0.320435105260842, -1.283, 0.713, -0.78], a = 0.2, v = 0.2, t = 0.1)
movej(p[0.412429394274698, 0.212060438908867, 0.320419104600749, -1.283, 0.713, -0.78], a = 0.2, v = 0.2, t = 0.1)
movej(p[0.412414585280513, 0.212050987456245, 0.320406371006929, -1.283, 0.713, -0.78], a = 0.2, v = 0.2, t = 0.1)
movej(p[0.412404038733576, 0.212044121005462, 0.320397785791944, -1.283, 0.713, -0.78], a = 0.2, v = 0.2, t = 0.1)
movej(p[0.412398540003597, 0.212039165155591, 0.320392056223489, -1.283, 0.713, -0.78], a = 0.2, v = 0.2, t = 0.1)
movej(p[0.412398523401841, 0.212037351404068, 0.320387529916076, -1.283, 0.713, -0.78], a = 0.2, v = 0.2, t = 0.1)
movej(p[0.412405389337748, 0.21203894030493, 0.320383416602671, -1.283, 0.713, -0.78], a = 0.2, v = 0.2, t = 0.1)
movej(p[0.412419441336241, 0.212043402450842, 0.32037900515776, -1.283, 0.713, -0.78], a = 0.2, v = 0.2, t = 0.1)
movej(p[0.412437513351855, 0.212049686552771, 0.320375255077815, -1.283, 0.713, -0.78], a = 0.2, v = 0.2, t = 0.1)
movej(p[0.412456540824962, 0.212056967644557, 0.320373570601464, -1.283, 0.713, -0.78], a = 0.2, v = 0.2, t = 0.1)
movej(p[0.412474903947149, 0.21206554068393, 0.320373772258269, -1.283, 0.713, -0.78], a = 0.2, v = 0.2, t = 0.1)
movej(p[0.412492012378914, 0.212076042802813, 0.320376804297769, -1.283, 0.713, -0.78], a = 0.2, v = 0.2, t = 0.1)
movej(p[0.412507507873284, 0.212088633828905, 0.320382551914854, -1.283, 0.713, -0.78], a = 0.2, v = 0.2, t = 0.1)
movej(p[0.412521136389478, 0.212101832543723, 0.320390995716634, -1.283, 0.713, -0.78], a = 0.2, v = 0.2, t = 0.1)
movej(p[0.412532721037651, 0.212114185931916, 0.320399882477115, -1.283, 0.713, -0.78], a = 0.2, v = 0.2, t = 0.1)
movej(p[0.412542233846711, 0.212125175937923, 0.320408040801807, -1.283, 0.713, -0.78], a = 0.2, v = 0.2, t = 0.1)
movej(p[0.412550117819343, 0.212135422579857, 0.320415653693873, -1.283, 0.713, -0.78], a = 0.2, v = 0.2, t = 0.1)
movej(p[0.412556258765365, 0.212145596487363, 0.320421827059649, -1.283, 0.713, -0.78], a = 0.2, v = 0.2, t = 0.1)
movej(p[0.412559432762601, 0.212155775688651, 0.320426914859733, -1.283, 0.713, -0.78], a = 0.2, v = 0.2, t = 0.1)
movej(p[0.412558180311316, 0.212165028513614, 0.32043183508178, -1.283, 0.713, -0.78], a = 0.2, v = 0.2, t = 0.1)
movej(p[0.412553831701024, 0.212171624940847, 0.320437686060782, -1.283, 0.713, -0.78], a = 0.2, v = 0.2, t = 0.1)
movej(p[0.412547425256971, 0.212175115614345, 0.320444237942735, -1.283, 0.713, -0.78], a = 0.2, v = 0.2, t = 0.1)
movej(p[0.412538876134286, 0.212177082041445, 0.32044986395418, -1.283, 0.713, -0.78], a = 0.2, v = 0.2, t = 0.1)
movej(p[0.412527846468654, 0.212178210163143, 0.320454431873125, -1.283, 0.713, -0.78], a = 0.2, v = 0.2, t = 0.1)
movej(p[0.412514765143533, 0.212177791773759, 0.320457425554535, -1.283, 0.713, -0.78], a = 0.2, v = 0.2, t = 0.1)
movej(p[0.412499994264479, 0.212174118264185, 0.320461013566714, -1.283, 0.713, -0.78], a = 0.2, v = 0.2, t = 0.1)
movej(p[0.412484111508817, 0.212167702470023, 0.32046550694271, -1.283, 0.713, -0.78], a = 0.2, v = 0.2, t = 0.1)
movej(p[0.412468199456259, 0.212159412903899, 0.320469287648846, -1.283, 0.713, -0.78], a = 0.2, v = 0.2, t = 0.1)
movej(p[0.412453479103657, 0.212149641865908, 0.320471332106923, -1.283, 0.713, -0.78], a = 0.2, v = 0.2, t = 0.1)
movej(p[0.41244019546265, 0.212139291634817, 0.320472245180827, -1.283, 0.713, -0.78], a = 0.2, v = 0.2, t = 0.1)
movej(p[0.412428440696093, 0.212130707746286, 0.320474063343608, -1.283, 0.713, -0.78], a = 0.2, v = 0.2, t = 0.1)
movej(p[0.412417744542204, 0.212124459239727, 0.320478406001637, -1.283, 0.713, -0.78], a = 0.2, v = 0.2, t = 0.1)
movej(p[0.412408977199439, 0.212119961442504, 0.320484107729006, -1.283, 0.713, -0.78], a = 0.2, v = 0.2, t = 0.1)
movej(p[0.412403365935527, 0.212116629387696, 0.32048852362711, -1.283, 0.713, -0.78], a = 0.2, v = 0.2, t = 0.1)
movej(p[0.412400744267303, 0.212114559261161, 0.3204913793811, -1.283, 0.713, -0.78], a = 0.2, v = 0.2, t = 0.1)
movej(p[0.412400581310471, 0.212114822918372, 0.320492240044185, -1.283, 0.713, -0.78], a = 0.2, v = 0.2, t = 0.1)
movej(p[0.412401963977734, 0.212117230999624, 0.320492158399102, -1.283, 0.713, -0.78], a = 0.2, v = 0.2, t = 0.1)
movej(p[0.412404993116768, 0.21212234549898, 0.32049112457559, -1.283, 0.713, -0.78], a = 0.2, v = 0.2, t = 0.1)
movej(p[0.412410268211947, 0.212129710731733, 0.320489817127945, -1.283, 0.713, -0.78], a = 0.2, v = 0.2, t = 0.1)
movej(p[0.412417860860755, 0.212140191659013, 0.320487680899394, -1.283, 0.713, -0.78], a = 0.2, v = 0.2, t = 0.1)
movej(p[0.412427119589979, 0.212153981419146, 0.32048533826783, -1.283, 0.713, -0.78], a = 0.2, v = 0.2, t = 0.1)
movej(p[0.412437110526918, 0.212169238004064, 0.320483804354952, -1.283, 0.713, -0.78], a = 0.2, v = 0.2, t = 0.1)
movej(p[0.412448922504343, 0.212182939130639, 0.320484674162915, -1.283, 0.713, -0.78], a = 0.2, v = 0.2, t = 0.1)
movej(p[0.412463468438732, 0.212194303350547, 0.320486278352624, -1.283, 0.713, -0.78], a = 0.2, v = 0.2, t = 0.1)
movej(p[0.412480144346939, 0.212203927074445, 0.320486304214047, -1.283, 0.713, -0.78], a = 0.2, v = 0.2, t = 0.1)
movej(p[0.412497478816162, 0.212211933422142, 0.320485084163913, -1.283, 0.713, -0.78], a = 0.2, v = 0.2, t = 0.1)
movej(p[0.412514249875176, 0.21221822324205, 0.320483533521449, -1.283, 0.713, -0.78], a = 0.2, v = 0.2, t = 0.1)
movej(p[0.412529599994792, 0.21222146233351, 0.320482381783941, -1.283, 0.713, -0.78], a = 0.2, v = 0.2, t = 0.1)
movej(p[0.412542394405295, 0.212221908792039, 0.320479901768886, -1.283, 0.713, -0.78], a = 0.2, v = 0.2, t = 0.1)
movej(p[0.412551799962866, 0.212219521932983, 0.320475593879307, -1.283, 0.713, -0.78], a = 0.2, v = 0.2, t = 0.1)
movej(p[0.412558127571668, 0.212215061884068, 0.320471618567808, -1.283, 0.713, -0.78], a = 0.2, v = 0.2, t = 0.1)
movej(p[0.412562533481223, 0.212208134770035, 0.320468715887982, -1.283, 0.713, -0.78], a = 0.2, v = 0.2, t = 0.1)
movej(p[0.412564441103525, 0.212200038949598, 0.320466318309283, -1.283, 0.713, -0.78], a = 0.2, v = 0.2, t = 0.1)
movej(p[0.412563192319472, 0.212191689339499, 0.320462922729718, -1.283, 0.713, -0.78], a = 0.2, v = 0.2, t = 0.1)
movej(p[0.412558312231596, 0.212183457115324, 0.320458843139856, -1.283, 0.713, -0.78], a = 0.2, v = 0.2, t = 0.1)
movej(p[0.412551144319048, 0.212174315624645, 0.320454097693632, -1.283, 0.713, -0.78], a = 0.2, v = 0.2, t = 0.1)
movej(p[0.412542865173906, 0.212163775172471, 0.320447506675448, -1.283, 0.713, -0.78], a = 0.2, v = 0.2, t = 0.1)
movej(p[0.412532794912264, 0.21215311188221, 0.320438148028951, -1.283, 0.713, -0.78], a = 0.2, v = 0.2, t = 0.1)
movej(p[0.412521341632636, 0.212142332595365, 0.32042597217798, -1.283, 0.713, -0.78], a = 0.2, v = 0.2, t = 0.1)
movej(p[0.412508402688597, 0.212131933338785, 0.320412221084723, -1.283, 0.713, -0.78], a = 0.2, v = 0.2, t = 0.1)
movej(p[0.412494064892278, 0.21212153379801, 0.320398608314344, -1.283, 0.713, -0.78], a = 0.2, v = 0.2, t = 0.1)
movej(p[0.412477152154238, 0.212108886331771, 0.320388429531623, -1.283, 0.713, -0.78], a = 0.2, v = 0.2, t = 0.1)
movej(p[0.412458600395642, 0.212092579160188, 0.320383625978982, -1.283, 0.713, -0.78], a = 0.2, v = 0.2, t = 0.1)
movej(p[0.412440515494819, 0.212074139032362, 0.320384539072079, -1.283, 0.713, -0.78], a = 0.2, v = 0.2, t = 0.1)
movej(p[0.412424879251719, 0.212057527658898, 0.320387841922871, -1.283, 0.713, -0.78], a = 0.2, v = 0.2, t = 0.1)
movej(p[0.412412712022757, 0.212044639527601, 0.320391291983311, -1.283, 0.713, -0.78], a = 0.2, v = 0.2, t = 0.1)
movej(p[0.412404115603258, 0.212036468541407, 0.320393739473131, -1.283, 0.713, -0.78], a = 0.2, v = 0.2, t = 0.1)
movej(p[0.412398426995932, 0.21203244513861, 0.320397391524421, -1.283, 0.713, -0.78], a = 0.2, v = 0.2, t = 0.1)
movej(p[0.41239534897376, 0.212032247779479, 0.320403167153121, -1.283, 0.713, -0.78], a = 0.2, v = 0.2, t = 0.1)
movej(p[0.412394747434079, 0.212035265432638, 0.320409635500702, -1.283, 0.713, -0.78], a = 0.2, v = 0.2, t = 0.1)
movej(p[0.412397800510938, 0.212041470867014, 0.320414508722624, -1.283, 0.713, -0.78], a = 0.2, v = 0.2, t = 0.1)
movej(p[0.412403914018195, 0.212050676266866, 0.32041585975504, -1.283, 0.713, -0.78], a = 0.2, v = 0.2, t = 0.1)
movej(p[0.412411796045617, 0.212060868119416, 0.320414358958482, -1.283, 0.713, -0.78], a = 0.2, v = 0.2, t = 0.1)
movej(p[0.412419481054667, 0.212071598276152, 0.320412539518921, -1.283, 0.713, -0.78], a = 0.2, v = 0.2, t = 0.1)
movej(p[0.412426039396296, 0.212082555600525, 0.320412007590676, -1.283, 0.713, -0.78], a = 0.2, v = 0.2, t = 0.1)
movej(p[0.412432675255365, 0.212093433809418, 0.320410970308309, -1.283, 0.713, -0.78], a = 0.2, v = 0.2, t = 0.1)
movej(p[0.412440062167994, 0.212101760322273, 0.320408934469543, -1.283, 0.713, -0.78], a = 0.2, v = 0.2, t = 0.1)
movej(p[0.41244734202561, 0.212106230898974, 0.320406938400142, -1.283, 0.713, -0.78], a = 0.2, v = 0.2, t = 0.1)
movej(p[0.412452192332798, 0.212107554451011, 0.320407162061013, -1.283, 0.713, -0.78], a = 0.2, v = 0.2, t = 0.1)
movej(p[0.412454766758882, 0.212107686532044, 0.320410310168848, -1.283, 0.713, -0.78], a = 0.2, v = 0.2, t = 0.1)
movej(p[0.412455496872018, 0.212107401904571, 0.320414790725846, -1.283, 0.713, -0.78], a = 0.2, v = 0.2, t = 0.1)
movej(p[0.412455242218848, 0.212107047044654, 0.320419421976995, -1.283, 0.713, -0.78], a = 0.2, v = 0.2, t = 0.1)
movej(p[0.412454983494036, 0.212107382491614, 0.320422351525221, -1.283, 0.713, -0.78], a = 0.2, v = 0.2, t = 0.1)
movej(p[0.41245406664853, 0.212108972768935, 0.320424478386138, -1.283, 0.713, -0.78], a = 0.2, v = 0.2, t = 0.1)
movej(p[0.412450736571623, 0.212111457189788, 0.320424671820419, -1.283, 0.713, -0.78], a = 0.2, v = 0.2, t = 0.1)
movej(p[0.412443408082407, 0.212113211030386, 0.320422251914022, -1.283, 0.713, -0.78], a = 0.2, v = 0.2, t = 0.1)
movej(p[0.41243416105524, 0.212113825662229, 0.320416687141405, -1.283, 0.713, -0.78], a = 0.2, v = 0.2, t = 0.1)
movej(p[0.41242289407107, 0.212112785059398, 0.320408726988677, -1.283, 0.713, -0.78], a = 0.2, v = 0.2, t = 0.1)
movej(p[0.412409594422606, 0.212110430515255, 0.320398217695094, -1.283, 0.713, -0.78], a = 0.2, v = 0.2, t = 0.1)
movej(p[0.412393369162487, 0.212106756214356, 0.320383928603031, -1.283, 0.713, -0.78], a = 0.2, v = 0.2, t = 0.1)
movej(p[0.412373831894408, 0.212101167578819, 0.320366760154067, -1.283, 0.713, -0.78], a = 0.2, v = 0.2, t = 0.1)
movej(p[0.412352128661942, 0.212093183447538, 0.320349541163876, -1.283, 0.713, -0.78], a = 0.2, v = 0.2, t = 0.1)
movej(p[0.412329732505058, 0.212082494505292, 0.320336930308056, -1.283, 0.713, -0.78], a = 0.2, v = 0.2, t = 0.1)
movej(p[0.412309261943447, 0.212070389985542, 0.320328871678525, -1.283, 0.713, -0.78], a = 0.2, v = 0.2, t = 0.1)
movej(p[0.412292430415623, 0.212058853021071, 0.32032343352664, -1.283, 0.713, -0.78], a = 0.2, v = 0.2, t = 0.1)
movej(p[0.412280343150109, 0.212048378847926, 0.320319717744848, -1.283, 0.713, -0.78], a = 0.2, v = 0.2, t = 0.1)
movej(p[0.412273521382461, 0.212038703195472, 0.32031773374189, -1.283, 0.713, -0.78], a = 0.2, v = 0.2, t = 0.1)
movej(p[0.412271661537686, 0.212028847669146, 0.320317044065705, -1.283, 0.713, -0.78], a = 0.2, v = 0.2, t = 0.1)
movej(p[0.412273984041921, 0.2120204415388, 0.320315211067153, -1.283, 0.713, -0.78], a = 0.2, v = 0.2, t = 0.1)
movej(p[0.412280333927496, 0.212015208206705, 0.320310740632569, -1.283, 0.713, -0.78], a = 0.2, v = 0.2, t = 0.1)
movej(p[0.41228969544511, 0.212013074240523, 0.320303825310791, -1.283, 0.713, -0.78], a = 0.2, v = 0.2, t = 0.1)
movej(p[0.412301097096736, 0.212014098643356, 0.320296005595641, -1.283, 0.713, -0.78], a = 0.2, v = 0.2, t = 0.1)
movej(p[0.412314252016545, 0.212016736372973, 0.320289912591925, -1.283, 0.713, -0.78], a = 0.2, v = 0.2, t = 0.1)
movej(p[0.412328013951907, 0.212018976503304, 0.320287322299434, -1.283, 0.713, -0.78], a = 0.2, v = 0.2, t = 0.1)
movej(p[0.412341653814278, 0.212019914887231, 0.320288476231894, -1.283, 0.713, -0.78], a = 0.2, v = 0.2, t = 0.1)
movej(p[0.412354955440698, 0.212020497045064, 0.320291923086815, -1.283, 0.713, -0.78], a = 0.2, v = 0.2, t = 0.1)
movej(p[0.412368281986353, 0.212022257972498, 0.320294748434488, -1.283, 0.713, -0.78], a = 0.2, v = 0.2, t = 0.1)
movej(p[0.412380806175297, 0.212025615115818, 0.320295940495733, -1.283, 0.713, -0.78], a = 0.2, v = 0.2, t = 0.1)
movej(p[0.412390969331381, 0.212030890650355, 0.320296593137873, -1.283, 0.713, -0.78], a = 0.2, v = 0.2, t = 0.1)
movej(p[0.412397829760159, 0.212037306242778, 0.32029769788438, -1.283, 0.713, -0.78], a = 0.2, v = 0.2, t = 0.1)
movej(p[0.412401819691152, 0.212043182569505, 0.32029935174014, -1.283, 0.713, -0.78], a = 0.2, v = 0.2, t = 0.1)
movej(p[0.412404246113836, 0.212047889699672, 0.320300534311301, -1.283, 0.713, -0.78], a = 0.2, v = 0.2, t = 0.1)
movej(p[0.412406554944054, 0.21205184141439, 0.320300156445179, -1.283, 0.713, -0.78], a = 0.2, v = 0.2, t = 0.1)
movej(p[0.412407885439095, 0.212055268320796, 0.320298401312012, -1.283, 0.713, -0.78], a = 0.2, v = 0.2, t = 0.1)
movej(p[0.412406527847224, 0.212057214358291, 0.320295852800607, -1.283, 0.713, -0.78], a = 0.2, v = 0.2, t = 0.1)
movej(p[0.412400859397933, 0.212058068348898, 0.320293666000276, -1.283, 0.713, -0.78], a = 0.2, v = 0.2, t = 0.1)
movej(p[0.412391630254934, 0.212057052409952, 0.320291083365661, -1.283, 0.713, -0.78], a = 0.2, v = 0.2, t = 0.1)
movej(p[0.412379732571178, 0.212053621223875, 0.320286552588207, -1.283, 0.713, -0.78], a = 0.2, v = 0.2, t = 0.1)
movej(p[0.412365595975123, 0.212047860797523, 0.320279003116091, -1.283, 0.713, -0.78], a = 0.2, v = 0.2, t = 0.1)
movej(p[0.412349947203606, 0.212040492579575, 0.320269355755142, -1.283, 0.713, -0.78], a = 0.2, v = 0.2, t = 0.1)
movej(p[0.412333154590718, 0.212031665535268, 0.320257404453531, -1.283, 0.713, -0.78], a = 0.2, v = 0.2, t = 0.1)
movej(p[0.412315228087561, 0.212021355745709, 0.320244007676089, -1.283, 0.713, -0.78], a = 0.2, v = 0.2, t = 0.1)
movej(p[0.412296780368938, 0.21200999554293, 0.320230331335592, -1.283, 0.713, -0.78], a = 0.2, v = 0.2, t = 0.1)
movej(p[0.412278753761202, 0.211998621744865, 0.320219433603162, -1.283, 0.713, -0.78], a = 0.2, v = 0.2, t = 0.1)
movej(p[0.412262073438187, 0.211988797258084, 0.320212757585667, -1.283, 0.713, -0.78], a = 0.2, v = 0.2, t = 0.1)
movej(p[0.412247435969244, 0.21198211363684, 0.320208219086573, -1.283, 0.713, -0.78], a = 0.2, v = 0.2, t = 0.1)
movej(p[0.412235052402515, 0.211978265798379, 0.320204462216432, -1.283, 0.713, -0.78], a = 0.2, v = 0.2, t = 0.1)
movej(p[0.412225506564382, 0.211977395557987, 0.320199567966338, -1.283, 0.713, -0.78], a = 0.2, v = 0.2, t = 0.1)
movej(p[0.412218047709369, 0.211980007281048, 0.320191701573418, -1.283, 0.713, -0.78], a = 0.2, v = 0.2, t = 0.1)
movej(p[0.412213429612259, 0.211986267174234, 0.320181821330386, -1.283, 0.713, -0.78], a = 0.2, v = 0.2, t = 0.1)
movej(p[0.41221266403855, 0.211994052126999, 0.320171956634732, -1.283, 0.713, -0.78], a = 0.2, v = 0.2, t = 0.1)
movej(p[0.412216594471646, 0.212001265611837, 0.320165074919382, -1.283, 0.713, -0.78], a = 0.2, v = 0.2, t = 0.1)
movej(p[0.412224434042011, 0.212007670534243, 0.320161949855147, -1.283, 0.713, -0.78], a = 0.2, v = 0.2, t = 0.1)
movej(p[0.412235143205192, 0.21201373715552, 0.320162184129005, -1.283, 0.713, -0.78], a = 0.2, v = 0.2, t = 0.1)
movej(p[0.412247374004751, 0.21202025757663, 0.320164783011593, -1.283, 0.713, -0.78], a = 0.2, v = 0.2, t = 0.1)
movej(p[0.412260648467813, 0.212027340656595, 0.32016772919737, -1.283, 0.713, -0.78], a = 0.2, v = 0.2, t = 0.1)
movej(p[0.412275353442127, 0.212034736458839, 0.320168963249877, -1.283, 0.713, -0.78], a = 0.2, v = 0.2, t = 0.1)
movej(p[0.412292199549078, 0.21204091363786, 0.320169835532471, -1.283, 0.713, -0.78], a = 0.2, v = 0.2, t = 0.1)
movej(p[0.412309771497436, 0.212044911188702, 0.320171295877352, -1.283, 0.713, -0.78], a = 0.2, v = 0.2, t = 0.1)
movej(p[0.412326298717276, 0.212046777508429, 0.320173918636212, -1.283, 0.713, -0.78], a = 0.2, v = 0.2, t = 0.1)
movej(p[0.412340637852576, 0.212047762451317, 0.320176020862737, -1.283, 0.713, -0.78], a = 0.2, v = 0.2, t = 0.1)
movej(p[0.412352031669328, 0.212048924045336, 0.320177071987919, -1.283, 0.713, -0.78], a = 0.2, v = 0.2, t = 0.1)
movej(p[0.412359723940726, 0.212051382133765, 0.320178119760798, -1.283, 0.713, -0.78], a = 0.2, v = 0.2, t = 0.1)
movej(p[0.412362898668748, 0.212054285859984, 0.320180950368161, -1.283, 0.713, -0.78], a = 0.2, v = 0.2, t = 0.1)
movej(p[0.412362415882998, 0.212055605181579, 0.320185933932793, -1.283, 0.713, -0.78], a = 0.2, v = 0.2, t = 0.1)
movej(p[0.412358890308252, 0.212054905529954, 0.320190896610731, -1.283, 0.713, -0.78], a = 0.2, v = 0.2, t = 0.1)
movej(p[0.412352460501682, 0.21205261131562, 0.320194859132537, -1.283, 0.713, -0.78], a = 0.2, v = 0.2, t = 0.1)
movej(p[0.412342642707023, 0.212049371841855, 0.320197401437349, -1.283, 0.713, -0.78], a = 0.2, v = 0.2, t = 0.1)
movej(p[0.412329818663556, 0.212045029156873, 0.320196743891676, -1.283, 0.713, -0.78], a = 0.2, v = 0.2, t = 0.1)
movej(p[0.412315285282249, 0.212038875054577, 0.320191183484344, -1.283, 0.713, -0.78], a = 0.2, v = 0.2, t = 0.1)
movej(p[0.41230017485387, 0.212031367397275, 0.320182333221464, -1.283, 0.713, -0.78], a = 0.2, v = 0.2, t = 0.1)
movej(p[0.412285217184077, 0.212022082182311, 0.320172739766432, -1.283, 0.713, -0.78], a = 0.2, v = 0.2, t = 0.1)
movej(p[0.412269893927117, 0.212011857737857, 0.320164523781541, -1.283, 0.713, -0.78], a = 0.2, v = 0.2, t = 0.1)
movej(p[0.412254888448443, 0.212000621156534, 0.320156222620842, -1.283, 0.713, -0.78], a = 0.2, v = 0.2, t = 0.1)
movej(p[0.412240808726217, 0.211988920056441, 0.320147053559623, -1.283, 0.713, -0.78], a = 0.2, v = 0.2, t = 0.1)
movej(p[0.412228166707994, 0.211977582108006, 0.320136054271349, -1.283, 0.713, -0.78], a = 0.2, v = 0.2, t = 0.1)
movej(p[0.412217425456994, 0.211967130913639, 0.32012485321295, -1.283, 0.713, -0.78], a = 0.2, v = 0.2, t = 0.1)
movej(p[0.412208816710595, 0.211957757991317, 0.320115639500149, -1.283, 0.713, -0.78], a = 0.2, v = 0.2, t = 0.1)
movej(p[0.412202240719061, 0.211949504598867, 0.32011060974415, -1.283, 0.713, -0.78], a = 0.2, v = 0.2, t = 0.1)
movej(p[0.412197993723557, 0.211943057141356, 0.32011038478008, -1.283, 0.713, -0.78], a = 0.2, v = 0.2, t = 0.1)
movej(p[0.41219723922591, 0.211939063327649, 0.320112223848425, -1.283, 0.713, -0.78], a = 0.2, v = 0.2, t = 0.1)
movej(p[0.412200837341646, 0.211937709201491, 0.320113667756835, -1.283, 0.713, -0.78], a = 0.2, v = 0.2, t = 0.1)
movej(p[0.412209602203465, 0.211939327294516, 0.320112850414031, -1.283, 0.713, -0.78], a = 0.2, v = 0.2, t = 0.1)
movej(p[0.412222106202395, 0.211944531306012, 0.320112235514761, -1.283, 0.713, -0.78], a = 0.2, v = 0.2, t = 0.1)
movej(p[0.41223639128047, 0.211952847001862, 0.320111559504467, -1.283, 0.713, -0.78], a = 0.2, v = 0.2, t = 0.1)
movej(p[0.412250388999781, 0.211963652043141, 0.320110277621847, -1.283, 0.713, -0.78], a = 0.2, v = 0.2, t = 0.1)
movej(p[0.412262882946724, 0.211976005239339, 0.320108296762823, -1.283, 0.713, -0.78], a = 0.2, v = 0.2, t = 0.1)
movej(p[0.412274153482006, 0.211989091339805, 0.3201069721806, -1.283, 0.713, -0.78], a = 0.2, v = 0.2, t = 0.1)
movej(p[0.412283262192624, 0.212001775127451, 0.320107156027866, -1.283, 0.713, -0.78], a = 0.2, v = 0.2, t = 0.1)
movej(p[0.412289138318163, 0.212012167262863, 0.320109384133614, -1.283, 0.713, -0.78], a = 0.2, v = 0.2, t = 0.1)
movej(p[0.412292436343664, 0.212019507109313, 0.320111840332076, -1.283, 0.713, -0.78], a = 0.2, v = 0.2, t = 0.1)
movej(p[0.412294883799571, 0.212024174398142, 0.320112952951315, -1.283, 0.713, -0.78], a = 0.2, v = 0.2, t = 0.1)
movej(p[0.41229711196421, 0.212027215914791, 0.320114930357904, -1.283, 0.713, -0.78], a = 0.2, v = 0.2, t = 0.1)
movej(p[0.412300270537936, 0.212029129023326, 0.32012110987623, -1.283, 0.713, -0.78], a = 0.2, v = 0.2, t = 0.1)
movej(p[0.412304260739731, 0.212030098988027, 0.320130998569729, -1.283, 0.713, -0.78], a = 0.2, v = 0.2, t = 0.1)
movej(p[0.412308113680668, 0.212030784051122, 0.320140647710452, -1.283, 0.713, -0.78], a = 0.2, v = 0.2, t = 0.1)
movej(p[0.412310597714863, 0.212033260871775, 0.320145695254366, -1.283, 0.713, -0.78], a = 0.2, v = 0.2, t = 0.1)
movej(p[0.412311428094796, 0.212037354789794, 0.32014459178782, -1.283, 0.713, -0.78], a = 0.2, v = 0.2, t = 0.1)
movej(p[0.412310768740548, 0.212040396233736, 0.320137107596833, -1.283, 0.713, -0.78], a = 0.2, v = 0.2, t = 0.1)
movej(p[0.41230821415327, 0.212038684876787, 0.320122349968595, -1.283, 0.713, -0.78], a = 0.2, v = 0.2, t = 0.1)
movej(p[0.412302094347026, 0.212031405162984, 0.320101366817914, -1.283, 0.713, -0.78], a = 0.2, v = 0.2, t = 0.1)
movej(p[0.412292751995465, 0.212020585230951, 0.320075317151907, -1.283, 0.713, -0.78], a = 0.2, v = 0.2, t = 0.1)
movej(p[0.412280486921436, 0.212008596811362, 0.320048819490126, -1.283, 0.713, -0.78], a = 0.2, v = 0.2, t = 0.1)
movej(p[0.412266811296988, 0.211997550541936, 0.320024326949186, -1.283, 0.713, -0.78], a = 0.2, v = 0.2, t = 0.1)
movej(p[0.412253922958806, 0.211988587915186, 0.320001918426127, -1.283, 0.713, -0.78], a = 0.2, v = 0.2, t = 0.1)
movej(p[0.41224327181087, 0.211981786854084, 0.319982088912328, -1.283, 0.713, -0.78], a = 0.2, v = 0.2, t = 0.1)
movej(p[0.41223574608566, 0.211976680289624, 0.31996535442, -1.283, 0.713, -0.78], a = 0.2, v = 0.2, t = 0.1)
movej(p[0.412231600819505, 0.211974224113316, 0.319951416190218, -1.283, 0.713, -0.78], a = 0.2, v = 0.2, t = 0.1)
movej(p[0.412229911798846, 0.211974738241389, 0.31994078730281, -1.283, 0.713, -0.78], a = 0.2, v = 0.2, t = 0.1)
movej(p[0.412230196903029, 0.211978108967422, 0.319933742413058, -1.283, 0.713, -0.78], a = 0.2, v = 0.2, t = 0.1)
movej(p[0.412232666761454, 0.211983264434099, 0.319929055113547, -1.283, 0.713, -0.78], a = 0.2, v = 0.2, t = 0.1)
movej(p[0.412238581973317, 0.211989473305658, 0.319925864854062, -1.283, 0.713, -0.78], a = 0.2, v = 0.2, t = 0.1)
movej(p[0.412248344589334, 0.211995816664484, 0.319925022538028, -1.283, 0.713, -0.78], a = 0.2, v = 0.2, t = 0.1)
movej(p[0.4122612212861, 0.212002522507975, 0.31992778914759, -1.283, 0.713, -0.78], a = 0.2, v = 0.2, t = 0.1)
movej(p[0.412275288905093, 0.212009472634378, 0.319935013824458, -1.283, 0.713, -0.78], a = 0.2, v = 0.2, t = 0.1)
movej(p[0.412289946707271, 0.212016721909101, 0.31994650162918, -1.283, 0.713, -0.78], a = 0.2, v = 0.2, t = 0.1)
movej(p[0.412304691833823, 0.212024286363484, 0.319960486385089, -1.283, 0.713, -0.78], a = 0.2, v = 0.2, t = 0.1)
movej(p[0.412320124856175, 0.212033345014326, 0.319972726326592, -1.283, 0.713, -0.78], a = 0.2, v = 0.2, t = 0.1)
movej(p[0.412337473826118, 0.212043547623525, 0.319981170285467, -1.283, 0.713, -0.78], a = 0.2, v = 0.2, t = 0.1)
movej(p[0.412358184096726, 0.212053743978359, 0.319985219471116, -1.283, 0.713, -0.78], a = 0.2, v = 0.2, t = 0.1)
movej(p[0.412381649089919, 0.212061930179135, 0.319984323673534, -1.283, 0.713, -0.78], a = 0.2, v = 0.2, t = 0.1)
movej(p[0.412406257996389, 0.212067363261599, 0.319980406259171, -1.283, 0.713, -0.78], a = 0.2, v = 0.2, t = 0.1)
movej(p[0.412429751822864, 0.212069483847751, 0.319976130649631, -1.283, 0.713, -0.78], a = 0.2, v = 0.2, t = 0.1)
movej(p[0.41245036817972, 0.212068394194031, 0.319975330038157, -1.283, 0.713, -0.78], a = 0.2, v = 0.2, t = 0.1)
movej(p[0.412467711429505, 0.21206501723676, 0.319978854515071, -1.283, 0.713, -0.78], a = 0.2, v = 0.2, t = 0.1)
movej(p[0.412481069715486, 0.212060130200896, 0.319984387699065, -1.283, 0.713, -0.78], a = 0.2, v = 0.2, t = 0.1)
movej(p[0.412490179294414, 0.212054488221935, 0.319988194710906, -1.283, 0.713, -0.78], a = 0.2, v = 0.2, t = 0.1)
movej(p[0.412495489931376, 0.212048695171152, 0.319988206185994, -1.283, 0.713, -0.78], a = 0.2, v = 0.2, t = 0.1)
movej(p[0.412496961123348, 0.212042470852652, 0.319985912554726, -1.283, 0.713, -0.78], a = 0.2, v = 0.2, t = 0.1)
movej(p[0.41249511823666, 0.212034853216555, 0.319984756345858, -1.283, 0.713, -0.78], a = 0.2, v = 0.2, t = 0.1)
movej(p[0.412489129719496, 0.212025225024746, 0.319985574596834, -1.283, 0.713, -0.78], a = 0.2, v = 0.2, t = 0.1)
movej(p[0.412479248004, 0.212013262745068, 0.3199860525809, -1.283, 0.713, -0.78], a = 0.2, v = 0.2, t = 0.1)
movej(p[0.412465674826726, 0.211999510117616, 0.319984409429707, -1.283, 0.713, -0.78], a = 0.2, v = 0.2, t = 0.1)
movej(p[0.412448666563599, 0.211984382895114, 0.319980074183486, -1.283, 0.713, -0.78], a = 0.2, v = 0.2, t = 0.1)
movej(p[0.412426694980741, 0.211969042836157, 0.319973523688319, -1.283, 0.713, -0.78], a = 0.2, v = 0.2, t = 0.1)
movej(p[0.412400363697585, 0.211952988185623, 0.31996692528506, -1.283, 0.713, -0.78], a = 0.2, v = 0.2, t = 0.1)
movej(p[0.412371649868043, 0.211937999382952, 0.319960584109417, -1.283, 0.713, -0.78], a = 0.2, v = 0.2, t = 0.1)
movej(p[0.412344069311124, 0.211926551676957, 0.319954906666023, -1.283, 0.713, -0.78], a = 0.2, v = 0.2, t = 0.1)
movej(p[0.412319833070647, 0.211919861304381, 0.319948355554338, -1.283, 0.713, -0.78], a = 0.2, v = 0.2, t = 0.1)
movej(p[0.412300153206133, 0.211915017586295, 0.319940186732769, -1.283, 0.713, -0.78], a = 0.2, v = 0.2, t = 0.1)
movej(p[0.412285463872741, 0.21190934003446, 0.319930329794672, -1.283, 0.713, -0.78], a = 0.2, v = 0.2, t = 0.1)
movej(p[0.412276158936525, 0.211902747485307, 0.319921305041618, -1.283, 0.713, -0.78], a = 0.2, v = 0.2, t = 0.1)
movej(p[0.412271610731624, 0.211896708646493, 0.319914748938816, -1.283, 0.713, -0.78], a = 0.2, v = 0.2, t = 0.1)
movej(p[0.412272340633609, 0.211891315328769, 0.319912176503195, -1.283, 0.713, -0.78], a = 0.2, v = 0.2, t = 0.1)
movej(p[0.412277167032815, 0.21188710269652, 0.319911742557073, -1.283, 0.713, -0.78], a = 0.2, v = 0.2, t = 0.1)
movej(p[0.41228530627941, 0.211885124026788, 0.319912200849509, -1.283, 0.713, -0.78], a = 0.2, v = 0.2, t = 0.1)
movej(p[0.412296162908559, 0.211886022628063, 0.31991317938478, -1.283, 0.713, -0.78], a = 0.2, v = 0.2, t = 0.1)
movej(p[0.412308983451127, 0.211888742090688, 0.319917225353673, -1.283, 0.713, -0.78], a = 0.2, v = 0.2, t = 0.1)
movej(p[0.412321941756621, 0.211892886396526, 0.319925702765356, -1.283, 0.713, -0.78], a = 0.2, v = 0.2, t = 0.1)
movej(p[0.412331303840475, 0.211897764132574, 0.319938360191277, -1.283, 0.713, -0.78], a = 0.2, v = 0.2, t = 0.1)
movej(p[0.412336727768151, 0.211903094784038, 0.319953515005745, -1.283, 0.713, -0.78], a = 0.2, v = 0.2, t = 0.1)
movej(p[0.412339745922371, 0.211908334376465, 0.319969888096177, -1.283, 0.713, -0.78], a = 0.2, v = 0.2, t = 0.1)
movej(p[0.412343343782978, 0.211913193888667, 0.319987105866741, -1.283, 0.713, -0.78], a = 0.2, v = 0.2, t = 0.1)
movej(p[0.412346939264698, 0.211917257565139, 0.320004295891457, -1.283, 0.713, -0.78], a = 0.2, v = 0.2, t = 0.1)
movej(p[0.412348798328449, 0.211920521260435, 0.320018676427295, -1.283, 0.713, -0.78], a = 0.2, v = 0.2, t = 0.1)
movej(p[0.412348167467105, 0.211922720034612, 0.32002841012485, -1.283, 0.713, -0.78], a = 0.2, v = 0.2, t = 0.1)
movej(p[0.412346440951531, 0.211923051912187, 0.320032863517405, -1.283, 0.713, -0.78], a = 0.2, v = 0.2, t = 0.1)
movej(p[0.412343311128239, 0.211921414709853, 0.320032466831531, -1.283, 0.713, -0.78], a = 0.2, v = 0.2, t = 0.1)
movej(p[0.412338561908474, 0.211918382271867, 0.320028653769576, -1.283, 0.713, -0.78], a = 0.2, v = 0.2, t = 0.1)
movej(p[0.41233100693766, 0.211914785260711, 0.320024924470346, -1.283, 0.713, -0.78], a = 0.2, v = 0.2, t = 0.1)
movej(p[0.412320874776919, 0.211911309266405, 0.320020954461744, -1.283, 0.713, -0.78], a = 0.2, v = 0.2, t = 0.1)
movej(p[0.412307747727187, 0.211908644657772, 0.320014439164116, -1.283, 0.713, -0.78], a = 0.2, v = 0.2, t = 0.1)
movej(p[0.412291860387152, 0.211906556382552, 0.320001769529543, -1.283, 0.713, -0.78], a = 0.2, v = 0.2, t = 0.1)
movej(p[0.4122739926794, 0.211903456387718, 0.319984820180479, -1.283, 0.713, -0.78], a = 0.2, v = 0.2, t = 0.1)
movej(p[0.412255676574711, 0.21189893590258, 0.319969169895109, -1.283, 0.713, -0.78], a = 0.2, v = 0.2, t = 0.1)
movej(p[0.412238211963549, 0.211893225518524, 0.319956243349326, -1.283, 0.713, -0.78], a = 0.2, v = 0.2, t = 0.1)
movej(p[0.41222087191651, 0.21188730518691, 0.319945435767159, -1.283, 0.713, -0.78], a = 0.2, v = 0.2, t = 0.1)
movej(p[0.412203348494894, 0.211880962453525, 0.319934331010788, -1.283, 0.713, -0.78], a = 0.2, v = 0.2, t = 0.1)
movej(p[0.412187469212768, 0.211876438115115, 0.319922102557814, -1.283, 0.713, -0.78], a = 0.2, v = 0.2, t = 0.1)
movej(p[0.412173820624897, 0.211874432650518, 0.319909703435996, -1.283, 0.713, -0.78], a = 0.2, v = 0.2, t = 0.1)
movej(p[0.412162643765112, 0.211875436075376, 0.319896715984748, -1.283, 0.713, -0.78], a = 0.2, v = 0.2, t = 0.1)
movej(p[0.412153716512873, 0.211878934748712, 0.319883875998481, -1.283, 0.713, -0.78], a = 0.2, v = 0.2, t = 0.1)
movej(p[0.412147960163146, 0.211884511434681, 0.319871266391809, -1.283, 0.713, -0.78], a = 0.2, v = 0.2, t = 0.1)
movej(p[0.412145826635947, 0.211891501055051, 0.319858688899142, -1.283, 0.713, -0.78], a = 0.2, v = 0.2, t = 0.1)
movej(p[0.41214597115863, 0.211898701682049, 0.319845652604844, -1.283, 0.713, -0.78], a = 0.2, v = 0.2, t = 0.1)
movej(p[0.412148354659857, 0.21190533349453, 0.319832199442312, -1.283, 0.713, -0.78], a = 0.2, v = 0.2, t = 0.1)
movej(p[0.412153351621437, 0.211911588127717, 0.319820602652253, -1.283, 0.713, -0.78], a = 0.2, v = 0.2, t = 0.1)
movej(p[0.412161659651954, 0.211917831754184, 0.319812601602918, -1.283, 0.713, -0.78], a = 0.2, v = 0.2, t = 0.1)
movej(p[0.412172944646521, 0.211924566216162, 0.319807802246971, -1.283, 0.713, -0.78], a = 0.2, v = 0.2, t = 0.1)
movej(p[0.41218667000543, 0.211931749131157, 0.319804141969934, -1.283, 0.713, -0.78], a = 0.2, v = 0.2, t = 0.1)
movej(p[0.412201489209765, 0.211939517440248, 0.319802246365088, -1.283, 0.713, -0.78], a = 0.2, v = 0.2, t = 0.1)
movej(p[0.412217056111866, 0.211947554781339, 0.319803077331501, -1.283, 0.713, -0.78], a = 0.2, v = 0.2, t = 0.1)
movej(p[0.412233103229374, 0.211954525687562, 0.319810212037109, -1.283, 0.713, -0.78], a = 0.2, v = 0.2, t = 0.1)
movej(p[0.412248662785964, 0.211959880099479, 0.319820543357099, -1.283, 0.713, -0.78], a = 0.2, v = 0.2, t = 0.1)
movej(p[0.412260739838637, 0.211962920365437, 0.3198299391687, -1.283, 0.713, -0.78], a = 0.2, v = 0.2, t = 0.1)
movej(p[0.412265460654661, 0.211963862373899, 0.319831786281615, -1.283, 0.713, -0.78], a = 0.2, v = 0.2, t = 0.1)
movej(p[0.412263327795697, 0.211963734825485, 0.319826131180375, -1.283, 0.713, -0.78], a = 0.2, v = 0.2, t = 0.1)
movej(p[0.412256165378354, 0.211963339320463, 0.319816682329567, -1.283, 0.713, -0.78], a = 0.2, v = 0.2, t = 0.1)
movej(p[0.412248121338382, 0.211962719670338, 0.319806449324112, -1.283, 0.713, -0.78], a = 0.2, v = 0.2, t = 0.1)
movej(p[0.412240382853558, 0.211959742387727, 0.31979810857607, -1.283, 0.713, -0.78], a = 0.2, v = 0.2, t = 0.1)
movej(p[0.412232726779725, 0.211952815910957, 0.319792822691186, -1.283, 0.713, -0.78], a = 0.2, v = 0.2, t = 0.1)
movej(p[0.41222407447912, 0.211942366932349, 0.319789637939813, -1.283, 0.713, -0.78], a = 0.2, v = 0.2, t = 0.1)
movej(p[0.412213742416611, 0.211929494674474, 0.319788934719727, -1.283, 0.713, -0.78], a = 0.2, v = 0.2, t = 0.1)
movej(p[0.412201817139932, 0.211915375366002, 0.319787412476188, -1.283, 0.713, -0.78], a = 0.2, v = 0.2, t = 0.1)
movej(p[0.412189348433077, 0.211900493097411, 0.319783647867714, -1.283, 0.713, -0.78], a = 0.2, v = 0.2, t = 0.1)
movej(p[0.412177380298077, 0.211887421884747, 0.319774462346656, -1.283, 0.713, -0.78], a = 0.2, v = 0.2, t = 0.1)
movej(p[0.412165370210011, 0.211878040906338, 0.319762227956122, -1.283, 0.713, -0.78], a = 0.2, v = 0.2, t = 0.1)
movej(p[0.412151546290762, 0.211871065702919, 0.31975371733735, -1.283, 0.713, -0.78], a = 0.2, v = 0.2, t = 0.1)
movej(p[0.41213621555197, 0.211865803915726, 0.319751886734275, -1.283, 0.713, -0.78], a = 0.2, v = 0.2, t = 0.1)
movej(p[0.412121443766674, 0.211861551423667, 0.319756015551836, -1.283, 0.713, -0.78], a = 0.2, v = 0.2, t = 0.1)
movej(p[0.412110258978906, 0.211859964904235, 0.319761985065106, -1.283, 0.713, -0.78], a = 0.2, v = 0.2, t = 0.1)
movej(p[0.412103507701765, 0.211861592452457, 0.31976518516569, -1.283, 0.713, -0.78], a = 0.2, v = 0.2, t = 0.1)
movej(p[0.412101620454775, 0.211865944296521, 0.319765755469158, -1.283, 0.713, -0.78], a = 0.2, v = 0.2, t = 0.1)
movej(p[0.412104435642522, 0.211871469889056, 0.319764495353258, -1.283, 0.713, -0.78], a = 0.2, v = 0.2, t = 0.1)
movej(p[0.412111428099596, 0.211875791632601, 0.31976330493367, -1.283, 0.713, -0.78], a = 0.2, v = 0.2, t = 0.1)
movej(p[0.412121522302431, 0.211878807993702, 0.319761495044218, -1.283, 0.713, -0.78], a = 0.2, v = 0.2, t = 0.1)
movej(p[0.412133815147439, 0.211881859684607, 0.319760298217898, -1.283, 0.713, -0.78], a = 0.2, v = 0.2, t = 0.1)
movej(p[0.412146563872276, 0.211887070871261, 0.319764318194974, -1.283, 0.713, -0.78], a = 0.2, v = 0.2, t = 0.1)
movej(p[0.412157887988223, 0.211893993647905, 0.31977453100906, -1.283, 0.713, -0.78], a = 0.2, v = 0.2, t = 0.1)
movej(p[0.412166544191659, 0.21190176771703, 0.319789023299159, -1.283, 0.713, -0.78], a = 0.2, v = 0.2, t = 0.1)
movej(p[0.412172451401048, 0.211908311444307, 0.319803611587494, -1.283, 0.713, -0.78], a = 0.2, v = 0.2, t = 0.1)
movej(p[0.412176268974915, 0.211913631571659, 0.319816632057406, -1.283, 0.713, -0.78], a = 0.2, v = 0.2, t = 0.1)
movej(p[0.41217920941575, 0.211918792627467, 0.319828040301252, -1.283, 0.713, -0.78], a = 0.2, v = 0.2, t = 0.1)
movej(p[0.412182528779474, 0.211924689327294, 0.319836915690123, -1.283, 0.713, -0.78], a = 0.2, v = 0.2, t = 0.1)
movej(p[0.412186782003159, 0.211930309887673, 0.319842648089561, -1.283, 0.713, -0.78], a = 0.2, v = 0.2, t = 0.1)
movej(p[0.412192428308071, 0.211935209522823, 0.319842610763485, -1.283, 0.713, -0.78], a = 0.2, v = 0.2, t = 0.1)
movej(p[0.412199002799417, 0.211938807704919, 0.319837280421738, -1.283, 0.713, -0.78], a = 0.2, v = 0.2, t = 0.1)
movej(p[0.412204700495448, 0.211940567253953, 0.319828108881292, -1.283, 0.713, -0.78], a = 0.2, v = 0.2, t = 0.1)
movej(p[0.412207761357463, 0.211941312223104, 0.319817807537754, -1.283, 0.713, -0.78], a = 0.2, v = 0.2, t = 0.1)
movej(p[0.412207298247229, 0.211941864959862, 0.319807685736137, -1.283, 0.713, -0.78], a = 0.2, v = 0.2, t = 0.1)
movej(p[0.412204182103792, 0.211942707510702, 0.31979856923329, -1.283, 0.713, -0.78], a = 0.2, v = 0.2, t = 0.1)
movej(p[0.412199233365926, 0.211942161575079, 0.319791844355831, -1.283, 0.713, -0.78], a = 0.2, v = 0.2, t = 0.1)
movej(p[0.412193520102141, 0.211938981949477, 0.319786029607603, -1.283, 0.713, -0.78], a = 0.2, v = 0.2, t = 0.1)
movej(p[0.412187443870269, 0.211933401232919, 0.31978011219297, -1.283, 0.713, -0.78], a = 0.2, v = 0.2, t = 0.1)
movej(p[0.412180851874647, 0.211926637375499, 0.31977350850328, -1.283, 0.713, -0.78], a = 0.2, v = 0.2, t = 0.1)
movej(p[0.412173396577338, 0.211919307567795, 0.31976820450912, -1.283, 0.713, -0.78], a = 0.2, v = 0.2, t = 0.1)
movej(p[0.4121651224034, 0.211912498520467, 0.319765152069912, -1.283, 0.713, -0.78], a = 0.2, v = 0.2, t = 0.1)
movej(p[0.412155813702697, 0.211906980967806, 0.319764533883956, -1.283, 0.713, -0.78], a = 0.2, v = 0.2, t = 0.1)
movej(p[0.412145729975302, 0.211902076520439, 0.319765947447129, -1.283, 0.713, -0.78], a = 0.2, v = 0.2, t = 0.1)
movej(p[0.412135903939807, 0.211897667978659, 0.319768963361554, -1.283, 0.713, -0.78], a = 0.2, v = 0.2, t = 0.1)
movej(p[0.412127749631861, 0.211893428622173, 0.319771450816579, -1.283, 0.713, -0.78], a = 0.2, v = 0.2, t = 0.1)
movej(p[0.412122420620418, 0.211890149484641, 0.319772101434042, -1.283, 0.713, -0.78], a = 0.2, v = 0.2, t = 0.1)
movej(p[0.412120225748731, 0.211888135966073, 0.319773064510497, -1.283, 0.713, -0.78], a = 0.2, v = 0.2, t = 0.1)
movej(p[0.412121865440568, 0.211887232357997, 0.31977673824744, -1.283, 0.713, -0.78], a = 0.2, v = 0.2, t = 0.1)
movej(p[0.41212639491828, 0.211887080179709, 0.319782088157666, -1.283, 0.713, -0.78], a = 0.2, v = 0.2, t = 0.1)
movej(p[0.412132398654129, 0.211887593107262, 0.319787903611834, -1.283, 0.713, -0.78], a = 0.2, v = 0.2, t = 0.1)
movej(p[0.412137359466011, 0.211887984898599, 0.319795364484371, -1.283, 0.713, -0.78], a = 0.2, v = 0.2, t = 0.1)
movej(p[0.412140395605414, 0.211888525406563, 0.319804363625812, -1.283, 0.713, -0.78], a = 0.2, v = 0.2, t = 0.1)
movej(p[0.412143055423761, 0.211889712528974, 0.319813829155736, -1.283, 0.713, -0.78], a = 0.2, v = 0.2, t = 0.1)
movej(p[0.412146895882086, 0.211892028432159, 0.319820646517197, -1.283, 0.713, -0.78], a = 0.2, v = 0.2, t = 0.1)
movej(p[0.412152037433804, 0.211895177703461, 0.319824568228201, -1.283, 0.713, -0.78], a = 0.2, v = 0.2, t = 0.1)
movej(p[0.412158079418457, 0.211898815172241, 0.319825346116573, -1.283, 0.713, -0.78], a = 0.2, v = 0.2, t = 0.1)
movej(p[0.412165086851308, 0.211902905615378, 0.319823435535303, -1.283, 0.713, -0.78], a = 0.2, v = 0.2, t = 0.1)
movej(p[0.412173699973658, 0.211907590018623, 0.319818836788558, -1.283, 0.713, -0.78], a = 0.2, v = 0.2, t = 0.1)
movej(p[0.412184466649664, 0.211911738012684, 0.319811670541698, -1.283, 0.713, -0.78], a = 0.2, v = 0.2, t = 0.1)
movej(p[0.412196690381843, 0.211914461978793, 0.319804044375608, -1.283, 0.713, -0.78], a = 0.2, v = 0.2, t = 0.1)
movej(p[0.412208284652362, 0.211916128629585, 0.319798465605019, -1.283, 0.713, -0.78], a = 0.2, v = 0.2, t = 0.1)
movej(p[0.412218538703144, 0.211917088444869, 0.319796042232126, -1.283, 0.713, -0.78], a = 0.2, v = 0.2, t = 0.1)
movej(p[0.412229420874138, 0.211918377349246, 0.319795448859606, -1.283, 0.713, -0.78], a = 0.2, v = 0.2, t = 0.1)
movej(p[0.412239548312355, 0.21191994446745, 0.31979813629941, -1.283, 0.713, -0.78], a = 0.2, v = 0.2, t = 0.1)
movej(p[0.412245164080464, 0.211921068663183, 0.319802780907198, -1.283, 0.713, -0.78], a = 0.2, v = 0.2, t = 0.1)
movej(p[0.412241058422222, 0.211919013232464, 0.31980464641543, -1.283, 0.713, -0.78], a = 0.2, v = 0.2, t = 0.1)
movej(p[0.412228649562956, 0.211913308717103, 0.319800085100029, -1.283, 0.713, -0.78], a = 0.2, v = 0.2, t = 0.1)
movej(p[0.41221046263473, 0.211905701801546, 0.319791541474543, -1.283, 0.713, -0.78], a = 0.2, v = 0.2, t = 0.1)
movej(p[0.412189618092799, 0.211898296092712, 0.319786005350055, -1.283, 0.713, -0.78], a = 0.2, v = 0.2, t = 0.1)
movej(p[0.412169079238301, 0.211892004372966, 0.31978419315152, -1.283, 0.713, -0.78], a = 0.2, v = 0.2, t = 0.1)
movej(p[0.412149947301608, 0.211886993036333, 0.319783427540951, -1.283, 0.713, -0.78], a = 0.2, v = 0.2, t = 0.1)
movej(p[0.412131987267612, 0.211882624221578, 0.319783181586718, -1.283, 0.713, -0.78], a = 0.2, v = 0.2, t = 0.1)
movej(p[0.41211537375284, 0.211877802113169, 0.319784226783071, -1.283, 0.713, -0.78], a = 0.2, v = 0.2, t = 0.1)
movej(p[0.412099734088922, 0.211872104292337, 0.319788028483782, -1.283, 0.713, -0.78], a = 0.2, v = 0.2, t = 0.1)
movej(p[0.412084888310931, 0.211866495828477, 0.319793199108692, -1.283, 0.713, -0.78], a = 0.2, v = 0.2, t = 0.1)
movej(p[0.412072153707094, 0.211861957822512, 0.319796518109294, -1.283, 0.713, -0.78], a = 0.2, v = 0.2, t = 0.1)
movej(p[0.412062033104068, 0.211858284439548, 0.319794774720358, -1.283, 0.713, -0.78], a = 0.2, v = 0.2, t = 0.1)
movej(p[0.412054193710249, 0.211854067059959, 0.319788163655772, -1.283, 0.713, -0.78], a = 0.2, v = 0.2, t = 0.1)
movej(p[0.412047995905473, 0.211848715144933, 0.31977821633284, -1.283, 0.713, -0.78], a = 0.2, v = 0.2, t = 0.1)
movej(p[0.412045248686233, 0.211843194203697, 0.31976712788564, -1.283, 0.713, -0.78], a = 0.2, v = 0.2, t = 0.1)
movej(p[0.412048062472702, 0.211839577164521, 0.319756524040804, -1.283, 0.713, -0.78], a = 0.2, v = 0.2, t = 0.1)
movej(p[0.412056384913386, 0.211839167336434, 0.319747307551287, -1.283, 0.713, -0.78], a = 0.2, v = 0.2, t = 0.1)
movej(p[0.412068416476522, 0.21184166194112, 0.319741049884154, -1.283, 0.713, -0.78], a = 0.2, v = 0.2, t = 0.1)
movej(p[0.412081753006737, 0.211846822209531, 0.319737411102247, -1.283, 0.713, -0.78], a = 0.2, v = 0.2, t = 0.1)
movej(p[0.412095952701485, 0.211854362812215, 0.319737974627056, -1.283, 0.713, -0.78], a = 0.2, v = 0.2, t = 0.1)
movej(p[0.412111081179743, 0.21186383799931, 0.319742396571664, -1.283, 0.713, -0.78], a = 0.2, v = 0.2, t = 0.1)
movej(p[0.412126453376328, 0.211874164497258, 0.319750825408611, -1.283, 0.713, -0.78], a = 0.2, v = 0.2, t = 0.1)
movej(p[0.412139651949803, 0.211885678642497, 0.31976314339167, -1.283, 0.713, -0.78], a = 0.2, v = 0.2, t = 0.1)
movej(p[0.412150594339706, 0.211898813528673, 0.319776935997565, -1.283, 0.713, -0.78], a = 0.2, v = 0.2, t = 0.1)
movej(p[0.412159831803714, 0.211913846238931, 0.319789616783581, -1.283, 0.713, -0.78], a = 0.2, v = 0.2, t = 0.1)
movej(p[0.41216758568851, 0.211929421808492, 0.319799507186021, -1.283, 0.713, -0.78], a = 0.2, v = 0.2, t = 0.1)
movej(p[0.412172749934488, 0.211944066842569, 0.319809670380517, -1.283, 0.713, -0.78], a = 0.2, v = 0.2, t = 0.1)
movej(p[0.412174780950389, 0.211956787192287, 0.31982038714199, -1.283, 0.713, -0.78], a = 0.2, v = 0.2, t = 0.1)
movej(p[0.412173625264957, 0.211967767497193, 0.319831943367383, -1.283, 0.713, -0.78], a = 0.2, v = 0.2, t = 0.1)
movej(p[0.412169684649917, 0.211976068841352, 0.319843165082103, -1.283, 0.713, -0.78], a = 0.2, v = 0.2, t = 0.1)
movej(p[0.412163159451493, 0.211981259423429, 0.319854107873897, -1.283, 0.713, -0.78], a = 0.2, v = 0.2, t = 0.1)
movej(p[0.412155168712142, 0.211984113161292, 0.319863428422209, -1.283, 0.713, -0.78], a = 0.2, v = 0.2, t = 0.1)
movej(p[0.41214510039322, 0.21198558384358, 0.319869045006374, -1.283, 0.713, -0.78], a = 0.2, v = 0.2, t = 0.1)
movej(p[0.4121324707231, 0.211986001125709, 0.319869655243453, -1.283, 0.713, -0.78], a = 0.2, v = 0.2, t = 0.1)
movej(p[0.412117450930088, 0.211984268064977, 0.319865436200032, -1.283, 0.713, -0.78], a = 0.2, v = 0.2, t = 0.1)
movej(p[0.412100928474016, 0.211979884746493, 0.319856928496265, -1.283, 0.713, -0.78], a = 0.2, v = 0.2, t = 0.1)
movej(p[0.412084108233187, 0.211973185175174, 0.319845908170153, -1.283, 0.713, -0.78], a = 0.2, v = 0.2, t = 0.1)
movej(p[0.412068700084741, 0.21196539440797, 0.319833866050205, -1.283, 0.713, -0.78], a = 0.2, v = 0.2, t = 0.1)
movej(p[0.412055187353101, 0.211957553674187, 0.319822035825213, -1.283, 0.713, -0.78], a = 0.2, v = 0.2, t = 0.1)
movej(p[0.412043624332602, 0.21194879374705, 0.319810749925537, -1.283, 0.713, -0.78], a = 0.2, v = 0.2, t = 0.1)
movej(p[0.412033515499623, 0.211937626009246, 0.319801154167405, -1.283, 0.713, -0.78], a = 0.2, v = 0.2, t = 0.1)
movej(p[0.412025872604881, 0.211924591635213, 0.319792905047236, -1.283, 0.713, -0.78], a = 0.2, v = 0.2, t = 0.1)
movej(p[0.412020526390051, 0.211910924462451, 0.319784686392682, -1.283, 0.713, -0.78], a = 0.2, v = 0.2, t = 0.1)
movej(p[0.412018732627524, 0.21189809895746, 0.319776563566098, -1.283, 0.713, -0.78], a = 0.2, v = 0.2, t = 0.1)
movej(p[0.412021348444436, 0.211888459715096, 0.319768294391863, -1.283, 0.713, -0.78], a = 0.2, v = 0.2, t = 0.1)
movej(p[0.412030276113042, 0.211884716118309, 0.319762046579898, -1.283, 0.713, -0.78], a = 0.2, v = 0.2, t = 0.1)
movej(p[0.412044646569754, 0.211887435644402, 0.319759264046749, -1.283, 0.713, -0.78], a = 0.2, v = 0.2, t = 0.1)
movej(p[0.412061813092426, 0.211894076215075, 0.319761425103545, -1.283, 0.713, -0.78], a = 0.2, v = 0.2, t = 0.1)
movej(p[0.412080713266943, 0.211902384086029, 0.319767235163912, -1.283, 0.713, -0.78], a = 0.2, v = 0.2, t = 0.1)
movej(p[0.412100906388365, 0.211911883738364, 0.319774208389975, -1.283, 0.713, -0.78], a = 0.2, v = 0.2, t = 0.1)
movej(p[0.412123083671489, 0.211922979093306, 0.319779887575649, -1.283, 0.713, -0.78], a = 0.2, v = 0.2, t = 0.1)
movej(p[0.41214732003324, 0.211935131777074, 0.319782829833855, -1.283, 0.713, -0.78], a = 0.2, v = 0.2, t = 0.1)
movej(p[0.412171835203835, 0.211947951529046, 0.319781165890628, -1.283, 0.713, -0.78], a = 0.2, v = 0.2, t = 0.1)
movej(p[0.412193638877965, 0.211959899763148, 0.319775667298327, -1.283, 0.713, -0.78], a = 0.2, v = 0.2, t = 0.1)
movej(p[0.412211007259626, 0.211969878093617, 0.319768425481601, -1.283, 0.713, -0.78], a = 0.2, v = 0.2, t = 0.1)
movej(p[0.412223892079167, 0.211976468142114, 0.31976233478302, -1.283, 0.713, -0.78], a = 0.2, v = 0.2, t = 0.1)
movej(p[0.412233413388026, 0.211979993120824, 0.319758498204243, -1.283, 0.713, -0.78], a = 0.2, v = 0.2, t = 0.1)
movej(p[0.412240052941963, 0.211981531167821, 0.31975562683733, -1.283, 0.713, -0.78], a = 0.2, v = 0.2, t = 0.1)
movej(p[0.412242076837666, 0.211981586326399, 0.319752568657689, -1.283, 0.713, -0.78], a = 0.2, v = 0.2, t = 0.1)
movej(p[0.412238346428141, 0.211980630353164, 0.319748655851924, -1.283, 0.713, -0.78], a = 0.2, v = 0.2, t = 0.1)
movej(p[0.412229454215407, 0.211979373778725, 0.319742866099825, -1.283, 0.713, -0.78], a = 0.2, v = 0.2, t = 0.1)
movej(p[0.412218346274777, 0.211978383793277, 0.31973484159624, -1.283, 0.713, -0.78], a = 0.2, v = 0.2, t = 0.1)
movej(p[0.412206745362763, 0.211975974892605, 0.319725444388464, -1.283, 0.713, -0.78], a = 0.2, v = 0.2, t = 0.1)
movej(p[0.412194751937721, 0.211971978883501, 0.31971628957159, -1.283, 0.713, -0.78], a = 0.2, v = 0.2, t = 0.1)
movej(p[0.41218246158432, 0.211967305755369, 0.319705664944739, -1.283, 0.713, -0.78], a = 0.2, v = 0.2, t = 0.1)
movej(p[0.412171065787163, 0.211961387492016, 0.319694341584457, -1.283, 0.713, -0.78], a = 0.2, v = 0.2, t = 0.1)
movej(p[0.4121600876299, 0.211952677768938, 0.319683628869349, -1.283, 0.713, -0.78], a = 0.2, v = 0.2, t = 0.1)
movej(p[0.412150250851101, 0.21194097369795, 0.319674956994455, -1.283, 0.713, -0.78], a = 0.2, v = 0.2, t = 0.1)
movej(p[0.412140634123684, 0.211927882023618, 0.319670510827119, -1.283, 0.713, -0.78], a = 0.2, v = 0.2, t = 0.1)
movej(p[0.412131706248929, 0.211915417490388, 0.319672439847783, -1.283, 0.713, -0.78], a = 0.2, v = 0.2, t = 0.1)
movej(p[0.412123635441271, 0.211905798865477, 0.319680164135813, -1.283, 0.713, -0.78], a = 0.2, v = 0.2, t = 0.1)
movej(p[0.412117071079799, 0.211899159247805, 0.319691039199106, -1.283, 0.713, -0.78], a = 0.2, v = 0.2, t = 0.1)
movej(p[0.412111717484443, 0.211895935234974, 0.319699734237175, -1.283, 0.713, -0.78], a = 0.2, v = 0.2, t = 0.1)
movej(p[0.412108175601024, 0.211896455550438, 0.31970472817737, -1.283, 0.713, -0.78], a = 0.2, v = 0.2, t = 0.1)
movej(p[0.412107876525095, 0.211902127237527, 0.319706897050846, -1.283, 0.713, -0.78], a = 0.2, v = 0.2, t = 0.1)
movej(p[0.41211454107948, 0.211911512244407, 0.319705525349088, -1.283, 0.713, -0.78], a = 0.2, v = 0.2, t = 0.1)
movej(p[0.412128376982817, 0.211921478046768, 0.3197023300364, -1.283, 0.713, -0.78], a = 0.2, v = 0.2, t = 0.1)
movej(p[0.412146532345408, 0.211930086403694, 0.319698757444456, -1.283, 0.713, -0.78], a = 0.2, v = 0.2, t = 0.1)
movej(p[0.412164250957023, 0.211937065598057, 0.319700039840455, -1.283, 0.713, -0.78], a = 0.2, v = 0.2, t = 0.1)
movej(p[0.412179068760234, 0.21194449175742, 0.319709704679051, -1.283, 0.713, -0.78], a = 0.2, v = 0.2, t = 0.1)
movej(p[0.412191660445636, 0.211954121109317, 0.319726148093836, -1.283, 0.713, -0.78], a = 0.2, v = 0.2, t = 0.1)
movej(p[0.412202323683353, 0.211965308739688, 0.319746164543148, -1.283, 0.713, -0.78], a = 0.2, v = 0.2, t = 0.1)
movej(p[0.412211266755767, 0.211976309922069, 0.319762766357417, -1.283, 0.713, -0.78], a = 0.2, v = 0.2, t = 0.1)
movej(p[0.412219601805244, 0.211985836271093, 0.319772039561745, -1.283, 0.713, -0.78], a = 0.2, v = 0.2, t = 0.1)
movej(p[0.412230411190128, 0.211993468062371, 0.319773530577611, -1.283, 0.713, -0.78], a = 0.2, v = 0.2, t = 0.1)
movej(p[0.412245207669544, 0.21199989009, 0.319772351474546, -1.283, 0.713, -0.78], a = 0.2, v = 0.2, t = 0.1)
movej(p[0.412262970628329, 0.212006188221707, 0.319771066981964, -1.283, 0.713, -0.78], a = 0.2, v = 0.2, t = 0.1)
movej(p[0.412280624692593, 0.212011072360136, 0.319770277857923, -1.283, 0.713, -0.78], a = 0.2, v = 0.2, t = 0.1)
movej(p[0.412295185404741, 0.212013714855165, 0.319766058262115, -1.283, 0.713, -0.78], a = 0.2, v = 0.2, t = 0.1)
movej(p[0.412303542324796, 0.212014133490902, 0.319759249299102, -1.283, 0.713, -0.78], a = 0.2, v = 0.2, t = 0.1)
movej(p[0.412305334418947, 0.212013177056351, 0.31975210500855, -1.283, 0.713, -0.78], a = 0.2, v = 0.2, t = 0.1)
movej(p[0.412301370465416, 0.212010995604824, 0.319747500134758, -1.283, 0.713, -0.78], a = 0.2, v = 0.2, t = 0.1)
movej(p[0.412292997477303, 0.212007158145566, 0.319744869636422, -1.283, 0.713, -0.78], a = 0.2, v = 0.2, t = 0.1)
movej(p[0.412281606130603, 0.212002739750877, 0.319744509117706, -1.283, 0.713, -0.78], a = 0.2, v = 0.2, t = 0.1)
movej(p[0.412268359569768, 0.211997491560394, 0.31974454673019, -1.283, 0.713, -0.78], a = 0.2, v = 0.2, t = 0.1)
movej(p[0.412254026836842, 0.211992000382026, 0.319743213590662, -1.283, 0.713, -0.78], a = 0.2, v = 0.2, t = 0.1)
movej(p[0.412237603647908, 0.211987440610186, 0.319739806676662, -1.283, 0.713, -0.78], a = 0.2, v = 0.2, t = 0.1)
movej(p[0.412220121178113, 0.211984372229648, 0.31973452392977, -1.283, 0.713, -0.78], a = 0.2, v = 0.2, t = 0.1)
movej(p[0.412203541363912, 0.211981343115139, 0.319728832378455, -1.283, 0.713, -0.78], a = 0.2, v = 0.2, t = 0.1)
movej(p[0.412190302402359, 0.211976174574647, 0.319724770624996, -1.283, 0.713, -0.78], a = 0.2, v = 0.2, t = 0.1)
movej(p[0.412182121774066, 0.211968303854968, 0.319722878368546, -1.283, 0.713, -0.78], a = 0.2, v = 0.2, t = 0.1)
movej(p[0.4121780674962, 0.21195990061899, 0.319723258681687, -1.283, 0.713, -0.78], a = 0.2, v = 0.2, t = 0.1)
movej(p[0.412175308740975, 0.211952710555123, 0.319723789950169, -1.283, 0.713, -0.78], a = 0.2, v = 0.2, t = 0.1)
movej(p[0.412171385703462, 0.211947449818119, 0.319723713035612, -1.283, 0.713, -0.78], a = 0.2, v = 0.2, t = 0.1)
movej(p[0.41216636932049, 0.21194318072649, 0.319722232456152, -1.283, 0.713, -0.78], a = 0.2, v = 0.2, t = 0.1)
movej(p[0.412162036026164, 0.211940248538182, 0.319718713898917, -1.283, 0.713, -0.78], a = 0.2, v = 0.2, t = 0.1)
movej(p[0.412160316827956, 0.21193833997041, 0.319714625871326, -1.283, 0.713, -0.78], a = 0.2, v = 0.2, t = 0.1)
movej(p[0.412162548359226, 0.211937231706155, 0.319709312922566, -1.283, 0.713, -0.78], a = 0.2, v = 0.2, t = 0.1)
movej(p[0.412167839303666, 0.211936959866546, 0.319704339822108, -1.283, 0.713, -0.78], a = 0.2, v = 0.2, t = 0.1)
movej(p[0.41217470531799, 0.211938449914946, 0.319698939654327, -1.283, 0.713, -0.78], a = 0.2, v = 0.2, t = 0.1)
movej(p[0.412183037339302, 0.211942630383911, 0.319692756404365, -1.283, 0.713, -0.78], a = 0.2, v = 0.2, t = 0.1)
movej(p[0.412195368550972, 0.211949786066915, 0.31968299408694, -1.283, 0.713, -0.78], a = 0.2, v = 0.2, t = 0.1)
movej(p[0.412212371267035, 0.211959261495642, 0.319670088253573, -1.283, 0.713, -0.78], a = 0.2, v = 0.2, t = 0.1)
movej(p[0.412232984524174, 0.211968903299772, 0.319656432557976, -1.283, 0.713, -0.78], a = 0.2, v = 0.2, t = 0.1)
movej(p[0.412254179427795, 0.211977049616764, 0.319646390931913, -1.283, 0.713, -0.78], a = 0.2, v = 0.2, t = 0.1)
movej(p[0.412273938023694, 0.211985030035231, 0.319641638702206, -1.283, 0.713, -0.78], a = 0.2, v = 0.2, t = 0.1)
movej(p[0.412290456000272, 0.211992144666662, 0.319641157069205, -1.283, 0.713, -0.78], a = 0.2, v = 0.2, t = 0.1)
movej(p[0.412303412889824, 0.211997818301455, 0.319642861710632, -1.283, 0.713, -0.78], a = 0.2, v = 0.2, t = 0.1)
movej(p[0.412313637023864, 0.212001173317, 0.319643810922311, -1.283, 0.713, -0.78], a = 0.2, v = 0.2, t = 0.1)
movej(p[0.4123213711457, 0.212002306326711, 0.319641202271811, -1.283, 0.713, -0.78], a = 0.2, v = 0.2, t = 0.1)
movej(p[0.412325829132306, 0.212001978864984, 0.319634710046134, -1.283, 0.713, -0.78], a = 0.2, v = 0.2, t = 0.1)
movej(p[0.412326145183837, 0.212000066970954, 0.319625864785163, -1.283, 0.713, -0.78], a = 0.2, v = 0.2, t = 0.1)
movej(p[0.412322010967874, 0.211996954791347, 0.319616402164677, -1.283, 0.713, -0.78], a = 0.2, v = 0.2, t = 0.1)
movej(p[0.412314006126741, 0.211992078895772, 0.319606567775739, -1.283, 0.713, -0.78], a = 0.2, v = 0.2, t = 0.1)
movej(p[0.412301856254739, 0.211985610067761, 0.319596522116004, -1.283, 0.713, -0.78], a = 0.2, v = 0.2, t = 0.1)
movej(p[0.412286586585633, 0.211977961535684, 0.319585406072533, -1.283, 0.713, -0.78], a = 0.2, v = 0.2, t = 0.1)
movej(p[0.412269219027917, 0.211969968176157, 0.319569249009977, -1.283, 0.713, -0.78], a = 0.2, v = 0.2, t = 0.1)
movej(p[0.41225153996319, 0.211962239522012, 0.319549347172335, -1.283, 0.713, -0.78], a = 0.2, v = 0.2, t = 0.1)
movej(p[0.412232724294311, 0.211955034537269, 0.319526555462143, -1.283, 0.713, -0.78], a = 0.2, v = 0.2, t = 0.1)
movej(p[0.412213311347507, 0.211948614623122, 0.319502906421069, -1.283, 0.713, -0.78], a = 0.2, v = 0.2, t = 0.1)
movej(p[0.412194689896977, 0.211941942194609, 0.319478429943506, -1.283, 0.713, -0.78], a = 0.2, v = 0.2, t = 0.1)
movej(p[0.412179384746463, 0.211934541190492, 0.319455339345012, -1.283, 0.713, -0.78], a = 0.2, v = 0.2, t = 0.1)
movej(p[0.412168819473501, 0.211925610885717, 0.319436115792326, -1.283, 0.713, -0.78], a = 0.2, v = 0.2, t = 0.1)
movej(p[0.412162302429052, 0.211914682628624, 0.319421786649661, -1.283, 0.713, -0.78], a = 0.2, v = 0.2, t = 0.1)
movej(p[0.412159214843342, 0.211904031306991, 0.319410412852407, -1.283, 0.713, -0.78], a = 0.2, v = 0.2, t = 0.1)
movej(p[0.412159198424416, 0.211897028812952, 0.319400763373216, -1.283, 0.713, -0.78], a = 0.2, v = 0.2, t = 0.1)
movej(p[0.412162778172798, 0.211894987853112, 0.319392828526371, -1.283, 0.713, -0.78], a = 0.2, v = 0.2, t = 0.1)
movej(p[0.41216965929583, 0.211897942345456, 0.319385922772769, -1.283, 0.713, -0.78], a = 0.2, v = 0.2, t = 0.1)
movej(p[0.412179711077499, 0.211904214347871, 0.319381090673848, -1.283, 0.713, -0.78], a = 0.2, v = 0.2, t = 0.1)
movej(p[0.412193004869238, 0.211912000305062, 0.319379408823431, -1.283, 0.713, -0.78], a = 0.2, v = 0.2, t = 0.1)
movej(p[0.412208832975551, 0.211918596192777, 0.319381820052331, -1.283, 0.713, -0.78], a = 0.2, v = 0.2, t = 0.1)
movej(p[0.412226695472681, 0.211920061609399, 0.319387750064168, -1.283, 0.713, -0.78], a = 0.2, v = 0.2, t = 0.1)
movej(p[0.412243922368699, 0.211916550375591, 0.319396329562507, -1.283, 0.713, -0.78], a = 0.2, v = 0.2, t = 0.1)
movej(p[0.41226012050654, 0.211910383980499, 0.319405383745135, -1.283, 0.713, -0.78], a = 0.2, v = 0.2, t = 0.1)
movej(p[0.412274885920439, 0.211907039390673, 0.319412526825163, -1.283, 0.713, -0.78], a = 0.2, v = 0.2, t = 0.1)
movej(p[0.412288667980697, 0.211907093093714, 0.319414826312288, -1.283, 0.713, -0.78], a = 0.2, v = 0.2, t = 0.1)
movej(p[0.412301103674349, 0.211908817052708, 0.319413598838962, -1.283, 0.713, -0.78], a = 0.2, v = 0.2, t = 0.1)
movej(p[0.412311096339776, 0.211909919653436, 0.31941015953201, -1.283, 0.713, -0.78], a = 0.2, v = 0.2, t = 0.1)
movej(p[0.412318219095843, 0.21191083495748, 0.319406130644508, -1.283, 0.713, -0.78], a = 0.2, v = 0.2, t = 0.1)
movej(p[0.412320942989247, 0.211911849544938, 0.319400540158124, -1.283, 0.713, -0.78], a = 0.2, v = 0.2, t = 0.1)
movej(p[0.412318726906932, 0.211912998243136, 0.319394695815079, -1.283, 0.713, -0.78], a = 0.2, v = 0.2, t = 0.1)
movej(p[0.412312388290231, 0.211912768871178, 0.319392293807416, -1.283, 0.713, -0.78], a = 0.2, v = 0.2, t = 0.1)
movej(p[0.412302859327872, 0.211910036499006, 0.319392931010425, -1.283, 0.713, -0.78], a = 0.2, v = 0.2, t = 0.1)
movej(p[0.412290818458527, 0.211904705262018, 0.319393773722473, -1.283, 0.713, -0.78], a = 0.2, v = 0.2, t = 0.1)
movej(p[0.412276026563092, 0.211899588864405, 0.319392654466504, -1.283, 0.713, -0.78], a = 0.2, v = 0.2, t = 0.1)
movej(p[0.41225903134268, 0.211895947620884, 0.319392764624399, -1.283, 0.713, -0.78], a = 0.2, v = 0.2, t = 0.1)
movej(p[0.41224160819286, 0.211893818384829, 0.319393343516594, -1.283, 0.713, -0.78], a = 0.2, v = 0.2, t = 0.1)
movej(p[0.41222686674495, 0.211891757167339, 0.319392400304541, -1.283, 0.713, -0.78], a = 0.2, v = 0.2, t = 0.1)
movej(p[0.412216082320148, 0.211890053606957, 0.319390680593603, -1.283, 0.713, -0.78], a = 0.2, v = 0.2, t = 0.1)
movej(p[0.412208071169331, 0.211888296971035, 0.319391217368072, -1.283, 0.713, -0.78], a = 0.2, v = 0.2, t = 0.1)
movej(p[0.412201006994327, 0.211886441109814, 0.319395374946892, -1.283, 0.713, -0.78], a = 0.2, v = 0.2, t = 0.1)
movej(p[0.412196302957586, 0.21188546922068, 0.319401871827901, -1.283, 0.713, -0.78], a = 0.2, v = 0.2, t = 0.1)
movej(p[0.412195619590718, 0.211887713146693, 0.319409575184232, -1.283, 0.713, -0.78], a = 0.2, v = 0.2, t = 0.1)
movej(p[0.412197499064204, 0.211893543874275, 0.319416064861518, -1.283, 0.713, -0.78], a = 0.2, v = 0.2, t = 0.1)
movej(p[0.412200061549349, 0.211900529603113, 0.31942085154257, -1.283, 0.713, -0.78], a = 0.2, v = 0.2, t = 0.1)
movej(p[0.412203965224995, 0.2119053314834, 0.319431098974353, -1.283, 0.713, -0.78], a = 0.2, v = 0.2, t = 0.1)
movej(p[0.412210808915326, 0.211908303192724, 0.319449175018012, -1.283, 0.713, -0.78], a = 0.2, v = 0.2, t = 0.1)
movej(p[0.412220395505799, 0.211909831484844, 0.319472206575326, -1.283, 0.713, -0.78], a = 0.2, v = 0.2, t = 0.1)
movej(p[0.412228781142496, 0.211911202517251, 0.319491541429458, -1.283, 0.713, -0.78], a = 0.2, v = 0.2, t = 0.1)
movej(p[0.412235950019696, 0.211912300567613, 0.319505143440306, -1.283, 0.713, -0.78], a = 0.2, v = 0.2, t = 0.1)
movej(p[0.412242568600123, 0.211913545690926, 0.319516255139324, -1.283, 0.713, -0.78], a = 0.2, v = 0.2, t = 0.1)
movej(p[0.412249479986925, 0.211915377619443, 0.319526219744152, -1.283, 0.713, -0.78], a = 0.2, v = 0.2, t = 0.1)
movej(p[0.412256662889069, 0.211917303043652, 0.319533120571088, -1.283, 0.713, -0.78], a = 0.2, v = 0.2, t = 0.1)
movej(p[0.412265191698583, 0.211919977156341, 0.319535251322038, -1.283, 0.713, -0.78], a = 0.2, v = 0.2, t = 0.1)
movej(p[0.412278076747035, 0.211921689659807, 0.319532727069227, -1.283, 0.713, -0.78], a = 0.2, v = 0.2, t = 0.1)
movej(p[0.412294894525014, 0.21192304169256, 0.319529441259235, -1.283, 0.713, -0.78], a = 0.2, v = 0.2, t = 0.1)
movej(p[0.412312932375868, 0.211923914675726, 0.319527467622505, -1.283, 0.713, -0.78], a = 0.2, v = 0.2, t = 0.1)
movej(p[0.412328002397219, 0.211926317132871, 0.31952658874757, -1.283, 0.713, -0.78], a = 0.2, v = 0.2, t = 0.1)
movej(p[0.412338942616772, 0.211930994279648, 0.319526117070603, -1.283, 0.713, -0.78], a = 0.2, v = 0.2, t = 0.1)
movej(p[0.41234618975056, 0.211937521644925, 0.319526548175466, -1.283, 0.713, -0.78], a = 0.2, v = 0.2, t = 0.1)
movej(p[0.41234983837102, 0.211944634384013, 0.31953095241767, -1.283, 0.713, -0.78], a = 0.2, v = 0.2, t = 0.1)
movej(p[0.412351860768341, 0.211952473240294, 0.319539696537882, -1.283, 0.713, -0.78], a = 0.2, v = 0.2, t = 0.1)
movej(p[0.41235493491667, 0.211960475122191, 0.319552100751326, -1.283, 0.713, -0.78], a = 0.2, v = 0.2, t = 0.1)
movej(p[0.412360620447943, 0.211967800802997, 0.319566380589521, -1.283, 0.713, -0.78], a = 0.2, v = 0.2, t = 0.1)
movej(p[0.412367416637369, 0.211973676778657, 0.319581099485177, -1.283, 0.713, -0.78], a = 0.2, v = 0.2, t = 0.1)
movej(p[0.412374785589693, 0.211976134036527, 0.319592931903163, -1.283, 0.713, -0.78], a = 0.2, v = 0.2, t = 0.1)
movej(p[0.412382933311084, 0.211973578176651, 0.319601259819015, -1.283, 0.713, -0.78], a = 0.2, v = 0.2, t = 0.1)
movej(p[0.412390614709915, 0.211966579908531, 0.319606215321746, -1.283, 0.713, -0.78], a = 0.2, v = 0.2, t = 0.1)
movej(p[0.412394507264516, 0.211959410089431, 0.319607770735116, -1.283, 0.713, -0.78], a = 0.2, v = 0.2, t = 0.1)
movej(p[0.412394858161856, 0.211954817485956, 0.319597946101058, -1.283, 0.713, -0.78], a = 0.2, v = 0.2, t = 0.1)
movej(p[0.412391941998617, 0.211952645836299, 0.319575862134686, -1.283, 0.713, -0.78], a = 0.2, v = 0.2, t = 0.1)
movej(p[0.412385951947664, 0.211951189258928, 0.319545045667644, -1.283, 0.713, -0.78], a = 0.2, v = 0.2, t = 0.1)
movej(p[0.412374869498351, 0.211948335590923, 0.319516752925569, -1.283, 0.713, -0.78], a = 0.2, v = 0.2, t = 0.1)
movej(p[0.41235842703398, 0.211942521158414, 0.319496066656862, -1.283, 0.713, -0.78], a = 0.2, v = 0.2, t = 0.1)
movej(p[0.412336240720961, 0.211932827280492, 0.319481504232048, -1.283, 0.713, -0.78], a = 0.2, v = 0.2, t = 0.1)
movej(p[0.412310555745782, 0.211919527376525, 0.319468277621313, -1.283, 0.713, -0.78], a = 0.2, v = 0.2, t = 0.1)
movej(p[0.41228406934832, 0.211903500458811, 0.319453945456715, -1.283, 0.713, -0.78], a = 0.2, v = 0.2, t = 0.1)
movej(p[0.412258114564575, 0.211886469291412, 0.319439057141574, -1.283, 0.713, -0.78], a = 0.2, v = 0.2, t = 0.1)
movej(p[0.412233731146963, 0.211871376907194, 0.319423533306764, -1.283, 0.713, -0.78], a = 0.2, v = 0.2, t = 0.1)
movej(p[0.412212573006644, 0.211860218680186, 0.319408000121087, -1.283, 0.713, -0.78], a = 0.2, v = 0.2, t = 0.1)
movej(p[0.412197582542289, 0.211853942439198, 0.319393120001783, -1.283, 0.713, -0.78], a = 0.2, v = 0.2, t = 0.1)
movej(p[0.412190286211056, 0.211852092807466, 0.319380789010178, -1.283, 0.713, -0.78], a = 0.2, v = 0.2, t = 0.1)
movej(p[0.412190489629361, 0.211853925857844, 0.31937231736817, -1.283, 0.713, -0.78], a = 0.2, v = 0.2, t = 0.1)
movej(p[0.412197549203088, 0.21185831160404, 0.319368226180922, -1.283, 0.713, -0.78], a = 0.2, v = 0.2, t = 0.1)
movej(p[0.412211002156731, 0.211863946458609, 0.319369127769106, -1.283, 0.713, -0.78], a = 0.2, v = 0.2, t = 0.1)
movej(p[0.412227498846968, 0.211869261348992, 0.319377217900221, -1.283, 0.713, -0.78], a = 0.2, v = 0.2, t = 0.1)
movej(p[0.412243898633792, 0.211874596540597, 0.319391108758065, -1.283, 0.713, -0.78], a = 0.2, v = 0.2, t = 0.1)
movej(p[0.412259183133506, 0.211880238909727, 0.319408452395316, -1.283, 0.713, -0.78], a = 0.2, v = 0.2, t = 0.1)
movej(p[0.412274618791517, 0.211887839144487, 0.319424546908337, -1.283, 0.713, -0.78], a = 0.2, v = 0.2, t = 0.1)
movej(p[0.412290471157179, 0.211897432474518, 0.319437079276502, -1.283, 0.713, -0.78], a = 0.2, v = 0.2, t = 0.1)
movej(p[0.412305975489967, 0.211908494973104, 0.319445476363071, -1.283, 0.713, -0.78], a = 0.2, v = 0.2, t = 0.1)
movej(p[0.412319573315721, 0.21191957189393, 0.31944912346449, -1.283, 0.713, -0.78], a = 0.2, v = 0.2, t = 0.1)
movej(p[0.412329897948009, 0.211928998918654, 0.319449313538084, -1.283, 0.713, -0.78], a = 0.2, v = 0.2, t = 0.1)
movej(p[0.41233642600418, 0.211935626689975, 0.31944823680973, -1.283, 0.713, -0.78], a = 0.2, v = 0.2, t = 0.1)
movej(p[0.412338547973022, 0.211938858787134, 0.319450111636973, -1.283, 0.713, -0.78], a = 0.2, v = 0.2, t = 0.1)
movej(p[0.412336506026724, 0.211939431329267, 0.319454385864718, -1.283, 0.713, -0.78], a = 0.2, v = 0.2, t = 0.1)
movej(p[0.41233087591369, 0.211938294202329, 0.319459858526918, -1.283, 0.713, -0.78], a = 0.2, v = 0.2, t = 0.1)
movej(p[0.412322174474176, 0.211935017200448, 0.319464094834041, -1.283, 0.713, -0.78], a = 0.2, v = 0.2, t = 0.1)
movej(p[0.412310678524708, 0.211929070245434, 0.319465023868967, -1.283, 0.713, -0.78], a = 0.2, v = 0.2, t = 0.1)
movej(p[0.412296661952101, 0.21192046089696, 0.319463360844855, -1.283, 0.713, -0.78], a = 0.2, v = 0.2, t = 0.1)
movej(p[0.41228037460184, 0.211910529601525, 0.319457378888111, -1.283, 0.713, -0.78], a = 0.2, v = 0.2, t = 0.1)
movej(p[0.412261149676814, 0.211899833338691, 0.319448169080941, -1.283, 0.713, -0.78], a = 0.2, v = 0.2, t = 0.1)
movej(p[0.412238718144935, 0.211888223172836, 0.319436422672154, -1.283, 0.713, -0.78], a = 0.2, v = 0.2, t = 0.1)
movej(p[0.412212734962805, 0.211876351724224, 0.319424095424478, -1.283, 0.713, -0.78], a = 0.2, v = 0.2, t = 0.1)
movej(p[0.412183676153955, 0.211864960929197, 0.319412543906402, -1.283, 0.713, -0.78], a = 0.2, v = 0.2, t = 0.1)
movej(p[0.412153997666043, 0.211854169920052, 0.319402330033928, -1.283, 0.713, -0.78], a = 0.2, v = 0.2, t = 0.1)
movej(p[0.412126213658267, 0.211843294013801, 0.319392247186261, -1.283, 0.713, -0.78], a = 0.2, v = 0.2, t = 0.1)
movej(p[0.412101399942844, 0.211833035210182, 0.319382783987424, -1.283, 0.713, -0.78], a = 0.2, v = 0.2, t = 0.1)
movej(p[0.412079222152423, 0.211824248440066, 0.319375655681037, -1.283, 0.713, -0.78], a = 0.2, v = 0.2, t = 0.1)
movej(p[0.412060139435027, 0.211817530846965, 0.319371295398393, -1.283, 0.713, -0.78], a = 0.2, v = 0.2, t = 0.1)
movej(p[0.412045247424403, 0.211812698969974, 0.31937087485908, -1.283, 0.713, -0.78], a = 0.2, v = 0.2, t = 0.1)
movej(p[0.412035752546601, 0.211806231906126, 0.319375358547152, -1.283, 0.713, -0.78], a = 0.2, v = 0.2, t = 0.1)
movej(p[0.412032326327589, 0.211797155071508, 0.319386435623959, -1.283, 0.713, -0.78], a = 0.2, v = 0.2, t = 0.1)
movej(p[0.412035494712953, 0.211787261415547, 0.319403174332778, -1.283, 0.713, -0.78], a = 0.2, v = 0.2, t = 0.1)
movej(p[0.412044373733686, 0.211781856214019, 0.319421840451637, -1.283, 0.713, -0.78], a = 0.2, v = 0.2, t = 0.1)
movej(p[0.412058213503003, 0.21178307001069, 0.319439972100346, -1.283, 0.713, -0.78], a = 0.2, v = 0.2, t = 0.1)
movej(p[0.41207569886336, 0.211788590761007, 0.319457843852445, -1.283, 0.713, -0.78], a = 0.2, v = 0.2, t = 0.1)
movej(p[0.412094696792571, 0.211796056514958, 0.319475173627303, -1.283, 0.713, -0.78], a = 0.2, v = 0.2, t = 0.1)
movej(p[0.412114479203422, 0.211804567904053, 0.319494353696922, -1.283, 0.713, -0.78], a = 0.2, v = 0.2, t = 0.1)
movej(p[0.412134828222918, 0.211814385930865, 0.319515853036798, -1.283, 0.713, -0.78], a = 0.2, v = 0.2, t = 0.1)
movej(p[0.412155564361542, 0.21182632406092, 0.319538437302023, -1.283, 0.713, -0.78], a = 0.2, v = 0.2, t = 0.1)
movej(p[0.412176266577904, 0.211838827882294, 0.319560748745673, -1.283, 0.713, -0.78], a = 0.2, v = 0.2, t = 0.1)
movej(p[0.412197118650831, 0.211850959749121, 0.319580268716803, -1.283, 0.713, -0.78], a = 0.2, v = 0.2, t = 0.1)
movej(p[0.412216997173624, 0.211861815826617, 0.319594522231562, -1.283, 0.713, -0.78], a = 0.2, v = 0.2, t = 0.1)
movej(p[0.412233542253661, 0.21187134032169, 0.319601009855023, -1.283, 0.713, -0.78], a = 0.2, v = 0.2, t = 0.1)
movej(p[0.412244216263717, 0.211877416641139, 0.319600094027927, -1.283, 0.713, -0.78], a = 0.2, v = 0.2, t = 0.1)
movej(p[0.412246988505032, 0.211879192676083, 0.31959384740268, -1.283, 0.713, -0.78], a = 0.2, v = 0.2, t = 0.1)
movej(p[0.412242376192311, 0.211876007034151, 0.319584938532839, -1.283, 0.713, -0.78], a = 0.2, v = 0.2, t = 0.1)
movej(p[0.412231216619057, 0.211868638945143, 0.319574787099534, -1.283, 0.713, -0.78], a = 0.2, v = 0.2, t = 0.1)
movej(p[0.412215782023406, 0.211859217748386, 0.319563441732781, -1.283, 0.713, -0.78], a = 0.2, v = 0.2, t = 0.1)
movej(p[0.412198037034336, 0.211849084151366, 0.319551125112654, -1.283, 0.713, -0.78], a = 0.2, v = 0.2, t = 0.1)
movej(p[0.412179843979022, 0.211838747024473, 0.319538125732517, -1.283, 0.713, -0.78], a = 0.2, v = 0.2, t = 0.1)
movej(p[0.412161015340298, 0.211827887016925, 0.319524782700596, -1.283, 0.713, -0.78], a = 0.2, v = 0.2, t = 0.1)
movej(p[0.412140114476926, 0.211817348347179, 0.319510955577747, -1.283, 0.713, -0.78], a = 0.2, v = 0.2, t = 0.1)
movej(p[0.412116162190632, 0.211807704524431, 0.319495594127357, -1.283, 0.713, -0.78], a = 0.2, v = 0.2, t = 0.1)
movej(p[0.412090920101597, 0.211798536910809, 0.319477866487253, -1.283, 0.713, -0.78], a = 0.2, v = 0.2, t = 0.1)
movej(p[0.412067286749521, 0.211788774091955, 0.319457546876832, -1.283, 0.713, -0.78], a = 0.2, v = 0.2, t = 0.1)
movej(p[0.412048643252293, 0.211779208326764, 0.319437401755501, -1.283, 0.713, -0.78], a = 0.2, v = 0.2, t = 0.1)
movej(p[0.412036677085264, 0.211770851021475, 0.319420537046048, -1.283, 0.713, -0.78], a = 0.2, v = 0.2, t = 0.1)
movej(p[0.412031729773721, 0.211764324530907, 0.319409968347246, -1.283, 0.713, -0.78], a = 0.2, v = 0.2, t = 0.1)
movej(p[0.412033866474291, 0.211759713792649, 0.319405445950825, -1.283, 0.713, -0.78], a = 0.2, v = 0.2, t = 0.1)
movej(p[0.412044419947728, 0.211755464698431, 0.319400468934675, -1.283, 0.713, -0.78], a = 0.2, v = 0.2, t = 0.1)
movej(p[0.412063211096398, 0.211750754290834, 0.319389576372675, -1.283, 0.713, -0.78], a = 0.2, v = 0.2, t = 0.1)
movej(p[0.412088083001061, 0.211745383750175, 0.31937431191476, -1.283, 0.713, -0.78], a = 0.2, v = 0.2, t = 0.1)
movej(p[0.412113788767586, 0.21174182441805, 0.319360999023406, -1.283, 0.713, -0.78], a = 0.2, v = 0.2, t = 0.1)
movej(p[0.412139120259928, 0.211741116033677, 0.319351870623749, -1.283, 0.713, -0.78], a = 0.2, v = 0.2, t = 0.1)
movej(p[0.412164793498247, 0.211743299689549, 0.319346554760766, -1.283, 0.713, -0.78], a = 0.2, v = 0.2, t = 0.1)
movej(p[0.412190744750727, 0.211747957674295, 0.319345318041782, -1.283, 0.713, -0.78], a = 0.2, v = 0.2, t = 0.1)
movej(p[0.412215003577381, 0.211753973675391, 0.319348559007402, -1.283, 0.713, -0.78], a = 0.2, v = 0.2, t = 0.1)
movej(p[0.412235702712324, 0.211760976391819, 0.319356247730071, -1.283, 0.713, -0.78], a = 0.2, v = 0.2, t = 0.1)
movej(p[0.412252876237572, 0.211768346046018, 0.319368654089751, -1.283, 0.713, -0.78], a = 0.2, v = 0.2, t = 0.1)
movej(p[0.412268304334921, 0.211775813725156, 0.319385426199144, -1.283, 0.713, -0.78], a = 0.2, v = 0.2, t = 0.1)
movej(p[0.412283204362886, 0.211781607074463, 0.319404087013474, -1.283, 0.713, -0.78], a = 0.2, v = 0.2, t = 0.1)
movej(p[0.41229728661545, 0.211785637345841, 0.319421677534568, -1.283, 0.713, -0.78], a = 0.2, v = 0.2, t = 0.1)
movej(p[0.412307883611633, 0.211788549381681, 0.319438411164633, -1.283, 0.713, -0.78], a = 0.2, v = 0.2, t = 0.1)
movej(p[0.412313108794344, 0.211791073187878, 0.319453588740787, -1.283, 0.713, -0.78], a = 0.2, v = 0.2, t = 0.1)
movej(p[0.412312393249074, 0.211793709873102, 0.319465699197385, -1.283, 0.713, -0.78], a = 0.2, v = 0.2, t = 0.1)
movej(p[0.412304672509891, 0.21179591973165, 0.319473653878816, -1.283, 0.713, -0.78], a = 0.2, v = 0.2, t = 0.1)
movej(p[0.412289690004238, 0.211797581658835, 0.319479489118348, -1.283, 0.713, -0.78], a = 0.2, v = 0.2, t = 0.1)
movej(p[0.412268164179409, 0.21179830282812, 0.319486122119574, -1.283, 0.713, -0.78], a = 0.2, v = 0.2, t = 0.1)
movej(p[0.412243174788525, 0.211798449894044, 0.319493410800995, -1.283, 0.713, -0.78], a = 0.2, v = 0.2, t = 0.1)
movej(p[0.412217609882417, 0.211798137425894, 0.319500891392976, -1.283, 0.713, -0.78], a = 0.2, v = 0.2, t = 0.1)
movej(p[0.412193120500266, 0.211796647817398, 0.319508168667902, -1.283, 0.713, -0.78], a = 0.2, v = 0.2, t = 0.1)
movej(p[0.412169958274765, 0.211793461345596, 0.319513621428059, -1.283, 0.713, -0.78], a = 0.2, v = 0.2, t = 0.1)
movej(p[0.412147792869401, 0.211790567459082, 0.319515803675493, -1.283, 0.713, -0.78], a = 0.2, v = 0.2, t = 0.1)
movej(p[0.412128896225278, 0.211788799253154, 0.319514166041625, -1.283, 0.713, -0.78], a = 0.2, v = 0.2, t = 0.1)
movej(p[0.412114950956873, 0.211787961405211, 0.319509469359291, -1.283, 0.713, -0.78], a = 0.2, v = 0.2, t = 0.1)
movej(p[0.412104514315024, 0.211788371260889, 0.319502487515177, -1.283, 0.713, -0.78], a = 0.2, v = 0.2, t = 0.1)
movej(p[0.412092329930259, 0.211789056500799, 0.319495097828907, -1.283, 0.713, -0.78], a = 0.2, v = 0.2, t = 0.1)
movej(p[0.412076591873482, 0.211789899413389, 0.31949047306932, -1.283, 0.713, -0.78], a = 0.2, v = 0.2, t = 0.1)
movej(p[0.412060920730957, 0.211791262896652, 0.319490834680121, -1.283, 0.713, -0.78], a = 0.2, v = 0.2, t = 0.1)
movej(p[0.412050690253762, 0.21179470630217, 0.319496098026756, -1.283, 0.713, -0.78], a = 0.2, v = 0.2, t = 0.1)
movej(p[0.412048185344941, 0.211799863729607, 0.319504295212373, -1.283, 0.713, -0.78], a = 0.2, v = 0.2, t = 0.1)
movej(p[0.412053107078069, 0.211806398618755, 0.319514605096166, -1.283, 0.713, -0.78], a = 0.2, v = 0.2, t = 0.1)
movej(p[0.412063535758652, 0.211813716576205, 0.319525290814723, -1.283, 0.713, -0.78], a = 0.2, v = 0.2, t = 0.1)
movej(p[0.412077839955935, 0.211821955921745, 0.319535304361206, -1.283, 0.713, -0.78], a = 0.2, v = 0.2, t = 0.1)
movej(p[0.412095144131303, 0.211829596848411, 0.319545178698019, -1.283, 0.713, -0.78], a = 0.2, v = 0.2, t = 0.1)
movej(p[0.412114222282124, 0.211836795727931, 0.319555641512885, -1.283, 0.713, -0.78], a = 0.2, v = 0.2, t = 0.1)
movej(p[0.412134013690251, 0.21184359162908, 0.319567940235823, -1.283, 0.713, -0.78], a = 0.2, v = 0.2, t = 0.1)
movej(p[0.412153604495624, 0.211850517601116, 0.319580712476552, -1.283, 0.713, -0.78], a = 0.2, v = 0.2, t = 0.1)
movej(p[0.412172574342517, 0.211857294986127, 0.319591574307255, -1.283, 0.713, -0.78], a = 0.2, v = 0.2, t = 0.1)
movej(p[0.412189199243757, 0.21186445696873, 0.31959938609098, -1.283, 0.713, -0.78], a = 0.2, v = 0.2, t = 0.1)
movej(p[0.41220376266294, 0.211872211648171, 0.319604084930249, -1.283, 0.713, -0.78], a = 0.2, v = 0.2, t = 0.1)
movej(p[0.412215971837353, 0.21187905937032, 0.319607395688094, -1.283, 0.713, -0.78], a = 0.2, v = 0.2, t = 0.1)
movej(p[0.412225565420382, 0.211883075281495, 0.319608249341482, -1.283, 0.713, -0.78], a = 0.2, v = 0.2, t = 0.1)
movej(p[0.41223130894784, 0.211883379427787, 0.319605366722991, -1.283, 0.713, -0.78], a = 0.2, v = 0.2, t = 0.1)
movej(p[0.412230599807235, 0.211879524707279, 0.31959811663924, -1.283, 0.713, -0.78], a = 0.2, v = 0.2, t = 0.1)
movej(p[0.412223080180712, 0.21187230419182, 0.319585867655018, -1.283, 0.713, -0.78], a = 0.2, v = 0.2, t = 0.1)
movej(p[0.412210389445335, 0.211861601874378, 0.319570199273162, -1.283, 0.713, -0.78], a = 0.2, v = 0.2, t = 0.1)
movej(p[0.412195434636969, 0.211849717850825, 0.319551765177445, -1.283, 0.713, -0.78], a = 0.2, v = 0.2, t = 0.1)
movej(p[0.412179645898887, 0.211838328562861, 0.319533674901343, -1.283, 0.713, -0.78], a = 0.2, v = 0.2, t = 0.1)
movej(p[0.412162379075106, 0.211827575136415, 0.319518218384492, -1.283, 0.713, -0.78], a = 0.2, v = 0.2, t = 0.1)
movej(p[0.412143736804073, 0.211816398348747, 0.319509629959015, -1.283, 0.713, -0.78], a = 0.2, v = 0.2, t = 0.1)
movej(p[0.41212332755296, 0.211805087624269, 0.319507011332893, -1.283, 0.713, -0.78], a = 0.2, v = 0.2, t = 0.1)
movej(p[0.412101158477717, 0.211793782611737, 0.319507581063151, -1.283, 0.713, -0.78], a = 0.2, v = 0.2, t = 0.1)
movej(p[0.412078948330814, 0.211782131362428, 0.319507083040997, -1.283, 0.713, -0.78], a = 0.2, v = 0.2, t = 0.1)
movej(p[0.412058653838735, 0.211770649000695, 0.319501873506922, -1.283, 0.713, -0.78], a = 0.2, v = 0.2, t = 0.1)
movej(p[0.412040979522317, 0.211761036223137, 0.319490777687133, -1.283, 0.713, -0.78], a = 0.2, v = 0.2, t = 0.1)
movej(p[0.412027061090937, 0.211756529094299, 0.319473992709696, -1.283, 0.713, -0.78], a = 0.2, v = 0.2, t = 0.1)
movej(p[0.412018111973597, 0.211757365561627, 0.319458197278608, -1.283, 0.713, -0.78], a = 0.2, v = 0.2, t = 0.1)
movej(p[0.412014896180777, 0.2117620196521, 0.319446446926937, -1.283, 0.713, -0.78], a = 0.2, v = 0.2, t = 0.1)
movej(p[0.412018036276053, 0.211767697840877, 0.319441711355602, -1.283, 0.713, -0.78], a = 0.2, v = 0.2, t = 0.1)
movej(p[0.412025659175277, 0.211773909040866, 0.319441515329818, -1.283, 0.713, -0.78], a = 0.2, v = 0.2, t = 0.1)
movej(p[0.412036180504985, 0.211779603205643, 0.319443211985548, -1.283, 0.713, -0.78], a = 0.2, v = 0.2, t = 0.1)
movej(p[0.412048771504577, 0.211784411546344, 0.31944295717586, -1.283, 0.713, -0.78], a = 0.2, v = 0.2, t = 0.1)
movej(p[0.412063546811221, 0.211788612825243, 0.319440534050771, -1.283, 0.713, -0.78], a = 0.2, v = 0.2, t = 0.1)
movej(p[0.41208119209965, 0.211793121758083, 0.319437424791875, -1.283, 0.713, -0.78], a = 0.2, v = 0.2, t = 0.1)
movej(p[0.412100522332224, 0.211798576922408, 0.319434555564658, -1.283, 0.713, -0.78], a = 0.2, v = 0.2, t = 0.1)
movej(p[0.412118123832471, 0.211803976013965, 0.319433199651151, -1.283, 0.713, -0.78], a = 0.2, v = 0.2, t = 0.1)
movej(p[0.412131501805089, 0.211808254832441, 0.31943434359436, -1.283, 0.713, -0.78], a = 0.2, v = 0.2, t = 0.1)
movej(p[0.412140541816664, 0.211810936118058, 0.319438410938969, -1.283, 0.713, -0.78], a = 0.2, v = 0.2, t = 0.1)
movej(p[0.412146882778049, 0.211812648968332, 0.319444138538697, -1.283, 0.713, -0.78], a = 0.2, v = 0.2, t = 0.1)
movej(p[0.4121525453677, 0.21181338055902, 0.319449206047209, -1.283, 0.713, -0.78], a = 0.2, v = 0.2, t = 0.1)
movej(p[0.412158530073857, 0.211813445962859, 0.319450481421488, -1.283, 0.713, -0.78], a = 0.2, v = 0.2, t = 0.1)
movej(p[0.412164720157871, 0.211812466757213, 0.319447567195313, -1.283, 0.713, -0.78], a = 0.2, v = 0.2, t = 0.1)
movej(p[0.412169418798749, 0.211811159307638, 0.31944228325327, -1.283, 0.713, -0.78], a = 0.2, v = 0.2, t = 0.1)
movej(p[0.412170133566254, 0.21180721682162, 0.31944122683886, -1.283, 0.713, -0.78], a = 0.2, v = 0.2, t = 0.1)
movej(p[0.412166298674009, 0.211802772090053, 0.319444696077505, -1.283, 0.713, -0.78], a = 0.2, v = 0.2, t = 0.1)
movej(p[0.412158601245109, 0.211800823835001, 0.319448434521642, -1.283, 0.713, -0.78], a = 0.2, v = 0.2, t = 0.1)
movej(p[0.412148890142047, 0.21180341131514, 0.319448603645446, -1.283, 0.713, -0.78], a = 0.2, v = 0.2, t = 0.1)
movej(p[0.412138176771686, 0.211807675206002, 0.319446632151034, -1.283, 0.713, -0.78], a = 0.2, v = 0.2, t = 0.1)
movej(p[0.412126436209126, 0.211810656397388, 0.319445029600037, -1.283, 0.713, -0.78], a = 0.2, v = 0.2, t = 0.1)
movej(p[0.412113331051551, 0.211811696367312, 0.319445178252248, -1.283, 0.713, -0.78], a = 0.2, v = 0.2, t = 0.1)
movej(p[0.41209801527104, 0.21180971212885, 0.31944461807452, -1.283, 0.713, -0.78], a = 0.2, v = 0.2, t = 0.1)
movej(p[0.412079774040261, 0.211805354709063, 0.319441782306292, -1.283, 0.713, -0.78], a = 0.2, v = 0.2, t = 0.1)
movej(p[0.412059469954288, 0.211799399444978, 0.319436126940921, -1.283, 0.713, -0.78], a = 0.2, v = 0.2, t = 0.1)
movej(p[0.412039875123605, 0.211792050265587, 0.319430108831767, -1.283, 0.713, -0.78], a = 0.2, v = 0.2, t = 0.1)
movej(p[0.412022579407864, 0.211783227657129, 0.319425090697748, -1.283, 0.713, -0.78], a = 0.2, v = 0.2, t = 0.1)
movej(p[0.41200792878502, 0.211774591730322, 0.319421817750691, -1.283, 0.713, -0.78], a = 0.2, v = 0.2, t = 0.1)
movej(p[0.411997182043287, 0.211767832805334, 0.31941950336111, -1.283, 0.713, -0.78], a = 0.2, v = 0.2, t = 0.1)
movej(p[0.411991427167317, 0.211762961501634, 0.319418532503843, -1.283, 0.713, -0.78], a = 0.2, v = 0.2, t = 0.1)
movej(p[0.41199036093167, 0.211759177374176, 0.31941958834802, -1.283, 0.713, -0.78], a = 0.2, v = 0.2, t = 0.1)
movej(p[0.411993030616989, 0.211756786009004, 0.319422743233107, -1.283, 0.713, -0.78], a = 0.2, v = 0.2, t = 0.1)
movej(p[0.411998557159632, 0.211756272585687, 0.319429021094598, -1.283, 0.713, -0.78], a = 0.2, v = 0.2, t = 0.1)
movej(p[0.412007910100279, 0.211759916882221, 0.319431142349187, -1.283, 0.713, -0.78], a = 0.2, v = 0.2, t = 0.1)
movej(p[0.412019222114351, 0.211766705746843, 0.319430482176649, -1.283, 0.713, -0.78], a = 0.2, v = 0.2, t = 0.1)
movej(p[0.412032318997465, 0.211775238985152, 0.319428415814956, -1.283, 0.713, -0.78], a = 0.2, v = 0.2, t = 0.1)
movej(p[0.412047808683511, 0.211782358071572, 0.319432122619341, -1.283, 0.713, -0.78], a = 0.2, v = 0.2, t = 0.1)
movej(p[0.412064343039388, 0.211787703570243, 0.319440234347499, -1.283, 0.713, -0.78], a = 0.2, v = 0.2, t = 0.1)
movej(p[0.412079388583171, 0.211791315747142, 0.319449761967313, -1.283, 0.713, -0.78], a = 0.2, v = 0.2, t = 0.1)
movej(p[0.412089061002456, 0.211794119147469, 0.31946029627307, -1.283, 0.713, -0.78], a = 0.2, v = 0.2, t = 0.1)
movej(p[0.412095477872324, 0.211797063426609, 0.319471166888436, -1.283, 0.713, -0.78], a = 0.2, v = 0.2, t = 0.1)
movej(p[0.412100773228272, 0.211800761902844, 0.319481355274173, -1.283, 0.713, -0.78], a = 0.2, v = 0.2, t = 0.1)
