movej(p[0.456814372655111, 0.0621033580446675, 0.418096792646594, -1.192, 0.952, -1.048], a = 0.2, v = 0.2, t = 0.1)
movej(p[0.456805704421686, 0.0621083296644454, 0.418097475978915, -1.192, 0.952, -1.048], a = 0.2, v = 0.2, t = 0.1)
movej(p[0.4567968369096, 0.0621109122824409, 0.418099121534962, -1.192, 0.952, -1.048], a = 0.2, v = 0.2, t = 0.1)
movej(p[0.456787559256502, 0.0621115484061912, 0.418102481855863, -1.192, 0.952, -1.048], a = 0.2, v = 0.2, t = 0.1)
movej(p[0.456776650606901, 0.0621115864673584, 0.418105550856392, -1.192, 0.952, -1.048], a = 0.2, v = 0.2, t = 0.1)
movej(p[0.456764012065847, 0.0621111810251157, 0.41810779203189, -1.192, 0.952, -1.048], a = 0.2, v = 0.2, t = 0.1)
movej(p[0.456749890675948, 0.0621109046286893, 0.418109546649602, -1.192, 0.952, -1.048], a = 0.2, v = 0.2, t = 0.1)
movej(p[0.456736288331975, 0.0621111645496747, 0.418112642610283, -1.192, 0.952, -1.048], a = 0.2, v = 0.2, t = 0.1)
movej(p[0.456724969768519, 0.06211207346621, 0.418117586694425, -1.192, 0.952, -1.048], a = 0.2, v = 0.2, t = 0.1)
movej(p[0.456716874730907, 0.0621139505555915, 0.418123830429086, -1.192, 0.952, -1.048], a = 0.2, v = 0.2, t = 0.1)
movej(p[0.456711577410961, 0.0621161353635777, 0.418128287969715, -1.192, 0.952, -1.048], a = 0.2, v = 0.2, t = 0.1)
movej(p[0.456708236214391, 0.0621184352769699, 0.41812947962607, -1.192, 0.952, -1.048], a = 0.2, v = 0.2, t = 0.1)
movej(p[0.456706709950181, 0.0621197480634503, 0.418126336732623, -1.192, 0.952, -1.048], a = 0.2, v = 0.2, t = 0.1)
movej(p[0.456706063742734, 0.0621207201322945, 0.418118870588364, -1.192, 0.952, -1.048], a = 0.2, v = 0.2, t = 0.1)
movej(p[0.456706545181263, 0.0621210477537085, 0.418109033745672, -1.192, 0.952, -1.048], a = 0.2, v = 0.2, t = 0.1)
movej(p[0.456707910664273, 0.0621194609420366, 0.418100444352104, -1.192, 0.952, -1.048], a = 0.2, v = 0.2, t = 0.1)
movej(p[0.45671129843257, 0.0621149025920159, 0.418094463343489, -1.192, 0.952, -1.048], a = 0.2, v = 0.2, t = 0.1)
movej(p[0.45671767102012, 0.0621081087671726, 0.418087585116761, -1.192, 0.952, -1.048], a = 0.2, v = 0.2, t = 0.1)
movej(p[0.456727789727704, 0.0621021569596828, 0.418077789051713, -1.192, 0.952, -1.048], a = 0.2, v = 0.2, t = 0.1)
movej(p[0.4567407853917, 0.0620984923048442, 0.418066896220711, -1.192, 0.952, -1.048], a = 0.2, v = 0.2, t = 0.1)
movej(p[0.456755940546279, 0.0620972527982819, 0.418056949996947, -1.192, 0.952, -1.048], a = 0.2, v = 0.2, t = 0.1)
movej(p[0.456772812927056, 0.0620984678323315, 0.418048042365772, -1.192, 0.952, -1.048], a = 0.2, v = 0.2, t = 0.1)
movej(p[0.456791383599273, 0.0621009998481975, 0.418040770806442, -1.192, 0.952, -1.048], a = 0.2, v = 0.2, t = 0.1)
movej(p[0.456810600194572, 0.062103566603832, 0.418036889250876, -1.192, 0.952, -1.048], a = 0.2, v = 0.2, t = 0.1)
movej(p[0.456828670713338, 0.0621048293265484, 0.418038376492916, -1.192, 0.952, -1.048], a = 0.2, v = 0.2, t = 0.1)
movej(p[0.456844685563095, 0.0621037495016176, 0.418045373761766, -1.192, 0.952, -1.048], a = 0.2, v = 0.2, t = 0.1)
movej(p[0.456859687140141, 0.0621008635825249, 0.418054418301064, -1.192, 0.952, -1.048], a = 0.2, v = 0.2, t = 0.1)
movej(p[0.456873499377363, 0.0620978160113995, 0.418062608657476, -1.192, 0.952, -1.048], a = 0.2, v = 0.2, t = 0.1)
movej(p[0.456885851106049, 0.0620962490114875, 0.418067877447066, -1.192, 0.952, -1.048], a = 0.2, v = 0.2, t = 0.1)
movej(p[0.456896131314818, 0.0620971021175995, 0.418070045481576, -1.192, 0.952, -1.048], a = 0.2, v = 0.2, t = 0.1)
movej(p[0.456904359948106, 0.062100039705671, 0.418067297738222, -1.192, 0.952, -1.048], a = 0.2, v = 0.2, t = 0.1)
movej(p[0.456910817204016, 0.0621044818410587, 0.418061390967081, -1.192, 0.952, -1.048], a = 0.2, v = 0.2, t = 0.1)
movej(p[0.456915194966207, 0.0621086828380339, 0.418055585990543, -1.192, 0.952, -1.048], a = 0.2, v = 0.2, t = 0.1)
movej(p[0.456918867253457, 0.0621121959772569, 0.418050045668156, -1.192, 0.952, -1.048], a = 0.2, v = 0.2, t = 0.1)
movej(p[0.456922286186486, 0.0621157506737765, 0.418045603346511, -1.192, 0.952, -1.048], a = 0.2, v = 0.2, t = 0.1)
movej(p[0.456925293112218, 0.0621186690010701, 0.418044109377151, -1.192, 0.952, -1.048], a = 0.2, v = 0.2, t = 0.1)
movej(p[0.456927519254949, 0.0621209615477441, 0.418047206917512, -1.192, 0.952, -1.048], a = 0.2, v = 0.2, t = 0.1)
movej(p[0.456928461655044, 0.062122589728823, 0.418051571688003, -1.192, 0.952, -1.048], a = 0.2, v = 0.2, t = 0.1)
movej(p[0.456929752037664, 0.0621244506903023, 0.418053960614763, -1.192, 0.952, -1.048], a = 0.2, v = 0.2, t = 0.1)
movej(p[0.456931923370498, 0.0621253690362382, 0.41805310954281, -1.192, 0.952, -1.048], a = 0.2, v = 0.2, t = 0.1)
movej(p[0.456934963832195, 0.0621247755889879, 0.418050937954905, -1.192, 0.952, -1.048], a = 0.2, v = 0.2, t = 0.1)
movej(p[0.456938347650796, 0.0621232636742136, 0.418048664757731, -1.192, 0.952, -1.048], a = 0.2, v = 0.2, t = 0.1)
movej(p[0.456942300855392, 0.062120932956656, 0.418044170812128, -1.192, 0.952, -1.048], a = 0.2, v = 0.2, t = 0.1)
movej(p[0.456947646262095, 0.0621179838042698, 0.418037160516458, -1.192, 0.952, -1.048], a = 0.2, v = 0.2, t = 0.1)
movej(p[0.45695510777492, 0.062115341116368, 0.418025929621257, -1.192, 0.952, -1.048], a = 0.2, v = 0.2, t = 0.1)
movej(p[0.456964031622128, 0.0621135174083961, 0.418013870732077, -1.192, 0.952, -1.048], a = 0.2, v = 0.2, t = 0.1)
movej(p[0.456974277233098, 0.0621119002327282, 0.418001249694374, -1.192, 0.952, -1.048], a = 0.2, v = 0.2, t = 0.1)
movej(p[0.456983619602732, 0.0621103244130964, 0.41799041012482, -1.192, 0.952, -1.048], a = 0.2, v = 0.2, t = 0.1)
movej(p[0.45699087804988, 0.0621083253232275, 0.417982963206351, -1.192, 0.952, -1.048], a = 0.2, v = 0.2, t = 0.1)
movej(p[0.456995540344041, 0.0621077238672134, 0.417979966281957, -1.192, 0.952, -1.048], a = 0.2, v = 0.2, t = 0.1)
movej(p[0.456999545556852, 0.0621083707704377, 0.417979897379474, -1.192, 0.952, -1.048], a = 0.2, v = 0.2, t = 0.1)
movej(p[0.457003475403586, 0.0621103137228431, 0.417980716067817, -1.192, 0.952, -1.048], a = 0.2, v = 0.2, t = 0.1)
movej(p[0.457006226179229, 0.0621122598078659, 0.417978922598709, -1.192, 0.952, -1.048], a = 0.2, v = 0.2, t = 0.1)
movej(p[0.457006149410271, 0.0621131566053334, 0.417973323281712, -1.192, 0.952, -1.048], a = 0.2, v = 0.2, t = 0.1)
movej(p[0.457002808604851, 0.0621133219742227, 0.417964131624502, -1.192, 0.952, -1.048], a = 0.2, v = 0.2, t = 0.1)
movej(p[0.456997020502465, 0.0621135138747674, 0.41795352041397, -1.192, 0.952, -1.048], a = 0.2, v = 0.2, t = 0.1)
movej(p[0.456990464694777, 0.0621147721563845, 0.417941368130442, -1.192, 0.952, -1.048], a = 0.2, v = 0.2, t = 0.1)
movej(p[0.456984141629774, 0.062117388696851, 0.417929508115183, -1.192, 0.952, -1.048], a = 0.2, v = 0.2, t = 0.1)
movej(p[0.456977841746871, 0.0621206094091651, 0.417919366934404, -1.192, 0.952, -1.048], a = 0.2, v = 0.2, t = 0.1)
movej(p[0.45697112224401, 0.0621221564113, 0.417912458195322, -1.192, 0.952, -1.048], a = 0.2, v = 0.2, t = 0.1)
movej(p[0.456964281282692, 0.0621219406753273, 0.417905198337731, -1.192, 0.952, -1.048], a = 0.2, v = 0.2, t = 0.1)
movej(p[0.456958565641615, 0.0621198607069314, 0.417894700629955, -1.192, 0.952, -1.048], a = 0.2, v = 0.2, t = 0.1)
movej(p[0.456956383608929, 0.0621174136695069, 0.417879914404128, -1.192, 0.952, -1.048], a = 0.2, v = 0.2, t = 0.1)
movej(p[0.456959315807669, 0.0621147450523609, 0.417864903144185, -1.192, 0.952, -1.048], a = 0.2, v = 0.2, t = 0.1)
movej(p[0.456967455654695, 0.0621121237274624, 0.417854053419988, -1.192, 0.952, -1.048], a = 0.2, v = 0.2, t = 0.1)
movej(p[0.456978113432535, 0.0621096085017091, 0.417849390230959, -1.192, 0.952, -1.048], a = 0.2, v = 0.2, t = 0.1)
movej(p[0.45698947841106, 0.0621072423138298, 0.417848462703036, -1.192, 0.952, -1.048], a = 0.2, v = 0.2, t = 0.1)
movej(p[0.457000121483041, 0.0621032071921756, 0.417849412640425, -1.192, 0.952, -1.048], a = 0.2, v = 0.2, t = 0.1)
movej(p[0.457010369942898, 0.0620980879183357, 0.41785183587626, -1.192, 0.952, -1.048], a = 0.2, v = 0.2, t = 0.1)
movej(p[0.457020455132202, 0.0620932292685477, 0.4178577456661, -1.192, 0.952, -1.048], a = 0.2, v = 0.2, t = 0.1)
movej(p[0.457031048690727, 0.0620917422825565, 0.417867264471037, -1.192, 0.952, -1.048], a = 0.2, v = 0.2, t = 0.1)
movej(p[0.457041588522196, 0.0620929381978194, 0.417881632349109, -1.192, 0.952, -1.048], a = 0.2, v = 0.2, t = 0.1)
movej(p[0.457053467651691, 0.0620949142637887, 0.417897645895335, -1.192, 0.952, -1.048], a = 0.2, v = 0.2, t = 0.1)
movej(p[0.457066691503537, 0.0620961290630115, 0.417913640766957, -1.192, 0.952, -1.048], a = 0.2, v = 0.2, t = 0.1)
movej(p[0.457081167847418, 0.0620957785221651, 0.417928550548644, -1.192, 0.952, -1.048], a = 0.2, v = 0.2, t = 0.1)
movej(p[0.457095204803063, 0.0620941737047184, 0.417942307367977, -1.192, 0.952, -1.048], a = 0.2, v = 0.2, t = 0.1)
movej(p[0.45710799541334, 0.0620886546647022, 0.417953248706197, -1.192, 0.952, -1.048], a = 0.2, v = 0.2, t = 0.1)
movej(p[0.457118877352447, 0.0620770087001557, 0.417961274540488, -1.192, 0.952, -1.048], a = 0.2, v = 0.2, t = 0.1)
movej(p[0.457126413843012, 0.0620603883576161, 0.417965271862195, -1.192, 0.952, -1.048], a = 0.2, v = 0.2, t = 0.1)
movej(p[0.457129522695587, 0.0620423800497294, 0.417965933750193, -1.192, 0.952, -1.048], a = 0.2, v = 0.2, t = 0.1)
movej(p[0.457127986558946, 0.0620259303736683, 0.417964631291478, -1.192, 0.952, -1.048], a = 0.2, v = 0.2, t = 0.1)
movej(p[0.457122449310166, 0.0620114873585529, 0.41796225436987, -1.192, 0.952, -1.048], a = 0.2, v = 0.2, t = 0.1)
movej(p[0.457113983873291, 0.0619985190496796, 0.417956618273217, -1.192, 0.952, -1.048], a = 0.2, v = 0.2, t = 0.1)
movej(p[0.457102656302766, 0.0619856597294193, 0.417948048272433, -1.192, 0.952, -1.048], a = 0.2, v = 0.2, t = 0.1)
movej(p[0.457088672567218, 0.0619723679655822, 0.417938404430449, -1.192, 0.952, -1.048], a = 0.2, v = 0.2, t = 0.1)
movej(p[0.457070691080631, 0.0619580341247113, 0.417928795846004, -1.192, 0.952, -1.048], a = 0.2, v = 0.2, t = 0.1)
movej(p[0.457047810497459, 0.0619418440239758, 0.417918329906349, -1.192, 0.952, -1.048], a = 0.2, v = 0.2, t = 0.1)
movej(p[0.457020664857701, 0.0619247343927842, 0.417907374427052, -1.192, 0.952, -1.048], a = 0.2, v = 0.2, t = 0.1)
movej(p[0.456990165693858, 0.0619078510731827, 0.417897960170411, -1.192, 0.952, -1.048], a = 0.2, v = 0.2, t = 0.1)
movej(p[0.456957517937786, 0.0618940991338521, 0.417890699230522, -1.192, 0.952, -1.048], a = 0.2, v = 0.2, t = 0.1)
movej(p[0.456925636979577, 0.0618841160058738, 0.417884080471313, -1.192, 0.952, -1.048], a = 0.2, v = 0.2, t = 0.1)
movej(p[0.456897031838655, 0.0618786309263137, 0.417876294299784, -1.192, 0.952, -1.048], a = 0.2, v = 0.2, t = 0.1)
movej(p[0.456871619809172, 0.0618766825090058, 0.417867401274848, -1.192, 0.952, -1.048], a = 0.2, v = 0.2, t = 0.1)
movej(p[0.456849345092563, 0.0618763757697795, 0.417859215242838, -1.192, 0.952, -1.048], a = 0.2, v = 0.2, t = 0.1)
movej(p[0.456832895583642, 0.0618766876655569, 0.417852827788081, -1.192, 0.952, -1.048], a = 0.2, v = 0.2, t = 0.1)
movej(p[0.456824301486719, 0.0618768931674454, 0.41784743838477, -1.192, 0.952, -1.048], a = 0.2, v = 0.2, t = 0.1)
movej(p[0.456821917778595, 0.0618764495694565, 0.417844658074463, -1.192, 0.952, -1.048], a = 0.2, v = 0.2, t = 0.1)
movej(p[0.456823134323314, 0.061875277672783, 0.417844003754866, -1.192, 0.952, -1.048], a = 0.2, v = 0.2, t = 0.1)
movej(p[0.456826441539809, 0.0618754535413437, 0.417844276427393, -1.192, 0.952, -1.048], a = 0.2, v = 0.2, t = 0.1)
movej(p[0.456831663027113, 0.0618786213373302, 0.417844278405362, -1.192, 0.952, -1.048], a = 0.2, v = 0.2, t = 0.1)
movej(p[0.456838777410842, 0.0618842330070128, 0.417846350218466, -1.192, 0.952, -1.048], a = 0.2, v = 0.2, t = 0.1)
movej(p[0.456847501075559, 0.0618901736264886, 0.417850748109113, -1.192, 0.952, -1.048], a = 0.2, v = 0.2, t = 0.1)
movej(p[0.456856407219609, 0.0618955316595039, 0.417856966318773, -1.192, 0.952, -1.048], a = 0.2, v = 0.2, t = 0.1)
movej(p[0.456864758243346, 0.0619007917045234, 0.417862778378472, -1.192, 0.952, -1.048], a = 0.2, v = 0.2, t = 0.1)
movej(p[0.45687243071171, 0.0619062995993816, 0.417866325254058, -1.192, 0.952, -1.048], a = 0.2, v = 0.2, t = 0.1)
movej(p[0.45688057318197, 0.0619110961764218, 0.417865535258632, -1.192, 0.952, -1.048], a = 0.2, v = 0.2, t = 0.1)
movej(p[0.456890143437955, 0.0619153328059797, 0.41785881511188, -1.192, 0.952, -1.048], a = 0.2, v = 0.2, t = 0.1)
movej(p[0.456901128657949, 0.0619197377873298, 0.417844518638609, -1.192, 0.952, -1.048], a = 0.2, v = 0.2, t = 0.1)
movej(p[0.456912564825458, 0.0619249486112319, 0.417825540837736, -1.192, 0.952, -1.048], a = 0.2, v = 0.2, t = 0.1)
movej(p[0.456922044635503, 0.0619297067258602, 0.417807245188453, -1.192, 0.952, -1.048], a = 0.2, v = 0.2, t = 0.1)
movej(p[0.45692794505465, 0.061933168555007, 0.417792749945825, -1.192, 0.952, -1.048], a = 0.2, v = 0.2, t = 0.1)
movej(p[0.456928692511928, 0.0619345289676385, 0.41778078597612, -1.192, 0.952, -1.048], a = 0.2, v = 0.2, t = 0.1)
movej(p[0.456922641327883, 0.0619326562511659, 0.417769549397207, -1.192, 0.952, -1.048], a = 0.2, v = 0.2, t = 0.1)
movej(p[0.456910085882419, 0.0619268494717953, 0.417757630852391, -1.192, 0.952, -1.048], a = 0.2, v = 0.2, t = 0.1)
movej(p[0.456893074600142, 0.0619168045964716, 0.41774597909587, -1.192, 0.952, -1.048], a = 0.2, v = 0.2, t = 0.1)
movej(p[0.456874435669193, 0.0619050008687314, 0.417733078333354, -1.192, 0.952, -1.048], a = 0.2, v = 0.2, t = 0.1)
movej(p[0.456855184013494, 0.0618939359512247, 0.41771974450523, -1.192, 0.952, -1.048], a = 0.2, v = 0.2, t = 0.1)
movej(p[0.456835263389682, 0.0618869325012423, 0.417705793874696, -1.192, 0.952, -1.048], a = 0.2, v = 0.2, t = 0.1)
movej(p[0.456813481646978, 0.0618846160811595, 0.417691863047773, -1.192, 0.952, -1.048], a = 0.2, v = 0.2, t = 0.1)
movej(p[0.456789879152659, 0.0618850500836098, 0.417678365986285, -1.192, 0.952, -1.048], a = 0.2, v = 0.2, t = 0.1)
movej(p[0.456765023203712, 0.0618858450945081, 0.417667975808347, -1.192, 0.952, -1.048], a = 0.2, v = 0.2, t = 0.1)
movej(p[0.456740524758077, 0.0618861967538845, 0.41766199174625, -1.192, 0.952, -1.048], a = 0.2, v = 0.2, t = 0.1)
movej(p[0.456718016969425, 0.0618874434612361, 0.417661073209486, -1.192, 0.952, -1.048], a = 0.2, v = 0.2, t = 0.1)
movej(p[0.456699957816971, 0.0618914501786317, 0.41766174156892, -1.192, 0.952, -1.048], a = 0.2, v = 0.2, t = 0.1)
movej(p[0.456687560187362, 0.0618983739444344, 0.417662371553211, -1.192, 0.952, -1.048], a = 0.2, v = 0.2, t = 0.1)
movej(p[0.4566798793071, 0.0619065422120142, 0.417664462850929, -1.192, 0.952, -1.048], a = 0.2, v = 0.2, t = 0.1)
movej(p[0.456675335083135, 0.0619126039153209, 0.417669182004092, -1.192, 0.952, -1.048], a = 0.2, v = 0.2, t = 0.1)
movej(p[0.456673027001496, 0.0619161950661136, 0.417674800348433, -1.192, 0.952, -1.048], a = 0.2, v = 0.2, t = 0.1)
movej(p[0.456673479711514, 0.0619185303313115, 0.417678760300843, -1.192, 0.952, -1.048], a = 0.2, v = 0.2, t = 0.1)
movej(p[0.456677798667363, 0.0619198704198703, 0.417680772317003, -1.192, 0.952, -1.048], a = 0.2, v = 0.2, t = 0.1)
movej(p[0.456685536637773, 0.0619209596990039, 0.417681079031705, -1.192, 0.952, -1.048], a = 0.2, v = 0.2, t = 0.1)
movej(p[0.456695725428747, 0.0619225537938799, 0.417682114905255, -1.192, 0.952, -1.048], a = 0.2, v = 0.2, t = 0.1)
movej(p[0.456705692403683, 0.061925017920107, 0.417685489949191, -1.192, 0.952, -1.048], a = 0.2, v = 0.2, t = 0.1)
movej(p[0.456714882081663, 0.0619274365074064, 0.417691335818424, -1.192, 0.952, -1.048], a = 0.2, v = 0.2, t = 0.1)
movej(p[0.456723974115031, 0.0619297736004705, 0.417697496765774, -1.192, 0.952, -1.048], a = 0.2, v = 0.2, t = 0.1)
movej(p[0.456733398062579, 0.0619331210059914, 0.417704212109838, -1.192, 0.952, -1.048], a = 0.2, v = 0.2, t = 0.1)
movej(p[0.456744816696126, 0.0619384360055803, 0.417712004205658, -1.192, 0.952, -1.048], a = 0.2, v = 0.2, t = 0.1)
movej(p[0.456758678695109, 0.0619452689110968, 0.417719258930148, -1.192, 0.952, -1.048], a = 0.2, v = 0.2, t = 0.1)
movej(p[0.456774204778376, 0.061952015258407, 0.417721450265439, -1.192, 0.952, -1.048], a = 0.2, v = 0.2, t = 0.1)
movej(p[0.456790042162979, 0.0619559051654818, 0.417717337629072, -1.192, 0.952, -1.048], a = 0.2, v = 0.2, t = 0.1)
movej(p[0.456805335650189, 0.0619568458578836, 0.417709598413817, -1.192, 0.952, -1.048], a = 0.2, v = 0.2, t = 0.1)
movej(p[0.456820544255388, 0.061956406938894, 0.417702262020424, -1.192, 0.952, -1.048], a = 0.2, v = 0.2, t = 0.1)
movej(p[0.456834063703368, 0.0619543852575962, 0.417696314456886, -1.192, 0.952, -1.048], a = 0.2, v = 0.2, t = 0.1)
movej(p[0.456844459057833, 0.0619479630887912, 0.417691709327855, -1.192, 0.952, -1.048], a = 0.2, v = 0.2, t = 0.1)
movej(p[0.456851687734929, 0.0619384066012061, 0.417687331771291, -1.192, 0.952, -1.048], a = 0.2, v = 0.2, t = 0.1)
movej(p[0.456856174146118, 0.0619282052524922, 0.417683010391412, -1.192, 0.952, -1.048], a = 0.2, v = 0.2, t = 0.1)
movej(p[0.45685779489406, 0.0619190622643311, 0.417676761253744, -1.192, 0.952, -1.048], a = 0.2, v = 0.2, t = 0.1)
movej(p[0.456854265899154, 0.0619104812568084, 0.41766910354646, -1.192, 0.952, -1.048], a = 0.2, v = 0.2, t = 0.1)
movej(p[0.456844872174215, 0.0619023207099888, 0.417660415332295, -1.192, 0.952, -1.048], a = 0.2, v = 0.2, t = 0.1)
movej(p[0.456831260689011, 0.0618946913900887, 0.417649784807312, -1.192, 0.952, -1.048], a = 0.2, v = 0.2, t = 0.1)
movej(p[0.456815205429302, 0.0618885606246392, 0.417637679934092, -1.192, 0.952, -1.048], a = 0.2, v = 0.2, t = 0.1)
movej(p[0.456797721177471, 0.0618856841741269, 0.417623821963954, -1.192, 0.952, -1.048], a = 0.2, v = 0.2, t = 0.1)
movej(p[0.456779842140873, 0.0618869188194147, 0.417611300652827, -1.192, 0.952, -1.048], a = 0.2, v = 0.2, t = 0.1)
movej(p[0.456763789869829, 0.0618907036122815, 0.417599827177535, -1.192, 0.952, -1.048], a = 0.2, v = 0.2, t = 0.1)
movej(p[0.456750412412507, 0.0618954932127531, 0.417588604266062, -1.192, 0.952, -1.048], a = 0.2, v = 0.2, t = 0.1)
movej(p[0.456740890122028, 0.0618993583292497, 0.417576917190829, -1.192, 0.952, -1.048], a = 0.2, v = 0.2, t = 0.1)
movej(p[0.456734592312959, 0.0619015738464168, 0.417562881435822, -1.192, 0.952, -1.048], a = 0.2, v = 0.2, t = 0.1)
movej(p[0.456730105224214, 0.0619007150442529, 0.417548296762276, -1.192, 0.952, -1.048], a = 0.2, v = 0.2, t = 0.1)
movej(p[0.456727202963973, 0.0618976555159664, 0.417533199677619, -1.192, 0.952, -1.048], a = 0.2, v = 0.2, t = 0.1)
movej(p[0.456726011327693, 0.0618931027468961, 0.417517856313393, -1.192, 0.952, -1.048], a = 0.2, v = 0.2, t = 0.1)
movej(p[0.456727232754706, 0.0618882938735748, 0.41750210832446, -1.192, 0.952, -1.048], a = 0.2, v = 0.2, t = 0.1)
movej(p[0.45673162787334, 0.0618839758138796, 0.417487937234535, -1.192, 0.952, -1.048], a = 0.2, v = 0.2, t = 0.1)
movej(p[0.456739752241395, 0.0618807090994597, 0.417478964479907, -1.192, 0.952, -1.048], a = 0.2, v = 0.2, t = 0.1)
movej(p[0.456750459893561, 0.0618791253351857, 0.417474435723256, -1.192, 0.952, -1.048], a = 0.2, v = 0.2, t = 0.1)
movej(p[0.456761514165339, 0.0618787283172283, 0.417472751237517, -1.192, 0.952, -1.048], a = 0.2, v = 0.2, t = 0.1)
movej(p[0.456770451337115, 0.0618787086382703, 0.41747298377652, -1.192, 0.952, -1.048], a = 0.2, v = 0.2, t = 0.1)
movej(p[0.45677822701754, 0.0618778374790376, 0.417472782102229, -1.192, 0.952, -1.048], a = 0.2, v = 0.2, t = 0.1)
movej(p[0.456785678423918, 0.061875965786956, 0.417470206660183, -1.192, 0.952, -1.048], a = 0.2, v = 0.2, t = 0.1)
movej(p[0.456791652075958, 0.0618745118548484, 0.417465727827552, -1.192, 0.952, -1.048], a = 0.2, v = 0.2, t = 0.1)
movej(p[0.456795788416765, 0.0618746653067827, 0.417461445438238, -1.192, 0.952, -1.048], a = 0.2, v = 0.2, t = 0.1)
movej(p[0.456799650489378, 0.0618761104284954, 0.417458705313539, -1.192, 0.952, -1.048], a = 0.2, v = 0.2, t = 0.1)
movej(p[0.456806446533955, 0.0618772032777219, 0.417455935362516, -1.192, 0.952, -1.048], a = 0.2, v = 0.2, t = 0.1)
movej(p[0.45681620683066, 0.0618774175805063, 0.417452774628336, -1.192, 0.952, -1.048], a = 0.2, v = 0.2, t = 0.1)
movej(p[0.456826646502471, 0.0618771874996739, 0.417449394042695, -1.192, 0.952, -1.048], a = 0.2, v = 0.2, t = 0.1)
movej(p[0.456834192795913, 0.0618782144918304, 0.417447543640739, -1.192, 0.952, -1.048], a = 0.2, v = 0.2, t = 0.1)
movej(p[0.45683901478762, 0.0618809984011096, 0.417446961163181, -1.192, 0.952, -1.048], a = 0.2, v = 0.2, t = 0.1)
movej(p[0.456842523310257, 0.0618846089175616, 0.417447946549324, -1.192, 0.952, -1.048], a = 0.2, v = 0.2, t = 0.1)
movej(p[0.45684546213994, 0.061887154696721, 0.417448081595868, -1.192, 0.952, -1.048], a = 0.2, v = 0.2, t = 0.1)
movej(p[0.456846939821658, 0.061887796232391, 0.417446577299447, -1.192, 0.952, -1.048], a = 0.2, v = 0.2, t = 0.1)
movej(p[0.456846229463753, 0.0618863685637762, 0.417443903694582, -1.192, 0.952, -1.048], a = 0.2, v = 0.2, t = 0.1)
movej(p[0.456843684597503, 0.0618832896573979, 0.417440590238187, -1.192, 0.952, -1.048], a = 0.2, v = 0.2, t = 0.1)
movej(p[0.456839499059776, 0.0618775490792386, 0.417436642530708, -1.192, 0.952, -1.048], a = 0.2, v = 0.2, t = 0.1)
movej(p[0.456832594340178, 0.0618708228537813, 0.417431517442087, -1.192, 0.952, -1.048], a = 0.2, v = 0.2, t = 0.1)
movej(p[0.456821824269875, 0.0618634408251818, 0.417428470343399, -1.192, 0.952, -1.048], a = 0.2, v = 0.2, t = 0.1)
movej(p[0.456807355133238, 0.0618560160271684, 0.417430420125043, -1.192, 0.952, -1.048], a = 0.2, v = 0.2, t = 0.1)
movej(p[0.456792276431577, 0.0618493918293967, 0.417438000331246, -1.192, 0.952, -1.048], a = 0.2, v = 0.2, t = 0.1)
movej(p[0.456778750209078, 0.0618439579256201, 0.41744806906104, -1.192, 0.952, -1.048], a = 0.2, v = 0.2, t = 0.1)
movej(p[0.456767087675154, 0.0618396615752092, 0.417458747395817, -1.192, 0.952, -1.048], a = 0.2, v = 0.2, t = 0.1)
movej(p[0.456756264213031, 0.0618341514326565, 0.417470191219423, -1.192, 0.952, -1.048], a = 0.2, v = 0.2, t = 0.1)
movej(p[0.456744365719501, 0.0618272015297468, 0.417483236143772, -1.192, 0.952, -1.048], a = 0.2, v = 0.2, t = 0.1)
movej(p[0.456730211611441, 0.061818730788907, 0.41749831999065, -1.192, 0.952, -1.048], a = 0.2, v = 0.2, t = 0.1)
movej(p[0.456714387558779, 0.0618097799378901, 0.417513738842372, -1.192, 0.952, -1.048], a = 0.2, v = 0.2, t = 0.1)
movej(p[0.456698297361155, 0.0618016141446071, 0.41752855091142, -1.192, 0.952, -1.048], a = 0.2, v = 0.2, t = 0.1)
movej(p[0.45668372059036, 0.0617951359390106, 0.41754215291434, -1.192, 0.952, -1.048], a = 0.2, v = 0.2, t = 0.1)
movej(p[0.456670779074142, 0.0617900952849022, 0.41755491271646, -1.192, 0.952, -1.048], a = 0.2, v = 0.2, t = 0.1)
movej(p[0.456661355643215, 0.0617873819220716, 0.417565655472424, -1.192, 0.952, -1.048], a = 0.2, v = 0.2, t = 0.1)
movej(p[0.456657298908233, 0.061787486783915, 0.417574037442436, -1.192, 0.952, -1.048], a = 0.2, v = 0.2, t = 0.1)
movej(p[0.456659757852053, 0.0617899392741785, 0.417580815226499, -1.192, 0.952, -1.048], a = 0.2, v = 0.2, t = 0.1)
movej(p[0.456667855634546, 0.0617933252218667, 0.417587119174463, -1.192, 0.952, -1.048], a = 0.2, v = 0.2, t = 0.1)
movej(p[0.4566798726829, 0.0617965725593164, 0.417592621807683, -1.192, 0.952, -1.048], a = 0.2, v = 0.2, t = 0.1)
movej(p[0.456693868698979, 0.0617990391066721, 0.417596872080504, -1.192, 0.952, -1.048], a = 0.2, v = 0.2, t = 0.1)
movej(p[0.456708737747201, 0.0618009417661984, 0.417598913197288, -1.192, 0.952, -1.048], a = 0.2, v = 0.2, t = 0.1)
movej(p[0.456722885198409, 0.0618019531754321, 0.417600893513843, -1.192, 0.952, -1.048], a = 0.2, v = 0.2, t = 0.1)
movej(p[0.456736172390281, 0.0618029040327995, 0.417604496791995, -1.192, 0.952, -1.048], a = 0.2, v = 0.2, t = 0.1)
movej(p[0.45674730692839, 0.0618030389547129, 0.417611018895272, -1.192, 0.952, -1.048], a = 0.2, v = 0.2, t = 0.1)
movej(p[0.456755950984775, 0.0618031229753726, 0.417618925498763, -1.192, 0.952, -1.048], a = 0.2, v = 0.2, t = 0.1)
movej(p[0.456762236861874, 0.061804297048977, 0.417626109064191, -1.192, 0.952, -1.048], a = 0.2, v = 0.2, t = 0.1)
movej(p[0.456767826525653, 0.0618078065224033, 0.417631749044609, -1.192, 0.952, -1.048], a = 0.2, v = 0.2, t = 0.1)
movej(p[0.456773802833646, 0.0618118545199446, 0.417637184073742, -1.192, 0.952, -1.048], a = 0.2, v = 0.2, t = 0.1)
movej(p[0.456780961722432, 0.0618126048349034, 0.417643907318406, -1.192, 0.952, -1.048], a = 0.2, v = 0.2, t = 0.1)
movej(p[0.456788957802143, 0.061809477572128, 0.417651827447053, -1.192, 0.952, -1.048], a = 0.2, v = 0.2, t = 0.1)
movej(p[0.456798449972309, 0.0618046549735748, 0.41765992177085, -1.192, 0.952, -1.048], a = 0.2, v = 0.2, t = 0.1)
movej(p[0.456808120587385, 0.0618005782466343, 0.417668808861291, -1.192, 0.952, -1.048], a = 0.2, v = 0.2, t = 0.1)
movej(p[0.456817722955415, 0.0617971522701646, 0.41768027453277, -1.192, 0.952, -1.048], a = 0.2, v = 0.2, t = 0.1)
movej(p[0.456827341733899, 0.0617942061260892, 0.417693754333233, -1.192, 0.952, -1.048], a = 0.2, v = 0.2, t = 0.1)
movej(p[0.456837231661865, 0.0617899672729011, 0.41770899005998, -1.192, 0.952, -1.048], a = 0.2, v = 0.2, t = 0.1)
movej(p[0.456847209966667, 0.0617849047985401, 0.417724254259488, -1.192, 0.952, -1.048], a = 0.2, v = 0.2, t = 0.1)
movej(p[0.456856677376457, 0.0617797675290752, 0.41773789176235, -1.192, 0.952, -1.048], a = 0.2, v = 0.2, t = 0.1)
movej(p[0.456864987472002, 0.0617755451071036, 0.417746002598603, -1.192, 0.952, -1.048], a = 0.2, v = 0.2, t = 0.1)
movej(p[0.456871731039976, 0.061772850641724, 0.417746631552739, -1.192, 0.952, -1.048], a = 0.2, v = 0.2, t = 0.1)
movej(p[0.456875208438618, 0.0617719457981789, 0.41774174769946, -1.192, 0.952, -1.048], a = 0.2, v = 0.2, t = 0.1)
movej(p[0.456874443787524, 0.0617735132192337, 0.417735331448456, -1.192, 0.952, -1.048], a = 0.2, v = 0.2, t = 0.1)
movej(p[0.456870539531263, 0.0617763083995846, 0.417728056514446, -1.192, 0.952, -1.048], a = 0.2, v = 0.2, t = 0.1)
movej(p[0.456865121586696, 0.0617795026898555, 0.41771849512729, -1.192, 0.952, -1.048], a = 0.2, v = 0.2, t = 0.1)
movej(p[0.456858613708876, 0.061783252919564, 0.417707117700806, -1.192, 0.952, -1.048], a = 0.2, v = 0.2, t = 0.1)
movej(p[0.456849378349453, 0.061787249314609, 0.41769666597229, -1.192, 0.952, -1.048], a = 0.2, v = 0.2, t = 0.1)
movej(p[0.456836759267484, 0.0617905813605973, 0.417687847023328, -1.192, 0.952, -1.048], a = 0.2, v = 0.2, t = 0.1)
movej(p[0.456822331027061, 0.061792144020635, 0.417678515232241, -1.192, 0.952, -1.048], a = 0.2, v = 0.2, t = 0.1)
movej(p[0.45680843253799, 0.0617912530972743, 0.417666264125307, -1.192, 0.952, -1.048], a = 0.2, v = 0.2, t = 0.1)
movej(p[0.456794870968778, 0.0617881477412327, 0.417651680418769, -1.192, 0.952, -1.048], a = 0.2, v = 0.2, t = 0.1)
movej(p[0.456781019526649, 0.0617841107035076, 0.417634519452265, -1.192, 0.952, -1.048], a = 0.2, v = 0.2, t = 0.1)
movej(p[0.456765903637265, 0.0617793924494494, 0.417613851683451, -1.192, 0.952, -1.048], a = 0.2, v = 0.2, t = 0.1)
movej(p[0.456749579036537, 0.0617744899107512, 0.41759056257966, -1.192, 0.952, -1.048], a = 0.2, v = 0.2, t = 0.1)
movej(p[0.456732165056813, 0.0617700079745449, 0.417566254606913, -1.192, 0.952, -1.048], a = 0.2, v = 0.2, t = 0.1)
movej(p[0.456713475693152, 0.0617681803197837, 0.417544873845608, -1.192, 0.952, -1.048], a = 0.2, v = 0.2, t = 0.1)
movej(p[0.456694292042818, 0.0617683667859897, 0.417527207130939, -1.192, 0.952, -1.048], a = 0.2, v = 0.2, t = 0.1)
movej(p[0.456674086464964, 0.061769295151481, 0.417515323616386, -1.192, 0.952, -1.048], a = 0.2, v = 0.2, t = 0.1)
movej(p[0.456651340995601, 0.061769031908966, 0.417511841815438, -1.192, 0.952, -1.048], a = 0.2, v = 0.2, t = 0.1)
movej(p[0.456627715005927, 0.0617685018986304, 0.417516435801938, -1.192, 0.952, -1.048], a = 0.2, v = 0.2, t = 0.1)
movej(p[0.456605767246986, 0.0617687938474762, 0.417524973496555, -1.192, 0.952, -1.048], a = 0.2, v = 0.2, t = 0.1)
movej(p[0.456589076364744, 0.0617698304693118, 0.417532444919856, -1.192, 0.952, -1.048], a = 0.2, v = 0.2, t = 0.1)
movej(p[0.456578427134009, 0.0617713303381365, 0.417537836635655, -1.192, 0.952, -1.048], a = 0.2, v = 0.2, t = 0.1)
movej(p[0.456573428444643, 0.0617732649545817, 0.417543108636209, -1.192, 0.952, -1.048], a = 0.2, v = 0.2, t = 0.1)
movej(p[0.456570966258522, 0.0617755452710373, 0.417551172593387, -1.192, 0.952, -1.048], a = 0.2, v = 0.2, t = 0.1)
movej(p[0.456570333877043, 0.0617788486159163, 0.417562900386371, -1.192, 0.952, -1.048], a = 0.2, v = 0.2, t = 0.1)
movej(p[0.456571625942958, 0.0617829533385981, 0.417578509929714, -1.192, 0.952, -1.048], a = 0.2, v = 0.2, t = 0.1)
movej(p[0.45657507735304, 0.0617867278316028, 0.417597160514182, -1.192, 0.952, -1.048], a = 0.2, v = 0.2, t = 0.1)
movej(p[0.456580966519687, 0.0617888682792805, 0.417616956349626, -1.192, 0.952, -1.048], a = 0.2, v = 0.2, t = 0.1)
movej(p[0.456589287597681, 0.0617895728345715, 0.417636231406562, -1.192, 0.952, -1.048], a = 0.2, v = 0.2, t = 0.1)
movej(p[0.456599445394886, 0.0617903110960978, 0.417652742760287, -1.192, 0.952, -1.048], a = 0.2, v = 0.2, t = 0.1)
movej(p[0.456609957021636, 0.0617931429110711, 0.417667627352624, -1.192, 0.952, -1.048], a = 0.2, v = 0.2, t = 0.1)
movej(p[0.456619417824041, 0.0617983696887466, 0.417683381390677, -1.192, 0.952, -1.048], a = 0.2, v = 0.2, t = 0.1)
movej(p[0.456627695982469, 0.0618057907403784, 0.417700826196314, -1.192, 0.952, -1.048], a = 0.2, v = 0.2, t = 0.1)
movej(p[0.456633716005085, 0.0618136460051251, 0.417718640021773, -1.192, 0.952, -1.048], a = 0.2, v = 0.2, t = 0.1)
movej(p[0.456637028779431, 0.0618211722384134, 0.417734585772794, -1.192, 0.952, -1.048], a = 0.2, v = 0.2, t = 0.1)
movej(p[0.456639369365217, 0.0618280186274092, 0.417747462337743, -1.192, 0.952, -1.048], a = 0.2, v = 0.2, t = 0.1)
movej(p[0.456641482012666, 0.0618328313330209, 0.417758604394979, -1.192, 0.952, -1.048], a = 0.2, v = 0.2, t = 0.1)
movej(p[0.456643649913496, 0.0618359440471482, 0.417770470614502, -1.192, 0.952, -1.048], a = 0.2, v = 0.2, t = 0.1)
movej(p[0.456645673727946, 0.0618395646139412, 0.417784291653398, -1.192, 0.952, -1.048], a = 0.2, v = 0.2, t = 0.1)
movej(p[0.456648663879415, 0.061844342124835, 0.417800667655133, -1.192, 0.952, -1.048], a = 0.2, v = 0.2, t = 0.1)
movej(p[0.45665278568089, 0.0618486552757507, 0.417817959010395, -1.192, 0.952, -1.048], a = 0.2, v = 0.2, t = 0.1)
movej(p[0.45665684050158, 0.0618512949125179, 0.417834016128658, -1.192, 0.952, -1.048], a = 0.2, v = 0.2, t = 0.1)
movej(p[0.456660213305488, 0.0618542056406142, 0.417847691990194, -1.192, 0.952, -1.048], a = 0.2, v = 0.2, t = 0.1)
movej(p[0.45666156983281, 0.061857814798351, 0.417857985587138, -1.192, 0.952, -1.048], a = 0.2, v = 0.2, t = 0.1)
movej(p[0.456659303345195, 0.0618617161696855, 0.417865112013424, -1.192, 0.952, -1.048], a = 0.2, v = 0.2, t = 0.1)
movej(p[0.456652665863487, 0.0618652396068859, 0.417870309897404, -1.192, 0.952, -1.048], a = 0.2, v = 0.2, t = 0.1)
movej(p[0.45664234983007, 0.061867457640958, 0.417872959630485, -1.192, 0.952, -1.048], a = 0.2, v = 0.2, t = 0.1)
movej(p[0.456629644765038, 0.0618679591980636, 0.417873436981518, -1.192, 0.952, -1.048], a = 0.2, v = 0.2, t = 0.1)
movej(p[0.456614752390071, 0.0618675866177355, 0.417870373384656, -1.192, 0.952, -1.048], a = 0.2, v = 0.2, t = 0.1)
movej(p[0.456597585058118, 0.0618681681266294, 0.417864665667246, -1.192, 0.952, -1.048], a = 0.2, v = 0.2, t = 0.1)
movej(p[0.456578861242395, 0.0618691311608283, 0.417854356725357, -1.192, 0.952, -1.048], a = 0.2, v = 0.2, t = 0.1)
movej(p[0.456559213792185, 0.0618702079835223, 0.417840799503844, -1.192, 0.952, -1.048], a = 0.2, v = 0.2, t = 0.1)
movej(p[0.456538229964867, 0.0618711879603757, 0.417825734156638, -1.192, 0.952, -1.048], a = 0.2, v = 0.2, t = 0.1)
movej(p[0.456517088553037, 0.0618717034641823, 0.417810782250651, -1.192, 0.952, -1.048], a = 0.2, v = 0.2, t = 0.1)
movej(p[0.456496996079273, 0.0618721083869987, 0.417795774337719, -1.192, 0.952, -1.048], a = 0.2, v = 0.2, t = 0.1)
movej(p[0.456477229600589, 0.061871501224298, 0.417780392436669, -1.192, 0.952, -1.048], a = 0.2, v = 0.2, t = 0.1)
movej(p[0.456456620043994, 0.0618698871889617, 0.417765921930774, -1.192, 0.952, -1.048], a = 0.2, v = 0.2, t = 0.1)
movej(p[0.456434382342115, 0.0618660156230469, 0.417753669978377, -1.192, 0.952, -1.048], a = 0.2, v = 0.2, t = 0.1)
movej(p[0.456413470896371, 0.0618611956527783, 0.417744492359705, -1.192, 0.952, -1.048], a = 0.2, v = 0.2, t = 0.1)
movej(p[0.456397557224319, 0.0618575337040562, 0.417737044346253, -1.192, 0.952, -1.048], a = 0.2, v = 0.2, t = 0.1)
movej(p[0.456386972356087, 0.0618553633052193, 0.417730052742475, -1.192, 0.952, -1.048], a = 0.2, v = 0.2, t = 0.1)
movej(p[0.456381479900886, 0.0618548837379198, 0.417721836470079, -1.192, 0.952, -1.048], a = 0.2, v = 0.2, t = 0.1)
movej(p[0.456381287396385, 0.0618555795338805, 0.417710974904354, -1.192, 0.952, -1.048], a = 0.2, v = 0.2, t = 0.1)
movej(p[0.456386111340718, 0.0618564661944245, 0.417697200773813, -1.192, 0.952, -1.048], a = 0.2, v = 0.2, t = 0.1)
movej(p[0.456395947747556, 0.0618557963210386, 0.417681995174181, -1.192, 0.952, -1.048], a = 0.2, v = 0.2, t = 0.1)
movej(p[0.456407938446186, 0.0618523231509441, 0.417669734423517, -1.192, 0.952, -1.048], a = 0.2, v = 0.2, t = 0.1)
movej(p[0.456421802267528, 0.0618471080189898, 0.417661995140444, -1.192, 0.952, -1.048], a = 0.2, v = 0.2, t = 0.1)
movej(p[0.45643843293553, 0.0618415889872711, 0.417659038412911, -1.192, 0.952, -1.048], a = 0.2, v = 0.2, t = 0.1)
movej(p[0.456458035178153, 0.06183837491256, 0.417658023717938, -1.192, 0.952, -1.048], a = 0.2, v = 0.2, t = 0.1)
movej(p[0.456479861518291, 0.0618380917906596, 0.417659279792849, -1.192, 0.952, -1.048], a = 0.2, v = 0.2, t = 0.1)
movej(p[0.456502902186458, 0.0618407457282569, 0.417664211518171, -1.192, 0.952, -1.048], a = 0.2, v = 0.2, t = 0.1)
movej(p[0.456526003310674, 0.0618450689951283, 0.417673924375037, -1.192, 0.952, -1.048], a = 0.2, v = 0.2, t = 0.1)
movej(p[0.456546957845888, 0.0618500516028939, 0.417684821165702, -1.192, 0.952, -1.048], a = 0.2, v = 0.2, t = 0.1)
movej(p[0.45656330016268, 0.0618555727768133, 0.417694090146577, -1.192, 0.952, -1.048], a = 0.2, v = 0.2, t = 0.1)
movej(p[0.456574539998453, 0.0618594254268585, 0.417703298000204, -1.192, 0.952, -1.048], a = 0.2, v = 0.2, t = 0.1)
movej(p[0.456582314583991, 0.0618608259701825, 0.417712273766695, -1.192, 0.952, -1.048], a = 0.2, v = 0.2, t = 0.1)
movej(p[0.45658758059261, 0.0618595619498971, 0.417720620830067, -1.192, 0.952, -1.048], a = 0.2, v = 0.2, t = 0.1)
movej(p[0.45659098270077, 0.0618578991152514, 0.417727685322902, -1.192, 0.952, -1.048], a = 0.2, v = 0.2, t = 0.1)
movej(p[0.456592759724712, 0.0618565720342798, 0.417735410328986, -1.192, 0.952, -1.048], a = 0.2, v = 0.2, t = 0.1)
movej(p[0.456594978527865, 0.0618566498039458, 0.417742937274944, -1.192, 0.952, -1.048], a = 0.2, v = 0.2, t = 0.1)
movej(p[0.456598626885403, 0.0618584022042078, 0.417748017697525, -1.192, 0.952, -1.048], a = 0.2, v = 0.2, t = 0.1)
movej(p[0.456604803365267, 0.0618609983907085, 0.417749454840226, -1.192, 0.952, -1.048], a = 0.2, v = 0.2, t = 0.1)
movej(p[0.456612309964411, 0.0618627928122516, 0.417749330724891, -1.192, 0.952, -1.048], a = 0.2, v = 0.2, t = 0.1)
movej(p[0.456620407872731, 0.0618630164001242, 0.417750823034946, -1.192, 0.952, -1.048], a = 0.2, v = 0.2, t = 0.1)
movej(p[0.456628490203364, 0.061862710199298, 0.417754926209276, -1.192, 0.952, -1.048], a = 0.2, v = 0.2, t = 0.1)
movej(p[0.45663630833452, 0.0618622103077266, 0.417759356479206, -1.192, 0.952, -1.048], a = 0.2, v = 0.2, t = 0.1)
movej(p[0.456642848743819, 0.0618609563711863, 0.417763295880474, -1.192, 0.952, -1.048], a = 0.2, v = 0.2, t = 0.1)
movej(p[0.45664816793769, 0.061858225563343, 0.417765957628412, -1.192, 0.952, -1.048], a = 0.2, v = 0.2, t = 0.1)
movej(p[0.456652591796753, 0.0618546554460806, 0.417766127094407, -1.192, 0.952, -1.048], a = 0.2, v = 0.2, t = 0.1)
movej(p[0.456656256078344, 0.0618505968423123, 0.417759928271465, -1.192, 0.952, -1.048], a = 0.2, v = 0.2, t = 0.1)
movej(p[0.456660358485175, 0.0618466117732805, 0.417748456150606, -1.192, 0.952, -1.048], a = 0.2, v = 0.2, t = 0.1)
movej(p[0.456665343427986, 0.0618426270391069, 0.41773421341896, -1.192, 0.952, -1.048], a = 0.2, v = 0.2, t = 0.1)
movej(p[0.456670294880578, 0.061837907300009, 0.417721504790038, -1.192, 0.952, -1.048], a = 0.2, v = 0.2, t = 0.1)
movej(p[0.456673523801223, 0.0618311379802008, 0.417712054673753, -1.192, 0.952, -1.048], a = 0.2, v = 0.2, t = 0.1)
movej(p[0.456674350615866, 0.061820877833012, 0.41770543825469, -1.192, 0.952, -1.048], a = 0.2, v = 0.2, t = 0.1)
movej(p[0.456673442618953, 0.0618082437534783, 0.417700228766717, -1.192, 0.952, -1.048], a = 0.2, v = 0.2, t = 0.1)
movej(p[0.456670343128235, 0.0617952817931379, 0.417695971055545, -1.192, 0.952, -1.048], a = 0.2, v = 0.2, t = 0.1)
movej(p[0.456665173695348, 0.0617851672163766, 0.417692118550702, -1.192, 0.952, -1.048], a = 0.2, v = 0.2, t = 0.1)
movej(p[0.456658274422589, 0.0617773504464183, 0.417689208810366, -1.192, 0.952, -1.048], a = 0.2, v = 0.2, t = 0.1)
movej(p[0.456649506863037, 0.0617716738103136, 0.4176853518079, -1.192, 0.952, -1.048], a = 0.2, v = 0.2, t = 0.1)
movej(p[0.456637792454431, 0.0617666970111214, 0.417682724531399, -1.192, 0.952, -1.048], a = 0.2, v = 0.2, t = 0.1)
movej(p[0.456624154671717, 0.0617630950197277, 0.417681822185204, -1.192, 0.952, -1.048], a = 0.2, v = 0.2, t = 0.1)
movej(p[0.456608423557864, 0.0617607668084187, 0.417681975733435, -1.192, 0.952, -1.048], a = 0.2, v = 0.2, t = 0.1)
movej(p[0.456587318251639, 0.0617601925083986, 0.417679424542025, -1.192, 0.952, -1.048], a = 0.2, v = 0.2, t = 0.1)
movej(p[0.456562657600907, 0.0617610121049441, 0.41767276320575, -1.192, 0.952, -1.048], a = 0.2, v = 0.2, t = 0.1)
movej(p[0.456537649699529, 0.0617611195577118, 0.417663011344564, -1.192, 0.952, -1.048], a = 0.2, v = 0.2, t = 0.1)
movej(p[0.456517395375604, 0.0617599522528737, 0.417649403359748, -1.192, 0.952, -1.048], a = 0.2, v = 0.2, t = 0.1)
movej(p[0.456500813615147, 0.0617594970532922, 0.417633605402175, -1.192, 0.952, -1.048], a = 0.2, v = 0.2, t = 0.1)
movej(p[0.456488134822222, 0.061759937689041, 0.417616990454083, -1.192, 0.952, -1.048], a = 0.2, v = 0.2, t = 0.1)
movej(p[0.456479814975455, 0.0617601548855051, 0.417601974641468, -1.192, 0.952, -1.048], a = 0.2, v = 0.2, t = 0.1)
movej(p[0.456474806912037, 0.0617611350984547, 0.417589184204753, -1.192, 0.952, -1.048], a = 0.2, v = 0.2, t = 0.1)
movej(p[0.456471634267436, 0.0617652504918236, 0.417577284073886, -1.192, 0.952, -1.048], a = 0.2, v = 0.2, t = 0.1)
movej(p[0.456470473004428, 0.0617731890824925, 0.417567320520282, -1.192, 0.952, -1.048], a = 0.2, v = 0.2, t = 0.1)
movej(p[0.456471117755336, 0.0617817988452463, 0.417560439939231, -1.192, 0.952, -1.048], a = 0.2, v = 0.2, t = 0.1)
movej(p[0.45647303919528, 0.0617892462881281, 0.417556644657943, -1.192, 0.952, -1.048], a = 0.2, v = 0.2, t = 0.1)
movej(p[0.456476211875945, 0.0617955188038643, 0.417554471222474, -1.192, 0.952, -1.048], a = 0.2, v = 0.2, t = 0.1)
movej(p[0.456482378408348, 0.0618009522810508, 0.417550739172529, -1.192, 0.952, -1.048], a = 0.2, v = 0.2, t = 0.1)
movej(p[0.456490440800869, 0.0618049901587398, 0.41754643024092, -1.192, 0.952, -1.048], a = 0.2, v = 0.2, t = 0.1)
movej(p[0.456495041522387, 0.0618076424209577, 0.417541978902735, -1.192, 0.952, -1.048], a = 0.2, v = 0.2, t = 0.1)
movej(p[0.456495588902215, 0.0618091906028906, 0.417539983758122, -1.192, 0.952, -1.048], a = 0.2, v = 0.2, t = 0.1)
movej(p[0.456493379948873, 0.0618101109086268, 0.417538460990416, -1.192, 0.952, -1.048], a = 0.2, v = 0.2, t = 0.1)
movej(p[0.456493002544058, 0.0618108743494034, 0.417533896622246, -1.192, 0.952, -1.048], a = 0.2, v = 0.2, t = 0.1)
movej(p[0.456494126997341, 0.0618113269799167, 0.417524954793942, -1.192, 0.952, -1.048], a = 0.2, v = 0.2, t = 0.1)
movej(p[0.456497755992277, 0.0618114387440368, 0.417515820211382, -1.192, 0.952, -1.048], a = 0.2, v = 0.2, t = 0.1)
movej(p[0.456506521330794, 0.0618107022531248, 0.417513201449112, -1.192, 0.952, -1.048], a = 0.2, v = 0.2, t = 0.1)
movej(p[0.456520443704354, 0.0618097545453468, 0.417518352740057, -1.192, 0.952, -1.048], a = 0.2, v = 0.2, t = 0.1)
movej(p[0.456538060172237, 0.0618087126742602, 0.417527414882241, -1.192, 0.952, -1.048], a = 0.2, v = 0.2, t = 0.1)
movej(p[0.456556925007852, 0.061808008984721, 0.417537893419938, -1.192, 0.952, -1.048], a = 0.2, v = 0.2, t = 0.1)
movej(p[0.456574278696022, 0.0618079728395412, 0.417547577131283, -1.192, 0.952, -1.048], a = 0.2, v = 0.2, t = 0.1)
movej(p[0.456589087380241, 0.061809761869206, 0.417557814074654, -1.192, 0.952, -1.048], a = 0.2, v = 0.2, t = 0.1)
movej(p[0.456600574126527, 0.0618133657202966, 0.417569102960784, -1.192, 0.952, -1.048], a = 0.2, v = 0.2, t = 0.1)
movej(p[0.456610181431934, 0.0618186963762826, 0.417580271560454, -1.192, 0.952, -1.048], a = 0.2, v = 0.2, t = 0.1)
movej(p[0.456619107424986, 0.061823661816021, 0.417590704242623, -1.192, 0.952, -1.048], a = 0.2, v = 0.2, t = 0.1)
movej(p[0.456627940210412, 0.0618254776542467, 0.417599271103084, -1.192, 0.952, -1.048], a = 0.2, v = 0.2, t = 0.1)
movej(p[0.456637436287363, 0.0618236582379627, 0.417606009507637, -1.192, 0.952, -1.048], a = 0.2, v = 0.2, t = 0.1)
movej(p[0.456646908489905, 0.0618207792175309, 0.417610586953362, -1.192, 0.952, -1.048], a = 0.2, v = 0.2, t = 0.1)
movej(p[0.456654209163738, 0.0618198416341676, 0.41761315730587, -1.192, 0.952, -1.048], a = 0.2, v = 0.2, t = 0.1)
movej(p[0.456657964350711, 0.0618201933848249, 0.417614028691132, -1.192, 0.952, -1.048], a = 0.2, v = 0.2, t = 0.1)
movej(p[0.456658399081464, 0.061819774082481, 0.417613422096772, -1.192, 0.952, -1.048], a = 0.2, v = 0.2, t = 0.1)
movej(p[0.45665751409126, 0.0618172551763899, 0.417615010957196, -1.192, 0.952, -1.048], a = 0.2, v = 0.2, t = 0.1)
movej(p[0.456656654644719, 0.0618134609795087, 0.417623724874034, -1.192, 0.952, -1.048], a = 0.2, v = 0.2, t = 0.1)
movej(p[0.456655720516823, 0.0618086640442004, 0.417638042269109, -1.192, 0.952, -1.048], a = 0.2, v = 0.2, t = 0.1)
movej(p[0.456654510700936, 0.0618043011313358, 0.417648463642668, -1.192, 0.952, -1.048], a = 0.2, v = 0.2, t = 0.1)
movej(p[0.456654194560184, 0.0618010817897523, 0.417650512851245, -1.192, 0.952, -1.048], a = 0.2, v = 0.2, t = 0.1)
movej(p[0.456655001513191, 0.061798784361855, 0.417648499164849, -1.192, 0.952, -1.048], a = 0.2, v = 0.2, t = 0.1)
movej(p[0.456655619301237, 0.0617958374147694, 0.417652762988345, -1.192, 0.952, -1.048], a = 0.2, v = 0.2, t = 0.1)
movej(p[0.456654360335249, 0.0617921467990971, 0.417662679947637, -1.192, 0.952, -1.048], a = 0.2, v = 0.2, t = 0.1)
movej(p[0.456650351967203, 0.0617885777010662, 0.417674838521479, -1.192, 0.952, -1.048], a = 0.2, v = 0.2, t = 0.1)
movej(p[0.456644077243215, 0.0617856212593037, 0.417686235561971, -1.192, 0.952, -1.048], a = 0.2, v = 0.2, t = 0.1)
movej(p[0.45663597239543, 0.0617827964677548, 0.417696127601098, -1.192, 0.952, -1.048], a = 0.2, v = 0.2, t = 0.1)
movej(p[0.45662714912033, 0.061779181604523, 0.417702458923734, -1.192, 0.952, -1.048], a = 0.2, v = 0.2, t = 0.1)
movej(p[0.456617736080811, 0.0617751475837279, 0.417704844316205, -1.192, 0.952, -1.048], a = 0.2, v = 0.2, t = 0.1)
movej(p[0.456608671946698, 0.0617720135576326, 0.417703418857254, -1.192, 0.952, -1.048], a = 0.2, v = 0.2, t = 0.1)
movej(p[0.456600956013699, 0.0617725907241927, 0.417698716199525, -1.192, 0.952, -1.048], a = 0.2, v = 0.2, t = 0.1)
movej(p[0.456594884753008, 0.0617772833870048, 0.417691153998896, -1.192, 0.952, -1.048], a = 0.2, v = 0.2, t = 0.1)
movej(p[0.456590527030819, 0.0617847433280647, 0.417680357438531, -1.192, 0.952, -1.048], a = 0.2, v = 0.2, t = 0.1)
movej(p[0.456585332400144, 0.0617921299196249, 0.41766914999858, -1.192, 0.952, -1.048], a = 0.2, v = 0.2, t = 0.1)
movej(p[0.456578537915686, 0.0617984339893226, 0.417657733063299, -1.192, 0.952, -1.048], a = 0.2, v = 0.2, t = 0.1)
movej(p[0.45657025831521, 0.0618029916613743, 0.417647596677384, -1.192, 0.952, -1.048], a = 0.2, v = 0.2, t = 0.1)
movej(p[0.456562022392199, 0.0618072477911075, 0.41763786384507, -1.192, 0.952, -1.048], a = 0.2, v = 0.2, t = 0.1)
movej(p[0.45655425199829, 0.0618112010474756, 0.417626423067973, -1.192, 0.952, -1.048], a = 0.2, v = 0.2, t = 0.1)
movej(p[0.456548133319078, 0.0618145150766713, 0.417610795645658, -1.192, 0.952, -1.048], a = 0.2, v = 0.2, t = 0.1)
movej(p[0.456544208497564, 0.0618153270778184, 0.417593217886438, -1.192, 0.952, -1.048], a = 0.2, v = 0.2, t = 0.1)
movej(p[0.456544609485342, 0.0618125342201908, 0.417577049075471, -1.192, 0.952, -1.048], a = 0.2, v = 0.2, t = 0.1)
movej(p[0.456550086749737, 0.061805002460314, 0.417565841725699, -1.192, 0.952, -1.048], a = 0.2, v = 0.2, t = 0.1)
movej(p[0.45656045520873, 0.0617944314444014, 0.417560065990709, -1.192, 0.952, -1.048], a = 0.2, v = 0.2, t = 0.1)
movej(p[0.456572602254829, 0.0617825549615577, 0.417557944972946, -1.192, 0.952, -1.048], a = 0.2, v = 0.2, t = 0.1)
movej(p[0.456583959680024, 0.0617741904693402, 0.417558560958228, -1.192, 0.952, -1.048], a = 0.2, v = 0.2, t = 0.1)
movej(p[0.456595212866606, 0.061769382957627, 0.417558309403307, -1.192, 0.952, -1.048], a = 0.2, v = 0.2, t = 0.1)
movej(p[0.456607985837968, 0.0617686875019445, 0.417557717334917, -1.192, 0.952, -1.048], a = 0.2, v = 0.2, t = 0.1)
movej(p[0.456622400205399, 0.0617709499145951, 0.417557820337651, -1.192, 0.952, -1.048], a = 0.2, v = 0.2, t = 0.1)
movej(p[0.456638595691876, 0.0617769789680297, 0.417558038588596, -1.192, 0.952, -1.048], a = 0.2, v = 0.2, t = 0.1)
movej(p[0.456654968612256, 0.0617859668638609, 0.417556512653231, -1.192, 0.952, -1.048], a = 0.2, v = 0.2, t = 0.1)
movej(p[0.456670519708627, 0.0617962550803766, 0.417552686373889, -1.192, 0.952, -1.048], a = 0.2, v = 0.2, t = 0.1)
movej(p[0.456683814377244, 0.0618043627831539, 0.417548083305236, -1.192, 0.952, -1.048], a = 0.2, v = 0.2, t = 0.1)
movej(p[0.45669503381017, 0.0618089391800102, 0.417545096814548, -1.192, 0.952, -1.048], a = 0.2, v = 0.2, t = 0.1)
movej(p[0.456704308786513, 0.0618103534456332, 0.417543314586564, -1.192, 0.952, -1.048], a = 0.2, v = 0.2, t = 0.1)
movej(p[0.456711358303436, 0.0618108680350209, 0.417542288121798, -1.192, 0.952, -1.048], a = 0.2, v = 0.2, t = 0.1)
movej(p[0.456715697901555, 0.061811353606685, 0.417540058838655, -1.192, 0.952, -1.048], a = 0.2, v = 0.2, t = 0.1)
movej(p[0.456716175629491, 0.0618106121470042, 0.417535240585491, -1.192, 0.952, -1.048], a = 0.2, v = 0.2, t = 0.1)
movej(p[0.45671492521746, 0.0618082435654029, 0.417527170609781, -1.192, 0.952, -1.048], a = 0.2, v = 0.2, t = 0.1)
movej(p[0.456714701098115, 0.0618050982840179, 0.417517535001366, -1.192, 0.952, -1.048], a = 0.2, v = 0.2, t = 0.1)
movej(p[0.456716299036031, 0.0618018617885802, 0.417512066621926, -1.192, 0.952, -1.048], a = 0.2, v = 0.2, t = 0.1)
movej(p[0.456717081344788, 0.0617968091893206, 0.417513415184395, -1.192, 0.952, -1.048], a = 0.2, v = 0.2, t = 0.1)
movej(p[0.456717218062269, 0.0617887881945804, 0.417521487785321, -1.192, 0.952, -1.048], a = 0.2, v = 0.2, t = 0.1)
movej(p[0.456715943398149, 0.0617789987234817, 0.417533924166185, -1.192, 0.952, -1.048], a = 0.2, v = 0.2, t = 0.1)
movej(p[0.456715062495153, 0.061771035338773, 0.417549089683482, -1.192, 0.952, -1.048], a = 0.2, v = 0.2, t = 0.1)
movej(p[0.456714994479944, 0.0617670429554373, 0.417563932413629, -1.192, 0.952, -1.048], a = 0.2, v = 0.2, t = 0.1)
movej(p[0.456717169299341, 0.0617662155138135, 0.417573476233145, -1.192, 0.952, -1.048], a = 0.2, v = 0.2, t = 0.1)
movej(p[0.456720323344227, 0.0617654390250294, 0.417578847257165, -1.192, 0.952, -1.048], a = 0.2, v = 0.2, t = 0.1)
movej(p[0.456723082331934, 0.06176365296661, 0.417581492095942, -1.192, 0.952, -1.048], a = 0.2, v = 0.2, t = 0.1)
movej(p[0.456726076509442, 0.0617615467448316, 0.417584764669681, -1.192, 0.952, -1.048], a = 0.2, v = 0.2, t = 0.1)
movej(p[0.456729465170109, 0.0617618091848672, 0.417589051821778, -1.192, 0.952, -1.048], a = 0.2, v = 0.2, t = 0.1)
movej(p[0.456728358484925, 0.0617644224205309, 0.417595352319002, -1.192, 0.952, -1.048], a = 0.2, v = 0.2, t = 0.1)
movej(p[0.456722135207011, 0.061767915454484, 0.417602393727015, -1.192, 0.952, -1.048], a = 0.2, v = 0.2, t = 0.1)
movej(p[0.456712132189968, 0.0617705429370627, 0.417608967001567, -1.192, 0.952, -1.048], a = 0.2, v = 0.2, t = 0.1)
movej(p[0.456700903318355, 0.0617718896028, 0.417612885292354, -1.192, 0.952, -1.048], a = 0.2, v = 0.2, t = 0.1)
movej(p[0.45668827910567, 0.0617724290448444, 0.417613806905279, -1.192, 0.952, -1.048], a = 0.2, v = 0.2, t = 0.1)
movej(p[0.456674179432899, 0.0617722525579498, 0.417613028762551, -1.192, 0.952, -1.048], a = 0.2, v = 0.2, t = 0.1)
movej(p[0.45666110966247, 0.0617715582832866, 0.417611223305367, -1.192, 0.952, -1.048], a = 0.2, v = 0.2, t = 0.1)
movej(p[0.456648406661997, 0.061769933530384, 0.417609508125787, -1.192, 0.952, -1.048], a = 0.2, v = 0.2, t = 0.1)
movej(p[0.456634548907042, 0.0617674798474138, 0.417605138310634, -1.192, 0.952, -1.048], a = 0.2, v = 0.2, t = 0.1)
movej(p[0.456619277005179, 0.0617643248790766, 0.417595166838461, -1.192, 0.952, -1.048], a = 0.2, v = 0.2, t = 0.1)
movej(p[0.456602337912121, 0.0617613888755009, 0.41758063511663, -1.192, 0.952, -1.048], a = 0.2, v = 0.2, t = 0.1)
movej(p[0.456584528816834, 0.06176119395599, 0.417564827084386, -1.192, 0.952, -1.048], a = 0.2, v = 0.2, t = 0.1)
movej(p[0.456566615198982, 0.0617643628705134, 0.417550462091166, -1.192, 0.952, -1.048], a = 0.2, v = 0.2, t = 0.1)
movej(p[0.456550446666837, 0.0617686309059438, 0.417537266148463, -1.192, 0.952, -1.048], a = 0.2, v = 0.2, t = 0.1)
movej(p[0.456535389898614, 0.0617710126938466, 0.417524741669269, -1.192, 0.952, -1.048], a = 0.2, v = 0.2, t = 0.1)
movej(p[0.456520454813119, 0.0617714531416812, 0.417512775066453, -1.192, 0.952, -1.048], a = 0.2, v = 0.2, t = 0.1)
movej(p[0.456505973239085, 0.0617710196699347, 0.417500595924416, -1.192, 0.952, -1.048], a = 0.2, v = 0.2, t = 0.1)
movej(p[0.456494540926107, 0.061770793080509, 0.417488229783134, -1.192, 0.952, -1.048], a = 0.2, v = 0.2, t = 0.1)
movej(p[0.456486958606996, 0.0617707460663432, 0.417475678156126, -1.192, 0.952, -1.048], a = 0.2, v = 0.2, t = 0.1)
movej(p[0.456484248790559, 0.0617702704075317, 0.417466921799259, -1.192, 0.952, -1.048], a = 0.2, v = 0.2, t = 0.1)
movej(p[0.456485604361849, 0.0617700654214883, 0.41746350197131, -1.192, 0.952, -1.048], a = 0.2, v = 0.2, t = 0.1)
movej(p[0.456490314684846, 0.0617701768154367, 0.41746725327477, -1.192, 0.952, -1.048], a = 0.2, v = 0.2, t = 0.1)
movej(p[0.456498264053724, 0.0617718809125996, 0.417476599309881, -1.192, 0.952, -1.048], a = 0.2, v = 0.2, t = 0.1)
movej(p[0.456509411257449, 0.0617745920432207, 0.417490082616667, -1.192, 0.952, -1.048], a = 0.2, v = 0.2, t = 0.1)
movej(p[0.456523450999376, 0.0617781380147557, 0.417505495075183, -1.192, 0.952, -1.048], a = 0.2, v = 0.2, t = 0.1)
movej(p[0.456539232793237, 0.0617828446330555, 0.417521028252987, -1.192, 0.952, -1.048], a = 0.2, v = 0.2, t = 0.1)
movej(p[0.456556111936879, 0.0617886129983718, 0.417536699001613, -1.192, 0.952, -1.048], a = 0.2, v = 0.2, t = 0.1)
movej(p[0.456573141090481, 0.0617953482165084, 0.417552542864755, -1.192, 0.952, -1.048], a = 0.2, v = 0.2, t = 0.1)
movej(p[0.456590142525827, 0.0618016914993202, 0.417567381992907, -1.192, 0.952, -1.048], a = 0.2, v = 0.2, t = 0.1)
movej(p[0.456607382657622, 0.0618077662011975, 0.417578415266846, -1.192, 0.952, -1.048], a = 0.2, v = 0.2, t = 0.1)
movej(p[0.456624204992628, 0.0618130785548514, 0.417585342947524, -1.192, 0.952, -1.048], a = 0.2, v = 0.2, t = 0.1)
movej(p[0.456639420773721, 0.0618176771760597, 0.417588759272265, -1.192, 0.952, -1.048], a = 0.2, v = 0.2, t = 0.1)
movej(p[0.456651544548189, 0.0618217024476284, 0.41759019984418, -1.192, 0.952, -1.048], a = 0.2, v = 0.2, t = 0.1)
movej(p[0.456660374020295, 0.0618269492708465, 0.417591850505395, -1.192, 0.952, -1.048], a = 0.2, v = 0.2, t = 0.1)
movej(p[0.456665863553171, 0.0618327764654416, 0.417594767198207, -1.192, 0.952, -1.048], a = 0.2, v = 0.2, t = 0.1)
movej(p[0.456667646543133, 0.0618378657722583, 0.417598014892916, -1.192, 0.952, -1.048], a = 0.2, v = 0.2, t = 0.1)
movej(p[0.456666509295965, 0.061841788809705, 0.417600285589741, -1.192, 0.952, -1.048], a = 0.2, v = 0.2, t = 0.1)
movej(p[0.456662434839709, 0.0618454186132027, 0.417598166075225, -1.192, 0.952, -1.048], a = 0.2, v = 0.2, t = 0.1)
movej(p[0.45665668249074, 0.0618473897872132, 0.41759169276762, -1.192, 0.952, -1.048], a = 0.2, v = 0.2, t = 0.1)
movej(p[0.456649519621412, 0.0618458224984015, 0.417583515425339, -1.192, 0.952, -1.048], a = 0.2, v = 0.2, t = 0.1)
movej(p[0.456641452488782, 0.0618406456745728, 0.417578478117905, -1.192, 0.952, -1.048], a = 0.2, v = 0.2, t = 0.1)
movej(p[0.456631828309071, 0.0618345561510752, 0.417579868571957, -1.192, 0.952, -1.048], a = 0.2, v = 0.2, t = 0.1)
movej(p[0.456620802373721, 0.0618299622394869, 0.417588601845912, -1.192, 0.952, -1.048], a = 0.2, v = 0.2, t = 0.1)
movej(p[0.456608727593781, 0.0618281192852111, 0.417602750866158, -1.192, 0.952, -1.048], a = 0.2, v = 0.2, t = 0.1)
movej(p[0.456597453418151, 0.0618272458108367, 0.417620090138818, -1.192, 0.952, -1.048], a = 0.2, v = 0.2, t = 0.1)
movej(p[0.456588856569761, 0.0618233888364347, 0.417638767760621, -1.192, 0.952, -1.048], a = 0.2, v = 0.2, t = 0.1)
movej(p[0.456582200028016, 0.0618171592570234, 0.417655934293217, -1.192, 0.952, -1.048], a = 0.2, v = 0.2, t = 0.1)
movej(p[0.456575511104743, 0.0618095769566618, 0.417669183543787, -1.192, 0.952, -1.048], a = 0.2, v = 0.2, t = 0.1)
movej(p[0.45656612168301, 0.0618008421547833, 0.417675508066036, -1.192, 0.952, -1.048], a = 0.2, v = 0.2, t = 0.1)
movej(p[0.456555823992041, 0.0617915170302906, 0.417677849158706, -1.192, 0.952, -1.048], a = 0.2, v = 0.2, t = 0.1)
movej(p[0.456548913782174, 0.0617857497589876, 0.417679107509737, -1.192, 0.952, -1.048], a = 0.2, v = 0.2, t = 0.1)
movej(p[0.456547972364226, 0.0617866118515483, 0.417681639656981, -1.192, 0.952, -1.048], a = 0.2, v = 0.2, t = 0.1)
movej(p[0.456552909821764, 0.0617927735391857, 0.417684377203972, -1.192, 0.952, -1.048], a = 0.2, v = 0.2, t = 0.1)
movej(p[0.456563203583844, 0.0618010949945277, 0.417687875308061, -1.192, 0.952, -1.048], a = 0.2, v = 0.2, t = 0.1)
movej(p[0.45657927500564, 0.0618111788248828, 0.417692200345959, -1.192, 0.952, -1.048], a = 0.2, v = 0.2, t = 0.1)
movej(p[0.456599975376422, 0.0618225464720808, 0.417696004038861, -1.192, 0.952, -1.048], a = 0.2, v = 0.2, t = 0.1)
movej(p[0.456622995973449, 0.0618354680813956, 0.417699407905665, -1.192, 0.952, -1.048], a = 0.2, v = 0.2, t = 0.1)
movej(p[0.456644963676597, 0.0618485105646573, 0.417700860285353, -1.192, 0.952, -1.048], a = 0.2, v = 0.2, t = 0.1)
movej(p[0.45666656788627, 0.0618586948802129, 0.417700404524359, -1.192, 0.952, -1.048], a = 0.2, v = 0.2, t = 0.1)
movej(p[0.45668734127784, 0.0618639890426282, 0.417698446043317, -1.192, 0.952, -1.048], a = 0.2, v = 0.2, t = 0.1)
movej(p[0.456705504981042, 0.061865425579924, 0.417696001739204, -1.192, 0.952, -1.048], a = 0.2, v = 0.2, t = 0.1)
movej(p[0.45671865947359, 0.0618642314315573, 0.417695922143438, -1.192, 0.952, -1.048], a = 0.2, v = 0.2, t = 0.1)
movej(p[0.456726540573025, 0.0618623685258328, 0.417696992245751, -1.192, 0.952, -1.048], a = 0.2, v = 0.2, t = 0.1)
movej(p[0.456729696780108, 0.0618605514453347, 0.417697299677547, -1.192, 0.952, -1.048], a = 0.2, v = 0.2, t = 0.1)
movej(p[0.456729680734945, 0.0618604883043935, 0.417692415494015, -1.192, 0.952, -1.048], a = 0.2, v = 0.2, t = 0.1)
movej(p[0.45672638553487, 0.0618613018211846, 0.417681380000193, -1.192, 0.952, -1.048], a = 0.2, v = 0.2, t = 0.1)
movej(p[0.456717740077353, 0.0618612568706765, 0.417662107054083, -1.192, 0.952, -1.048], a = 0.2, v = 0.2, t = 0.1)
movej(p[0.456705253468304, 0.0618607647856849, 0.417640247509307, -1.192, 0.952, -1.048], a = 0.2, v = 0.2, t = 0.1)
movej(p[0.4566904773626, 0.0618604193628228, 0.41762368026831, -1.192, 0.952, -1.048], a = 0.2, v = 0.2, t = 0.1)
movej(p[0.456678045965594, 0.0618593876644261, 0.417619479337353, -1.192, 0.952, -1.048], a = 0.2, v = 0.2, t = 0.1)
movej(p[0.456668955623795, 0.0618562371716577, 0.41762426437009, -1.192, 0.952, -1.048], a = 0.2, v = 0.2, t = 0.1)
movej(p[0.456664401946799, 0.0618511445725424, 0.417629296130226, -1.192, 0.952, -1.048], a = 0.2, v = 0.2, t = 0.1)
movej(p[0.456664306242954, 0.0618453960868322, 0.417629942939945, -1.192, 0.952, -1.048], a = 0.2, v = 0.2, t = 0.1)
movej(p[0.456666350779004, 0.0618398932326034, 0.417626089752735, -1.192, 0.952, -1.048], a = 0.2, v = 0.2, t = 0.1)
movej(p[0.456668251583196, 0.0618341069146631, 0.417619941419455, -1.192, 0.952, -1.048], a = 0.2, v = 0.2, t = 0.1)
movej(p[0.456668579787226, 0.061828354064739, 0.41761450894204, -1.192, 0.952, -1.048], a = 0.2, v = 0.2, t = 0.1)
movej(p[0.456666711916989, 0.0618233598474125, 0.417613255299319, -1.192, 0.952, -1.048], a = 0.2, v = 0.2, t = 0.1)
movej(p[0.45666234011346, 0.0618198646419035, 0.417614279889168, -1.192, 0.952, -1.048], a = 0.2, v = 0.2, t = 0.1)
movej(p[0.456656464504921, 0.0618174882793779, 0.417613797610785, -1.192, 0.952, -1.048], a = 0.2, v = 0.2, t = 0.1)
movej(p[0.456649102638867, 0.0618152790845329, 0.417610171014261, -1.192, 0.952, -1.048], a = 0.2, v = 0.2, t = 0.1)
movej(p[0.456639015526866, 0.0618116552477699, 0.417603334106729, -1.192, 0.952, -1.048], a = 0.2, v = 0.2, t = 0.1)
movej(p[0.456624224154255, 0.0618046792215136, 0.417594042903634, -1.192, 0.952, -1.048], a = 0.2, v = 0.2, t = 0.1)
movej(p[0.45660593044396, 0.0617952259153849, 0.417582162677715, -1.192, 0.952, -1.048], a = 0.2, v = 0.2, t = 0.1)
movej(p[0.456586082458127, 0.0617860311916421, 0.417568467836217, -1.192, 0.952, -1.048], a = 0.2, v = 0.2, t = 0.1)
movej(p[0.456568535828244, 0.061780107154351, 0.417553927030225, -1.192, 0.952, -1.048], a = 0.2, v = 0.2, t = 0.1)
movej(p[0.456554175116768, 0.0617771269006744, 0.417540201990701, -1.192, 0.952, -1.048], a = 0.2, v = 0.2, t = 0.1)
movej(p[0.456542074920309, 0.061775786742709, 0.417527033040124, -1.192, 0.952, -1.048], a = 0.2, v = 0.2, t = 0.1)
movej(p[0.456527433653628, 0.0617735533744571, 0.417513230039465, -1.192, 0.952, -1.048], a = 0.2, v = 0.2, t = 0.1)
movej(p[0.456507588412728, 0.0617696277620782, 0.41749823160451, -1.192, 0.952, -1.048], a = 0.2, v = 0.2, t = 0.1)
movej(p[0.456482953615053, 0.0617635279791676, 0.417482138403649, -1.192, 0.952, -1.048], a = 0.2, v = 0.2, t = 0.1)
movej(p[0.456459304760427, 0.0617563055802544, 0.417462931074402, -1.192, 0.952, -1.048], a = 0.2, v = 0.2, t = 0.1)
movej(p[0.45643918897984, 0.0617499445562147, 0.417443520451858, -1.192, 0.952, -1.048], a = 0.2, v = 0.2, t = 0.1)
movej(p[0.456424370632438, 0.0617473990862688, 0.417426391931547, -1.192, 0.952, -1.048], a = 0.2, v = 0.2, t = 0.1)
movej(p[0.456416115697862, 0.0617491132209015, 0.417417537032869, -1.192, 0.952, -1.048], a = 0.2, v = 0.2, t = 0.1)
movej(p[0.456414541173212, 0.061755128690622, 0.417414678361645, -1.192, 0.952, -1.048], a = 0.2, v = 0.2, t = 0.1)
movej(p[0.456418712702631, 0.0617619468143319, 0.417418641604683, -1.192, 0.952, -1.048], a = 0.2, v = 0.2, t = 0.1)
movej(p[0.456426009999512, 0.0617671827611073, 0.417431854043088, -1.192, 0.952, -1.048], a = 0.2, v = 0.2, t = 0.1)
movej(p[0.456434665975646, 0.06176964611303, 0.417452963657094, -1.192, 0.952, -1.048], a = 0.2, v = 0.2, t = 0.1)
movej(p[0.456443838580607, 0.0617713323577359, 0.417477198328703, -1.192, 0.952, -1.048], a = 0.2, v = 0.2, t = 0.1)
movej(p[0.456454503608354, 0.0617737228731352, 0.417495393215713, -1.192, 0.952, -1.048], a = 0.2, v = 0.2, t = 0.1)
movej(p[0.456468081868136, 0.0617761829497832, 0.417505931799022, -1.192, 0.952, -1.048], a = 0.2, v = 0.2, t = 0.1)
movej(p[0.456484044367814, 0.061777578281431, 0.417511690020504, -1.192, 0.952, -1.048], a = 0.2, v = 0.2, t = 0.1)
movej(p[0.456500846111101, 0.0617789413851448, 0.417516601246399, -1.192, 0.952, -1.048], a = 0.2, v = 0.2, t = 0.1)
movej(p[0.456517549557961, 0.0617806297961203, 0.417521669958795, -1.192, 0.952, -1.048], a = 0.2, v = 0.2, t = 0.1)
movej(p[0.456533993903957, 0.0617817089964187, 0.417528870663238, -1.192, 0.952, -1.048], a = 0.2, v = 0.2, t = 0.1)
movej(p[0.456550214841115, 0.0617818848032078, 0.41753960668134, -1.192, 0.952, -1.048], a = 0.2, v = 0.2, t = 0.1)
movej(p[0.456566014415569, 0.0617822786718621, 0.41755583293154, -1.192, 0.952, -1.048], a = 0.2, v = 0.2, t = 0.1)
movej(p[0.456581544151572, 0.0617846025675815, 0.417575881312656, -1.192, 0.952, -1.048], a = 0.2, v = 0.2, t = 0.1)
movej(p[0.456595914101766, 0.0617890286866464, 0.417596851446929, -1.192, 0.952, -1.048], a = 0.2, v = 0.2, t = 0.1)
movej(p[0.456608117677806, 0.0617927761507968, 0.417613908709555, -1.192, 0.952, -1.048], a = 0.2, v = 0.2, t = 0.1)
movej(p[0.456617144563799, 0.0617946535451337, 0.417626964594388, -1.192, 0.952, -1.048], a = 0.2, v = 0.2, t = 0.1)
movej(p[0.456623723666993, 0.0617956508245301, 0.417637860379673, -1.192, 0.952, -1.048], a = 0.2, v = 0.2, t = 0.1)
movej(p[0.456629142418215, 0.0617985392172179, 0.417648569607137, -1.192, 0.952, -1.048], a = 0.2, v = 0.2, t = 0.1)
movej(p[0.456634584271887, 0.0618029193147535, 0.417657939694233, -1.192, 0.952, -1.048], a = 0.2, v = 0.2, t = 0.1)
movej(p[0.456638959214168, 0.0618077235983293, 0.417665467208322, -1.192, 0.952, -1.048], a = 0.2, v = 0.2, t = 0.1)
movej(p[0.456640493691282, 0.0618124132384222, 0.417671125621155, -1.192, 0.952, -1.048], a = 0.2, v = 0.2, t = 0.1)
movej(p[0.456640098822283, 0.0618179645502301, 0.417675450358452, -1.192, 0.952, -1.048], a = 0.2, v = 0.2, t = 0.1)
movej(p[0.456638644137206, 0.061822453164246, 0.417680760451157, -1.192, 0.952, -1.048], a = 0.2, v = 0.2, t = 0.1)
movej(p[0.456636009462475, 0.0618250313311298, 0.417686791866379, -1.192, 0.952, -1.048], a = 0.2, v = 0.2, t = 0.1)
movej(p[0.456632639431812, 0.0618244030496866, 0.41769409114941, -1.192, 0.952, -1.048], a = 0.2, v = 0.2, t = 0.1)
movej(p[0.456628027233428, 0.0618231113451437, 0.41770084291062, -1.192, 0.952, -1.048], a = 0.2, v = 0.2, t = 0.1)
movej(p[0.45662379330655, 0.0618221273797029, 0.417705313263425, -1.192, 0.952, -1.048], a = 0.2, v = 0.2, t = 0.1)
movej(p[0.45661809235842, 0.0618220629886019, 0.417707410948389, -1.192, 0.952, -1.048], a = 0.2, v = 0.2, t = 0.1)
movej(p[0.456610365087123, 0.0618219202197964, 0.417707568902094, -1.192, 0.952, -1.048], a = 0.2, v = 0.2, t = 0.1)
movej(p[0.456601284936141, 0.061821503868058, 0.41770832242606, -1.192, 0.952, -1.048], a = 0.2, v = 0.2, t = 0.1)
movej(p[0.456590652852816, 0.0618220291534066, 0.417709653734242, -1.192, 0.952, -1.048], a = 0.2, v = 0.2, t = 0.1)
movej(p[0.456577537317491, 0.0618226993012739, 0.417710931042332, -1.192, 0.952, -1.048], a = 0.2, v = 0.2, t = 0.1)
movej(p[0.456562310775513, 0.0618216848141798, 0.417710956208671, -1.192, 0.952, -1.048], a = 0.2, v = 0.2, t = 0.1)
movej(p[0.456546356426169, 0.0618169555495615, 0.417707624022128, -1.192, 0.952, -1.048], a = 0.2, v = 0.2, t = 0.1)
movej(p[0.456533049417728, 0.0618080670268126, 0.417695910152284, -1.192, 0.952, -1.048], a = 0.2, v = 0.2, t = 0.1)
movej(p[0.456520835912577, 0.0617981646804677, 0.417678484755738, -1.192, 0.952, -1.048], a = 0.2, v = 0.2, t = 0.1)
movej(p[0.456509483193704, 0.0617910471825688, 0.41765755508293, -1.192, 0.952, -1.048], a = 0.2, v = 0.2, t = 0.1)
movej(p[0.456497663027454, 0.0617896868004922, 0.417640278726473, -1.192, 0.952, -1.048], a = 0.2, v = 0.2, t = 0.1)
movej(p[0.456484986313178, 0.061792095476593, 0.417627106717947, -1.192, 0.952, -1.048], a = 0.2, v = 0.2, t = 0.1)
movej(p[0.456471295431118, 0.0617964025595915, 0.417618353109578, -1.192, 0.952, -1.048], a = 0.2, v = 0.2, t = 0.1)
movej(p[0.456455924281603, 0.0618011063958786, 0.417613690924814, -1.192, 0.952, -1.048], a = 0.2, v = 0.2, t = 0.1)
movej(p[0.456441393171768, 0.0618072449959268, 0.41760882580093, -1.192, 0.952, -1.048], a = 0.2, v = 0.2, t = 0.1)
movej(p[0.456429665523082, 0.0618143291013746, 0.41760206023759, -1.192, 0.952, -1.048], a = 0.2, v = 0.2, t = 0.1)
movej(p[0.456422317316835, 0.061821314481698, 0.417591787519951, -1.192, 0.952, -1.048], a = 0.2, v = 0.2, t = 0.1)
movej(p[0.456419875674448, 0.0618272873878667, 0.417579497409645, -1.192, 0.952, -1.048], a = 0.2, v = 0.2, t = 0.1)
movej(p[0.456422356332289, 0.0618324583919572, 0.417565271489556, -1.192, 0.952, -1.048], a = 0.2, v = 0.2, t = 0.1)
movej(p[0.456430261743964, 0.0618385559003308, 0.417551664475486, -1.192, 0.952, -1.048], a = 0.2, v = 0.2, t = 0.1)
movej(p[0.456441691738446, 0.0618463000555319, 0.417540676515877, -1.192, 0.952, -1.048], a = 0.2, v = 0.2, t = 0.1)
movej(p[0.456455326223712, 0.0618565293260561, 0.417532554125707, -1.192, 0.952, -1.048], a = 0.2, v = 0.2, t = 0.1)
movej(p[0.456471550588549, 0.0618666678297538, 0.417524715099595, -1.192, 0.952, -1.048], a = 0.2, v = 0.2, t = 0.1)
movej(p[0.456491007540516, 0.0618737439160679, 0.417517481156299, -1.192, 0.952, -1.048], a = 0.2, v = 0.2, t = 0.1)
movej(p[0.456512680329036, 0.0618760455549891, 0.417512350816927, -1.192, 0.952, -1.048], a = 0.2, v = 0.2, t = 0.1)
movej(p[0.456535248957492, 0.0618760490291322, 0.417506703433591, -1.192, 0.952, -1.048], a = 0.2, v = 0.2, t = 0.1)
movej(p[0.45655658226, 0.0618746260161471, 0.417500253184592, -1.192, 0.952, -1.048], a = 0.2, v = 0.2, t = 0.1)
movej(p[0.456575294127205, 0.0618706625501789, 0.417494435866548, -1.192, 0.952, -1.048], a = 0.2, v = 0.2, t = 0.1)
movej(p[0.456591904122435, 0.0618641280286256, 0.417490951443997, -1.192, 0.952, -1.048], a = 0.2, v = 0.2, t = 0.1)
movej(p[0.456606686318955, 0.0618561782586701, 0.417488853276774, -1.192, 0.952, -1.048], a = 0.2, v = 0.2, t = 0.1)
movej(p[0.456620216075714, 0.0618489465734082, 0.41748663908362, -1.192, 0.952, -1.048], a = 0.2, v = 0.2, t = 0.1)
movej(p[0.456630218251196, 0.0618429889843169, 0.417484709585538, -1.192, 0.952, -1.048], a = 0.2, v = 0.2, t = 0.1)
movej(p[0.456636303717554, 0.061840211152965, 0.417484301933491, -1.192, 0.952, -1.048], a = 0.2, v = 0.2, t = 0.1)
movej(p[0.45663814640475, 0.0618406152691527, 0.417484666730697, -1.192, 0.952, -1.048], a = 0.2, v = 0.2, t = 0.1)
movej(p[0.456638116677413, 0.0618430008427126, 0.417486072498842, -1.192, 0.952, -1.048], a = 0.2, v = 0.2, t = 0.1)
movej(p[0.456637729058626, 0.0618455626445593, 0.417488448656239, -1.192, 0.952, -1.048], a = 0.2, v = 0.2, t = 0.1)
movej(p[0.4566380304522, 0.0618477182402449, 0.417492112474896, -1.192, 0.952, -1.048], a = 0.2, v = 0.2, t = 0.1)
movej(p[0.456638384115688, 0.0618490093474342, 0.417495818000819, -1.192, 0.952, -1.048], a = 0.2, v = 0.2, t = 0.1)
movej(p[0.456639180433709, 0.0618490547812572, 0.41749795123929, -1.192, 0.952, -1.048], a = 0.2, v = 0.2, t = 0.1)
movej(p[0.456638919422264, 0.0618489348816494, 0.41749867493129, -1.192, 0.952, -1.048], a = 0.2, v = 0.2, t = 0.1)
movej(p[0.456636286968806, 0.0618489563192565, 0.417500513859842, -1.192, 0.952, -1.048], a = 0.2, v = 0.2, t = 0.1)
movej(p[0.456629483789864, 0.0618499251531273, 0.417503751744523, -1.192, 0.952, -1.048], a = 0.2, v = 0.2, t = 0.1)
movej(p[0.45661814785771, 0.0618511904603836, 0.417507586274709, -1.192, 0.952, -1.048], a = 0.2, v = 0.2, t = 0.1)
movej(p[0.456601395571716, 0.0618539841542862, 0.417510012154003, -1.192, 0.952, -1.048], a = 0.2, v = 0.2, t = 0.1)
movej(p[0.45658062555758, 0.0618575612911729, 0.417512148821147, -1.192, 0.952, -1.048], a = 0.2, v = 0.2, t = 0.1)
movej(p[0.456558591903542, 0.0618615339057761, 0.417512788489768, -1.192, 0.952, -1.048], a = 0.2, v = 0.2, t = 0.1)
movej(p[0.456539467100227, 0.061865697041048, 0.41751172705306, -1.192, 0.952, -1.048], a = 0.2, v = 0.2, t = 0.1)
movej(p[0.456526273834349, 0.0618708477489808, 0.417508624059624, -1.192, 0.952, -1.048], a = 0.2, v = 0.2, t = 0.1)
movej(p[0.456518954329368, 0.061877341422159, 0.417505305253138, -1.192, 0.952, -1.048], a = 0.2, v = 0.2, t = 0.1)
movej(p[0.456514660333049, 0.061883563647548, 0.417503688774305, -1.192, 0.952, -1.048], a = 0.2, v = 0.2, t = 0.1)
movej(p[0.456508738264676, 0.0618874057907406, 0.417504239867645, -1.192, 0.952, -1.048], a = 0.2, v = 0.2, t = 0.1)
movej(p[0.456501865370009, 0.0618872315489101, 0.417509061894572, -1.192, 0.952, -1.048], a = 0.2, v = 0.2, t = 0.1)
movej(p[0.456496048862219, 0.0618848253806552, 0.417519587197155, -1.192, 0.952, -1.048], a = 0.2, v = 0.2, t = 0.1)
movej(p[0.456493181614513, 0.0618822393959692, 0.417533030485175, -1.192, 0.952, -1.048], a = 0.2, v = 0.2, t = 0.1)
movej(p[0.4564908382081, 0.0618790011182864, 0.417544926969993, -1.192, 0.952, -1.048], a = 0.2, v = 0.2, t = 0.1)
movej(p[0.456487318199188, 0.0618717468660845, 0.41754895223958, -1.192, 0.952, -1.048], a = 0.2, v = 0.2, t = 0.1)
movej(p[0.45648289390848, 0.0618588424968926, 0.417545908563105, -1.192, 0.952, -1.048], a = 0.2, v = 0.2, t = 0.1)
movej(p[0.45647920483763, 0.0618436453717921, 0.417538056827759, -1.192, 0.952, -1.048], a = 0.2, v = 0.2, t = 0.1)
movej(p[0.456475976834165, 0.0618309075815981, 0.417530013106257, -1.192, 0.952, -1.048], a = 0.2, v = 0.2, t = 0.1)
movej(p[0.456472172459364, 0.0618223860375676, 0.417523526504009, -1.192, 0.952, -1.048], a = 0.2, v = 0.2, t = 0.1)
movej(p[0.456468572627986, 0.0618151138644862, 0.417517926590106, -1.192, 0.952, -1.048], a = 0.2, v = 0.2, t = 0.1)
movej(p[0.456466166688069, 0.0618063191099102, 0.417509884492801, -1.192, 0.952, -1.048], a = 0.2, v = 0.2, t = 0.1)
movej(p[0.456466477294666, 0.0617974292728648, 0.417500089958517, -1.192, 0.952, -1.048], a = 0.2, v = 0.2, t = 0.1)
movej(p[0.456471588909886, 0.061792569159394, 0.417493868407594, -1.192, 0.952, -1.048], a = 0.2, v = 0.2, t = 0.1)
movej(p[0.45648158090838, 0.0617920379729494, 0.417498797201774, -1.192, 0.952, -1.048], a = 0.2, v = 0.2, t = 0.1)
movej(p[0.456494358851371, 0.0617936875801665, 0.417516443970881, -1.192, 0.952, -1.048], a = 0.2, v = 0.2, t = 0.1)
movej(p[0.456508578464543, 0.0617951229163357, 0.417542544067382, -1.192, 0.952, -1.048], a = 0.2, v = 0.2, t = 0.1)
movej(p[0.456522855700493, 0.0617959780909059, 0.417572648766751, -1.192, 0.952, -1.048], a = 0.2, v = 0.2, t = 0.1)
movej(p[0.456536654487268, 0.0617980316706949, 0.41759981057412, -1.192, 0.952, -1.048], a = 0.2, v = 0.2, t = 0.1)
movej(p[0.456549782453805, 0.0618010742927937, 0.417619276154394, -1.192, 0.952, -1.048], a = 0.2, v = 0.2, t = 0.1)
movej(p[0.456563194277472, 0.0618058637024217, 0.417627195078205, -1.192, 0.952, -1.048], a = 0.2, v = 0.2, t = 0.1)
movej(p[0.456575699962865, 0.0618119606757805, 0.417626462885122, -1.192, 0.952, -1.048], a = 0.2, v = 0.2, t = 0.1)
movej(p[0.456585680463958, 0.0618202664678378, 0.417618872019412, -1.192, 0.952, -1.048], a = 0.2, v = 0.2, t = 0.1)
movej(p[0.456592826214409, 0.0618293169173614, 0.417610052398619, -1.192, 0.952, -1.048], a = 0.2, v = 0.2, t = 0.1)
movej(p[0.456598494357842, 0.0618379995077173, 0.417602438092365, -1.192, 0.952, -1.048], a = 0.2, v = 0.2, t = 0.1)
movej(p[0.45660087542871, 0.0618465792993023, 0.417596956379688, -1.192, 0.952, -1.048], a = 0.2, v = 0.2, t = 0.1)
movej(p[0.456598652808905, 0.0618570289151796, 0.417589874804424, -1.192, 0.952, -1.048], a = 0.2, v = 0.2, t = 0.1)
movej(p[0.456592386215434, 0.0618683026477176, 0.417580149457852, -1.192, 0.952, -1.048], a = 0.2, v = 0.2, t = 0.1)
movej(p[0.456584303761083, 0.0618777596306488, 0.417570642340808, -1.192, 0.952, -1.048], a = 0.2, v = 0.2, t = 0.1)
movej(p[0.456577272080499, 0.0618838869081521, 0.417565181092182, -1.192, 0.952, -1.048], a = 0.2, v = 0.2, t = 0.1)
movej(p[0.456574015968849, 0.0618877297184136, 0.417562684451395, -1.192, 0.952, -1.048], a = 0.2, v = 0.2, t = 0.1)
movej(p[0.456574920929451, 0.061889944260913, 0.417560208103515, -1.192, 0.952, -1.048], a = 0.2, v = 0.2, t = 0.1)
movej(p[0.456579051764189, 0.0618905674135051, 0.417557740712541, -1.192, 0.952, -1.048], a = 0.2, v = 0.2, t = 0.1)
movej(p[0.456584834570727, 0.0618904233201698, 0.41755413012261, -1.192, 0.952, -1.048], a = 0.2, v = 0.2, t = 0.1)
movej(p[0.456590866345355, 0.0618909868412482, 0.417549955913364, -1.192, 0.952, -1.048], a = 0.2, v = 0.2, t = 0.1)
movej(p[0.456595549062718, 0.0618931055293733, 0.417546326432446, -1.192, 0.952, -1.048], a = 0.2, v = 0.2, t = 0.1)
movej(p[0.456597593926924, 0.061895996230506, 0.417545707139836, -1.192, 0.952, -1.048], a = 0.2, v = 0.2, t = 0.1)
movej(p[0.456597380929791, 0.061898265046865, 0.417548932404871, -1.192, 0.952, -1.048], a = 0.2, v = 0.2, t = 0.1)
movej(p[0.456595405566556, 0.0618984523571442, 0.417553919489185, -1.192, 0.952, -1.048], a = 0.2, v = 0.2, t = 0.1)
movej(p[0.456591415200162, 0.0618973214122973, 0.417558762849154, -1.192, 0.952, -1.048], a = 0.2, v = 0.2, t = 0.1)
movej(p[0.456583148032386, 0.0618957726723953, 0.417562764749538, -1.192, 0.952, -1.048], a = 0.2, v = 0.2, t = 0.1)
movej(p[0.45657131666478, 0.061894873460725, 0.417566001845604, -1.192, 0.952, -1.048], a = 0.2, v = 0.2, t = 0.1)
movej(p[0.456558340729492, 0.0618938770573289, 0.417567241527693, -1.192, 0.952, -1.048], a = 0.2, v = 0.2, t = 0.1)
movej(p[0.456544699748369, 0.0618934939928955, 0.417565626607997, -1.192, 0.952, -1.048], a = 0.2, v = 0.2, t = 0.1)
movej(p[0.45652868850603, 0.0618933900180609, 0.417562566738556, -1.192, 0.952, -1.048], a = 0.2, v = 0.2, t = 0.1)
movej(p[0.456510326275516, 0.0618944929047592, 0.417559402615378, -1.192, 0.952, -1.048], a = 0.2, v = 0.2, t = 0.1)
movej(p[0.456491410033059, 0.0618966490591811, 0.417555277939822, -1.192, 0.952, -1.048], a = 0.2, v = 0.2, t = 0.1)
movej(p[0.456474287660494, 0.0619006854402388, 0.417550659702098, -1.192, 0.952, -1.048], a = 0.2, v = 0.2, t = 0.1)
movej(p[0.45645793448165, 0.0619044068383836, 0.417546535076349, -1.192, 0.952, -1.048], a = 0.2, v = 0.2, t = 0.1)
movej(p[0.456441677901374, 0.0619064982565095, 0.417541983230686, -1.192, 0.952, -1.048], a = 0.2, v = 0.2, t = 0.1)
movej(p[0.456423920278582, 0.0619067635176412, 0.417535528542676, -1.192, 0.952, -1.048], a = 0.2, v = 0.2, t = 0.1)
movej(p[0.456403964968504, 0.0619060677172788, 0.417526379175948, -1.192, 0.952, -1.048], a = 0.2, v = 0.2, t = 0.1)
movej(p[0.456384322257837, 0.0619046504035967, 0.417516427035193, -1.192, 0.952, -1.048], a = 0.2, v = 0.2, t = 0.1)
movej(p[0.456368041533936, 0.0619013430651327, 0.417508050604537, -1.192, 0.952, -1.048], a = 0.2, v = 0.2, t = 0.1)
movej(p[0.456355918291909, 0.0618965257943261, 0.417504324290308, -1.192, 0.952, -1.048], a = 0.2, v = 0.2, t = 0.1)
movej(p[0.456348321883011, 0.0618912973319505, 0.417508121999492, -1.192, 0.952, -1.048], a = 0.2, v = 0.2, t = 0.1)
movej(p[0.45634431685802, 0.0618871263621185, 0.417520172055321, -1.192, 0.952, -1.048], a = 0.2, v = 0.2, t = 0.1)
movej(p[0.456345215053917, 0.0618848174669812, 0.417536523309443, -1.192, 0.952, -1.048], a = 0.2, v = 0.2, t = 0.1)
movej(p[0.456352709173337, 0.0618840915597546, 0.417554551693004, -1.192, 0.952, -1.048], a = 0.2, v = 0.2, t = 0.1)
movej(p[0.456366925229439, 0.0618838829427331, 0.417570219633579, -1.192, 0.952, -1.048], a = 0.2, v = 0.2, t = 0.1)
movej(p[0.456386681991738, 0.0618839856223215, 0.417581319643414, -1.192, 0.952, -1.048], a = 0.2, v = 0.2, t = 0.1)
movej(p[0.456408863340655, 0.0618852750037467, 0.417587674608308, -1.192, 0.952, -1.048], a = 0.2, v = 0.2, t = 0.1)
movej(p[0.456430921822665, 0.0618880722924452, 0.417588755162014, -1.192, 0.952, -1.048], a = 0.2, v = 0.2, t = 0.1)
movej(p[0.456450268883706, 0.0618909589614854, 0.417588498730874, -1.192, 0.952, -1.048], a = 0.2, v = 0.2, t = 0.1)
movej(p[0.45646676952344, 0.0618924525381269, 0.417588824832401, -1.192, 0.952, -1.048], a = 0.2, v = 0.2, t = 0.1)
movej(p[0.456481697734713, 0.0618923629585114, 0.417590848775501, -1.192, 0.952, -1.048], a = 0.2, v = 0.2, t = 0.1)
movej(p[0.456496903873221, 0.0618915753162273, 0.417594098011611, -1.192, 0.952, -1.048], a = 0.2, v = 0.2, t = 0.1)
movej(p[0.456511995699154, 0.0618917599972128, 0.417597236988507, -1.192, 0.952, -1.048], a = 0.2, v = 0.2, t = 0.1)
movej(p[0.456524975413087, 0.0618943291705088, 0.417599809639241, -1.192, 0.952, -1.048], a = 0.2, v = 0.2, t = 0.1)
movej(p[0.456534584043574, 0.0618983394198518, 0.417598930515037, -1.192, 0.952, -1.048], a = 0.2, v = 0.2, t = 0.1)
movej(p[0.456541264377256, 0.0619023703648495, 0.417595104925236, -1.192, 0.952, -1.048], a = 0.2, v = 0.2, t = 0.1)
movej(p[0.456545844369859, 0.0619056987894677, 0.417588536884257, -1.192, 0.952, -1.048], a = 0.2, v = 0.2, t = 0.1)
movej(p[0.456550099066081, 0.0619098155039767, 0.417581497336848, -1.192, 0.952, -1.048], a = 0.2, v = 0.2, t = 0.1)
movej(p[0.456553733171127, 0.0619135657561028, 0.417573707026552, -1.192, 0.952, -1.048], a = 0.2, v = 0.2, t = 0.1)
movej(p[0.456555936063279, 0.0619172916854489, 0.41756565106977, -1.192, 0.952, -1.048], a = 0.2, v = 0.2, t = 0.1)
movej(p[0.456555479970399, 0.0619199024998972, 0.417559550190063, -1.192, 0.952, -1.048], a = 0.2, v = 0.2, t = 0.1)
movej(p[0.456553059029039, 0.0619215752553631, 0.417557255679858, -1.192, 0.952, -1.048], a = 0.2, v = 0.2, t = 0.1)
movej(p[0.456549671680958, 0.061921922982256, 0.417560252766609, -1.192, 0.952, -1.048], a = 0.2, v = 0.2, t = 0.1)
movej(p[0.456545822271299, 0.0619226459603015, 0.41756623552559, -1.192, 0.952, -1.048], a = 0.2, v = 0.2, t = 0.1)
movej(p[0.456541300934604, 0.0619256849668052, 0.41757371873125, -1.192, 0.952, -1.048], a = 0.2, v = 0.2, t = 0.1)
movej(p[0.456536032752959, 0.0619317059171427, 0.417581146686634, -1.192, 0.952, -1.048], a = 0.2, v = 0.2, t = 0.1)
movej(p[0.456530596968368, 0.0619403035416784, 0.417585661283762, -1.192, 0.952, -1.048], a = 0.2, v = 0.2, t = 0.1)
movej(p[0.456524220069849, 0.0619510002561753, 0.417585949160896, -1.192, 0.952, -1.048], a = 0.2, v = 0.2, t = 0.1)
movej(p[0.456515020851684, 0.0619638522601288, 0.417582030656904, -1.192, 0.952, -1.048], a = 0.2, v = 0.2, t = 0.1)
movej(p[0.4565010968405, 0.0619762120386356, 0.417577326277581, -1.192, 0.952, -1.048], a = 0.2, v = 0.2, t = 0.1)
movej(p[0.456481742642292, 0.0619868462216817, 0.417570699211287, -1.192, 0.952, -1.048], a = 0.2, v = 0.2, t = 0.1)
movej(p[0.456457654117075, 0.0619923454220738, 0.417559206456356, -1.192, 0.952, -1.048], a = 0.2, v = 0.2, t = 0.1)
movej(p[0.456431677606455, 0.0619905463634913, 0.417542267357967, -1.192, 0.952, -1.048], a = 0.2, v = 0.2, t = 0.1)
movej(p[0.456405934395348, 0.0619829329843952, 0.417524067238444, -1.192, 0.952, -1.048], a = 0.2, v = 0.2, t = 0.1)
movej(p[0.456384049475191, 0.0619753032440993, 0.417508680475147, -1.192, 0.952, -1.048], a = 0.2, v = 0.2, t = 0.1)
movej(p[0.456365528744918, 0.0619703041176797, 0.417495632045886, -1.192, 0.952, -1.048], a = 0.2, v = 0.2, t = 0.1)
movej(p[0.45634909204451, 0.0619688771114953, 0.417483348730046, -1.192, 0.952, -1.048], a = 0.2, v = 0.2, t = 0.1)
movej(p[0.456332664218794, 0.0619695635522923, 0.417472329863531, -1.192, 0.952, -1.048], a = 0.2, v = 0.2, t = 0.1)
movej(p[0.456316106299398, 0.0619705417925969, 0.417461030501594, -1.192, 0.952, -1.048], a = 0.2, v = 0.2, t = 0.1)
movej(p[0.456299329665222, 0.0619681556425502, 0.417448140468286, -1.192, 0.952, -1.048], a = 0.2, v = 0.2, t = 0.1)
movej(p[0.456282529894716, 0.0619575873554951, 0.41743491869459, -1.192, 0.952, -1.048], a = 0.2, v = 0.2, t = 0.1)
movej(p[0.456266398166747, 0.0619420385761354, 0.417425828890953, -1.192, 0.952, -1.048], a = 0.2, v = 0.2, t = 0.1)
movej(p[0.456249994921554, 0.0619266327992297, 0.417422385349593, -1.192, 0.952, -1.048], a = 0.2, v = 0.2, t = 0.1)
movej(p[0.45623312843737, 0.061915870701528, 0.417423003132166, -1.192, 0.952, -1.048], a = 0.2, v = 0.2, t = 0.1)
movej(p[0.45621753469376, 0.0619094227064145, 0.417424704035825, -1.192, 0.952, -1.048], a = 0.2, v = 0.2, t = 0.1)
movej(p[0.456206880741423, 0.061906429885724, 0.417423767846787, -1.192, 0.952, -1.048], a = 0.2, v = 0.2, t = 0.1)
movej(p[0.456202880873534, 0.0619063680129054, 0.4174187661861, -1.192, 0.952, -1.048], a = 0.2, v = 0.2, t = 0.1)
movej(p[0.456203794209528, 0.0619095305022212, 0.417413810973623, -1.192, 0.952, -1.048], a = 0.2, v = 0.2, t = 0.1)
movej(p[0.456207386023385, 0.0619147760315543, 0.417411055002065, -1.192, 0.952, -1.048], a = 0.2, v = 0.2, t = 0.1)
movej(p[0.456213088326545, 0.0619200966987404, 0.417410600133549, -1.192, 0.952, -1.048], a = 0.2, v = 0.2, t = 0.1)
movej(p[0.456221130984224, 0.0619237273404483, 0.417412519678351, -1.192, 0.952, -1.048], a = 0.2, v = 0.2, t = 0.1)
movej(p[0.456231361395868, 0.0619247819559859, 0.417416230357083, -1.192, 0.952, -1.048], a = 0.2, v = 0.2, t = 0.1)
movej(p[0.456244243159784, 0.0619242184216113, 0.41742007075087, -1.192, 0.952, -1.048], a = 0.2, v = 0.2, t = 0.1)
movej(p[0.456258532742499, 0.0619229148225345, 0.41741954404007, -1.192, 0.952, -1.048], a = 0.2, v = 0.2, t = 0.1)
movej(p[0.456273383190888, 0.0619217216190175, 0.41741330813909, -1.192, 0.952, -1.048], a = 0.2, v = 0.2, t = 0.1)
movej(p[0.456287652605432, 0.0619205515279337, 0.417401412577212, -1.192, 0.952, -1.048], a = 0.2, v = 0.2, t = 0.1)
movej(p[0.456300523340938, 0.0619178636890737, 0.417388122230534, -1.192, 0.952, -1.048], a = 0.2, v = 0.2, t = 0.1)
movej(p[0.456311076986597, 0.0619115177893688, 0.4173760455949, -1.192, 0.952, -1.048], a = 0.2, v = 0.2, t = 0.1)
movej(p[0.45631890665287, 0.0619016180975631, 0.417365639933835, -1.192, 0.952, -1.048], a = 0.2, v = 0.2, t = 0.1)
movej(p[0.456326613615007, 0.0618914205684985, 0.417354921206224, -1.192, 0.952, -1.048], a = 0.2, v = 0.2, t = 0.1)
movej(p[0.456335140563492, 0.0618817994545954, 0.417341504283485, -1.192, 0.952, -1.048], a = 0.2, v = 0.2, t = 0.1)
movej(p[0.456343308822375, 0.0618704592302083, 0.41731927655619, -1.192, 0.952, -1.048], a = 0.2, v = 0.2, t = 0.1)
movej(p[0.456348015195113, 0.0618551272763231, 0.417291506395501, -1.192, 0.952, -1.048], a = 0.2, v = 0.2, t = 0.1)
movej(p[0.456348318859442, 0.061836914923748, 0.417263328479917, -1.192, 0.952, -1.048], a = 0.2, v = 0.2, t = 0.1)
movej(p[0.456347185854164, 0.0618211030463355, 0.417241874902622, -1.192, 0.952, -1.048], a = 0.2, v = 0.2, t = 0.1)
movej(p[0.456346728301994, 0.0618096551977685, 0.417225680813262, -1.192, 0.952, -1.048], a = 0.2, v = 0.2, t = 0.1)
movej(p[0.456345763771937, 0.0618020430177639, 0.417213350344239, -1.192, 0.952, -1.048], a = 0.2, v = 0.2, t = 0.1)
movej(p[0.456343334875039, 0.0617983185676277, 0.417203822650129, -1.192, 0.952, -1.048], a = 0.2, v = 0.2, t = 0.1)
movej(p[0.45633872993293, 0.0617969766708934, 0.417196835609387, -1.192, 0.952, -1.048], a = 0.2, v = 0.2, t = 0.1)
movej(p[0.456330680950535, 0.0617973917060063, 0.417192635254847, -1.192, 0.952, -1.048], a = 0.2, v = 0.2, t = 0.1)
movej(p[0.456318227547442, 0.0617973213199801, 0.417192065339762, -1.192, 0.952, -1.048], a = 0.2, v = 0.2, t = 0.1)
movej(p[0.456300471177896, 0.0617962742536039, 0.417195252867728, -1.192, 0.952, -1.048], a = 0.2, v = 0.2, t = 0.1)
movej(p[0.456279936732945, 0.0617949819097716, 0.417200246992778, -1.192, 0.952, -1.048], a = 0.2, v = 0.2, t = 0.1)
movej(p[0.456259266724578, 0.0617920274345522, 0.417205068112592, -1.192, 0.952, -1.048], a = 0.2, v = 0.2, t = 0.1)
movej(p[0.45623989664462, 0.0617885008717385, 0.417208510089225, -1.192, 0.952, -1.048], a = 0.2, v = 0.2, t = 0.1)
movej(p[0.456222875849678, 0.0617848782269671, 0.417210581545092, -1.192, 0.952, -1.048], a = 0.2, v = 0.2, t = 0.1)
movej(p[0.456209757618936, 0.0617804441000228, 0.417212975829628, -1.192, 0.952, -1.048], a = 0.2, v = 0.2, t = 0.1)
movej(p[0.456202592720316, 0.0617756076533894, 0.417214214178826, -1.192, 0.952, -1.048], a = 0.2, v = 0.2, t = 0.1)
movej(p[0.456198935598835, 0.0617706443658112, 0.417217300605382, -1.192, 0.952, -1.048], a = 0.2, v = 0.2, t = 0.1)
movej(p[0.456196785088912, 0.0617656246462196, 0.417225819867574, -1.192, 0.952, -1.048], a = 0.2, v = 0.2, t = 0.1)
movej(p[0.456196368427821, 0.0617597798001115, 0.417242676369984, -1.192, 0.952, -1.048], a = 0.2, v = 0.2, t = 0.1)
movej(p[0.456199957329042, 0.0617550292165515, 0.417262632883529, -1.192, 0.952, -1.048], a = 0.2, v = 0.2, t = 0.1)
movej(p[0.456207522099826, 0.0617567084631287, 0.417277753352964, -1.192, 0.952, -1.048], a = 0.2, v = 0.2, t = 0.1)
movej(p[0.456217029822824, 0.0617667873343248, 0.417285187413617, -1.192, 0.952, -1.048], a = 0.2, v = 0.2, t = 0.1)
movej(p[0.456227976571827, 0.061783557090255, 0.41728939856136, -1.192, 0.952, -1.048], a = 0.2, v = 0.2, t = 0.1)
movej(p[0.456239871331376, 0.0618030473932714, 0.417295344736064, -1.192, 0.952, -1.048], a = 0.2, v = 0.2, t = 0.1)
movej(p[0.456253496220801, 0.0618198048731535, 0.417303526015312, -1.192, 0.952, -1.048], a = 0.2, v = 0.2, t = 0.1)
movej(p[0.456268044416759, 0.0618311445468113, 0.417311422396744, -1.192, 0.952, -1.048], a = 0.2, v = 0.2, t = 0.1)
movej(p[0.456283528216464, 0.0618380087237925, 0.417318960487619, -1.192, 0.952, -1.048], a = 0.2, v = 0.2, t = 0.1)
movej(p[0.456299748435063, 0.0618440524812104, 0.41732742422473, -1.192, 0.952, -1.048], a = 0.2, v = 0.2, t = 0.1)
movej(p[0.456317636343864, 0.06185057142253, 0.417336737382026, -1.192, 0.952, -1.048], a = 0.2, v = 0.2, t = 0.1)
movej(p[0.456336216151176, 0.0618578826148766, 0.417345772516374, -1.192, 0.952, -1.048], a = 0.2, v = 0.2, t = 0.1)
movej(p[0.456352181245751, 0.0618665221544815, 0.417353379547836, -1.192, 0.952, -1.048], a = 0.2, v = 0.2, t = 0.1)
movej(p[0.456363876199064, 0.0618766631793544, 0.417358784005211, -1.192, 0.952, -1.048], a = 0.2, v = 0.2, t = 0.1)
movej(p[0.456370470889804, 0.061887641665216, 0.417363061409007, -1.192, 0.952, -1.048], a = 0.2, v = 0.2, t = 0.1)
movej(p[0.456373289761526, 0.0618976663738243, 0.417367262381815, -1.192, 0.952, -1.048], a = 0.2, v = 0.2, t = 0.1)
movej(p[0.456372803553425, 0.0619064772897399, 0.417372030076479, -1.192, 0.952, -1.048], a = 0.2, v = 0.2, t = 0.1)
movej(p[0.456368879871599, 0.0619136587711081, 0.417378002861783, -1.192, 0.952, -1.048], a = 0.2, v = 0.2, t = 0.1)
movej(p[0.456362037723404, 0.0619188000465061, 0.417385131066772, -1.192, 0.952, -1.048], a = 0.2, v = 0.2, t = 0.1)
movej(p[0.456354631773428, 0.0619222568032547, 0.417393204307988, -1.192, 0.952, -1.048], a = 0.2, v = 0.2, t = 0.1)
movej(p[0.456348600568418, 0.0619241297296173, 0.417401052146032, -1.192, 0.952, -1.048], a = 0.2, v = 0.2, t = 0.1)
movej(p[0.456345523931551, 0.0619254758042054, 0.41740675833511, -1.192, 0.952, -1.048], a = 0.2, v = 0.2, t = 0.1)
movej(p[0.456344179857064, 0.0619282486703999, 0.417410653473855, -1.192, 0.952, -1.048], a = 0.2, v = 0.2, t = 0.1)
movej(p[0.456342248419954, 0.0619331393117839, 0.417414979225413, -1.192, 0.952, -1.048], a = 0.2, v = 0.2, t = 0.1)
movej(p[0.4563362759923, 0.0619373246824661, 0.417424271445502, -1.192, 0.952, -1.048], a = 0.2, v = 0.2, t = 0.1)
movej(p[0.456325820194405, 0.0619380148030593, 0.417436763920594, -1.192, 0.952, -1.048], a = 0.2, v = 0.2, t = 0.1)
movej(p[0.456314080963501, 0.0619359619451818, 0.417447133686374, -1.192, 0.952, -1.048], a = 0.2, v = 0.2, t = 0.1)
movej(p[0.456304069869963, 0.0619324971143468, 0.417449769740327, -1.192, 0.952, -1.048], a = 0.2, v = 0.2, t = 0.1)
movej(p[0.456294991564011, 0.0619275984468848, 0.417444632856043, -1.192, 0.952, -1.048], a = 0.2, v = 0.2, t = 0.1)
movej(p[0.456285595728161, 0.0619230044663522, 0.417434577442747, -1.192, 0.952, -1.048], a = 0.2, v = 0.2, t = 0.1)
movej(p[0.456276377752767, 0.0619209096972406, 0.41742213977717, -1.192, 0.952, -1.048], a = 0.2, v = 0.2, t = 0.1)
movej(p[0.456268015304733, 0.0619197710823996, 0.417407342667178, -1.192, 0.952, -1.048], a = 0.2, v = 0.2, t = 0.1)
movej(p[0.456259746936307, 0.0619108187253198, 0.417388348738957, -1.192, 0.952, -1.048], a = 0.2, v = 0.2, t = 0.1)
movej(p[0.456247128197478, 0.0618922993753391, 0.417365874749933, -1.192, 0.952, -1.048], a = 0.2, v = 0.2, t = 0.1)
movej(p[0.456228491337419, 0.0618679354230891, 0.417342287603604, -1.192, 0.952, -1.048], a = 0.2, v = 0.2, t = 0.1)
movej(p[0.456203145478818, 0.0618446836910137, 0.417318688380814, -1.192, 0.952, -1.048], a = 0.2, v = 0.2, t = 0.1)
movej(p[0.456174908873527, 0.0618267329520281, 0.417296865985769, -1.192, 0.952, -1.048], a = 0.2, v = 0.2, t = 0.1)
movej(p[0.456147781208128, 0.061815072697792, 0.417279013870429, -1.192, 0.952, -1.048], a = 0.2, v = 0.2, t = 0.1)
movej(p[0.456127231257763, 0.0618101381047509, 0.417268288718006, -1.192, 0.952, -1.048], a = 0.2, v = 0.2, t = 0.1)
movej(p[0.456112462444886, 0.0618084782608224, 0.417263634387403, -1.192, 0.952, -1.048], a = 0.2, v = 0.2, t = 0.1)
movej(p[0.456100827389491, 0.061809211045092, 0.417261589346045, -1.192, 0.952, -1.048], a = 0.2, v = 0.2, t = 0.1)
movej(p[0.456090402717331, 0.0618114224114094, 0.417260738977675, -1.192, 0.952, -1.048], a = 0.2, v = 0.2, t = 0.1)
movej(p[0.456080911002634, 0.0618133808891867, 0.417260950178785, -1.192, 0.952, -1.048], a = 0.2, v = 0.2, t = 0.1)
movej(p[0.456072418668234, 0.0618140084615579, 0.417260881430218, -1.192, 0.952, -1.048], a = 0.2, v = 0.2, t = 0.1)
movej(p[0.45606387674557, 0.0618142302099337, 0.417261120632765, -1.192, 0.952, -1.048], a = 0.2, v = 0.2, t = 0.1)
movej(p[0.456054936005105, 0.0618150450855658, 0.417261654552837, -1.192, 0.952, -1.048], a = 0.2, v = 0.2, t = 0.1)
movej(p[0.456045978017851, 0.0618163013672697, 0.417262319672101, -1.192, 0.952, -1.048], a = 0.2, v = 0.2, t = 0.1)
movej(p[0.45603837707042, 0.0618156984406579, 0.417259185152257, -1.192, 0.952, -1.048], a = 0.2, v = 0.2, t = 0.1)
movej(p[0.456035880647503, 0.0618124042510631, 0.417251903514492, -1.192, 0.952, -1.048], a = 0.2, v = 0.2, t = 0.1)
movej(p[0.456039220923859, 0.0618065572633112, 0.417243432577703, -1.192, 0.952, -1.048], a = 0.2, v = 0.2, t = 0.1)
movej(p[0.456044517489233, 0.0617997701204954, 0.417237082079719, -1.192, 0.952, -1.048], a = 0.2, v = 0.2, t = 0.1)
movej(p[0.456049228340528, 0.0617940970099814, 0.41723244575152, -1.192, 0.952, -1.048], a = 0.2, v = 0.2, t = 0.1)
movej(p[0.456054528727597, 0.0617907972434607, 0.417228783584426, -1.192, 0.952, -1.048], a = 0.2, v = 0.2, t = 0.1)
movej(p[0.456062488319235, 0.0617917926616201, 0.417226279329517, -1.192, 0.952, -1.048], a = 0.2, v = 0.2, t = 0.1)
movej(p[0.456072381439817, 0.061796064730722, 0.417226605987963, -1.192, 0.952, -1.048], a = 0.2, v = 0.2, t = 0.1)
movej(p[0.456082728213173, 0.0617999832921068, 0.417229137496167, -1.192, 0.952, -1.048], a = 0.2, v = 0.2, t = 0.1)
movej(p[0.45609680443347, 0.0618004318182456, 0.417235908135757, -1.192, 0.952, -1.048], a = 0.2, v = 0.2, t = 0.1)
movej(p[0.456113829576569, 0.0617996785725626, 0.417245671734551, -1.192, 0.952, -1.048], a = 0.2, v = 0.2, t = 0.1)
movej(p[0.456131589984674, 0.0618006934310621, 0.417256761325038, -1.192, 0.952, -1.048], a = 0.2, v = 0.2, t = 0.1)
movej(p[0.456143559664656, 0.0618045934559112, 0.417262189551295, -1.192, 0.952, -1.048], a = 0.2, v = 0.2, t = 0.1)
movej(p[0.456151207963017, 0.0618089118114917, 0.417257949206702, -1.192, 0.952, -1.048], a = 0.2, v = 0.2, t = 0.1)
movej(p[0.456156492129538, 0.0618106407503601, 0.41724424322131, -1.192, 0.952, -1.048], a = 0.2, v = 0.2, t = 0.1)
movej(p[0.45616129648919, 0.061810108619005, 0.417227214463911, -1.192, 0.952, -1.048], a = 0.2, v = 0.2, t = 0.1)
movej(p[0.456163586404276, 0.0618081242762081, 0.417212679653676, -1.192, 0.952, -1.048], a = 0.2, v = 0.2, t = 0.1)
movej(p[0.456162627550385, 0.061807131752937, 0.417203089340398, -1.192, 0.952, -1.048], a = 0.2, v = 0.2, t = 0.1)
movej(p[0.456159034849526, 0.0618077657923892, 0.417198021158129, -1.192, 0.952, -1.048], a = 0.2, v = 0.2, t = 0.1)
movej(p[0.4561540765271, 0.0618093199740344, 0.41719598787307, -1.192, 0.952, -1.048], a = 0.2, v = 0.2, t = 0.1)
movej(p[0.456147651990435, 0.0618100694168302, 0.417195657107084, -1.192, 0.952, -1.048], a = 0.2, v = 0.2, t = 0.1)
movej(p[0.456140948243276, 0.0618094668962658, 0.41719684059853, -1.192, 0.952, -1.048], a = 0.2, v = 0.2, t = 0.1)
movej(p[0.45613416505422, 0.0618066023785308, 0.417199419671499, -1.192, 0.952, -1.048], a = 0.2, v = 0.2, t = 0.1)
movej(p[0.45612687629854, 0.0618008367074155, 0.417202190226718, -1.192, 0.952, -1.048], a = 0.2, v = 0.2, t = 0.1)
movej(p[0.456115978154801, 0.0617910698987594, 0.417201419457153, -1.192, 0.952, -1.048], a = 0.2, v = 0.2, t = 0.1)
movej(p[0.456102762470065, 0.06177957702989, 0.417194643797842, -1.192, 0.952, -1.048], a = 0.2, v = 0.2, t = 0.1)
movej(p[0.456090129398588, 0.061768413647826, 0.417182527448104, -1.192, 0.952, -1.048], a = 0.2, v = 0.2, t = 0.1)
movej(p[0.456081042885415, 0.0617586054315789, 0.417167814499473, -1.192, 0.952, -1.048], a = 0.2, v = 0.2, t = 0.1)
movej(p[0.456074239682928, 0.0617497667657308, 0.417153318124928, -1.192, 0.952, -1.048], a = 0.2, v = 0.2, t = 0.1)
movej(p[0.456067400300864, 0.0617419748187411, 0.417141199645812, -1.192, 0.952, -1.048], a = 0.2, v = 0.2, t = 0.1)
movej(p[0.456061221585516, 0.0617375051945671, 0.417133322510775, -1.192, 0.952, -1.048], a = 0.2, v = 0.2, t = 0.1)
movej(p[0.456057050559949, 0.0617372293431726, 0.417130662705382, -1.192, 0.952, -1.048], a = 0.2, v = 0.2, t = 0.1)
movej(p[0.456054402544122, 0.0617399021106901, 0.417131052909144, -1.192, 0.952, -1.048], a = 0.2, v = 0.2, t = 0.1)
movej(p[0.456052477475671, 0.0617432449465835, 0.417130611219607, -1.192, 0.952, -1.048], a = 0.2, v = 0.2, t = 0.1)
movej(p[0.456049542815057, 0.0617461935227525, 0.417127147761558, -1.192, 0.952, -1.048], a = 0.2, v = 0.2, t = 0.1)
movej(p[0.456045305077894, 0.061749120652424, 0.417120011740704, -1.192, 0.952, -1.048], a = 0.2, v = 0.2, t = 0.1)
movej(p[0.456040118136748, 0.0617520679783157, 0.417111152763696, -1.192, 0.952, -1.048], a = 0.2, v = 0.2, t = 0.1)
movej(p[0.456034490606572, 0.0617546370891996, 0.417103064276607, -1.192, 0.952, -1.048], a = 0.2, v = 0.2, t = 0.1)
movej(p[0.456029514778013, 0.06175696120187, 0.417097429641974, -1.192, 0.952, -1.048], a = 0.2, v = 0.2, t = 0.1)
movej(p[0.456025954193158, 0.0617581939468892, 0.417094861296941, -1.192, 0.952, -1.048], a = 0.2, v = 0.2, t = 0.1)
movej(p[0.456023391247165, 0.0617596944497851, 0.417094597852648, -1.192, 0.952, -1.048], a = 0.2, v = 0.2, t = 0.1)
movej(p[0.456020996520044, 0.0617613549901222, 0.417094951368992, -1.192, 0.952, -1.048], a = 0.2, v = 0.2, t = 0.1)
movej(p[0.45601736303481, 0.0617644013956641, 0.417094381983949, -1.192, 0.952, -1.048], a = 0.2, v = 0.2, t = 0.1)
movej(p[0.456010792677212, 0.0617659780891758, 0.417092150608453, -1.192, 0.952, -1.048], a = 0.2, v = 0.2, t = 0.1)
movej(p[0.456000374899333, 0.0617667495200618, 0.417089782663258, -1.192, 0.952, -1.048], a = 0.2, v = 0.2, t = 0.1)
movej(p[0.455985215550386, 0.0617669961278899, 0.417087781513064, -1.192, 0.952, -1.048], a = 0.2, v = 0.2, t = 0.1)
movej(p[0.455969590393094, 0.0617685508065527, 0.417086237308464, -1.192, 0.952, -1.048], a = 0.2, v = 0.2, t = 0.1)
movej(p[0.45595509777238, 0.0617691749907384, 0.417086266082544, -1.192, 0.952, -1.048], a = 0.2, v = 0.2, t = 0.1)
movej(p[0.45594330265989, 0.0617652767483522, 0.417090102196415, -1.192, 0.952, -1.048], a = 0.2, v = 0.2, t = 0.1)
movej(p[0.455933976082431, 0.0617559982885821, 0.417098700114954, -1.192, 0.952, -1.048], a = 0.2, v = 0.2, t = 0.1)
movej(p[0.455928625440946, 0.0617435585299054, 0.417110318697388, -1.192, 0.952, -1.048], a = 0.2, v = 0.2, t = 0.1)
movej(p[0.455929375560558, 0.06173282563667, 0.417122294658325, -1.192, 0.952, -1.048], a = 0.2, v = 0.2, t = 0.1)
movej(p[0.455936994933447, 0.0617257839323166, 0.417133159327191, -1.192, 0.952, -1.048], a = 0.2, v = 0.2, t = 0.1)
movej(p[0.455951060431433, 0.0617219197808099, 0.417143696126969, -1.192, 0.952, -1.048], a = 0.2, v = 0.2, t = 0.1)
movej(p[0.455969457528285, 0.0617185105501872, 0.417154865372197, -1.192, 0.952, -1.048], a = 0.2, v = 0.2, t = 0.1)
movej(p[0.455990048826654, 0.0617157500277701, 0.417165964031551, -1.192, 0.952, -1.048], a = 0.2, v = 0.2, t = 0.1)
movej(p[0.456011095982303, 0.061713697411794, 0.417176674829316, -1.192, 0.952, -1.048], a = 0.2, v = 0.2, t = 0.1)
movej(p[0.456032461768404, 0.0617135888101036, 0.417187480411527, -1.192, 0.952, -1.048], a = 0.2, v = 0.2, t = 0.1)
movej(p[0.456052384443099, 0.0617143121669702, 0.417197672189677, -1.192, 0.952, -1.048], a = 0.2, v = 0.2, t = 0.1)
movej(p[0.456070172084848, 0.0617147959044899, 0.417207220190779, -1.192, 0.952, -1.048], a = 0.2, v = 0.2, t = 0.1)
movej(p[0.456085530280494, 0.0617142918953642, 0.417215706921792, -1.192, 0.952, -1.048], a = 0.2, v = 0.2, t = 0.1)
movej(p[0.4560982299678, 0.0617130262709152, 0.417224426473563, -1.192, 0.952, -1.048], a = 0.2, v = 0.2, t = 0.1)
movej(p[0.456108885136878, 0.0617129907169959, 0.417232907136853, -1.192, 0.952, -1.048], a = 0.2, v = 0.2, t = 0.1)
movej(p[0.456115595892842, 0.0617142176197085, 0.417241837730625, -1.192, 0.952, -1.048], a = 0.2, v = 0.2, t = 0.1)
movej(p[0.456119136259195, 0.0617172412277088, 0.417249494950208, -1.192, 0.952, -1.048], a = 0.2, v = 0.2, t = 0.1)
movej(p[0.456119207216558, 0.061721484281723, 0.417255620704259, -1.192, 0.952, -1.048], a = 0.2, v = 0.2, t = 0.1)
movej(p[0.456116101210041, 0.0617234437524286, 0.417260059177427, -1.192, 0.952, -1.048], a = 0.2, v = 0.2, t = 0.1)
movej(p[0.456109159380528, 0.0617208544808543, 0.417266056629947, -1.192, 0.952, -1.048], a = 0.2, v = 0.2, t = 0.1)
movej(p[0.456101549363306, 0.0617149803554099, 0.417272726764589, -1.192, 0.952, -1.048], a = 0.2, v = 0.2, t = 0.1)
movej(p[0.456097044643648, 0.0617114017855269, 0.417279916370795, -1.192, 0.952, -1.048], a = 0.2, v = 0.2, t = 0.1)
movej(p[0.456096015228358, 0.0617111874773273, 0.41728319777692, -1.192, 0.952, -1.048], a = 0.2, v = 0.2, t = 0.1)
movej(p[0.456097042100994, 0.0617143355500663, 0.417279443613815, -1.192, 0.952, -1.048], a = 0.2, v = 0.2, t = 0.1)
movej(p[0.45609948524419, 0.0617212460376393, 0.417267482870952, -1.192, 0.952, -1.048], a = 0.2, v = 0.2, t = 0.1)
movej(p[0.456102830663398, 0.0617313005132796, 0.417252683093389, -1.192, 0.952, -1.048], a = 0.2, v = 0.2, t = 0.1)
movej(p[0.456106626111473, 0.0617436413750818, 0.417238642213933, -1.192, 0.952, -1.048], a = 0.2, v = 0.2, t = 0.1)
movej(p[0.456109432671722, 0.0617573441460564, 0.417226982979345, -1.192, 0.952, -1.048], a = 0.2, v = 0.2, t = 0.1)
movej(p[0.456110152527744, 0.0617695833126591, 0.417215990935669, -1.192, 0.952, -1.048], a = 0.2, v = 0.2, t = 0.1)
movej(p[0.456108189183099, 0.0617790161974731, 0.417203291284103, -1.192, 0.952, -1.048], a = 0.2, v = 0.2, t = 0.1)
movej(p[0.456103974267428, 0.0617866782428061, 0.417186699626314, -1.192, 0.952, -1.048], a = 0.2, v = 0.2, t = 0.1)
movej(p[0.456099546878985, 0.0617942626385024, 0.417168317793992, -1.192, 0.952, -1.048], a = 0.2, v = 0.2, t = 0.1)
movej(p[0.456095736524726, 0.0618006402903358, 0.417150666613479, -1.192, 0.952, -1.048], a = 0.2, v = 0.2, t = 0.1)
movej(p[0.456092124606942, 0.0618064223856849, 0.417135098331772, -1.192, 0.952, -1.048], a = 0.2, v = 0.2, t = 0.1)
movej(p[0.456087778128409, 0.0618127424013854, 0.417121848432304, -1.192, 0.952, -1.048], a = 0.2, v = 0.2, t = 0.1)
movej(p[0.456081417908713, 0.061821110931036, 0.417110588277825, -1.192, 0.952, -1.048], a = 0.2, v = 0.2, t = 0.1)
movej(p[0.456071932856489, 0.0618304470133374, 0.41710201520588, -1.192, 0.952, -1.048], a = 0.2, v = 0.2, t = 0.1)
movej(p[0.456058173600532, 0.0618389490895301, 0.417097074008968, -1.192, 0.952, -1.048], a = 0.2, v = 0.2, t = 0.1)
movej(p[0.456040582613317, 0.0618464491602448, 0.417093874524312, -1.192, 0.952, -1.048], a = 0.2, v = 0.2, t = 0.1)
movej(p[0.456022212396915, 0.0618535296221747, 0.417090694922889, -1.192, 0.952, -1.048], a = 0.2, v = 0.2, t = 0.1)
movej(p[0.456005833645283, 0.0618595557927954, 0.417087012665614, -1.192, 0.952, -1.048], a = 0.2, v = 0.2, t = 0.1)
movej(p[0.455992071852309, 0.0618652200079518, 0.417083651778261, -1.192, 0.952, -1.048], a = 0.2, v = 0.2, t = 0.1)
