movej(p[0.418192572027561, 0.218286798666737, 0.31165918462948, -1.405, 0.76, -0.761], a = 0.2, v = 0.2, t = 0.2)
movej(p[0.418194969236848, 0.218291059097017, 0.311478720499057, -1.405, 0.76, -0.761], a = 0.2, v = 0.2, t = 0.2)
movej(p[0.418195999023936, 0.218292889281856, 0.311401197175425, -1.405, 0.76, -0.761], a = 0.2, v = 0.2, t = 0.2)
movej(p[0.41819814300689, 0.218296699666684, 0.31123979615737, -1.405, 0.76, -0.761], a = 0.2, v = 0.2, t = 0.2)
movej(p[0.418198020011243, 0.218296481073179, 0.311249055383378, -1.405, 0.76, -0.761], a = 0.2, v = 0.2, t = 0.2)
movej(p[0.418194728068912, 0.218290630482301, 0.31149687584417, -1.405, 0.76, -0.761], a = 0.2, v = 0.2, t = 0.2)
movej(p[0.418187813784178, 0.218278342098383, 0.31201738958856, -1.405, 0.76, -0.761], a = 0.2, v = 0.2, t = 0.2)
movej(p[0.418176570534986, 0.218258360080308, 0.312863791777728, -1.405, 0.76, -0.761], a = 0.2, v = 0.2, t = 0.2)
movej(p[0.418164910065265, 0.218237636558773, 0.313741602713942, -1.405, 0.76, -0.761], a = 0.2, v = 0.2, t = 0.2)
movej(p[0.418153162775087, 0.21821675873594, 0.314625949574396, -1.405, 0.76, -0.761], a = 0.2, v = 0.2, t = 0.2)
movej(p[0.418144039392055, 0.218200544241221, 0.31531276628002, -1.405, 0.76, -0.761], a = 0.2, v = 0.2, t = 0.2)
movej(p[0.418137419332203, 0.218188778767258, 0.315811130503372, -1.405, 0.76, -0.761], a = 0.2, v = 0.2, t = 0.2)
movej(p[0.418147217985456, 0.218206193383182, 0.315073478831431, -1.405, 0.76, -0.761], a = 0.2, v = 0.2, t = 0.2)
movej(p[0.418164741247709, 0.218237336528471, 0.313754311455521, -1.405, 0.76, -0.761], a = 0.2, v = 0.2, t = 0.2)
movej(p[0.418178099539702, 0.218261077497609, 0.312748686889712, -1.405, 0.76, -0.761], a = 0.2, v = 0.2, t = 0.2)
movej(p[0.418186205194042, 0.218275483238226, 0.312138485740464, -1.405, 0.76, -0.761], a = 0.2, v = 0.2, t = 0.2)
movej(p[0.418191474713451, 0.218284848469777, 0.311741791449745, -1.405, 0.76, -0.761], a = 0.2, v = 0.2, t = 0.2)
movej(p[0.418196001435616, 0.218292893568003, 0.311401015621974, -1.405, 0.76, -0.761], a = 0.2, v = 0.2, t = 0.2)
movej(p[0.418196698410952, 0.218294132264533, 0.311348546674597, -1.405, 0.76, -0.761], a = 0.2, v = 0.2, t = 0.2)
movej(p[0.418197052927818, 0.218294762328166, 0.311321858317281, -1.405, 0.76, -0.761], a = 0.2, v = 0.2, t = 0.2)
movej(p[0.418197831900252, 0.2182961467537, 0.311263216552566, -1.405, 0.76, -0.761], a = 0.2, v = 0.2, t = 0.2)
movej(p[0.418198249120782, 0.218296888257159, 0.31123180780552, -1.405, 0.76, -0.761], a = 0.2, v = 0.2, t = 0.2)
movej(p[0.418191105726508, 0.218284192689261, 0.311769569127767, -1.405, 0.76, -0.761], a = 0.2, v = 0.2, t = 0.2)
movej(p[0.418181577181344, 0.218267258121819, 0.312486886813182, -1.405, 0.76, -0.761], a = 0.2, v = 0.2, t = 0.2)
movej(p[0.41817330029777, 0.218252548064754, 0.31310997825746, -1.405, 0.76, -0.761], a = 0.2, v = 0.2, t = 0.2)
movej(p[0.418161198490725, 0.218231040178288, 0.314021013475231, -1.405, 0.76, -0.761], a = 0.2, v = 0.2, t = 0.2)
movej(p[0.418149260677877, 0.21820982374983, 0.314919703058324, -1.405, 0.76, -0.761], a = 0.2, v = 0.2, t = 0.2)
movej(p[0.418140771566518, 0.218194736511815, 0.315558771206302, -1.405, 0.76, -0.761], a = 0.2, v = 0.2, t = 0.2)
movej(p[0.41814625572539, 0.218204483210464, 0.315145918658432, -1.405, 0.76, -0.761], a = 0.2, v = 0.2, t = 0.2)
movej(p[0.418160050531348, 0.218228999972239, 0.314107432917968, -1.405, 0.76, -0.761], a = 0.2, v = 0.2, t = 0.2)
movej(p[0.418173543877385, 0.218252980965618, 0.313091641358896, -1.405, 0.76, -0.761], a = 0.2, v = 0.2, t = 0.2)
movej(p[0.418185734916566, 0.218274647439529, 0.312173888663434, -1.405, 0.76, -0.761], a = 0.2, v = 0.2, t = 0.2)
movej(p[0.418191330012689, 0.218284591300948, 0.311752684656812, -1.405, 0.76, -0.761], a = 0.2, v = 0.2, t = 0.2)
movej(p[0.418194361493649, 0.218289978987932, 0.311524471968742, -1.405, 0.76, -0.761], a = 0.2, v = 0.2, t = 0.2)
movej(p[0.418196015905692, 0.218292919284886, 0.311399926301267, -1.405, 0.76, -0.761], a = 0.2, v = 0.2, t = 0.2)
movej(p[0.41819856022742, 0.218297441170143, 0.311208387410325, -1.405, 0.76, -0.761], a = 0.2, v = 0.2, t = 0.2)
movej(p[0.41819856022742, 0.218297441170143, 0.311208387410325, -1.405, 0.76, -0.761], a = 0.2, v = 0.2, t = 0.2)
movej(p[0.418197979012694, 0.218296408208677, 0.311252141792047, -1.405, 0.76, -0.761], a = 0.2, v = 0.2, t = 0.2)
movej(p[0.418193331706561, 0.218288148803093, 0.311601995292374, -1.405, 0.76, -0.761], a = 0.2, v = 0.2, t = 0.2)
movej(p[0.418183735634374, 0.21827109422353, 0.312324396474421, -1.405, 0.76, -0.761], a = 0.2, v = 0.2, t = 0.2)
movej(p[0.41817083556146, 0.218248167622353, 0.313295525884515, -1.405, 0.76, -0.761], a = 0.2, v = 0.2, t = 0.2)
movej(p[0.418159066566168, 0.218227251224196, 0.314181506726029, -1.405, 0.76, -0.761], a = 0.2, v = 0.2, t = 0.2)
movej(p[0.418149755072146, 0.218210702409998, 0.314882484600842, -1.405, 0.76, -0.761], a = 0.2, v = 0.2, t = 0.2)
movej(p[0.41814076433148, 0.218194723653373, 0.315559315866655, -1.405, 0.76, -0.761], a = 0.2, v = 0.2, t = 0.2)
movej(p[0.418141738649943, 0.218196455256827, 0.315485968272399, -1.405, 0.76, -0.761], a = 0.2, v = 0.2, t = 0.2)
movej(p[0.418159652604253, 0.218228292757957, 0.314137389237405, -1.405, 0.76, -0.761], a = 0.2, v = 0.2, t = 0.2)
movej(p[0.418176008613695, 0.218257361408019, 0.312906093731841, -1.405, 0.76, -0.761], a = 0.2, v = 0.2, t = 0.2)
movej(p[0.418184176971698, 0.218271878588461, 0.312291172192864, -1.405, 0.76, -0.761], a = 0.2, v = 0.2, t = 0.2)
movej(p[0.418190403927814, 0.218282945420437, 0.311822401182046, -1.405, 0.76, -0.761], a = 0.2, v = 0.2, t = 0.2)
movej(p[0.418195849499816, 0.218292623540732, 0.311412453489395, -1.405, 0.76, -0.761], a = 0.2, v = 0.2, t = 0.2)
movej(p[0.418196982989117, 0.218294638029899, 0.311327123367364, -1.405, 0.76, -0.761], a = 0.2, v = 0.2, t = 0.2)
movej(p[0.418197267567281, 0.218295143795264, 0.31130570006013, -1.405, 0.76, -0.761], a = 0.2, v = 0.2, t = 0.2)
movej(p[0.418192494853822, 0.218286661510028, 0.311664994339917, -1.405, 0.76, -0.761], a = 0.2, v = 0.2, t = 0.2)
movej(p[0.418185269462449, 0.218273820213126, 0.312208928479502, -1.405, 0.76, -0.761], a = 0.2, v = 0.2, t = 0.2)
movej(p[0.418172359742818, 0.218250876467361, 0.313180784103401, -1.405, 0.76, -0.761], a = 0.2, v = 0.2, t = 0.2)
movej(p[0.418159339085936, 0.218227735558825, 0.314160991186052, -1.405, 0.76, -0.761], a = 0.2, v = 0.2, t = 0.2)
movej(p[0.418149395731921, 0.218210063774071, 0.314909536065061, -1.405, 0.76, -0.761], a = 0.2, v = 0.2, t = 0.2)
movej(p[0.418140168646677, 0.218193664975024, 0.315604159569084, -1.405, 0.76, -0.761], a = 0.2, v = 0.2, t = 0.2)
movej(p[0.418140786036594, 0.218194762228698, 0.315557681885595, -1.405, 0.76, -0.761], a = 0.2, v = 0.2, t = 0.2)
movej(p[0.418156551184592, 0.218222780772705, 0.314370866975558, -1.405, 0.76, -0.761], a = 0.2, v = 0.2, t = 0.2)
movej(p[0.418173975567991, 0.21825374818596, 0.313059143291144, -1.405, 0.76, -0.761], a = 0.2, v = 0.2, t = 0.2)
movej(p[0.418183106186061, 0.218269975539121, 0.312371781925166, -1.405, 0.76, -0.761], a = 0.2, v = 0.2, t = 0.2)
movej(p[0.418188882158135, 0.218280240861577, 0.311936961409709, -1.405, 0.76, -0.761], a = 0.2, v = 0.2, t = 0.2)
movej(p[0.418194173382658, 0.218289644668453, 0.31153863313793, -1.405, 0.76, -0.761], a = 0.2, v = 0.2, t = 0.2)
movej(p[0.418196710469349, 0.218294153695269, 0.311347638907341, -1.405, 0.76, -0.761], a = 0.2, v = 0.2, t = 0.2)
movej(p[0.418197479795065, 0.218295520976214, 0.311289723356431, -1.405, 0.76, -0.761], a = 0.2, v = 0.2, t = 0.2)
movej(p[0.418197947660862, 0.218296352488764, 0.311254501986912, -1.405, 0.76, -0.761], a = 0.2, v = 0.2, t = 0.2)
movej(p[0.418199594837867, 0.218299279927277, 0.31113050097979, -1.405, 0.76, -0.761], a = 0.2, v = 0.2, t = 0.2)
movej(p[0.418199290966267, 0.218298739872734, 0.311153376714632, -1.405, 0.76, -0.761], a = 0.2, v = 0.2, t = 0.2)
movej(p[0.418194759420744, 0.218290686202214, 0.311494515649306, -1.405, 0.76, -0.761], a = 0.2, v = 0.2, t = 0.2)
movej(p[0.418185363517945, 0.218273987372865, 0.312201847894908, -1.405, 0.76, -0.761], a = 0.2, v = 0.2, t = 0.2)
movej(p[0.41817841064634, 0.218261630410593, 0.312725266494516, -1.405, 0.76, -0.761], a = 0.2, v = 0.2, t = 0.2)
movej(p[0.418167425446841, 0.218242107010264, 0.313552242464413, -1.405, 0.76, -0.761], a = 0.2, v = 0.2, t = 0.2)
movej(p[0.418156365485281, 0.218222450739373, 0.314384846591295, -1.405, 0.76, -0.761], a = 0.2, v = 0.2, t = 0.2)
movej(p[0.418150251878095, 0.218211585356314, 0.31484508458991, -1.405, 0.76, -0.761], a = 0.2, v = 0.2, t = 0.2)
movej(p[0.418146354604244, 0.218204658942498, 0.315138474966936, -1.405, 0.76, -0.761], a = 0.2, v = 0.2, t = 0.2)
movej(p[0.418158740989454, 0.218226672594329, 0.314206016441932, -1.405, 0.76, -0.761], a = 0.2, v = 0.2, t = 0.2)
movej(p[0.418172494796862, 0.218251116491602, 0.313170617110138, -1.405, 0.76, -0.761], a = 0.2, v = 0.2, t = 0.2)
movej(p[0.418183841748266, 0.218271282814005, 0.312316408122571, -1.405, 0.76, -0.761], a = 0.2, v = 0.2, t = 0.2)
movej(p[0.418188279238295, 0.218279169324786, 0.311982349772492, -1.405, 0.76, -0.761], a = 0.2, v = 0.2, t = 0.2)
movej(p[0.418192145160314, 0.218286040018689, 0.31169131959033, -1.405, 0.76, -0.761], a = 0.2, v = 0.2, t = 0.2)
movej(p[0.41819515252448, 0.218291384844202, 0.311464922436771, -1.405, 0.76, -0.761], a = 0.2, v = 0.2, t = 0.2)
movej(p[0.418198061009792, 0.218296553937681, 0.311245968974709, -1.405, 0.76, -0.761], a = 0.2, v = 0.2, t = 0.2)
movej(p[0.418198381763147, 0.218297123995253, 0.311221822365708, -1.405, 0.76, -0.761], a = 0.2, v = 0.2, t = 0.2)
movej(p[0.418198413114979, 0.218297179715167, 0.311219462170844, -1.405, 0.76, -0.761], a = 0.2, v = 0.2, t = 0.2)
movej(p[0.418199968648168, 0.218299944280087, 0.311102360194865, -1.405, 0.76, -0.761], a = 0.2, v = 0.2, t = 0.2)
movej(p[0.41819958519115, 0.218299262782688, 0.311131227193594, -1.405, 0.76, -0.761], a = 0.2, v = 0.2, t = 0.2)
movej(p[0.418194426608992, 0.218290094713905, 0.311519570025561, -1.405, 0.76, -0.761], a = 0.2, v = 0.2, t = 0.2)
movej(p[0.418186588651061, 0.218276164735624, 0.312109618741734, -1.405, 0.76, -0.761], a = 0.2, v = 0.2, t = 0.2)
movej(p[0.418181678471877, 0.21826743814, 0.312479261568235, -1.405, 0.76, -0.761], a = 0.2, v = 0.2, t = 0.2)
movej(p[0.418172948192583, 0.218251922287268, 0.313136485061325, -1.405, 0.76, -0.761], a = 0.2, v = 0.2, t = 0.2)
movej(p[0.418163547466425, 0.218235214885626, 0.31384418041383, -1.405, 0.76, -0.761], a = 0.2, v = 0.2, t = 0.2)
movej(p[0.418155998910018, 0.218221799245004, 0.314412442715867, -1.405, 0.76, -0.761], a = 0.2, v = 0.2, t = 0.2)
movej(p[0.418150719743892, 0.218212416868864, 0.31480986322039, -1.405, 0.76, -0.761], a = 0.2, v = 0.2, t = 0.2)
movej(p[0.418154973946288, 0.21821997763246, 0.314489602932597, -1.405, 0.76, -0.761], a = 0.2, v = 0.2, t = 0.2)
movej(p[0.41816788125424, 0.218242917092078, 0.313517928862149, -1.405, 0.76, -0.761], a = 0.2, v = 0.2, t = 0.2)
movej(p[0.418179901064187, 0.21826427924954, 0.312613066461717, -1.405, 0.76, -0.761], a = 0.2, v = 0.2, t = 0.2)
movej(p[0.418185334577792, 0.2182739359391, 0.312204026536322, -1.405, 0.76, -0.761], a = 0.2, v = 0.2, t = 0.2)
movej(p[0.418189289731948, 0.218280965220447, 0.311906278876468, -1.405, 0.76, -0.761], a = 0.2, v = 0.2, t = 0.2)
movej(p[0.418192461090311, 0.218286601503967, 0.311667536088232, -1.405, 0.76, -0.761], a = 0.2, v = 0.2, t = 0.2)
movej(p[0.418196814171561, 0.218294337999597, 0.311339832108943, -1.405, 0.76, -0.761], a = 0.2, v = 0.2, t = 0.2)
movej(p[0.418197694434529, 0.218295902443312, 0.31127356509928, -1.405, 0.76, -0.761], a = 0.2, v = 0.2, t = 0.2)
movej(p[0.4181981068317, 0.218296635374477, 0.311242519459137, -1.405, 0.76, -0.761], a = 0.2, v = 0.2, t = 0.2)
movej(p[0.418199426020312, 0.218298979896975, 0.311143209721369, -1.405, 0.76, -0.761], a = 0.2, v = 0.2, t = 0.2)
movej(p[0.418199635836416, 0.218299352791778, 0.311127414571121, -1.405, 0.76, -0.761], a = 0.2, v = 0.2, t = 0.2)
movej(p[0.418194711187156, 0.218290600479271, 0.311498146718328, -1.405, 0.76, -0.761], a = 0.2, v = 0.2, t = 0.2)
movej(p[0.418189050975691, 0.218280540891878, 0.31192425266813, -1.405, 0.76, -0.761], a = 0.2, v = 0.2, t = 0.2)
movej(p[0.41818136495356, 0.218266880940869, 0.312502863516882, -1.405, 0.76, -0.761], a = 0.2, v = 0.2, t = 0.2)
movej(p[0.418169827479487, 0.218246376012839, 0.313371415227087, -1.405, 0.76, -0.761], a = 0.2, v = 0.2, t = 0.2)
movej(p[0.418158523938311, 0.218226286841084, 0.314222356252534, -1.405, 0.76, -0.761], a = 0.2, v = 0.2, t = 0.2)
movej(p[0.418147968017738, 0.21820752637495, 0.31501701570813, -1.405, 0.76, -0.761], a = 0.2, v = 0.2, t = 0.2)
movej(p[0.418143373768551, 0.218199361264604, 0.315362875032532, -1.405, 0.76, -0.761], a = 0.2, v = 0.2, t = 0.2)
movej(p[0.418147008169352, 0.218205820488379, 0.315089273981679, -1.405, 0.76, -0.761], a = 0.2, v = 0.2, t = 0.2)
movej(p[0.418159124446473, 0.218227354091728, 0.314177149443202, -1.405, 0.76, -0.761], a = 0.2, v = 0.2, t = 0.2)
movej(p[0.418173736811734, 0.218253323857391, 0.313077117082806, -1.405, 0.76, -0.761], a = 0.2, v = 0.2, t = 0.2)
movej(p[0.418182896369956, 0.218269602644317, 0.312387577075414, -1.405, 0.76, -0.761], a = 0.2, v = 0.2, t = 0.2)
movej(p[0.418188542111345, 0.218279636514827, 0.311962560446319, -1.405, 0.76, -0.761], a = 0.2, v = 0.2, t = 0.2)
movej(p[0.418192309154511, 0.218286331476696, 0.311678973955654, -1.405, 0.76, -0.761], a = 0.2, v = 0.2, t = 0.2)
movej(p[0.41819651512332, 0.218293806517349, 0.311362344736883, -1.405, 0.76, -0.761], a = 0.2, v = 0.2, t = 0.2)
movej(p[0.418197318212548, 0.218295233804354, 0.311301887437657, -1.405, 0.76, -0.761], a = 0.2, v = 0.2, t = 0.2)
movej(p[0.418197667906056, 0.218295855295693, 0.311275562187243, -1.405, 0.76, -0.761], a = 0.2, v = 0.2, t = 0.2)
movej(p[0.418198041716357, 0.218296519648503, 0.311247421402318, -1.405, 0.76, -0.761], a = 0.2, v = 0.2, t = 0.2)
movej(p[0.418196753879577, 0.218294230845918, 0.311344370945221, -1.405, 0.76, -0.761], a = 0.2, v = 0.2, t = 0.2)
movej(p[0.418188308178447, 0.218279220758552, 0.311980171131078, -1.405, 0.76, -0.761], a = 0.2, v = 0.2, t = 0.2)
movej(p[0.41817917032534, 0.21826298054695, 0.31266807715741, -1.405, 0.76, -0.761], a = 0.2, v = 0.2, t = 0.2)
movej(p[0.418170478632915, 0.218247533272573, 0.313322395795282, -1.405, 0.76, -0.761], a = 0.2, v = 0.2, t = 0.2)
movej(p[0.418158639698921, 0.218226492576148, 0.314213641686879, -1.405, 0.76, -0.761], a = 0.2, v = 0.2, t = 0.2)
movej(p[0.418147210750418, 0.218206180524741, 0.315074023491785, -1.405, 0.76, -0.761], a = 0.2, v = 0.2, t = 0.2)
movej(p[0.418142211339098, 0.218197295341671, 0.315450383795977, -1.405, 0.76, -0.761], a = 0.2, v = 0.2, t = 0.2)
movej(p[0.418152477858147, 0.218215541470146, 0.314677510754517, -1.405, 0.76, -0.761], a = 0.2, v = 0.2, t = 0.2)
movej(p[0.418164574841833, 0.218237040784317, 0.313766838643649, -1.405, 0.76, -0.761], a = 0.2, v = 0.2, t = 0.2)
movej(p[0.418174187795775, 0.21825412536691, 0.313043166587444, -1.405, 0.76, -0.761], a = 0.2, v = 0.2, t = 0.2)
movej(p[0.418183559581781, 0.218270781334787, 0.312337649876353, -1.405, 0.76, -0.761], a = 0.2, v = 0.2, t = 0.2)
movej(p[0.418189248733399, 0.218280892355946, 0.311909365285138, -1.405, 0.76, -0.761], a = 0.2, v = 0.2, t = 0.2)
movej(p[0.418192053516498, 0.218285877145097, 0.311698218621473, -1.405, 0.76, -0.761], a = 0.2, v = 0.2, t = 0.2)
movej(p[0.418194465195861, 0.21829016329226, 0.311516665170343, -1.405, 0.76, -0.761], a = 0.2, v = 0.2, t = 0.2)
movej(p[0.418197556968805, 0.218295658132924, 0.311283913645995, -1.405, 0.76, -0.761], a = 0.2, v = 0.2, t = 0.2)
movej(p[0.418197860840405, 0.218296198187466, 0.311261037911152, -1.405, 0.76, -0.761], a = 0.2, v = 0.2, t = 0.2)
movej(p[0.418197028811025, 0.218294719466695, 0.311323673851792, -1.405, 0.76, -0.761], a = 0.2, v = 0.2, t = 0.2)
movej(p[0.418192309154511, 0.218286331476696, 0.311678973955654, -1.405, 0.76, -0.761], a = 0.2, v = 0.2, t = 0.2)
movej(p[0.41818647771381, 0.218275967572855, 0.312117970200486, -1.405, 0.76, -0.761], a = 0.2, v = 0.2, t = 0.2)
movej(p[0.418176196724685, 0.218257695727497, 0.312891932562653, -1.405, 0.76, -0.761], a = 0.2, v = 0.2, t = 0.2)
movej(p[0.418166820115321, 0.218241031187326, 0.313597812380647, -1.405, 0.76, -0.761], a = 0.2, v = 0.2, t = 0.2)
movej(p[0.418159339085936, 0.218227735558825, 0.314160991186052, -1.405, 0.76, -0.761], a = 0.2, v = 0.2, t = 0.2)
movej(p[0.41814902192162, 0.218209399421261, 0.314937676849986, -1.405, 0.76, -0.761], a = 0.2, v = 0.2, t = 0.2)
movej(p[0.418142857669167, 0.218198444029111, 0.315401727471074, -1.405, 0.76, -0.761], a = 0.2, v = 0.2, t = 0.2)
movej(p[0.41815114419946, 0.218213171230764, 0.314777909812992, -1.405, 0.76, -0.761], a = 0.2, v = 0.2, t = 0.2)
movej(p[0.418166658532803, 0.218240744015466, 0.313609976461872, -1.405, 0.76, -0.761], a = 0.2, v = 0.2, t = 0.2)
movej(p[0.418176720059107, 0.218258625821432, 0.312852535463758, -1.405, 0.76, -0.761], a = 0.2, v = 0.2, t = 0.2)
movej(p[0.418184044329333, 0.218271642850367, 0.312301157632676, -1.405, 0.76, -0.761], a = 0.2, v = 0.2, t = 0.2)
movej(p[0.418191146725058, 0.218284265553763, 0.311766482719098, -1.405, 0.76, -0.761], a = 0.2, v = 0.2, t = 0.2)
movej(p[0.418194870357994, 0.218290883364984, 0.311486164190554, -1.405, 0.76, -0.761], a = 0.2, v = 0.2, t = 0.2)
movej(p[0.418196399362711, 0.218293600782285, 0.311371059302537, -1.405, 0.76, -0.761], a = 0.2, v = 0.2, t = 0.2)
movej(p[0.418197441208196, 0.21829545239786, 0.311292628211649, -1.405, 0.76, -0.761], a = 0.2, v = 0.2, t = 0.2)
movej(p[0.418199672011607, 0.218299417083986, 0.311124691269354, -1.405, 0.76, -0.761], a = 0.2, v = 0.2, t = 0.2)
movej(p[0.418199428431991, 0.218298984183122, 0.311143028167918, -1.405, 0.76, -0.761], a = 0.2, v = 0.2, t = 0.2)
movej(p[0.418197033634383, 0.218294728038989, 0.31132331074489, -1.405, 0.76, -0.761], a = 0.2, v = 0.2, t = 0.2)
movej(p[0.418190818736664, 0.218283682637749, 0.311791173988452, -1.405, 0.76, -0.761], a = 0.2, v = 0.2, t = 0.2)
movej(p[0.418184225205285, 0.218271964311404, 0.312287541123841, -1.405, 0.76, -0.761], a = 0.2, v = 0.2, t = 0.2)
movej(p[0.418173705459903, 0.218253268137478, 0.31307947727767, -1.405, 0.76, -0.761], a = 0.2, v = 0.2, t = 0.2)
movej(p[0.418165423752969, 0.218238549508119, 0.313702931828851, -1.405, 0.76, -0.761], a = 0.2, v = 0.2, t = 0.2)
movej(p[0.418158417824419, 0.218226098250609, 0.314230344604383, -1.405, 0.76, -0.761], a = 0.2, v = 0.2, t = 0.2)
movej(p[0.418150177116035, 0.218211452485752, 0.314850712746895, -1.405, 0.76, -0.761], a = 0.2, v = 0.2, t = 0.2)
movej(p[0.418152289747157, 0.218215207150667, 0.314691671923705, -1.405, 0.76, -0.761], a = 0.2, v = 0.2, t = 0.2)
movej(p[0.41816454831336, 0.218236993636698, 0.313768835731611, -1.405, 0.76, -0.761], a = 0.2, v = 0.2, t = 0.2)
movej(p[0.418177875253522, 0.218260678885923, 0.312765571360667, -1.405, 0.76, -0.761], a = 0.2, v = 0.2, t = 0.2)
movej(p[0.418184832948485, 0.21827304442049, 0.312241789654157, -1.405, 0.76, -0.761], a = 0.2, v = 0.2, t = 0.2)
movej(p[0.418190367752623, 0.218282881128229, 0.311825124483813, -1.405, 0.76, -0.761], a = 0.2, v = 0.2, t = 0.2)
movej(p[0.41819579644287, 0.218292529245494, 0.31141644766532, -1.405, 0.76, -0.761], a = 0.2, v = 0.2, t = 0.2)
movej(p[0.418197892192237, 0.218296253907379, 0.311258677716288, -1.405, 0.76, -0.761], a = 0.2, v = 0.2, t = 0.2)
movej(p[0.418198931626042, 0.218298101236807, 0.311180428178851, -1.405, 0.76, -0.761], a = 0.2, v = 0.2, t = 0.2)
movej(p[0.418199467018861, 0.218299052761477, 0.3111401233127, -1.405, 0.76, -0.761], a = 0.2, v = 0.2, t = 0.2)
movej(p[0.4182, 0.2183, 0.3111, -1.405, 0.76, -0.761], a = 0.2, v = 0.2, t = 0.2)
movej(p[0.418193121890456, 0.21828777590829, 0.311617790442623, -1.405, 0.76, -0.761], a = 0.2, v = 0.2, t = 0.2)
movej(p[0.418183161654686, 0.218270074120505, 0.31236760619579, -1.405, 0.76, -0.761], a = 0.2, v = 0.2, t = 0.2)
movej(p[0.418173495643798, 0.218252895242674, 0.313095272427919, -1.405, 0.76, -0.761], a = 0.2, v = 0.2, t = 0.2)
movej(p[0.418164205854891, 0.218236385003801, 0.313794616321671, -1.405, 0.76, -0.761], a = 0.2, v = 0.2, t = 0.2)
movej(p[0.418152214985097, 0.218215074280105, 0.31469730008069, -1.405, 0.76, -0.761], a = 0.2, v = 0.2, t = 0.2)
movej(p[0.418142380156654, 0.218197595371973, 0.315437675054398, -1.405, 0.76, -0.761], a = 0.2, v = 0.2, t = 0.2)
movej(p[0.418143197715958, 0.218199048375861, 0.315376128434465, -1.405, 0.76, -0.761], a = 0.2, v = 0.2, t = 0.2)
movej(p[0.418156780294131, 0.218223187956685, 0.314353619397701, -1.405, 0.76, -0.761], a = 0.2, v = 0.2, t = 0.2)
movej(p[0.418170097587575, 0.218246856061321, 0.313351081240561, -1.405, 0.76, -0.761], a = 0.2, v = 0.2, t = 0.2)
movej(p[0.418180935674634, 0.218266118006674, 0.312535180031183, -1.405, 0.76, -0.761], a = 0.2, v = 0.2, t = 0.2)
movej(p[0.418154904007587, 0.218219853334192, 0.31449486798268, -1.405, 0.76, -0.761], a = 0.2, v = 0.2, t = 0.2)
movej(p[0.418170565453372, 0.218247687573871, 0.313315859871042, -1.405, 0.76, -0.761], a = 0.2, v = 0.2, t = 0.2)
movej(p[0.418181753233938, 0.218267571010562, 0.31247363341125, -1.405, 0.76, -0.761], a = 0.2, v = 0.2, t = 0.2)
movej(p[0.418190015647436, 0.218282255350744, 0.311851631287678, -1.405, 0.76, -0.761], a = 0.2, v = 0.2, t = 0.2)
movej(p[0.418193625931443, 0.218288671713047, 0.311579845771337, -1.405, 0.76, -0.761], a = 0.2, v = 0.2, t = 0.2)
movej(p[0.418195287578524, 0.218291624868443, 0.311454755443508, -1.405, 0.76, -0.761], a = 0.2, v = 0.2, t = 0.2)
movej(p[0.418196008670654, 0.218292906426445, 0.31140047096162, -1.405, 0.76, -0.761], a = 0.2, v = 0.2, t = 0.2)
movej(p[0.418197887368878, 0.218296245335085, 0.31125904082319, -1.405, 0.76, -0.761], a = 0.2, v = 0.2, t = 0.2)
movej(p[0.41819681899492, 0.218294346571892, 0.311339469002041, -1.405, 0.76, -0.761], a = 0.2, v = 0.2, t = 0.2)
movej(p[0.418186981754797, 0.218276863377612, 0.3120800255292, -1.405, 0.76, -0.761], a = 0.2, v = 0.2, t = 0.2)
movej(p[0.418177443562916, 0.218259911665581, 0.312798069428419, -1.405, 0.76, -0.761], a = 0.2, v = 0.2, t = 0.2)
movej(p[0.418164642368856, 0.218237160796438, 0.313761755147017, -1.405, 0.76, -0.761], a = 0.2, v = 0.2, t = 0.2)
movej(p[0.418150471340917, 0.218211975395706, 0.314828563225857, -1.405, 0.76, -0.761], a = 0.2, v = 0.2, t = 0.2)
movej(p[0.418138393650666, 0.218190510370712, 0.315737782909116, -1.405, 0.76, -0.761], a = 0.2, v = 0.2, t = 0.2)
movej(p[0.41813125749143, 0.218177827661255, 0.316274999571009, -1.405, 0.76, -0.761], a = 0.2, v = 0.2, t = 0.2)
movej(p[0.418134033334377, 0.21818276101664, 0.316066031548759, -1.405, 0.76, -0.761], a = 0.2, v = 0.2, t = 0.2)
movej(p[0.418151886996703, 0.218214491364091, 0.314721991350043, -1.405, 0.76, -0.761], a = 0.2, v = 0.2, t = 0.2)
movej(p[0.418171472244812, 0.218249299165204, 0.313247595773417, -1.405, 0.76, -0.761], a = 0.2, v = 0.2, t = 0.2)
movej(p[0.418181454185697, 0.218267039528314, 0.31249614603919, -1.405, 0.76, -0.761], a = 0.2, v = 0.2, t = 0.2)
movej(p[0.418188694047145, 0.218279906542098, 0.311951122578897, -1.405, 0.76, -0.761], a = 0.2, v = 0.2, t = 0.2)
movej(p[0.418192393563288, 0.218286481491847, 0.311672619584864, -1.405, 0.76, -0.761], a = 0.2, v = 0.2, t = 0.2)
movej(p[0.418196565768587, 0.218293896526439, 0.311358532114409, -1.405, 0.76, -0.761], a = 0.2, v = 0.2, t = 0.2)
movej(p[0.418197028811025, 0.218294719466695, 0.311323673851792, -1.405, 0.76, -0.761], a = 0.2, v = 0.2, t = 0.2)
movej(p[0.418197091514688, 0.218294830906521, 0.311318953462063, -1.405, 0.76, -0.761], a = 0.2, v = 0.2, t = 0.2)
movej(p[0.418197318212548, 0.218295233804354, 0.311301887437657, -1.405, 0.76, -0.761], a = 0.2, v = 0.2, t = 0.2)
movej(p[0.418187302508153, 0.218277433435185, 0.312055878920199, -1.405, 0.76, -0.761], a = 0.2, v = 0.2, t = 0.2)
movej(p[0.418173895982572, 0.218253606743104, 0.313065134555031, -1.405, 0.76, -0.761], a = 0.2, v = 0.2, t = 0.2)
movej(p[0.418160884972408, 0.218230482979157, 0.314044615423877, -1.405, 0.76, -0.761], a = 0.2, v = 0.2, t = 0.2)
movej(p[0.418148901337652, 0.218209185113902, 0.314946754522542, -1.405, 0.76, -0.761], a = 0.2, v = 0.2, t = 0.2)
movej(p[0.418136042263287, 0.218186331377227, 0.315914797523968, -1.405, 0.76, -0.761], a = 0.2, v = 0.2, t = 0.2)
movej(p[0.418126769356135, 0.218169851141384, 0.316612870543562, -1.405, 0.76, -0.761], a = 0.2, v = 0.2, t = 0.2)
movej(p[0.418135909620922, 0.218186095639133, 0.31592478296378, -1.405, 0.76, -0.761], a = 0.2, v = 0.2, t = 0.2)
movej(p[0.418151771236094, 0.218214285629027, 0.314730705915698, -1.405, 0.76, -0.761], a = 0.2, v = 0.2, t = 0.2)
movej(p[0.418167032343105, 0.218241408368277, 0.313581835676947, -1.405, 0.76, -0.761], a = 0.2, v = 0.2, t = 0.2)
movej(p[0.418179440433428, 0.218263460595432, 0.312647743170883, -1.405, 0.76, -0.761], a = 0.2, v = 0.2, t = 0.2)
movej(p[0.418189038917294, 0.218280519461142, 0.311925160435386, -1.405, 0.76, -0.761], a = 0.2, v = 0.2, t = 0.2)
movej(p[0.418192721551682, 0.218287064407861, 0.31164792831551, -1.405, 0.76, -0.761], a = 0.2, v = 0.2, t = 0.2)
movej(p[0.418194740127309, 0.218290651913037, 0.311495968076915, -1.405, 0.76, -0.761], a = 0.2, v = 0.2, t = 0.2)
movej(p[0.418197108396443, 0.218294860909551, 0.311317682587905, -1.405, 0.76, -0.761], a = 0.2, v = 0.2, t = 0.2)
movej(p[0.418197641377583, 0.218295808148074, 0.311277559275205, -1.405, 0.76, -0.761], a = 0.2, v = 0.2, t = 0.2)
movej(p[0.418196351129123, 0.218293515059342, 0.31137469037156, -1.405, 0.76, -0.761], a = 0.2, v = 0.2, t = 0.2)
movej(p[0.418186354718163, 0.21827574897935, 0.312127229426494, -1.405, 0.76, -0.761], a = 0.2, v = 0.2, t = 0.2)
movej(p[0.418177269922001, 0.218259603062985, 0.3128111412769, -1.405, 0.76, -0.761], a = 0.2, v = 0.2, t = 0.2)
movej(p[0.41816333765032, 0.218234841990822, 0.313859975564078, -1.405, 0.76, -0.761], a = 0.2, v = 0.2, t = 0.2)
movej(p[0.418149328204899, 0.21820994376195, 0.314914619561692, -1.405, 0.76, -0.761], a = 0.2, v = 0.2, t = 0.2)
movej(p[0.418140306112401, 0.218193909285412, 0.31559381102237, -1.405, 0.76, -0.761], a = 0.2, v = 0.2, t = 0.2)
movej(p[0.418134206975292, 0.218183069619236, 0.316052959700277, -1.405, 0.76, -0.761], a = 0.2, v = 0.2, t = 0.2)
movej(p[0.418146364250962, 0.218204676087087, 0.315137748753131, -1.405, 0.76, -0.761], a = 0.2, v = 0.2, t = 0.2)
movej(p[0.418163344885358, 0.218234854849264, 0.313859430903725, -1.405, 0.76, -0.761], a = 0.2, v = 0.2, t = 0.2)
movej(p[0.418178692812826, 0.218262131889812, 0.312704024740734, -1.405, 0.76, -0.761], a = 0.2, v = 0.2, t = 0.2)
movej(p[0.418186229310836, 0.218275526099697, 0.312136670205952, -1.405, 0.76, -0.761], a = 0.2, v = 0.2, t = 0.2)
movej(p[0.418191404774749, 0.21828472417151, 0.311747056499827, -1.405, 0.76, -0.761], a = 0.2, v = 0.2, t = 0.2)
movej(p[0.41819605931592, 0.218292996435535, 0.311396658339146, -1.405, 0.76, -0.761], a = 0.2, v = 0.2, t = 0.2)
movej(p[0.418196565768587, 0.218293896526439, 0.311358532114409, -1.405, 0.76, -0.761], a = 0.2, v = 0.2, t = 0.2)
movej(p[0.418197127689878, 0.218294895198728, 0.311316230160296, -1.405, 0.76, -0.761], a = 0.2, v = 0.2, t = 0.2)
movej(p[0.418197192805221, 0.218295010924702, 0.311311328217115, -1.405, 0.76, -0.761], a = 0.2, v = 0.2, t = 0.2)
movej(p[0.41819367416503, 0.21828875743599, 0.311576214702314, -1.405, 0.76, -0.761], a = 0.2, v = 0.2, t = 0.2)
movej(p[0.418181449362338, 0.218267030956019, 0.312496509146092, -1.405, 0.76, -0.761], a = 0.2, v = 0.2, t = 0.2)
movej(p[0.418168296063091, 0.21824365430939, 0.313486701668555, -1.405, 0.76, -0.761], a = 0.2, v = 0.2, t = 0.2)
movej(p[0.418157706379007, 0.218224833837196, 0.314283902872467, -1.405, 0.76, -0.761], a = 0.2, v = 0.2, t = 0.2)
movej(p[0.418145204233188, 0.218202614450301, 0.315225075963125, -1.405, 0.76, -0.761], a = 0.2, v = 0.2, t = 0.2)
movej(p[0.418135362169707, 0.218185122683727, 0.315965995597186, -1.405, 0.76, -0.761], a = 0.2, v = 0.2, t = 0.2)
movej(p[0.418134976301008, 0.218184436900181, 0.315995044149367, -1.405, 0.76, -0.761], a = 0.2, v = 0.2, t = 0.2)
movej(p[0.418151276841825, 0.218213406968858, 0.314767924373179, -1.405, 0.76, -0.761], a = 0.2, v = 0.2, t = 0.2)
movej(p[0.418166699531352, 0.218240816879968, 0.313606890053203, -1.405, 0.76, -0.761], a = 0.2, v = 0.2, t = 0.2)
movej(p[0.418178058541153, 0.218261004633108, 0.312751773298381, -1.405, 0.76, -0.761], a = 0.2, v = 0.2, t = 0.2)
movej(p[0.418188551758063, 0.218279653659415, 0.311961834232514, -1.405, 0.76, -0.761], a = 0.2, v = 0.2, t = 0.2)
movej(p[0.418192572027561, 0.218286798666737, 0.31165918462948, -1.405, 0.76, -0.761], a = 0.2, v = 0.2, t = 0.2)
movej(p[0.418194969236848, 0.218291059097017, 0.311478720499057, -1.405, 0.76, -0.761], a = 0.2, v = 0.2, t = 0.2)
movej(p[0.418195999023936, 0.218292889281856, 0.311401197175425, -1.405, 0.76, -0.761], a = 0.2, v = 0.2, t = 0.2)
movej(p[0.41819814300689, 0.218296699666684, 0.31123979615737, -1.405, 0.76, -0.761], a = 0.2, v = 0.2, t = 0.2)
movej(p[0.418198020011243, 0.218296481073179, 0.311249055383378, -1.405, 0.76, -0.761], a = 0.2, v = 0.2, t = 0.2)
movej(p[0.418194728068912, 0.218290630482301, 0.31149687584417, -1.405, 0.76, -0.761], a = 0.2, v = 0.2, t = 0.2)
movej(p[0.418187813784178, 0.218278342098383, 0.31201738958856, -1.405, 0.76, -0.761], a = 0.2, v = 0.2, t = 0.2)
movej(p[0.418176570534986, 0.218258360080308, 0.312863791777728, -1.405, 0.76, -0.761], a = 0.2, v = 0.2, t = 0.2)
movej(p[0.418164910065265, 0.218237636558773, 0.313741602713942, -1.405, 0.76, -0.761], a = 0.2, v = 0.2, t = 0.2)
movej(p[0.418153162775087, 0.21821675873594, 0.314625949574396, -1.405, 0.76, -0.761], a = 0.2, v = 0.2, t = 0.2)
movej(p[0.418144039392055, 0.218200544241221, 0.31531276628002, -1.405, 0.76, -0.761], a = 0.2, v = 0.2, t = 0.2)
movej(p[0.418137419332203, 0.218188778767258, 0.315811130503372, -1.405, 0.76, -0.761], a = 0.2, v = 0.2, t = 0.2)
movej(p[0.418147217985456, 0.218206193383182, 0.315073478831431, -1.405, 0.76, -0.761], a = 0.2, v = 0.2, t = 0.2)
movej(p[0.418164741247709, 0.218237336528471, 0.313754311455521, -1.405, 0.76, -0.761], a = 0.2, v = 0.2, t = 0.2)
movej(p[0.418178099539702, 0.218261077497609, 0.312748686889712, -1.405, 0.76, -0.761], a = 0.2, v = 0.2, t = 0.2)
movej(p[0.418186205194042, 0.218275483238226, 0.312138485740464, -1.405, 0.76, -0.761], a = 0.2, v = 0.2, t = 0.2)
movej(p[0.418191474713451, 0.218284848469777, 0.311741791449745, -1.405, 0.76, -0.761], a = 0.2, v = 0.2, t = 0.2)
movej(p[0.418196001435616, 0.218292893568003, 0.311401015621974, -1.405, 0.76, -0.761], a = 0.2, v = 0.2, t = 0.2)
movej(p[0.418196698410952, 0.218294132264533, 0.311348546674597, -1.405, 0.76, -0.761], a = 0.2, v = 0.2, t = 0.2)
movej(p[0.418197052927818, 0.218294762328166, 0.311321858317281, -1.405, 0.76, -0.761], a = 0.2, v = 0.2, t = 0.2)
movej(p[0.418197831900252, 0.2182961467537, 0.311263216552566, -1.405, 0.76, -0.761], a = 0.2, v = 0.2, t = 0.2)
movej(p[0.418198249120782, 0.218296888257159, 0.31123180780552, -1.405, 0.76, -0.761], a = 0.2, v = 0.2, t = 0.2)
movej(p[0.418191105726508, 0.218284192689261, 0.311769569127767, -1.405, 0.76, -0.761], a = 0.2, v = 0.2, t = 0.2)
movej(p[0.418181577181344, 0.218267258121819, 0.312486886813182, -1.405, 0.76, -0.761], a = 0.2, v = 0.2, t = 0.2)
movej(p[0.41817330029777, 0.218252548064754, 0.31310997825746, -1.405, 0.76, -0.761], a = 0.2, v = 0.2, t = 0.2)
movej(p[0.418161198490725, 0.218231040178288, 0.314021013475231, -1.405, 0.76, -0.761], a = 0.2, v = 0.2, t = 0.2)
movej(p[0.418149260677877, 0.21820982374983, 0.314919703058324, -1.405, 0.76, -0.761], a = 0.2, v = 0.2, t = 0.2)
movej(p[0.418140771566518, 0.218194736511815, 0.315558771206302, -1.405, 0.76, -0.761], a = 0.2, v = 0.2, t = 0.2)
movej(p[0.41814625572539, 0.218204483210464, 0.315145918658432, -1.405, 0.76, -0.761], a = 0.2, v = 0.2, t = 0.2)
movej(p[0.418160050531348, 0.218228999972239, 0.314107432917968, -1.405, 0.76, -0.761], a = 0.2, v = 0.2, t = 0.2)
movej(p[0.418173543877385, 0.218252980965618, 0.313091641358896, -1.405, 0.76, -0.761], a = 0.2, v = 0.2, t = 0.2)
movej(p[0.418185734916566, 0.218274647439529, 0.312173888663434, -1.405, 0.76, -0.761], a = 0.2, v = 0.2, t = 0.2)
movej(p[0.418191330012689, 0.218284591300948, 0.311752684656812, -1.405, 0.76, -0.761], a = 0.2, v = 0.2, t = 0.2)
movej(p[0.418194361493649, 0.218289978987932, 0.311524471968742, -1.405, 0.76, -0.761], a = 0.2, v = 0.2, t = 0.2)
movej(p[0.418196015905692, 0.218292919284886, 0.311399926301267, -1.405, 0.76, -0.761], a = 0.2, v = 0.2, t = 0.2)
movej(p[0.41819856022742, 0.218297441170143, 0.311208387410325, -1.405, 0.76, -0.761], a = 0.2, v = 0.2, t = 0.2)
movej(p[0.41819856022742, 0.218297441170143, 0.311208387410325, -1.405, 0.76, -0.761], a = 0.2, v = 0.2, t = 0.2)
movej(p[0.418197979012694, 0.218296408208677, 0.311252141792047, -1.405, 0.76, -0.761], a = 0.2, v = 0.2, t = 0.2)
movej(p[0.418193331706561, 0.218288148803093, 0.311601995292374, -1.405, 0.76, -0.761], a = 0.2, v = 0.2, t = 0.2)
movej(p[0.418183735634374, 0.21827109422353, 0.312324396474421, -1.405, 0.76, -0.761], a = 0.2, v = 0.2, t = 0.2)
movej(p[0.41817083556146, 0.218248167622353, 0.313295525884515, -1.405, 0.76, -0.761], a = 0.2, v = 0.2, t = 0.2)
movej(p[0.418159066566168, 0.218227251224196, 0.314181506726029, -1.405, 0.76, -0.761], a = 0.2, v = 0.2, t = 0.2)
movej(p[0.418149755072146, 0.218210702409998, 0.314882484600842, -1.405, 0.76, -0.761], a = 0.2, v = 0.2, t = 0.2)
movej(p[0.41814076433148, 0.218194723653373, 0.315559315866655, -1.405, 0.76, -0.761], a = 0.2, v = 0.2, t = 0.2)
movej(p[0.418141738649943, 0.218196455256827, 0.315485968272399, -1.405, 0.76, -0.761], a = 0.2, v = 0.2, t = 0.2)
movej(p[0.418159652604253, 0.218228292757957, 0.314137389237405, -1.405, 0.76, -0.761], a = 0.2, v = 0.2, t = 0.2)
movej(p[0.418176008613695, 0.218257361408019, 0.312906093731841, -1.405, 0.76, -0.761], a = 0.2, v = 0.2, t = 0.2)
movej(p[0.418184176971698, 0.218271878588461, 0.312291172192864, -1.405, 0.76, -0.761], a = 0.2, v = 0.2, t = 0.2)
movej(p[0.418190403927814, 0.218282945420437, 0.311822401182046, -1.405, 0.76, -0.761], a = 0.2, v = 0.2, t = 0.2)
movej(p[0.418195849499816, 0.218292623540732, 0.311412453489395, -1.405, 0.76, -0.761], a = 0.2, v = 0.2, t = 0.2)
movej(p[0.418196982989117, 0.218294638029899, 0.311327123367364, -1.405, 0.76, -0.761], a = 0.2, v = 0.2, t = 0.2)
movej(p[0.418197267567281, 0.218295143795264, 0.31130570006013, -1.405, 0.76, -0.761], a = 0.2, v = 0.2, t = 0.2)
movej(p[0.418192494853822, 0.218286661510028, 0.311664994339917, -1.405, 0.76, -0.761], a = 0.2, v = 0.2, t = 0.2)
movej(p[0.418185269462449, 0.218273820213126, 0.312208928479502, -1.405, 0.76, -0.761], a = 0.2, v = 0.2, t = 0.2)
movej(p[0.418172359742818, 0.218250876467361, 0.313180784103401, -1.405, 0.76, -0.761], a = 0.2, v = 0.2, t = 0.2)
movej(p[0.418159339085936, 0.218227735558825, 0.314160991186052, -1.405, 0.76, -0.761], a = 0.2, v = 0.2, t = 0.2)
movej(p[0.418149395731921, 0.218210063774071, 0.314909536065061, -1.405, 0.76, -0.761], a = 0.2, v = 0.2, t = 0.2)
movej(p[0.418140168646677, 0.218193664975024, 0.315604159569084, -1.405, 0.76, -0.761], a = 0.2, v = 0.2, t = 0.2)
movej(p[0.418140786036594, 0.218194762228698, 0.315557681885595, -1.405, 0.76, -0.761], a = 0.2, v = 0.2, t = 0.2)
movej(p[0.418156551184592, 0.218222780772705, 0.314370866975558, -1.405, 0.76, -0.761], a = 0.2, v = 0.2, t = 0.2)
movej(p[0.418173975567991, 0.21825374818596, 0.313059143291144, -1.405, 0.76, -0.761], a = 0.2, v = 0.2, t = 0.2)
movej(p[0.418183106186061, 0.218269975539121, 0.312371781925166, -1.405, 0.76, -0.761], a = 0.2, v = 0.2, t = 0.2)
movej(p[0.418188882158135, 0.218280240861577, 0.311936961409709, -1.405, 0.76, -0.761], a = 0.2, v = 0.2, t = 0.2)
movej(p[0.418194173382658, 0.218289644668453, 0.31153863313793, -1.405, 0.76, -0.761], a = 0.2, v = 0.2, t = 0.2)
movej(p[0.418196710469349, 0.218294153695269, 0.311347638907341, -1.405, 0.76, -0.761], a = 0.2, v = 0.2, t = 0.2)
movej(p[0.418197479795065, 0.218295520976214, 0.311289723356431, -1.405, 0.76, -0.761], a = 0.2, v = 0.2, t = 0.2)
movej(p[0.418197947660862, 0.218296352488764, 0.311254501986912, -1.405, 0.76, -0.761], a = 0.2, v = 0.2, t = 0.2)
movej(p[0.418199594837867, 0.218299279927277, 0.31113050097979, -1.405, 0.76, -0.761], a = 0.2, v = 0.2, t = 0.2)
movej(p[0.418199290966267, 0.218298739872734, 0.311153376714632, -1.405, 0.76, -0.761], a = 0.2, v = 0.2, t = 0.2)
movej(p[0.418194759420744, 0.218290686202214, 0.311494515649306, -1.405, 0.76, -0.761], a = 0.2, v = 0.2, t = 0.2)
movej(p[0.418185363517945, 0.218273987372865, 0.312201847894908, -1.405, 0.76, -0.761], a = 0.2, v = 0.2, t = 0.2)
movej(p[0.41817841064634, 0.218261630410593, 0.312725266494516, -1.405, 0.76, -0.761], a = 0.2, v = 0.2, t = 0.2)
movej(p[0.418167425446841, 0.218242107010264, 0.313552242464413, -1.405, 0.76, -0.761], a = 0.2, v = 0.2, t = 0.2)
movej(p[0.418156365485281, 0.218222450739373, 0.314384846591295, -1.405, 0.76, -0.761], a = 0.2, v = 0.2, t = 0.2)
movej(p[0.418150251878095, 0.218211585356314, 0.31484508458991, -1.405, 0.76, -0.761], a = 0.2, v = 0.2, t = 0.2)
movej(p[0.418146354604244, 0.218204658942498, 0.315138474966936, -1.405, 0.76, -0.761], a = 0.2, v = 0.2, t = 0.2)
movej(p[0.418158740989454, 0.218226672594329, 0.314206016441932, -1.405, 0.76, -0.761], a = 0.2, v = 0.2, t = 0.2)
movej(p[0.418172494796862, 0.218251116491602, 0.313170617110138, -1.405, 0.76, -0.761], a = 0.2, v = 0.2, t = 0.2)
movej(p[0.418183841748266, 0.218271282814005, 0.312316408122571, -1.405, 0.76, -0.761], a = 0.2, v = 0.2, t = 0.2)
movej(p[0.418188279238295, 0.218279169324786, 0.311982349772492, -1.405, 0.76, -0.761], a = 0.2, v = 0.2, t = 0.2)
movej(p[0.418192145160314, 0.218286040018689, 0.31169131959033, -1.405, 0.76, -0.761], a = 0.2, v = 0.2, t = 0.2)
movej(p[0.41819515252448, 0.218291384844202, 0.311464922436771, -1.405, 0.76, -0.761], a = 0.2, v = 0.2, t = 0.2)
movej(p[0.418198061009792, 0.218296553937681, 0.311245968974709, -1.405, 0.76, -0.761], a = 0.2, v = 0.2, t = 0.2)
movej(p[0.418198381763147, 0.218297123995253, 0.311221822365708, -1.405, 0.76, -0.761], a = 0.2, v = 0.2, t = 0.2)
movej(p[0.418198413114979, 0.218297179715167, 0.311219462170844, -1.405, 0.76, -0.761], a = 0.2, v = 0.2, t = 0.2)
movej(p[0.418199968648168, 0.218299944280087, 0.311102360194865, -1.405, 0.76, -0.761], a = 0.2, v = 0.2, t = 0.2)
movej(p[0.41819958519115, 0.218299262782688, 0.311131227193594, -1.405, 0.76, -0.761], a = 0.2, v = 0.2, t = 0.2)
movej(p[0.418194426608992, 0.218290094713905, 0.311519570025561, -1.405, 0.76, -0.761], a = 0.2, v = 0.2, t = 0.2)
movej(p[0.418186588651061, 0.218276164735624, 0.312109618741734, -1.405, 0.76, -0.761], a = 0.2, v = 0.2, t = 0.2)
movej(p[0.418181678471877, 0.21826743814, 0.312479261568235, -1.405, 0.76, -0.761], a = 0.2, v = 0.2, t = 0.2)
movej(p[0.418172948192583, 0.218251922287268, 0.313136485061325, -1.405, 0.76, -0.761], a = 0.2, v = 0.2, t = 0.2)
movej(p[0.418163547466425, 0.218235214885626, 0.31384418041383, -1.405, 0.76, -0.761], a = 0.2, v = 0.2, t = 0.2)
movej(p[0.418155998910018, 0.218221799245004, 0.314412442715867, -1.405, 0.76, -0.761], a = 0.2, v = 0.2, t = 0.2)
movej(p[0.418150719743892, 0.218212416868864, 0.31480986322039, -1.405, 0.76, -0.761], a = 0.2, v = 0.2, t = 0.2)
movej(p[0.418154973946288, 0.21821997763246, 0.314489602932597, -1.405, 0.76, -0.761], a = 0.2, v = 0.2, t = 0.2)
movej(p[0.41816788125424, 0.218242917092078, 0.313517928862149, -1.405, 0.76, -0.761], a = 0.2, v = 0.2, t = 0.2)
movej(p[0.418179901064187, 0.21826427924954, 0.312613066461717, -1.405, 0.76, -0.761], a = 0.2, v = 0.2, t = 0.2)
movej(p[0.418185334577792, 0.2182739359391, 0.312204026536322, -1.405, 0.76, -0.761], a = 0.2, v = 0.2, t = 0.2)
movej(p[0.418189289731948, 0.218280965220447, 0.311906278876468, -1.405, 0.76, -0.761], a = 0.2, v = 0.2, t = 0.2)
movej(p[0.418192461090311, 0.218286601503967, 0.311667536088232, -1.405, 0.76, -0.761], a = 0.2, v = 0.2, t = 0.2)
movej(p[0.418196814171561, 0.218294337999597, 0.311339832108943, -1.405, 0.76, -0.761], a = 0.2, v = 0.2, t = 0.2)
movej(p[0.418197694434529, 0.218295902443312, 0.31127356509928, -1.405, 0.76, -0.761], a = 0.2, v = 0.2, t = 0.2)
movej(p[0.4181981068317, 0.218296635374477, 0.311242519459137, -1.405, 0.76, -0.761], a = 0.2, v = 0.2, t = 0.2)
movej(p[0.418199426020312, 0.218298979896975, 0.311143209721369, -1.405, 0.76, -0.761], a = 0.2, v = 0.2, t = 0.2)
movej(p[0.418199635836416, 0.218299352791778, 0.311127414571121, -1.405, 0.76, -0.761], a = 0.2, v = 0.2, t = 0.2)
movej(p[0.418194711187156, 0.218290600479271, 0.311498146718328, -1.405, 0.76, -0.761], a = 0.2, v = 0.2, t = 0.2)
movej(p[0.418189050975691, 0.218280540891878, 0.31192425266813, -1.405, 0.76, -0.761], a = 0.2, v = 0.2, t = 0.2)
movej(p[0.41818136495356, 0.218266880940869, 0.312502863516882, -1.405, 0.76, -0.761], a = 0.2, v = 0.2, t = 0.2)
movej(p[0.418169827479487, 0.218246376012839, 0.313371415227087, -1.405, 0.76, -0.761], a = 0.2, v = 0.2, t = 0.2)
movej(p[0.418158523938311, 0.218226286841084, 0.314222356252534, -1.405, 0.76, -0.761], a = 0.2, v = 0.2, t = 0.2)
movej(p[0.418147968017738, 0.21820752637495, 0.31501701570813, -1.405, 0.76, -0.761], a = 0.2, v = 0.2, t = 0.2)
movej(p[0.418143373768551, 0.218199361264604, 0.315362875032532, -1.405, 0.76, -0.761], a = 0.2, v = 0.2, t = 0.2)
movej(p[0.418147008169352, 0.218205820488379, 0.315089273981679, -1.405, 0.76, -0.761], a = 0.2, v = 0.2, t = 0.2)
movej(p[0.418159124446473, 0.218227354091728, 0.314177149443202, -1.405, 0.76, -0.761], a = 0.2, v = 0.2, t = 0.2)
movej(p[0.418173736811734, 0.218253323857391, 0.313077117082806, -1.405, 0.76, -0.761], a = 0.2, v = 0.2, t = 0.2)
movej(p[0.418182896369956, 0.218269602644317, 0.312387577075414, -1.405, 0.76, -0.761], a = 0.2, v = 0.2, t = 0.2)
movej(p[0.418188542111345, 0.218279636514827, 0.311962560446319, -1.405, 0.76, -0.761], a = 0.2, v = 0.2, t = 0.2)
movej(p[0.418192309154511, 0.218286331476696, 0.311678973955654, -1.405, 0.76, -0.761], a = 0.2, v = 0.2, t = 0.2)
movej(p[0.41819651512332, 0.218293806517349, 0.311362344736883, -1.405, 0.76, -0.761], a = 0.2, v = 0.2, t = 0.2)
movej(p[0.418197318212548, 0.218295233804354, 0.311301887437657, -1.405, 0.76, -0.761], a = 0.2, v = 0.2, t = 0.2)
movej(p[0.418197667906056, 0.218295855295693, 0.311275562187243, -1.405, 0.76, -0.761], a = 0.2, v = 0.2, t = 0.2)
movej(p[0.418198041716357, 0.218296519648503, 0.311247421402318, -1.405, 0.76, -0.761], a = 0.2, v = 0.2, t = 0.2)
movej(p[0.418196753879577, 0.218294230845918, 0.311344370945221, -1.405, 0.76, -0.761], a = 0.2, v = 0.2, t = 0.2)
movej(p[0.418188308178447, 0.218279220758552, 0.311980171131078, -1.405, 0.76, -0.761], a = 0.2, v = 0.2, t = 0.2)
movej(p[0.41817917032534, 0.21826298054695, 0.31266807715741, -1.405, 0.76, -0.761], a = 0.2, v = 0.2, t = 0.2)
movej(p[0.418170478632915, 0.218247533272573, 0.313322395795282, -1.405, 0.76, -0.761], a = 0.2, v = 0.2, t = 0.2)
movej(p[0.418158639698921, 0.218226492576148, 0.314213641686879, -1.405, 0.76, -0.761], a = 0.2, v = 0.2, t = 0.2)
movej(p[0.418147210750418, 0.218206180524741, 0.315074023491785, -1.405, 0.76, -0.761], a = 0.2, v = 0.2, t = 0.2)
movej(p[0.418142211339098, 0.218197295341671, 0.315450383795977, -1.405, 0.76, -0.761], a = 0.2, v = 0.2, t = 0.2)
movej(p[0.418152477858147, 0.218215541470146, 0.314677510754517, -1.405, 0.76, -0.761], a = 0.2, v = 0.2, t = 0.2)
movej(p[0.418164574841833, 0.218237040784317, 0.313766838643649, -1.405, 0.76, -0.761], a = 0.2, v = 0.2, t = 0.2)
movej(p[0.418174187795775, 0.21825412536691, 0.313043166587444, -1.405, 0.76, -0.761], a = 0.2, v = 0.2, t = 0.2)
movej(p[0.418183559581781, 0.218270781334787, 0.312337649876353, -1.405, 0.76, -0.761], a = 0.2, v = 0.2, t = 0.2)
movej(p[0.418189248733399, 0.218280892355946, 0.311909365285138, -1.405, 0.76, -0.761], a = 0.2, v = 0.2, t = 0.2)
movej(p[0.418192053516498, 0.218285877145097, 0.311698218621473, -1.405, 0.76, -0.761], a = 0.2, v = 0.2, t = 0.2)
movej(p[0.418194465195861, 0.21829016329226, 0.311516665170343, -1.405, 0.76, -0.761], a = 0.2, v = 0.2, t = 0.2)
movej(p[0.418197556968805, 0.218295658132924, 0.311283913645995, -1.405, 0.76, -0.761], a = 0.2, v = 0.2, t = 0.2)
movej(p[0.418197860840405, 0.218296198187466, 0.311261037911152, -1.405, 0.76, -0.761], a = 0.2, v = 0.2, t = 0.2)
movej(p[0.418197028811025, 0.218294719466695, 0.311323673851792, -1.405, 0.76, -0.761], a = 0.2, v = 0.2, t = 0.2)
movej(p[0.418192309154511, 0.218286331476696, 0.311678973955654, -1.405, 0.76, -0.761], a = 0.2, v = 0.2, t = 0.2)
movej(p[0.41818647771381, 0.218275967572855, 0.312117970200486, -1.405, 0.76, -0.761], a = 0.2, v = 0.2, t = 0.2)
movej(p[0.418176196724685, 0.218257695727497, 0.312891932562653, -1.405, 0.76, -0.761], a = 0.2, v = 0.2, t = 0.2)
movej(p[0.418166820115321, 0.218241031187326, 0.313597812380647, -1.405, 0.76, -0.761], a = 0.2, v = 0.2, t = 0.2)
movej(p[0.418159339085936, 0.218227735558825, 0.314160991186052, -1.405, 0.76, -0.761], a = 0.2, v = 0.2, t = 0.2)
movej(p[0.41814902192162, 0.218209399421261, 0.314937676849986, -1.405, 0.76, -0.761], a = 0.2, v = 0.2, t = 0.2)
movej(p[0.418142857669167, 0.218198444029111, 0.315401727471074, -1.405, 0.76, -0.761], a = 0.2, v = 0.2, t = 0.2)
movej(p[0.41815114419946, 0.218213171230764, 0.314777909812992, -1.405, 0.76, -0.761], a = 0.2, v = 0.2, t = 0.2)
movej(p[0.418166658532803, 0.218240744015466, 0.313609976461872, -1.405, 0.76, -0.761], a = 0.2, v = 0.2, t = 0.2)
movej(p[0.418176720059107, 0.218258625821432, 0.312852535463758, -1.405, 0.76, -0.761], a = 0.2, v = 0.2, t = 0.2)
movej(p[0.418184044329333, 0.218271642850367, 0.312301157632676, -1.405, 0.76, -0.761], a = 0.2, v = 0.2, t = 0.2)
movej(p[0.418191146725058, 0.218284265553763, 0.311766482719098, -1.405, 0.76, -0.761], a = 0.2, v = 0.2, t = 0.2)
movej(p[0.418194870357994, 0.218290883364984, 0.311486164190554, -1.405, 0.76, -0.761], a = 0.2, v = 0.2, t = 0.2)
movej(p[0.418196399362711, 0.218293600782285, 0.311371059302537, -1.405, 0.76, -0.761], a = 0.2, v = 0.2, t = 0.2)
movej(p[0.418197441208196, 0.21829545239786, 0.311292628211649, -1.405, 0.76, -0.761], a = 0.2, v = 0.2, t = 0.2)
movej(p[0.418199672011607, 0.218299417083986, 0.311124691269354, -1.405, 0.76, -0.761], a = 0.2, v = 0.2, t = 0.2)
movej(p[0.418199428431991, 0.218298984183122, 0.311143028167918, -1.405, 0.76, -0.761], a = 0.2, v = 0.2, t = 0.2)
movej(p[0.418197033634383, 0.218294728038989, 0.31132331074489, -1.405, 0.76, -0.761], a = 0.2, v = 0.2, t = 0.2)
movej(p[0.418190818736664, 0.218283682637749, 0.311791173988452, -1.405, 0.76, -0.761], a = 0.2, v = 0.2, t = 0.2)
movej(p[0.418184225205285, 0.218271964311404, 0.312287541123841, -1.405, 0.76, -0.761], a = 0.2, v = 0.2, t = 0.2)
movej(p[0.418173705459903, 0.218253268137478, 0.31307947727767, -1.405, 0.76, -0.761], a = 0.2, v = 0.2, t = 0.2)
movej(p[0.418165423752969, 0.218238549508119, 0.313702931828851, -1.405, 0.76, -0.761], a = 0.2, v = 0.2, t = 0.2)
movej(p[0.418158417824419, 0.218226098250609, 0.314230344604383, -1.405, 0.76, -0.761], a = 0.2, v = 0.2, t = 0.2)
movej(p[0.418150177116035, 0.218211452485752, 0.314850712746895, -1.405, 0.76, -0.761], a = 0.2, v = 0.2, t = 0.2)
movej(p[0.418152289747157, 0.218215207150667, 0.314691671923705, -1.405, 0.76, -0.761], a = 0.2, v = 0.2, t = 0.2)
movej(p[0.41816454831336, 0.218236993636698, 0.313768835731611, -1.405, 0.76, -0.761], a = 0.2, v = 0.2, t = 0.2)
movej(p[0.418177875253522, 0.218260678885923, 0.312765571360667, -1.405, 0.76, -0.761], a = 0.2, v = 0.2, t = 0.2)
movej(p[0.418184832948485, 0.21827304442049, 0.312241789654157, -1.405, 0.76, -0.761], a = 0.2, v = 0.2, t = 0.2)
movej(p[0.418190367752623, 0.218282881128229, 0.311825124483813, -1.405, 0.76, -0.761], a = 0.2, v = 0.2, t = 0.2)
movej(p[0.41819579644287, 0.218292529245494, 0.31141644766532, -1.405, 0.76, -0.761], a = 0.2, v = 0.2, t = 0.2)
movej(p[0.418197892192237, 0.218296253907379, 0.311258677716288, -1.405, 0.76, -0.761], a = 0.2, v = 0.2, t = 0.2)
movej(p[0.418198931626042, 0.218298101236807, 0.311180428178851, -1.405, 0.76, -0.761], a = 0.2, v = 0.2, t = 0.2)
movej(p[0.418199467018861, 0.218299052761477, 0.3111401233127, -1.405, 0.76, -0.761], a = 0.2, v = 0.2, t = 0.2)
movej(p[0.4182, 0.2183, 0.3111, -1.405, 0.76, -0.761], a = 0.2, v = 0.2, t = 0.2)
movej(p[0.418193121890456, 0.21828777590829, 0.311617790442623, -1.405, 0.76, -0.761], a = 0.2, v = 0.2, t = 0.2)
movej(p[0.418183161654686, 0.218270074120505, 0.31236760619579, -1.405, 0.76, -0.761], a = 0.2, v = 0.2, t = 0.2)
movej(p[0.418173495643798, 0.218252895242674, 0.313095272427919, -1.405, 0.76, -0.761], a = 0.2, v = 0.2, t = 0.2)
movej(p[0.418164205854891, 0.218236385003801, 0.313794616321671, -1.405, 0.76, -0.761], a = 0.2, v = 0.2, t = 0.2)
movej(p[0.418152214985097, 0.218215074280105, 0.31469730008069, -1.405, 0.76, -0.761], a = 0.2, v = 0.2, t = 0.2)
movej(p[0.418142380156654, 0.218197595371973, 0.315437675054398, -1.405, 0.76, -0.761], a = 0.2, v = 0.2, t = 0.2)
movej(p[0.418143197715958, 0.218199048375861, 0.315376128434465, -1.405, 0.76, -0.761], a = 0.2, v = 0.2, t = 0.2)
movej(p[0.418156780294131, 0.218223187956685, 0.314353619397701, -1.405, 0.76, -0.761], a = 0.2, v = 0.2, t = 0.2)
movej(p[0.418170097587575, 0.218246856061321, 0.313351081240561, -1.405, 0.76, -0.761], a = 0.2, v = 0.2, t = 0.2)
movej(p[0.418180935674634, 0.218266118006674, 0.312535180031183, -1.405, 0.76, -0.761], a = 0.2, v = 0.2, t = 0.2)
movej(p[0.418154904007587, 0.218219853334192, 0.31449486798268, -1.405, 0.76, -0.761], a = 0.2, v = 0.2, t = 0.2)
movej(p[0.418170565453372, 0.218247687573871, 0.313315859871042, -1.405, 0.76, -0.761], a = 0.2, v = 0.2, t = 0.2)
movej(p[0.418181753233938, 0.218267571010562, 0.31247363341125, -1.405, 0.76, -0.761], a = 0.2, v = 0.2, t = 0.2)
movej(p[0.418190015647436, 0.218282255350744, 0.311851631287678, -1.405, 0.76, -0.761], a = 0.2, v = 0.2, t = 0.2)
movej(p[0.418193625931443, 0.218288671713047, 0.311579845771337, -1.405, 0.76, -0.761], a = 0.2, v = 0.2, t = 0.2)
movej(p[0.418195287578524, 0.218291624868443, 0.311454755443508, -1.405, 0.76, -0.761], a = 0.2, v = 0.2, t = 0.2)
movej(p[0.418196008670654, 0.218292906426445, 0.31140047096162, -1.405, 0.76, -0.761], a = 0.2, v = 0.2, t = 0.2)
movej(p[0.418197887368878, 0.218296245335085, 0.31125904082319, -1.405, 0.76, -0.761], a = 0.2, v = 0.2, t = 0.2)
movej(p[0.41819681899492, 0.218294346571892, 0.311339469002041, -1.405, 0.76, -0.761], a = 0.2, v = 0.2, t = 0.2)
movej(p[0.418186981754797, 0.218276863377612, 0.3120800255292, -1.405, 0.76, -0.761], a = 0.2, v = 0.2, t = 0.2)
movej(p[0.418177443562916, 0.218259911665581, 0.312798069428419, -1.405, 0.76, -0.761], a = 0.2, v = 0.2, t = 0.2)
movej(p[0.418164642368856, 0.218237160796438, 0.313761755147017, -1.405, 0.76, -0.761], a = 0.2, v = 0.2, t = 0.2)
movej(p[0.418150471340917, 0.218211975395706, 0.314828563225857, -1.405, 0.76, -0.761], a = 0.2, v = 0.2, t = 0.2)
movej(p[0.418138393650666, 0.218190510370712, 0.315737782909116, -1.405, 0.76, -0.761], a = 0.2, v = 0.2, t = 0.2)
movej(p[0.41813125749143, 0.218177827661255, 0.316274999571009, -1.405, 0.76, -0.761], a = 0.2, v = 0.2, t = 0.2)
movej(p[0.418134033334377, 0.21818276101664, 0.316066031548759, -1.405, 0.76, -0.761], a = 0.2, v = 0.2, t = 0.2)
movej(p[0.418151886996703, 0.218214491364091, 0.314721991350043, -1.405, 0.76, -0.761], a = 0.2, v = 0.2, t = 0.2)
movej(p[0.418171472244812, 0.218249299165204, 0.313247595773417, -1.405, 0.76, -0.761], a = 0.2, v = 0.2, t = 0.2)
movej(p[0.418181454185697, 0.218267039528314, 0.31249614603919, -1.405, 0.76, -0.761], a = 0.2, v = 0.2, t = 0.2)
movej(p[0.418188694047145, 0.218279906542098, 0.311951122578897, -1.405, 0.76, -0.761], a = 0.2, v = 0.2, t = 0.2)
movej(p[0.418192393563288, 0.218286481491847, 0.311672619584864, -1.405, 0.76, -0.761], a = 0.2, v = 0.2, t = 0.2)
movej(p[0.418196565768587, 0.218293896526439, 0.311358532114409, -1.405, 0.76, -0.761], a = 0.2, v = 0.2, t = 0.2)
movej(p[0.418197028811025, 0.218294719466695, 0.311323673851792, -1.405, 0.76, -0.761], a = 0.2, v = 0.2, t = 0.2)
movej(p[0.418197091514688, 0.218294830906521, 0.311318953462063, -1.405, 0.76, -0.761], a = 0.2, v = 0.2, t = 0.2)
movej(p[0.418197318212548, 0.218295233804354, 0.311301887437657, -1.405, 0.76, -0.761], a = 0.2, v = 0.2, t = 0.2)
movej(p[0.418187302508153, 0.218277433435185, 0.312055878920199, -1.405, 0.76, -0.761], a = 0.2, v = 0.2, t = 0.2)
movej(p[0.418173895982572, 0.218253606743104, 0.313065134555031, -1.405, 0.76, -0.761], a = 0.2, v = 0.2, t = 0.2)
movej(p[0.418160884972408, 0.218230482979157, 0.314044615423877, -1.405, 0.76, -0.761], a = 0.2, v = 0.2, t = 0.2)
movej(p[0.418148901337652, 0.218209185113902, 0.314946754522542, -1.405, 0.76, -0.761], a = 0.2, v = 0.2, t = 0.2)
movej(p[0.418136042263287, 0.218186331377227, 0.315914797523968, -1.405, 0.76, -0.761], a = 0.2, v = 0.2, t = 0.2)
movej(p[0.418126769356135, 0.218169851141384, 0.316612870543562, -1.405, 0.76, -0.761], a = 0.2, v = 0.2, t = 0.2)
movej(p[0.418135909620922, 0.218186095639133, 0.31592478296378, -1.405, 0.76, -0.761], a = 0.2, v = 0.2, t = 0.2)
movej(p[0.418151771236094, 0.218214285629027, 0.314730705915698, -1.405, 0.76, -0.761], a = 0.2, v = 0.2, t = 0.2)
movej(p[0.418167032343105, 0.218241408368277, 0.313581835676947, -1.405, 0.76, -0.761], a = 0.2, v = 0.2, t = 0.2)
movej(p[0.418179440433428, 0.218263460595432, 0.312647743170883, -1.405, 0.76, -0.761], a = 0.2, v = 0.2, t = 0.2)
movej(p[0.418189038917294, 0.218280519461142, 0.311925160435386, -1.405, 0.76, -0.761], a = 0.2, v = 0.2, t = 0.2)
movej(p[0.418192721551682, 0.218287064407861, 0.31164792831551, -1.405, 0.76, -0.761], a = 0.2, v = 0.2, t = 0.2)
movej(p[0.418194740127309, 0.218290651913037, 0.311495968076915, -1.405, 0.76, -0.761], a = 0.2, v = 0.2, t = 0.2)
movej(p[0.418197108396443, 0.218294860909551, 0.311317682587905, -1.405, 0.76, -0.761], a = 0.2, v = 0.2, t = 0.2)
movej(p[0.418197641377583, 0.218295808148074, 0.311277559275205, -1.405, 0.76, -0.761], a = 0.2, v = 0.2, t = 0.2)
movej(p[0.418196351129123, 0.218293515059342, 0.31137469037156, -1.405, 0.76, -0.761], a = 0.2, v = 0.2, t = 0.2)
movej(p[0.418186354718163, 0.21827574897935, 0.312127229426494, -1.405, 0.76, -0.761], a = 0.2, v = 0.2, t = 0.2)
movej(p[0.418177269922001, 0.218259603062985, 0.3128111412769, -1.405, 0.76, -0.761], a = 0.2, v = 0.2, t = 0.2)
movej(p[0.41816333765032, 0.218234841990822, 0.313859975564078, -1.405, 0.76, -0.761], a = 0.2, v = 0.2, t = 0.2)
movej(p[0.418149328204899, 0.21820994376195, 0.314914619561692, -1.405, 0.76, -0.761], a = 0.2, v = 0.2, t = 0.2)
movej(p[0.418140306112401, 0.218193909285412, 0.31559381102237, -1.405, 0.76, -0.761], a = 0.2, v = 0.2, t = 0.2)
movej(p[0.418134206975292, 0.218183069619236, 0.316052959700277, -1.405, 0.76, -0.761], a = 0.2, v = 0.2, t = 0.2)
movej(p[0.418146364250962, 0.218204676087087, 0.315137748753131, -1.405, 0.76, -0.761], a = 0.2, v = 0.2, t = 0.2)
movej(p[0.418163344885358, 0.218234854849264, 0.313859430903725, -1.405, 0.76, -0.761], a = 0.2, v = 0.2, t = 0.2)
movej(p[0.418178692812826, 0.218262131889812, 0.312704024740734, -1.405, 0.76, -0.761], a = 0.2, v = 0.2, t = 0.2)
movej(p[0.418186229310836, 0.218275526099697, 0.312136670205952, -1.405, 0.76, -0.761], a = 0.2, v = 0.2, t = 0.2)
movej(p[0.418191404774749, 0.21828472417151, 0.311747056499827, -1.405, 0.76, -0.761], a = 0.2, v = 0.2, t = 0.2)
movej(p[0.41819605931592, 0.218292996435535, 0.311396658339146, -1.405, 0.76, -0.761], a = 0.2, v = 0.2, t = 0.2)
movej(p[0.418196565768587, 0.218293896526439, 0.311358532114409, -1.405, 0.76, -0.761], a = 0.2, v = 0.2, t = 0.2)
movej(p[0.418197127689878, 0.218294895198728, 0.311316230160296, -1.405, 0.76, -0.761], a = 0.2, v = 0.2, t = 0.2)
movej(p[0.418197192805221, 0.218295010924702, 0.311311328217115, -1.405, 0.76, -0.761], a = 0.2, v = 0.2, t = 0.2)
movej(p[0.41819367416503, 0.21828875743599, 0.311576214702314, -1.405, 0.76, -0.761], a = 0.2, v = 0.2, t = 0.2)
movej(p[0.418181449362338, 0.218267030956019, 0.312496509146092, -1.405, 0.76, -0.761], a = 0.2, v = 0.2, t = 0.2)
movej(p[0.418168296063091, 0.21824365430939, 0.313486701668555, -1.405, 0.76, -0.761], a = 0.2, v = 0.2, t = 0.2)
movej(p[0.418157706379007, 0.218224833837196, 0.314283902872467, -1.405, 0.76, -0.761], a = 0.2, v = 0.2, t = 0.2)
movej(p[0.418145204233188, 0.218202614450301, 0.315225075963125, -1.405, 0.76, -0.761], a = 0.2, v = 0.2, t = 0.2)
movej(p[0.418135362169707, 0.218185122683727, 0.315965995597186, -1.405, 0.76, -0.761], a = 0.2, v = 0.2, t = 0.2)
movej(p[0.418134976301008, 0.218184436900181, 0.315995044149367, -1.405, 0.76, -0.761], a = 0.2, v = 0.2, t = 0.2)
movej(p[0.418151276841825, 0.218213406968858, 0.314767924373179, -1.405, 0.76, -0.761], a = 0.2, v = 0.2, t = 0.2)
movej(p[0.418166699531352, 0.218240816879968, 0.313606890053203, -1.405, 0.76, -0.761], a = 0.2, v = 0.2, t = 0.2)
movej(p[0.418178058541153, 0.218261004633108, 0.312751773298381, -1.405, 0.76, -0.761], a = 0.2, v = 0.2, t = 0.2)
movej(p[0.418188551758063, 0.218279653659415, 0.311961834232514, -1.405, 0.76, -0.761], a = 0.2, v = 0.2, t = 0.2)
movej(p[0.418192572027561, 0.218286798666737, 0.31165918462948, -1.405, 0.76, -0.761], a = 0.2, v = 0.2, t = 0.2)
movej(p[0.418194969236848, 0.218291059097017, 0.311478720499057, -1.405, 0.76, -0.761], a = 0.2, v = 0.2, t = 0.2)
movej(p[0.418195999023936, 0.218292889281856, 0.311401197175425, -1.405, 0.76, -0.761], a = 0.2, v = 0.2, t = 0.2)
movej(p[0.41819814300689, 0.218296699666684, 0.31123979615737, -1.405, 0.76, -0.761], a = 0.2, v = 0.2, t = 0.2)
movej(p[0.418198020011243, 0.218296481073179, 0.311249055383378, -1.405, 0.76, -0.761], a = 0.2, v = 0.2, t = 0.2)
movej(p[0.418194728068912, 0.218290630482301, 0.31149687584417, -1.405, 0.76, -0.761], a = 0.2, v = 0.2, t = 0.2)
movej(p[0.418187813784178, 0.218278342098383, 0.31201738958856, -1.405, 0.76, -0.761], a = 0.2, v = 0.2, t = 0.2)
movej(p[0.418176570534986, 0.218258360080308, 0.312863791777728, -1.405, 0.76, -0.761], a = 0.2, v = 0.2, t = 0.2)
movej(p[0.418164910065265, 0.218237636558773, 0.313741602713942, -1.405, 0.76, -0.761], a = 0.2, v = 0.2, t = 0.2)
movej(p[0.418153162775087, 0.21821675873594, 0.314625949574396, -1.405, 0.76, -0.761], a = 0.2, v = 0.2, t = 0.2)
movej(p[0.418144039392055, 0.218200544241221, 0.31531276628002, -1.405, 0.76, -0.761], a = 0.2, v = 0.2, t = 0.2)
movej(p[0.418137419332203, 0.218188778767258, 0.315811130503372, -1.405, 0.76, -0.761], a = 0.2, v = 0.2, t = 0.2)
movej(p[0.418147217985456, 0.218206193383182, 0.315073478831431, -1.405, 0.76, -0.761], a = 0.2, v = 0.2, t = 0.2)
movej(p[0.418164741247709, 0.218237336528471, 0.313754311455521, -1.405, 0.76, -0.761], a = 0.2, v = 0.2, t = 0.2)
movej(p[0.418178099539702, 0.218261077497609, 0.312748686889712, -1.405, 0.76, -0.761], a = 0.2, v = 0.2, t = 0.2)
movej(p[0.418186205194042, 0.218275483238226, 0.312138485740464, -1.405, 0.76, -0.761], a = 0.2, v = 0.2, t = 0.2)
movej(p[0.418191474713451, 0.218284848469777, 0.311741791449745, -1.405, 0.76, -0.761], a = 0.2, v = 0.2, t = 0.2)
movej(p[0.418196001435616, 0.218292893568003, 0.311401015621974, -1.405, 0.76, -0.761], a = 0.2, v = 0.2, t = 0.2)
movej(p[0.418196698410952, 0.218294132264533, 0.311348546674597, -1.405, 0.76, -0.761], a = 0.2, v = 0.2, t = 0.2)
movej(p[0.418197052927818, 0.218294762328166, 0.311321858317281, -1.405, 0.76, -0.761], a = 0.2, v = 0.2, t = 0.2)
movej(p[0.418197831900252, 0.2182961467537, 0.311263216552566, -1.405, 0.76, -0.761], a = 0.2, v = 0.2, t = 0.2)
movej(p[0.418198249120782, 0.218296888257159, 0.31123180780552, -1.405, 0.76, -0.761], a = 0.2, v = 0.2, t = 0.2)
movej(p[0.418191105726508, 0.218284192689261, 0.311769569127767, -1.405, 0.76, -0.761], a = 0.2, v = 0.2, t = 0.2)
movej(p[0.418181577181344, 0.218267258121819, 0.312486886813182, -1.405, 0.76, -0.761], a = 0.2, v = 0.2, t = 0.2)
movej(p[0.41817330029777, 0.218252548064754, 0.31310997825746, -1.405, 0.76, -0.761], a = 0.2, v = 0.2, t = 0.2)
movej(p[0.418161198490725, 0.218231040178288, 0.314021013475231, -1.405, 0.76, -0.761], a = 0.2, v = 0.2, t = 0.2)
movej(p[0.418149260677877, 0.21820982374983, 0.314919703058324, -1.405, 0.76, -0.761], a = 0.2, v = 0.2, t = 0.2)
movej(p[0.418140771566518, 0.218194736511815, 0.315558771206302, -1.405, 0.76, -0.761], a = 0.2, v = 0.2, t = 0.2)
movej(p[0.41814625572539, 0.218204483210464, 0.315145918658432, -1.405, 0.76, -0.761], a = 0.2, v = 0.2, t = 0.2)
movej(p[0.418160050531348, 0.218228999972239, 0.314107432917968, -1.405, 0.76, -0.761], a = 0.2, v = 0.2, t = 0.2)
movej(p[0.418173543877385, 0.218252980965618, 0.313091641358896, -1.405, 0.76, -0.761], a = 0.2, v = 0.2, t = 0.2)
movej(p[0.418185734916566, 0.218274647439529, 0.312173888663434, -1.405, 0.76, -0.761], a = 0.2, v = 0.2, t = 0.2)
movej(p[0.418191330012689, 0.218284591300948, 0.311752684656812, -1.405, 0.76, -0.761], a = 0.2, v = 0.2, t = 0.2)
movej(p[0.418194361493649, 0.218289978987932, 0.311524471968742, -1.405, 0.76, -0.761], a = 0.2, v = 0.2, t = 0.2)
movej(p[0.418196015905692, 0.218292919284886, 0.311399926301267, -1.405, 0.76, -0.761], a = 0.2, v = 0.2, t = 0.2)
movej(p[0.41819856022742, 0.218297441170143, 0.311208387410325, -1.405, 0.76, -0.761], a = 0.2, v = 0.2, t = 0.2)
movej(p[0.41819856022742, 0.218297441170143, 0.311208387410325, -1.405, 0.76, -0.761], a = 0.2, v = 0.2, t = 0.2)
movej(p[0.418197979012694, 0.218296408208677, 0.311252141792047, -1.405, 0.76, -0.761], a = 0.2, v = 0.2, t = 0.2)
movej(p[0.418193331706561, 0.218288148803093, 0.311601995292374, -1.405, 0.76, -0.761], a = 0.2, v = 0.2, t = 0.2)
movej(p[0.418183735634374, 0.21827109422353, 0.312324396474421, -1.405, 0.76, -0.761], a = 0.2, v = 0.2, t = 0.2)
movej(p[0.41817083556146, 0.218248167622353, 0.313295525884515, -1.405, 0.76, -0.761], a = 0.2, v = 0.2, t = 0.2)
movej(p[0.418159066566168, 0.218227251224196, 0.314181506726029, -1.405, 0.76, -0.761], a = 0.2, v = 0.2, t = 0.2)
movej(p[0.418149755072146, 0.218210702409998, 0.314882484600842, -1.405, 0.76, -0.761], a = 0.2, v = 0.2, t = 0.2)
movej(p[0.41814076433148, 0.218194723653373, 0.315559315866655, -1.405, 0.76, -0.761], a = 0.2, v = 0.2, t = 0.2)
movej(p[0.418141738649943, 0.218196455256827, 0.315485968272399, -1.405, 0.76, -0.761], a = 0.2, v = 0.2, t = 0.2)
movej(p[0.418159652604253, 0.218228292757957, 0.314137389237405, -1.405, 0.76, -0.761], a = 0.2, v = 0.2, t = 0.2)
movej(p[0.418176008613695, 0.218257361408019, 0.312906093731841, -1.405, 0.76, -0.761], a = 0.2, v = 0.2, t = 0.2)
movej(p[0.418184176971698, 0.218271878588461, 0.312291172192864, -1.405, 0.76, -0.761], a = 0.2, v = 0.2, t = 0.2)
movej(p[0.418190403927814, 0.218282945420437, 0.311822401182046, -1.405, 0.76, -0.761], a = 0.2, v = 0.2, t = 0.2)
movej(p[0.418195849499816, 0.218292623540732, 0.311412453489395, -1.405, 0.76, -0.761], a = 0.2, v = 0.2, t = 0.2)
movej(p[0.418196982989117, 0.218294638029899, 0.311327123367364, -1.405, 0.76, -0.761], a = 0.2, v = 0.2, t = 0.2)
movej(p[0.418197267567281, 0.218295143795264, 0.31130570006013, -1.405, 0.76, -0.761], a = 0.2, v = 0.2, t = 0.2)
movej(p[0.418192494853822, 0.218286661510028, 0.311664994339917, -1.405, 0.76, -0.761], a = 0.2, v = 0.2, t = 0.2)
movej(p[0.418185269462449, 0.218273820213126, 0.312208928479502, -1.405, 0.76, -0.761], a = 0.2, v = 0.2, t = 0.2)
movej(p[0.418172359742818, 0.218250876467361, 0.313180784103401, -1.405, 0.76, -0.761], a = 0.2, v = 0.2, t = 0.2)
movej(p[0.418159339085936, 0.218227735558825, 0.314160991186052, -1.405, 0.76, -0.761], a = 0.2, v = 0.2, t = 0.2)
movej(p[0.418149395731921, 0.218210063774071, 0.314909536065061, -1.405, 0.76, -0.761], a = 0.2, v = 0.2, t = 0.2)
movej(p[0.418140168646677, 0.218193664975024, 0.315604159569084, -1.405, 0.76, -0.761], a = 0.2, v = 0.2, t = 0.2)
movej(p[0.418140786036594, 0.218194762228698, 0.315557681885595, -1.405, 0.76, -0.761], a = 0.2, v = 0.2, t = 0.2)
movej(p[0.418156551184592, 0.218222780772705, 0.314370866975558, -1.405, 0.76, -0.761], a = 0.2, v = 0.2, t = 0.2)
movej(p[0.418173975567991, 0.21825374818596, 0.313059143291144, -1.405, 0.76, -0.761], a = 0.2, v = 0.2, t = 0.2)
movej(p[0.418183106186061, 0.218269975539121, 0.312371781925166, -1.405, 0.76, -0.761], a = 0.2, v = 0.2, t = 0.2)
movej(p[0.418188882158135, 0.218280240861577, 0.311936961409709, -1.405, 0.76, -0.761], a = 0.2, v = 0.2, t = 0.2)
movej(p[0.418194173382658, 0.218289644668453, 0.31153863313793, -1.405, 0.76, -0.761], a = 0.2, v = 0.2, t = 0.2)
movej(p[0.418196710469349, 0.218294153695269, 0.311347638907341, -1.405, 0.76, -0.761], a = 0.2, v = 0.2, t = 0.2)
movej(p[0.418197479795065, 0.218295520976214, 0.311289723356431, -1.405, 0.76, -0.761], a = 0.2, v = 0.2, t = 0.2)
movej(p[0.418197947660862, 0.218296352488764, 0.311254501986912, -1.405, 0.76, -0.761], a = 0.2, v = 0.2, t = 0.2)
movej(p[0.418199594837867, 0.218299279927277, 0.31113050097979, -1.405, 0.76, -0.761], a = 0.2, v = 0.2, t = 0.2)
movej(p[0.418199290966267, 0.218298739872734, 0.311153376714632, -1.405, 0.76, -0.761], a = 0.2, v = 0.2, t = 0.2)
movej(p[0.418194759420744, 0.218290686202214, 0.311494515649306, -1.405, 0.76, -0.761], a = 0.2, v = 0.2, t = 0.2)
movej(p[0.418185363517945, 0.218273987372865, 0.312201847894908, -1.405, 0.76, -0.761], a = 0.2, v = 0.2, t = 0.2)
movej(p[0.41817841064634, 0.218261630410593, 0.312725266494516, -1.405, 0.76, -0.761], a = 0.2, v = 0.2, t = 0.2)
movej(p[0.418167425446841, 0.218242107010264, 0.313552242464413, -1.405, 0.76, -0.761], a = 0.2, v = 0.2, t = 0.2)
movej(p[0.418156365485281, 0.218222450739373, 0.314384846591295, -1.405, 0.76, -0.761], a = 0.2, v = 0.2, t = 0.2)
movej(p[0.418150251878095, 0.218211585356314, 0.31484508458991, -1.405, 0.76, -0.761], a = 0.2, v = 0.2, t = 0.2)
movej(p[0.418146354604244, 0.218204658942498, 0.315138474966936, -1.405, 0.76, -0.761], a = 0.2, v = 0.2, t = 0.2)
movej(p[0.418158740989454, 0.218226672594329, 0.314206016441932, -1.405, 0.76, -0.761], a = 0.2, v = 0.2, t = 0.2)
movej(p[0.418172494796862, 0.218251116491602, 0.313170617110138, -1.405, 0.76, -0.761], a = 0.2, v = 0.2, t = 0.2)
movej(p[0.418183841748266, 0.218271282814005, 0.312316408122571, -1.405, 0.76, -0.761], a = 0.2, v = 0.2, t = 0.2)
movej(p[0.418188279238295, 0.218279169324786, 0.311982349772492, -1.405, 0.76, -0.761], a = 0.2, v = 0.2, t = 0.2)
movej(p[0.418192145160314, 0.218286040018689, 0.31169131959033, -1.405, 0.76, -0.761], a = 0.2, v = 0.2, t = 0.2)
movej(p[0.41819515252448, 0.218291384844202, 0.311464922436771, -1.405, 0.76, -0.761], a = 0.2, v = 0.2, t = 0.2)
movej(p[0.418198061009792, 0.218296553937681, 0.311245968974709, -1.405, 0.76, -0.761], a = 0.2, v = 0.2, t = 0.2)
movej(p[0.418198381763147, 0.218297123995253, 0.311221822365708, -1.405, 0.76, -0.761], a = 0.2, v = 0.2, t = 0.2)
movej(p[0.418198413114979, 0.218297179715167, 0.311219462170844, -1.405, 0.76, -0.761], a = 0.2, v = 0.2, t = 0.2)
movej(p[0.418199968648168, 0.218299944280087, 0.311102360194865, -1.405, 0.76, -0.761], a = 0.2, v = 0.2, t = 0.2)
movej(p[0.41819958519115, 0.218299262782688, 0.311131227193594, -1.405, 0.76, -0.761], a = 0.2, v = 0.2, t = 0.2)
movej(p[0.418194426608992, 0.218290094713905, 0.311519570025561, -1.405, 0.76, -0.761], a = 0.2, v = 0.2, t = 0.2)
movej(p[0.418186588651061, 0.218276164735624, 0.312109618741734, -1.405, 0.76, -0.761], a = 0.2, v = 0.2, t = 0.2)
movej(p[0.418181678471877, 0.21826743814, 0.312479261568235, -1.405, 0.76, -0.761], a = 0.2, v = 0.2, t = 0.2)
movej(p[0.418172948192583, 0.218251922287268, 0.313136485061325, -1.405, 0.76, -0.761], a = 0.2, v = 0.2, t = 0.2)
movej(p[0.418163547466425, 0.218235214885626, 0.31384418041383, -1.405, 0.76, -0.761], a = 0.2, v = 0.2, t = 0.2)
movej(p[0.418155998910018, 0.218221799245004, 0.314412442715867, -1.405, 0.76, -0.761], a = 0.2, v = 0.2, t = 0.2)
movej(p[0.418150719743892, 0.218212416868864, 0.31480986322039, -1.405, 0.76, -0.761], a = 0.2, v = 0.2, t = 0.2)
movej(p[0.418154973946288, 0.21821997763246, 0.314489602932597, -1.405, 0.76, -0.761], a = 0.2, v = 0.2, t = 0.2)
movej(p[0.41816788125424, 0.218242917092078, 0.313517928862149, -1.405, 0.76, -0.761], a = 0.2, v = 0.2, t = 0.2)
movej(p[0.418179901064187, 0.21826427924954, 0.312613066461717, -1.405, 0.76, -0.761], a = 0.2, v = 0.2, t = 0.2)
movej(p[0.418185334577792, 0.2182739359391, 0.312204026536322, -1.405, 0.76, -0.761], a = 0.2, v = 0.2, t = 0.2)
movej(p[0.418189289731948, 0.218280965220447, 0.311906278876468, -1.405, 0.76, -0.761], a = 0.2, v = 0.2, t = 0.2)
movej(p[0.418192461090311, 0.218286601503967, 0.311667536088232, -1.405, 0.76, -0.761], a = 0.2, v = 0.2, t = 0.2)
movej(p[0.418196814171561, 0.218294337999597, 0.311339832108943, -1.405, 0.76, -0.761], a = 0.2, v = 0.2, t = 0.2)
movej(p[0.418197694434529, 0.218295902443312, 0.31127356509928, -1.405, 0.76, -0.761], a = 0.2, v = 0.2, t = 0.2)
movej(p[0.4181981068317, 0.218296635374477, 0.311242519459137, -1.405, 0.76, -0.761], a = 0.2, v = 0.2, t = 0.2)
movej(p[0.418199426020312, 0.218298979896975, 0.311143209721369, -1.405, 0.76, -0.761], a = 0.2, v = 0.2, t = 0.2)
movej(p[0.418199635836416, 0.218299352791778, 0.311127414571121, -1.405, 0.76, -0.761], a = 0.2, v = 0.2, t = 0.2)
movej(p[0.418194711187156, 0.218290600479271, 0.311498146718328, -1.405, 0.76, -0.761], a = 0.2, v = 0.2, t = 0.2)
movej(p[0.418189050975691, 0.218280540891878, 0.31192425266813, -1.405, 0.76, -0.761], a = 0.2, v = 0.2, t = 0.2)
movej(p[0.41818136495356, 0.218266880940869, 0.312502863516882, -1.405, 0.76, -0.761], a = 0.2, v = 0.2, t = 0.2)
movej(p[0.418169827479487, 0.218246376012839, 0.313371415227087, -1.405, 0.76, -0.761], a = 0.2, v = 0.2, t = 0.2)
movej(p[0.418158523938311, 0.218226286841084, 0.314222356252534, -1.405, 0.76, -0.761], a = 0.2, v = 0.2, t = 0.2)
movej(p[0.418147968017738, 0.21820752637495, 0.31501701570813, -1.405, 0.76, -0.761], a = 0.2, v = 0.2, t = 0.2)
movej(p[0.418143373768551, 0.218199361264604, 0.315362875032532, -1.405, 0.76, -0.761], a = 0.2, v = 0.2, t = 0.2)
movej(p[0.418147008169352, 0.218205820488379, 0.315089273981679, -1.405, 0.76, -0.761], a = 0.2, v = 0.2, t = 0.2)
movej(p[0.418159124446473, 0.218227354091728, 0.314177149443202, -1.405, 0.76, -0.761], a = 0.2, v = 0.2, t = 0.2)
movej(p[0.418173736811734, 0.218253323857391, 0.313077117082806, -1.405, 0.76, -0.761], a = 0.2, v = 0.2, t = 0.2)
movej(p[0.418182896369956, 0.218269602644317, 0.312387577075414, -1.405, 0.76, -0.761], a = 0.2, v = 0.2, t = 0.2)
movej(p[0.418188542111345, 0.218279636514827, 0.311962560446319, -1.405, 0.76, -0.761], a = 0.2, v = 0.2, t = 0.2)
movej(p[0.418192309154511, 0.218286331476696, 0.311678973955654, -1.405, 0.76, -0.761], a = 0.2, v = 0.2, t = 0.2)
movej(p[0.41819651512332, 0.218293806517349, 0.311362344736883, -1.405, 0.76, -0.761], a = 0.2, v = 0.2, t = 0.2)
movej(p[0.418197318212548, 0.218295233804354, 0.311301887437657, -1.405, 0.76, -0.761], a = 0.2, v = 0.2, t = 0.2)
movej(p[0.418197667906056, 0.218295855295693, 0.311275562187243, -1.405, 0.76, -0.761], a = 0.2, v = 0.2, t = 0.2)
movej(p[0.418198041716357, 0.218296519648503, 0.311247421402318, -1.405, 0.76, -0.761], a = 0.2, v = 0.2, t = 0.2)
movej(p[0.418196753879577, 0.218294230845918, 0.311344370945221, -1.405, 0.76, -0.761], a = 0.2, v = 0.2, t = 0.2)
movej(p[0.418188308178447, 0.218279220758552, 0.311980171131078, -1.405, 0.76, -0.761], a = 0.2, v = 0.2, t = 0.2)
movej(p[0.41817917032534, 0.21826298054695, 0.31266807715741, -1.405, 0.76, -0.761], a = 0.2, v = 0.2, t = 0.2)
movej(p[0.418170478632915, 0.218247533272573, 0.313322395795282, -1.405, 0.76, -0.761], a = 0.2, v = 0.2, t = 0.2)
movej(p[0.418158639698921, 0.218226492576148, 0.314213641686879, -1.405, 0.76, -0.761], a = 0.2, v = 0.2, t = 0.2)
movej(p[0.418147210750418, 0.218206180524741, 0.315074023491785, -1.405, 0.76, -0.761], a = 0.2, v = 0.2, t = 0.2)
movej(p[0.418142211339098, 0.218197295341671, 0.315450383795977, -1.405, 0.76, -0.761], a = 0.2, v = 0.2, t = 0.2)
movej(p[0.418152477858147, 0.218215541470146, 0.314677510754517, -1.405, 0.76, -0.761], a = 0.2, v = 0.2, t = 0.2)
movej(p[0.418164574841833, 0.218237040784317, 0.313766838643649, -1.405, 0.76, -0.761], a = 0.2, v = 0.2, t = 0.2)
movej(p[0.418174187795775, 0.21825412536691, 0.313043166587444, -1.405, 0.76, -0.761], a = 0.2, v = 0.2, t = 0.2)
movej(p[0.418183559581781, 0.218270781334787, 0.312337649876353, -1.405, 0.76, -0.761], a = 0.2, v = 0.2, t = 0.2)
movej(p[0.418189248733399, 0.218280892355946, 0.311909365285138, -1.405, 0.76, -0.761], a = 0.2, v = 0.2, t = 0.2)
movej(p[0.418192053516498, 0.218285877145097, 0.311698218621473, -1.405, 0.76, -0.761], a = 0.2, v = 0.2, t = 0.2)
movej(p[0.418194465195861, 0.21829016329226, 0.311516665170343, -1.405, 0.76, -0.761], a = 0.2, v = 0.2, t = 0.2)
movej(p[0.418197556968805, 0.218295658132924, 0.311283913645995, -1.405, 0.76, -0.761], a = 0.2, v = 0.2, t = 0.2)
movej(p[0.418197860840405, 0.218296198187466, 0.311261037911152, -1.405, 0.76, -0.761], a = 0.2, v = 0.2, t = 0.2)
movej(p[0.418197028811025, 0.218294719466695, 0.311323673851792, -1.405, 0.76, -0.761], a = 0.2, v = 0.2, t = 0.2)
movej(p[0.418192309154511, 0.218286331476696, 0.311678973955654, -1.405, 0.76, -0.761], a = 0.2, v = 0.2, t = 0.2)
movej(p[0.41818647771381, 0.218275967572855, 0.312117970200486, -1.405, 0.76, -0.761], a = 0.2, v = 0.2, t = 0.2)
movej(p[0.418176196724685, 0.218257695727497, 0.312891932562653, -1.405, 0.76, -0.761], a = 0.2, v = 0.2, t = 0.2)
movej(p[0.418166820115321, 0.218241031187326, 0.313597812380647, -1.405, 0.76, -0.761], a = 0.2, v = 0.2, t = 0.2)
movej(p[0.418159339085936, 0.218227735558825, 0.314160991186052, -1.405, 0.76, -0.761], a = 0.2, v = 0.2, t = 0.2)
movej(p[0.41814902192162, 0.218209399421261, 0.314937676849986, -1.405, 0.76, -0.761], a = 0.2, v = 0.2, t = 0.2)
movej(p[0.418142857669167, 0.218198444029111, 0.315401727471074, -1.405, 0.76, -0.761], a = 0.2, v = 0.2, t = 0.2)
movej(p[0.41815114419946, 0.218213171230764, 0.314777909812992, -1.405, 0.76, -0.761], a = 0.2, v = 0.2, t = 0.2)
movej(p[0.418166658532803, 0.218240744015466, 0.313609976461872, -1.405, 0.76, -0.761], a = 0.2, v = 0.2, t = 0.2)
movej(p[0.418176720059107, 0.218258625821432, 0.312852535463758, -1.405, 0.76, -0.761], a = 0.2, v = 0.2, t = 0.2)
movej(p[0.418184044329333, 0.218271642850367, 0.312301157632676, -1.405, 0.76, -0.761], a = 0.2, v = 0.2, t = 0.2)
movej(p[0.418191146725058, 0.218284265553763, 0.311766482719098, -1.405, 0.76, -0.761], a = 0.2, v = 0.2, t = 0.2)
movej(p[0.418194870357994, 0.218290883364984, 0.311486164190554, -1.405, 0.76, -0.761], a = 0.2, v = 0.2, t = 0.2)
movej(p[0.418196399362711, 0.218293600782285, 0.311371059302537, -1.405, 0.76, -0.761], a = 0.2, v = 0.2, t = 0.2)
movej(p[0.418197441208196, 0.21829545239786, 0.311292628211649, -1.405, 0.76, -0.761], a = 0.2, v = 0.2, t = 0.2)
movej(p[0.418199672011607, 0.218299417083986, 0.311124691269354, -1.405, 0.76, -0.761], a = 0.2, v = 0.2, t = 0.2)
movej(p[0.418199428431991, 0.218298984183122, 0.311143028167918, -1.405, 0.76, -0.761], a = 0.2, v = 0.2, t = 0.2)
movej(p[0.418197033634383, 0.218294728038989, 0.31132331074489, -1.405, 0.76, -0.761], a = 0.2, v = 0.2, t = 0.2)
movej(p[0.418190818736664, 0.218283682637749, 0.311791173988452, -1.405, 0.76, -0.761], a = 0.2, v = 0.2, t = 0.2)
movej(p[0.418184225205285, 0.218271964311404, 0.312287541123841, -1.405, 0.76, -0.761], a = 0.2, v = 0.2, t = 0.2)
movej(p[0.418173705459903, 0.218253268137478, 0.31307947727767, -1.405, 0.76, -0.761], a = 0.2, v = 0.2, t = 0.2)
movej(p[0.418165423752969, 0.218238549508119, 0.313702931828851, -1.405, 0.76, -0.761], a = 0.2, v = 0.2, t = 0.2)
movej(p[0.418158417824419, 0.218226098250609, 0.314230344604383, -1.405, 0.76, -0.761], a = 0.2, v = 0.2, t = 0.2)
movej(p[0.418150177116035, 0.218211452485752, 0.314850712746895, -1.405, 0.76, -0.761], a = 0.2, v = 0.2, t = 0.2)
movej(p[0.418152289747157, 0.218215207150667, 0.314691671923705, -1.405, 0.76, -0.761], a = 0.2, v = 0.2, t = 0.2)
movej(p[0.41816454831336, 0.218236993636698, 0.313768835731611, -1.405, 0.76, -0.761], a = 0.2, v = 0.2, t = 0.2)
movej(p[0.418177875253522, 0.218260678885923, 0.312765571360667, -1.405, 0.76, -0.761], a = 0.2, v = 0.2, t = 0.2)
movej(p[0.418184832948485, 0.21827304442049, 0.312241789654157, -1.405, 0.76, -0.761], a = 0.2, v = 0.2, t = 0.2)
movej(p[0.418190367752623, 0.218282881128229, 0.311825124483813, -1.405, 0.76, -0.761], a = 0.2, v = 0.2, t = 0.2)
movej(p[0.41819579644287, 0.218292529245494, 0.31141644766532, -1.405, 0.76, -0.761], a = 0.2, v = 0.2, t = 0.2)
movej(p[0.418197892192237, 0.218296253907379, 0.311258677716288, -1.405, 0.76, -0.761], a = 0.2, v = 0.2, t = 0.2)
movej(p[0.418198931626042, 0.218298101236807, 0.311180428178851, -1.405, 0.76, -0.761], a = 0.2, v = 0.2, t = 0.2)
movej(p[0.418199467018861, 0.218299052761477, 0.3111401233127, -1.405, 0.76, -0.761], a = 0.2, v = 0.2, t = 0.2)
movej(p[0.4182, 0.2183, 0.3111, -1.405, 0.76, -0.761], a = 0.2, v = 0.2, t = 0.2)
movej(p[0.418193121890456, 0.21828777590829, 0.311617790442623, -1.405, 0.76, -0.761], a = 0.2, v = 0.2, t = 0.2)
movej(p[0.418183161654686, 0.218270074120505, 0.31236760619579, -1.405, 0.76, -0.761], a = 0.2, v = 0.2, t = 0.2)
movej(p[0.418173495643798, 0.218252895242674, 0.313095272427919, -1.405, 0.76, -0.761], a = 0.2, v = 0.2, t = 0.2)
movej(p[0.418164205854891, 0.218236385003801, 0.313794616321671, -1.405, 0.76, -0.761], a = 0.2, v = 0.2, t = 0.2)
movej(p[0.418152214985097, 0.218215074280105, 0.31469730008069, -1.405, 0.76, -0.761], a = 0.2, v = 0.2, t = 0.2)
movej(p[0.418142380156654, 0.218197595371973, 0.315437675054398, -1.405, 0.76, -0.761], a = 0.2, v = 0.2, t = 0.2)
movej(p[0.418143197715958, 0.218199048375861, 0.315376128434465, -1.405, 0.76, -0.761], a = 0.2, v = 0.2, t = 0.2)
movej(p[0.418156780294131, 0.218223187956685, 0.314353619397701, -1.405, 0.76, -0.761], a = 0.2, v = 0.2, t = 0.2)
movej(p[0.418170097587575, 0.218246856061321, 0.313351081240561, -1.405, 0.76, -0.761], a = 0.2, v = 0.2, t = 0.2)
movej(p[0.418180935674634, 0.218266118006674, 0.312535180031183, -1.405, 0.76, -0.761], a = 0.2, v = 0.2, t = 0.2)
movej(p[0.418154904007587, 0.218219853334192, 0.31449486798268, -1.405, 0.76, -0.761], a = 0.2, v = 0.2, t = 0.2)
movej(p[0.418170565453372, 0.218247687573871, 0.313315859871042, -1.405, 0.76, -0.761], a = 0.2, v = 0.2, t = 0.2)
movej(p[0.418181753233938, 0.218267571010562, 0.31247363341125, -1.405, 0.76, -0.761], a = 0.2, v = 0.2, t = 0.2)
movej(p[0.418190015647436, 0.218282255350744, 0.311851631287678, -1.405, 0.76, -0.761], a = 0.2, v = 0.2, t = 0.2)
movej(p[0.418193625931443, 0.218288671713047, 0.311579845771337, -1.405, 0.76, -0.761], a = 0.2, v = 0.2, t = 0.2)
movej(p[0.418195287578524, 0.218291624868443, 0.311454755443508, -1.405, 0.76, -0.761], a = 0.2, v = 0.2, t = 0.2)
movej(p[0.418196008670654, 0.218292906426445, 0.31140047096162, -1.405, 0.76, -0.761], a = 0.2, v = 0.2, t = 0.2)
movej(p[0.418197887368878, 0.218296245335085, 0.31125904082319, -1.405, 0.76, -0.761], a = 0.2, v = 0.2, t = 0.2)
movej(p[0.41819681899492, 0.218294346571892, 0.311339469002041, -1.405, 0.76, -0.761], a = 0.2, v = 0.2, t = 0.2)
movej(p[0.418186981754797, 0.218276863377612, 0.3120800255292, -1.405, 0.76, -0.761], a = 0.2, v = 0.2, t = 0.2)
movej(p[0.418177443562916, 0.218259911665581, 0.312798069428419, -1.405, 0.76, -0.761], a = 0.2, v = 0.2, t = 0.2)
movej(p[0.418164642368856, 0.218237160796438, 0.313761755147017, -1.405, 0.76, -0.761], a = 0.2, v = 0.2, t = 0.2)
movej(p[0.418150471340917, 0.218211975395706, 0.314828563225857, -1.405, 0.76, -0.761], a = 0.2, v = 0.2, t = 0.2)
movej(p[0.418138393650666, 0.218190510370712, 0.315737782909116, -1.405, 0.76, -0.761], a = 0.2, v = 0.2, t = 0.2)
movej(p[0.41813125749143, 0.218177827661255, 0.316274999571009, -1.405, 0.76, -0.761], a = 0.2, v = 0.2, t = 0.2)
movej(p[0.418134033334377, 0.21818276101664, 0.316066031548759, -1.405, 0.76, -0.761], a = 0.2, v = 0.2, t = 0.2)
movej(p[0.418151886996703, 0.218214491364091, 0.314721991350043, -1.405, 0.76, -0.761], a = 0.2, v = 0.2, t = 0.2)
movej(p[0.418171472244812, 0.218249299165204, 0.313247595773417, -1.405, 0.76, -0.761], a = 0.2, v = 0.2, t = 0.2)
movej(p[0.418181454185697, 0.218267039528314, 0.31249614603919, -1.405, 0.76, -0.761], a = 0.2, v = 0.2, t = 0.2)
movej(p[0.418188694047145, 0.218279906542098, 0.311951122578897, -1.405, 0.76, -0.761], a = 0.2, v = 0.2, t = 0.2)
movej(p[0.418192393563288, 0.218286481491847, 0.311672619584864, -1.405, 0.76, -0.761], a = 0.2, v = 0.2, t = 0.2)
movej(p[0.418196565768587, 0.218293896526439, 0.311358532114409, -1.405, 0.76, -0.761], a = 0.2, v = 0.2, t = 0.2)
movej(p[0.418197028811025, 0.218294719466695, 0.311323673851792, -1.405, 0.76, -0.761], a = 0.2, v = 0.2, t = 0.2)
movej(p[0.418197091514688, 0.218294830906521, 0.311318953462063, -1.405, 0.76, -0.761], a = 0.2, v = 0.2, t = 0.2)
movej(p[0.418197318212548, 0.218295233804354, 0.311301887437657, -1.405, 0.76, -0.761], a = 0.2, v = 0.2, t = 0.2)
movej(p[0.418187302508153, 0.218277433435185, 0.312055878920199, -1.405, 0.76, -0.761], a = 0.2, v = 0.2, t = 0.2)
movej(p[0.418173895982572, 0.218253606743104, 0.313065134555031, -1.405, 0.76, -0.761], a = 0.2, v = 0.2, t = 0.2)
movej(p[0.418160884972408, 0.218230482979157, 0.314044615423877, -1.405, 0.76, -0.761], a = 0.2, v = 0.2, t = 0.2)
movej(p[0.418148901337652, 0.218209185113902, 0.314946754522542, -1.405, 0.76, -0.761], a = 0.2, v = 0.2, t = 0.2)
movej(p[0.418136042263287, 0.218186331377227, 0.315914797523968, -1.405, 0.76, -0.761], a = 0.2, v = 0.2, t = 0.2)
movej(p[0.418126769356135, 0.218169851141384, 0.316612870543562, -1.405, 0.76, -0.761], a = 0.2, v = 0.2, t = 0.2)
movej(p[0.418135909620922, 0.218186095639133, 0.31592478296378, -1.405, 0.76, -0.761], a = 0.2, v = 0.2, t = 0.2)
movej(p[0.418151771236094, 0.218214285629027, 0.314730705915698, -1.405, 0.76, -0.761], a = 0.2, v = 0.2, t = 0.2)
movej(p[0.418167032343105, 0.218241408368277, 0.313581835676947, -1.405, 0.76, -0.761], a = 0.2, v = 0.2, t = 0.2)
movej(p[0.418179440433428, 0.218263460595432, 0.312647743170883, -1.405, 0.76, -0.761], a = 0.2, v = 0.2, t = 0.2)
movej(p[0.418189038917294, 0.218280519461142, 0.311925160435386, -1.405, 0.76, -0.761], a = 0.2, v = 0.2, t = 0.2)
movej(p[0.418192721551682, 0.218287064407861, 0.31164792831551, -1.405, 0.76, -0.761], a = 0.2, v = 0.2, t = 0.2)
movej(p[0.418194740127309, 0.218290651913037, 0.311495968076915, -1.405, 0.76, -0.761], a = 0.2, v = 0.2, t = 0.2)
movej(p[0.418197108396443, 0.218294860909551, 0.311317682587905, -1.405, 0.76, -0.761], a = 0.2, v = 0.2, t = 0.2)
movej(p[0.418197641377583, 0.218295808148074, 0.311277559275205, -1.405, 0.76, -0.761], a = 0.2, v = 0.2, t = 0.2)
movej(p[0.418196351129123, 0.218293515059342, 0.31137469037156, -1.405, 0.76, -0.761], a = 0.2, v = 0.2, t = 0.2)
movej(p[0.418186354718163, 0.21827574897935, 0.312127229426494, -1.405, 0.76, -0.761], a = 0.2, v = 0.2, t = 0.2)
movej(p[0.418177269922001, 0.218259603062985, 0.3128111412769, -1.405, 0.76, -0.761], a = 0.2, v = 0.2, t = 0.2)
movej(p[0.41816333765032, 0.218234841990822, 0.313859975564078, -1.405, 0.76, -0.761], a = 0.2, v = 0.2, t = 0.2)
movej(p[0.418149328204899, 0.21820994376195, 0.314914619561692, -1.405, 0.76, -0.761], a = 0.2, v = 0.2, t = 0.2)
movej(p[0.418140306112401, 0.218193909285412, 0.31559381102237, -1.405, 0.76, -0.761], a = 0.2, v = 0.2, t = 0.2)
movej(p[0.418134206975292, 0.218183069619236, 0.316052959700277, -1.405, 0.76, -0.761], a = 0.2, v = 0.2, t = 0.2)
movej(p[0.418146364250962, 0.218204676087087, 0.315137748753131, -1.405, 0.76, -0.761], a = 0.2, v = 0.2, t = 0.2)
movej(p[0.418163344885358, 0.218234854849264, 0.313859430903725, -1.405, 0.76, -0.761], a = 0.2, v = 0.2, t = 0.2)
movej(p[0.418178692812826, 0.218262131889812, 0.312704024740734, -1.405, 0.76, -0.761], a = 0.2, v = 0.2, t = 0.2)
movej(p[0.418186229310836, 0.218275526099697, 0.312136670205952, -1.405, 0.76, -0.761], a = 0.2, v = 0.2, t = 0.2)
movej(p[0.418191404774749, 0.21828472417151, 0.311747056499827, -1.405, 0.76, -0.761], a = 0.2, v = 0.2, t = 0.2)
movej(p[0.41819605931592, 0.218292996435535, 0.311396658339146, -1.405, 0.76, -0.761], a = 0.2, v = 0.2, t = 0.2)
movej(p[0.418196565768587, 0.218293896526439, 0.311358532114409, -1.405, 0.76, -0.761], a = 0.2, v = 0.2, t = 0.2)
movej(p[0.418197127689878, 0.218294895198728, 0.311316230160296, -1.405, 0.76, -0.761], a = 0.2, v = 0.2, t = 0.2)
movej(p[0.418197192805221, 0.218295010924702, 0.311311328217115, -1.405, 0.76, -0.761], a = 0.2, v = 0.2, t = 0.2)
movej(p[0.41819367416503, 0.21828875743599, 0.311576214702314, -1.405, 0.76, -0.761], a = 0.2, v = 0.2, t = 0.2)
movej(p[0.418181449362338, 0.218267030956019, 0.312496509146092, -1.405, 0.76, -0.761], a = 0.2, v = 0.2, t = 0.2)
movej(p[0.418168296063091, 0.21824365430939, 0.313486701668555, -1.405, 0.76, -0.761], a = 0.2, v = 0.2, t = 0.2)
movej(p[0.418157706379007, 0.218224833837196, 0.314283902872467, -1.405, 0.76, -0.761], a = 0.2, v = 0.2, t = 0.2)
movej(p[0.418145204233188, 0.218202614450301, 0.315225075963125, -1.405, 0.76, -0.761], a = 0.2, v = 0.2, t = 0.2)
movej(p[0.418135362169707, 0.218185122683727, 0.315965995597186, -1.405, 0.76, -0.761], a = 0.2, v = 0.2, t = 0.2)
movej(p[0.418134976301008, 0.218184436900181, 0.315995044149367, -1.405, 0.76, -0.761], a = 0.2, v = 0.2, t = 0.2)
movej(p[0.418151276841825, 0.218213406968858, 0.314767924373179, -1.405, 0.76, -0.761], a = 0.2, v = 0.2, t = 0.2)
movej(p[0.418166699531352, 0.218240816879968, 0.313606890053203, -1.405, 0.76, -0.761], a = 0.2, v = 0.2, t = 0.2)
movej(p[0.418178058541153, 0.218261004633108, 0.312751773298381, -1.405, 0.76, -0.761], a = 0.2, v = 0.2, t = 0.2)
movej(p[0.418188551758063, 0.218279653659415, 0.311961834232514, -1.405, 0.76, -0.761], a = 0.2, v = 0.2, t = 0.2)
movej(p[0.418192572027561, 0.218286798666737, 0.31165918462948, -1.405, 0.76, -0.761], a = 0.2, v = 0.2, t = 0.2)
movej(p[0.418194969236848, 0.218291059097017, 0.311478720499057, -1.405, 0.76, -0.761], a = 0.2, v = 0.2, t = 0.2)
movej(p[0.418195999023936, 0.218292889281856, 0.311401197175425, -1.405, 0.76, -0.761], a = 0.2, v = 0.2, t = 0.2)
movej(p[0.41819814300689, 0.218296699666684, 0.31123979615737, -1.405, 0.76, -0.761], a = 0.2, v = 0.2, t = 0.2)
movej(p[0.418198020011243, 0.218296481073179, 0.311249055383378, -1.405, 0.76, -0.761], a = 0.2, v = 0.2, t = 0.2)
movej(p[0.418194728068912, 0.218290630482301, 0.31149687584417, -1.405, 0.76, -0.761], a = 0.2, v = 0.2, t = 0.2)
movej(p[0.418187813784178, 0.218278342098383, 0.31201738958856, -1.405, 0.76, -0.761], a = 0.2, v = 0.2, t = 0.2)
movej(p[0.418176570534986, 0.218258360080308, 0.312863791777728, -1.405, 0.76, -0.761], a = 0.2, v = 0.2, t = 0.2)
movej(p[0.418164910065265, 0.218237636558773, 0.313741602713942, -1.405, 0.76, -0.761], a = 0.2, v = 0.2, t = 0.2)
movej(p[0.418153162775087, 0.21821675873594, 0.314625949574396, -1.405, 0.76, -0.761], a = 0.2, v = 0.2, t = 0.2)
movej(p[0.418144039392055, 0.218200544241221, 0.31531276628002, -1.405, 0.76, -0.761], a = 0.2, v = 0.2, t = 0.2)
movej(p[0.418137419332203, 0.218188778767258, 0.315811130503372, -1.405, 0.76, -0.761], a = 0.2, v = 0.2, t = 0.2)
movej(p[0.418147217985456, 0.218206193383182, 0.315073478831431, -1.405, 0.76, -0.761], a = 0.2, v = 0.2, t = 0.2)
movej(p[0.418164741247709, 0.218237336528471, 0.313754311455521, -1.405, 0.76, -0.761], a = 0.2, v = 0.2, t = 0.2)
movej(p[0.418178099539702, 0.218261077497609, 0.312748686889712, -1.405, 0.76, -0.761], a = 0.2, v = 0.2, t = 0.2)
movej(p[0.418186205194042, 0.218275483238226, 0.312138485740464, -1.405, 0.76, -0.761], a = 0.2, v = 0.2, t = 0.2)
movej(p[0.418191474713451, 0.218284848469777, 0.311741791449745, -1.405, 0.76, -0.761], a = 0.2, v = 0.2, t = 0.2)
movej(p[0.418196001435616, 0.218292893568003, 0.311401015621974, -1.405, 0.76, -0.761], a = 0.2, v = 0.2, t = 0.2)
movej(p[0.418196698410952, 0.218294132264533, 0.311348546674597, -1.405, 0.76, -0.761], a = 0.2, v = 0.2, t = 0.2)
movej(p[0.418197052927818, 0.218294762328166, 0.311321858317281, -1.405, 0.76, -0.761], a = 0.2, v = 0.2, t = 0.2)
movej(p[0.418197831900252, 0.2182961467537, 0.311263216552566, -1.405, 0.76, -0.761], a = 0.2, v = 0.2, t = 0.2)
movej(p[0.418198249120782, 0.218296888257159, 0.31123180780552, -1.405, 0.76, -0.761], a = 0.2, v = 0.2, t = 0.2)
movej(p[0.418191105726508, 0.218284192689261, 0.311769569127767, -1.405, 0.76, -0.761], a = 0.2, v = 0.2, t = 0.2)
movej(p[0.418181577181344, 0.218267258121819, 0.312486886813182, -1.405, 0.76, -0.761], a = 0.2, v = 0.2, t = 0.2)
movej(p[0.41817330029777, 0.218252548064754, 0.31310997825746, -1.405, 0.76, -0.761], a = 0.2, v = 0.2, t = 0.2)
movej(p[0.418161198490725, 0.218231040178288, 0.314021013475231, -1.405, 0.76, -0.761], a = 0.2, v = 0.2, t = 0.2)
movej(p[0.418149260677877, 0.21820982374983, 0.314919703058324, -1.405, 0.76, -0.761], a = 0.2, v = 0.2, t = 0.2)
movej(p[0.418140771566518, 0.218194736511815, 0.315558771206302, -1.405, 0.76, -0.761], a = 0.2, v = 0.2, t = 0.2)
movej(p[0.41814625572539, 0.218204483210464, 0.315145918658432, -1.405, 0.76, -0.761], a = 0.2, v = 0.2, t = 0.2)
movej(p[0.418160050531348, 0.218228999972239, 0.314107432917968, -1.405, 0.76, -0.761], a = 0.2, v = 0.2, t = 0.2)
movej(p[0.418173543877385, 0.218252980965618, 0.313091641358896, -1.405, 0.76, -0.761], a = 0.2, v = 0.2, t = 0.2)
movej(p[0.418185734916566, 0.218274647439529, 0.312173888663434, -1.405, 0.76, -0.761], a = 0.2, v = 0.2, t = 0.2)
movej(p[0.418191330012689, 0.218284591300948, 0.311752684656812, -1.405, 0.76, -0.761], a = 0.2, v = 0.2, t = 0.2)
movej(p[0.418194361493649, 0.218289978987932, 0.311524471968742, -1.405, 0.76, -0.761], a = 0.2, v = 0.2, t = 0.2)
movej(p[0.418196015905692, 0.218292919284886, 0.311399926301267, -1.405, 0.76, -0.761], a = 0.2, v = 0.2, t = 0.2)
movej(p[0.41819856022742, 0.218297441170143, 0.311208387410325, -1.405, 0.76, -0.761], a = 0.2, v = 0.2, t = 0.2)
movej(p[0.41819856022742, 0.218297441170143, 0.311208387410325, -1.405, 0.76, -0.761], a = 0.2, v = 0.2, t = 0.2)
movej(p[0.418197979012694, 0.218296408208677, 0.311252141792047, -1.405, 0.76, -0.761], a = 0.2, v = 0.2, t = 0.2)
movej(p[0.418193331706561, 0.218288148803093, 0.311601995292374, -1.405, 0.76, -0.761], a = 0.2, v = 0.2, t = 0.2)
movej(p[0.418183735634374, 0.21827109422353, 0.312324396474421, -1.405, 0.76, -0.761], a = 0.2, v = 0.2, t = 0.2)
movej(p[0.41817083556146, 0.218248167622353, 0.313295525884515, -1.405, 0.76, -0.761], a = 0.2, v = 0.2, t = 0.2)
movej(p[0.418159066566168, 0.218227251224196, 0.314181506726029, -1.405, 0.76, -0.761], a = 0.2, v = 0.2, t = 0.2)
movej(p[0.418149755072146, 0.218210702409998, 0.314882484600842, -1.405, 0.76, -0.761], a = 0.2, v = 0.2, t = 0.2)
movej(p[0.41814076433148, 0.218194723653373, 0.315559315866655, -1.405, 0.76, -0.761], a = 0.2, v = 0.2, t = 0.2)
movej(p[0.418141738649943, 0.218196455256827, 0.315485968272399, -1.405, 0.76, -0.761], a = 0.2, v = 0.2, t = 0.2)
movej(p[0.418159652604253, 0.218228292757957, 0.314137389237405, -1.405, 0.76, -0.761], a = 0.2, v = 0.2, t = 0.2)
movej(p[0.418176008613695, 0.218257361408019, 0.312906093731841, -1.405, 0.76, -0.761], a = 0.2, v = 0.2, t = 0.2)
movej(p[0.418184176971698, 0.218271878588461, 0.312291172192864, -1.405, 0.76, -0.761], a = 0.2, v = 0.2, t = 0.2)
movej(p[0.418190403927814, 0.218282945420437, 0.311822401182046, -1.405, 0.76, -0.761], a = 0.2, v = 0.2, t = 0.2)
movej(p[0.418195849499816, 0.218292623540732, 0.311412453489395, -1.405, 0.76, -0.761], a = 0.2, v = 0.2, t = 0.2)
movej(p[0.418196982989117, 0.218294638029899, 0.311327123367364, -1.405, 0.76, -0.761], a = 0.2, v = 0.2, t = 0.2)
movej(p[0.418197267567281, 0.218295143795264, 0.31130570006013, -1.405, 0.76, -0.761], a = 0.2, v = 0.2, t = 0.2)
movej(p[0.418192494853822, 0.218286661510028, 0.311664994339917, -1.405, 0.76, -0.761], a = 0.2, v = 0.2, t = 0.2)
movej(p[0.418185269462449, 0.218273820213126, 0.312208928479502, -1.405, 0.76, -0.761], a = 0.2, v = 0.2, t = 0.2)
movej(p[0.418172359742818, 0.218250876467361, 0.313180784103401, -1.405, 0.76, -0.761], a = 0.2, v = 0.2, t = 0.2)
movej(p[0.418159339085936, 0.218227735558825, 0.314160991186052, -1.405, 0.76, -0.761], a = 0.2, v = 0.2, t = 0.2)
movej(p[0.418149395731921, 0.218210063774071, 0.314909536065061, -1.405, 0.76, -0.761], a = 0.2, v = 0.2, t = 0.2)
movej(p[0.418140168646677, 0.218193664975024, 0.315604159569084, -1.405, 0.76, -0.761], a = 0.2, v = 0.2, t = 0.2)
movej(p[0.418140786036594, 0.218194762228698, 0.315557681885595, -1.405, 0.76, -0.761], a = 0.2, v = 0.2, t = 0.2)
movej(p[0.418156551184592, 0.218222780772705, 0.314370866975558, -1.405, 0.76, -0.761], a = 0.2, v = 0.2, t = 0.2)
movej(p[0.418173975567991, 0.21825374818596, 0.313059143291144, -1.405, 0.76, -0.761], a = 0.2, v = 0.2, t = 0.2)
movej(p[0.418183106186061, 0.218269975539121, 0.312371781925166, -1.405, 0.76, -0.761], a = 0.2, v = 0.2, t = 0.2)
movej(p[0.418188882158135, 0.218280240861577, 0.311936961409709, -1.405, 0.76, -0.761], a = 0.2, v = 0.2, t = 0.2)
movej(p[0.418194173382658, 0.218289644668453, 0.31153863313793, -1.405, 0.76, -0.761], a = 0.2, v = 0.2, t = 0.2)
movej(p[0.418196710469349, 0.218294153695269, 0.311347638907341, -1.405, 0.76, -0.761], a = 0.2, v = 0.2, t = 0.2)
movej(p[0.418197479795065, 0.218295520976214, 0.311289723356431, -1.405, 0.76, -0.761], a = 0.2, v = 0.2, t = 0.2)
movej(p[0.418197947660862, 0.218296352488764, 0.311254501986912, -1.405, 0.76, -0.761], a = 0.2, v = 0.2, t = 0.2)
movej(p[0.418199594837867, 0.218299279927277, 0.31113050097979, -1.405, 0.76, -0.761], a = 0.2, v = 0.2, t = 0.2)
movej(p[0.418199290966267, 0.218298739872734, 0.311153376714632, -1.405, 0.76, -0.761], a = 0.2, v = 0.2, t = 0.2)
movej(p[0.418194759420744, 0.218290686202214, 0.311494515649306, -1.405, 0.76, -0.761], a = 0.2, v = 0.2, t = 0.2)
movej(p[0.418185363517945, 0.218273987372865, 0.312201847894908, -1.405, 0.76, -0.761], a = 0.2, v = 0.2, t = 0.2)
movej(p[0.41817841064634, 0.218261630410593, 0.312725266494516, -1.405, 0.76, -0.761], a = 0.2, v = 0.2, t = 0.2)
movej(p[0.418167425446841, 0.218242107010264, 0.313552242464413, -1.405, 0.76, -0.761], a = 0.2, v = 0.2, t = 0.2)
movej(p[0.418156365485281, 0.218222450739373, 0.314384846591295, -1.405, 0.76, -0.761], a = 0.2, v = 0.2, t = 0.2)
movej(p[0.418150251878095, 0.218211585356314, 0.31484508458991, -1.405, 0.76, -0.761], a = 0.2, v = 0.2, t = 0.2)
movej(p[0.418146354604244, 0.218204658942498, 0.315138474966936, -1.405, 0.76, -0.761], a = 0.2, v = 0.2, t = 0.2)
movej(p[0.418158740989454, 0.218226672594329, 0.314206016441932, -1.405, 0.76, -0.761], a = 0.2, v = 0.2, t = 0.2)
movej(p[0.418172494796862, 0.218251116491602, 0.313170617110138, -1.405, 0.76, -0.761], a = 0.2, v = 0.2, t = 0.2)
movej(p[0.418183841748266, 0.218271282814005, 0.312316408122571, -1.405, 0.76, -0.761], a = 0.2, v = 0.2, t = 0.2)
movej(p[0.418188279238295, 0.218279169324786, 0.311982349772492, -1.405, 0.76, -0.761], a = 0.2, v = 0.2, t = 0.2)
movej(p[0.418192145160314, 0.218286040018689, 0.31169131959033, -1.405, 0.76, -0.761], a = 0.2, v = 0.2, t = 0.2)
movej(p[0.41819515252448, 0.218291384844202, 0.311464922436771, -1.405, 0.76, -0.761], a = 0.2, v = 0.2, t = 0.2)
movej(p[0.418198061009792, 0.218296553937681, 0.311245968974709, -1.405, 0.76, -0.761], a = 0.2, v = 0.2, t = 0.2)
movej(p[0.418198381763147, 0.218297123995253, 0.311221822365708, -1.405, 0.76, -0.761], a = 0.2, v = 0.2, t = 0.2)
movej(p[0.418198413114979, 0.218297179715167, 0.311219462170844, -1.405, 0.76, -0.761], a = 0.2, v = 0.2, t = 0.2)
movej(p[0.418199968648168, 0.218299944280087, 0.311102360194865, -1.405, 0.76, -0.761], a = 0.2, v = 0.2, t = 0.2)
movej(p[0.41819958519115, 0.218299262782688, 0.311131227193594, -1.405, 0.76, -0.761], a = 0.2, v = 0.2, t = 0.2)
movej(p[0.418194426608992, 0.218290094713905, 0.311519570025561, -1.405, 0.76, -0.761], a = 0.2, v = 0.2, t = 0.2)
movej(p[0.418186588651061, 0.218276164735624, 0.312109618741734, -1.405, 0.76, -0.761], a = 0.2, v = 0.2, t = 0.2)
movej(p[0.418181678471877, 0.21826743814, 0.312479261568235, -1.405, 0.76, -0.761], a = 0.2, v = 0.2, t = 0.2)
movej(p[0.418172948192583, 0.218251922287268, 0.313136485061325, -1.405, 0.76, -0.761], a = 0.2, v = 0.2, t = 0.2)
movej(p[0.418163547466425, 0.218235214885626, 0.31384418041383, -1.405, 0.76, -0.761], a = 0.2, v = 0.2, t = 0.2)
movej(p[0.418155998910018, 0.218221799245004, 0.314412442715867, -1.405, 0.76, -0.761], a = 0.2, v = 0.2, t = 0.2)
movej(p[0.418150719743892, 0.218212416868864, 0.31480986322039, -1.405, 0.76, -0.761], a = 0.2, v = 0.2, t = 0.2)
movej(p[0.418154973946288, 0.21821997763246, 0.314489602932597, -1.405, 0.76, -0.761], a = 0.2, v = 0.2, t = 0.2)
movej(p[0.41816788125424, 0.218242917092078, 0.313517928862149, -1.405, 0.76, -0.761], a = 0.2, v = 0.2, t = 0.2)
movej(p[0.418179901064187, 0.21826427924954, 0.312613066461717, -1.405, 0.76, -0.761], a = 0.2, v = 0.2, t = 0.2)
movej(p[0.418185334577792, 0.2182739359391, 0.312204026536322, -1.405, 0.76, -0.761], a = 0.2, v = 0.2, t = 0.2)
movej(p[0.418189289731948, 0.218280965220447, 0.311906278876468, -1.405, 0.76, -0.761], a = 0.2, v = 0.2, t = 0.2)
movej(p[0.418192461090311, 0.218286601503967, 0.311667536088232, -1.405, 0.76, -0.761], a = 0.2, v = 0.2, t = 0.2)
movej(p[0.418196814171561, 0.218294337999597, 0.311339832108943, -1.405, 0.76, -0.761], a = 0.2, v = 0.2, t = 0.2)
movej(p[0.418197694434529, 0.218295902443312, 0.31127356509928, -1.405, 0.76, -0.761], a = 0.2, v = 0.2, t = 0.2)
movej(p[0.4181981068317, 0.218296635374477, 0.311242519459137, -1.405, 0.76, -0.761], a = 0.2, v = 0.2, t = 0.2)
movej(p[0.418199426020312, 0.218298979896975, 0.311143209721369, -1.405, 0.76, -0.761], a = 0.2, v = 0.2, t = 0.2)
movej(p[0.418199635836416, 0.218299352791778, 0.311127414571121, -1.405, 0.76, -0.761], a = 0.2, v = 0.2, t = 0.2)
movej(p[0.418194711187156, 0.218290600479271, 0.311498146718328, -1.405, 0.76, -0.761], a = 0.2, v = 0.2, t = 0.2)
movej(p[0.418189050975691, 0.218280540891878, 0.31192425266813, -1.405, 0.76, -0.761], a = 0.2, v = 0.2, t = 0.2)
movej(p[0.41818136495356, 0.218266880940869, 0.312502863516882, -1.405, 0.76, -0.761], a = 0.2, v = 0.2, t = 0.2)
movej(p[0.418169827479487, 0.218246376012839, 0.313371415227087, -1.405, 0.76, -0.761], a = 0.2, v = 0.2, t = 0.2)
movej(p[0.418158523938311, 0.218226286841084, 0.314222356252534, -1.405, 0.76, -0.761], a = 0.2, v = 0.2, t = 0.2)
movej(p[0.418147968017738, 0.21820752637495, 0.31501701570813, -1.405, 0.76, -0.761], a = 0.2, v = 0.2, t = 0.2)
movej(p[0.418143373768551, 0.218199361264604, 0.315362875032532, -1.405, 0.76, -0.761], a = 0.2, v = 0.2, t = 0.2)
movej(p[0.418147008169352, 0.218205820488379, 0.315089273981679, -1.405, 0.76, -0.761], a = 0.2, v = 0.2, t = 0.2)
movej(p[0.418159124446473, 0.218227354091728, 0.314177149443202, -1.405, 0.76, -0.761], a = 0.2, v = 0.2, t = 0.2)
movej(p[0.418173736811734, 0.218253323857391, 0.313077117082806, -1.405, 0.76, -0.761], a = 0.2, v = 0.2, t = 0.2)
movej(p[0.418182896369956, 0.218269602644317, 0.312387577075414, -1.405, 0.76, -0.761], a = 0.2, v = 0.2, t = 0.2)
movej(p[0.418188542111345, 0.218279636514827, 0.311962560446319, -1.405, 0.76, -0.761], a = 0.2, v = 0.2, t = 0.2)
movej(p[0.418192309154511, 0.218286331476696, 0.311678973955654, -1.405, 0.76, -0.761], a = 0.2, v = 0.2, t = 0.2)
movej(p[0.41819651512332, 0.218293806517349, 0.311362344736883, -1.405, 0.76, -0.761], a = 0.2, v = 0.2, t = 0.2)
movej(p[0.418197318212548, 0.218295233804354, 0.311301887437657, -1.405, 0.76, -0.761], a = 0.2, v = 0.2, t = 0.2)
movej(p[0.418197667906056, 0.218295855295693, 0.311275562187243, -1.405, 0.76, -0.761], a = 0.2, v = 0.2, t = 0.2)
movej(p[0.418198041716357, 0.218296519648503, 0.311247421402318, -1.405, 0.76, -0.761], a = 0.2, v = 0.2, t = 0.2)
movej(p[0.418196753879577, 0.218294230845918, 0.311344370945221, -1.405, 0.76, -0.761], a = 0.2, v = 0.2, t = 0.2)
