movej(p[0.418270225680688, 0.218460021068155, 0.306502264385586, -1.405, 0.76, -0.761], a = 0.2, v = 0.2, t = 0.1)
movej(p[0.418252004944805, 0.218454390641272, 0.306491574642465, -1.405, 0.76, -0.761], a = 0.2, v = 0.2, t = 0.1)
movej(p[0.418234735255784, 0.218451838840841, 0.306481630455536, -1.405, 0.76, -0.761], a = 0.2, v = 0.2, t = 0.1)
movej(p[0.418219663607051, 0.218451128614137, 0.306471620892034, -1.405, 0.76, -0.761], a = 0.2, v = 0.2, t = 0.1)
movej(p[0.418208483782826, 0.218450776343955, 0.306460800157076, -1.405, 0.76, -0.761], a = 0.2, v = 0.2, t = 0.1)
movej(p[0.418200692288586, 0.218449751784015, 0.306447390599722, -1.405, 0.76, -0.761], a = 0.2, v = 0.2, t = 0.1)
movej(p[0.418195581728833, 0.218446384122385, 0.306433386127467, -1.405, 0.76, -0.761], a = 0.2, v = 0.2, t = 0.1)
movej(p[0.418192651746474, 0.218441424839366, 0.30641880783853, -1.405, 0.76, -0.761], a = 0.2, v = 0.2, t = 0.1)
movej(p[0.418191806303845, 0.218435601350895, 0.306403876705359, -1.405, 0.76, -0.761], a = 0.2, v = 0.2, t = 0.1)
movej(p[0.418193280132877, 0.218430297198983, 0.306388310392292, -1.405, 0.76, -0.761], a = 0.2, v = 0.2, t = 0.1)
movej(p[0.418197699384956, 0.218426612984967, 0.30637396886953, -1.405, 0.76, -0.761], a = 0.2, v = 0.2, t = 0.1)
movej(p[0.418205692574449, 0.21842552894991, 0.306364370906479, -1.405, 0.76, -0.761], a = 0.2, v = 0.2, t = 0.1)
movej(p[0.418215911632378, 0.2184272081417, 0.306358855207886, -1.405, 0.76, -0.761], a = 0.2, v = 0.2, t = 0.1)
movej(p[0.41822629127912, 0.218430330898021, 0.306356079713971, -1.405, 0.76, -0.761], a = 0.2, v = 0.2, t = 0.1)
movej(p[0.418234711816883, 0.218433258353478, 0.306355407367835, -1.405, 0.76, -0.761], a = 0.2, v = 0.2, t = 0.1)
movej(p[0.418242289877172, 0.218434970841372, 0.306354458060467, -1.405, 0.76, -0.761], a = 0.2, v = 0.2, t = 0.1)
movej(p[0.418249704408753, 0.218435457582074, 0.306351225817449, -1.405, 0.76, -0.761], a = 0.2, v = 0.2, t = 0.1)
movej(p[0.418255437360165, 0.218435711487944, 0.306346233104869, -1.405, 0.76, -0.761], a = 0.2, v = 0.2, t = 0.1)
movej(p[0.41825892469175, 0.218436891869565, 0.306341551551853, -1.405, 0.76, -0.761], a = 0.2, v = 0.2, t = 0.1)
movej(p[0.418261848912883, 0.21843931400957, 0.30633837437802, -1.405, 0.76, -0.761], a = 0.2, v = 0.2, t = 0.1)
movej(p[0.418267644139586, 0.218442363579766, 0.306334886020373, -1.405, 0.76, -0.761], a = 0.2, v = 0.2, t = 0.1)
movej(p[0.41827648494705, 0.218445527903013, 0.30633074757383, -1.405, 0.76, -0.761], a = 0.2, v = 0.2, t = 0.1)
movej(p[0.418286094201394, 0.218448479909534, 0.306326341222454, -1.405, 0.76, -0.761], a = 0.2, v = 0.2, t = 0.1)
movej(p[0.418292690633173, 0.218451781928189, 0.306323693769796, -1.405, 0.76, -0.761], a = 0.2, v = 0.2, t = 0.1)
movej(p[0.418296245241222, 0.21845594056149, 0.306322505676498, -1.405, 0.76, -0.761], a = 0.2, v = 0.2, t = 0.1)
movej(p[0.418298417620703, 0.218460564315081, 0.30632297281258, -1.405, 0.76, -0.761], a = 0.2, v = 0.2, t = 0.1)
movej(p[0.418300340777472, 0.218463935121121, 0.30632269879856, -1.405, 0.76, -0.761], a = 0.2, v = 0.2, t = 0.1)
movej(p[0.418301393153627, 0.218464911300795, 0.306321026196792, -1.405, 0.76, -0.761], a = 0.2, v = 0.2, t = 0.1)
movej(p[0.418300985003252, 0.218463134370355, 0.306318502917084, -1.405, 0.76, -0.761], a = 0.2, v = 0.2, t = 0.1)
movej(p[0.418299352031605, 0.218459153346136, 0.306315601219, -1.405, 0.76, -0.761], a = 0.2, v = 0.2, t = 0.1)
movej(p[0.418297013498979, 0.218452080505001, 0.306312351058784, -1.405, 0.76, -0.761], a = 0.2, v = 0.2, t = 0.1)
movej(p[0.41829235376309, 0.218443100429869, 0.306308248753692, -1.405, 0.76, -0.761], a = 0.2, v = 0.2, t = 0.1)
movej(p[0.418284450034288, 0.21843239113243, 0.306306631474997, -1.405, 0.76, -0.761], a = 0.2, v = 0.2, t = 0.1)
movej(p[0.418273490738765, 0.218420802310345, 0.306310356825095, -1.405, 0.76, -0.761], a = 0.2, v = 0.2, t = 0.1)
movej(p[0.418262148285925, 0.218410187960684, 0.306319705146379, -1.405, 0.76, -0.761], a = 0.2, v = 0.2, t = 0.1)
movej(p[0.418252069138014, 0.218401389117966, 0.306331317918193, -1.405, 0.76, -0.761], a = 0.2, v = 0.2, t = 0.1)
movej(p[0.418243410955548, 0.218394317869124, 0.306343298463849, -1.405, 0.76, -0.761], a = 0.2, v = 0.2, t = 0.1)
movej(p[0.41823600747819, 0.218386435515195, 0.306356007795914, -1.405, 0.76, -0.761], a = 0.2, v = 0.2, t = 0.1)
movej(p[0.418228203705832, 0.218376964356951, 0.306370479963979, -1.405, 0.76, -0.761], a = 0.2, v = 0.2, t = 0.1)
movej(p[0.418218953153059, 0.218365473839757, 0.306387273115857, -1.405, 0.76, -0.761], a = 0.2, v = 0.2, t = 0.1)
movej(p[0.418208321078644, 0.218353008913275, 0.306404589119046, -1.405, 0.76, -0.761], a = 0.2, v = 0.2, t = 0.1)
movej(p[0.418197128213449, 0.218341150883087, 0.30642129477431, -1.405, 0.76, -0.761], a = 0.2, v = 0.2, t = 0.1)
movej(p[0.418186696547892, 0.218331287909907, 0.306436571095587, -1.405, 0.76, -0.761], a = 0.2, v = 0.2, t = 0.1)
movej(p[0.418177253653501, 0.218323251876637, 0.306450782270795, -1.405, 0.76, -0.761], a = 0.2, v = 0.2, t = 0.1)
movej(p[0.418170176465304, 0.218318410080055, 0.306462531339145, -1.405, 0.76, -0.761], a = 0.2, v = 0.2, t = 0.1)
movej(p[0.418167010020372, 0.21831780501859, 0.306471268217484, -1.405, 0.76, -0.761], a = 0.2, v = 0.2, t = 0.1)
movej(p[0.418169051749667, 0.218321426445219, 0.306477649132831, -1.405, 0.76, -0.761], a = 0.2, v = 0.2, t = 0.1)
movej(p[0.418176040856414, 0.21832773947069, 0.306482947866574, -1.405, 0.76, -0.761], a = 0.2, v = 0.2, t = 0.1)
movej(p[0.418186692788237, 0.218335146457891, 0.306487059619613, -1.405, 0.76, -0.761], a = 0.2, v = 0.2, t = 0.1)
movej(p[0.418199362382091, 0.218342373100658, 0.306489760391145, -1.405, 0.76, -0.761], a = 0.2, v = 0.2, t = 0.1)
movej(p[0.418212860964684, 0.218349189874644, 0.306490201669316, -1.405, 0.76, -0.761], a = 0.2, v = 0.2, t = 0.1)
movej(p[0.418225973795976, 0.218354926241286, 0.306490694346954, -1.405, 0.76, -0.761], a = 0.2, v = 0.2, t = 0.1)
movej(p[0.418238430230624, 0.218360444797703, 0.306492889792677, -1.405, 0.76, -0.761], a = 0.2, v = 0.2, t = 0.1)
movej(p[0.418249372992402, 0.218364707300572, 0.306498239653232, -1.405, 0.76, -0.761], a = 0.2, v = 0.2, t = 0.1)
movej(p[0.418258105468553, 0.218368209076352, 0.30650521980908, -1.405, 0.76, -0.761], a = 0.2, v = 0.2, t = 0.1)
movej(p[0.418264200940912, 0.218371910784944, 0.306511672473818, -1.405, 0.76, -0.761], a = 0.2, v = 0.2, t = 0.1)
movej(p[0.418268739078544, 0.218377468710761, 0.306516559690965, -1.405, 0.76, -0.761], a = 0.2, v = 0.2, t = 0.1)
movej(p[0.418273444340883, 0.218383645241031, 0.306521180628441, -1.405, 0.76, -0.761], a = 0.2, v = 0.2, t = 0.1)
movej(p[0.418280463794124, 0.218387199565373, 0.306527105890854, -1.405, 0.76, -0.761], a = 0.2, v = 0.2, t = 0.1)
movej(p[0.418289658844709, 0.218387465522293, 0.306534304905554, -1.405, 0.76, -0.761], a = 0.2, v = 0.2, t = 0.1)
movej(p[0.418300838332064, 0.218386638012675, 0.306541599500766, -1.405, 0.76, -0.761], a = 0.2, v = 0.2, t = 0.1)
movej(p[0.418312001119445, 0.218386630627221, 0.306549631499169, -1.405, 0.76, -0.761], a = 0.2, v = 0.2, t = 0.1)
movej(p[0.418323091881275, 0.218387406211542, 0.306560204950828, -1.405, 0.76, -0.761], a = 0.2, v = 0.2, t = 0.1)
movej(p[0.418334201360931, 0.218388789406732, 0.306572757716175, -1.405, 0.76, -0.761], a = 0.2, v = 0.2, t = 0.1)
movej(p[0.418346138622298, 0.218389174981785, 0.306587084580588, -1.405, 0.76, -0.761], a = 0.2, v = 0.2, t = 0.1)
movej(p[0.418358435678262, 0.21838881592871, 0.306601466669988, -1.405, 0.76, -0.761], a = 0.2, v = 0.2, t = 0.1)
movej(p[0.418370145937848, 0.218388097617218, 0.306614286916438, -1.405, 0.76, -0.761], a = 0.2, v = 0.2, t = 0.1)
movej(p[0.418380016372797, 0.218387449249961, 0.306621691397096, -1.405, 0.76, -0.761], a = 0.2, v = 0.2, t = 0.1)
movej(p[0.418387299838274, 0.218387168262545, 0.306621751502968, -1.405, 0.76, -0.761], a = 0.2, v = 0.2, t = 0.1)
movej(p[0.418390472130677, 0.218387091090732, 0.30661658491111, -1.405, 0.76, -0.761], a = 0.2, v = 0.2, t = 0.1)
movej(p[0.418388711601573, 0.218387837934115, 0.306610216823545, -1.405, 0.76, -0.761], a = 0.2, v = 0.2, t = 0.1)
movej(p[0.41838352315402, 0.218388648217013, 0.306603259498728, -1.405, 0.76, -0.761], a = 0.2, v = 0.2, t = 0.1)
movej(p[0.418376594547016, 0.218389167737199, 0.306594165421438, -1.405, 0.76, -0.761], a = 0.2, v = 0.2, t = 0.1)
movej(p[0.418368309689797, 0.218389718169077, 0.30658335243408, -1.405, 0.76, -0.761], a = 0.2, v = 0.2, t = 0.1)
movej(p[0.418357455746933, 0.218389675758304, 0.306573724776439, -1.405, 0.76, -0.761], a = 0.2, v = 0.2, t = 0.1)
movej(p[0.418343777001061, 0.21838802067649, 0.306566091282052, -1.405, 0.76, -0.761], a = 0.2, v = 0.2, t = 0.1)
movej(p[0.418328946910719, 0.21838406801054, 0.306558208185874, -1.405, 0.76, -0.761], a = 0.2, v = 0.2, t = 0.1)
movej(p[0.418315195541836, 0.218377760210345, 0.306547476789203, -1.405, 0.76, -0.761], a = 0.2, v = 0.2, t = 0.1)
movej(p[0.418302309603388, 0.218369303112382, 0.306534489334627, -1.405, 0.76, -0.761], a = 0.2, v = 0.2, t = 0.1)
movej(p[0.418289253017294, 0.218359681200144, 0.306519010211316, -1.405, 0.76, -0.761], a = 0.2, v = 0.2, t = 0.1)
movej(p[0.418274951528018, 0.218348741639941, 0.306500203241118, -1.405, 0.76, -0.761], a = 0.2, v = 0.2, t = 0.1)
movej(p[0.418259363639294, 0.218337036803593, 0.306478921221448, -1.405, 0.76, -0.761], a = 0.2, v = 0.2, t = 0.1)
movej(p[0.41824252971706, 0.218325295087447, 0.306456718448081, -1.405, 0.76, -0.761], a = 0.2, v = 0.2, t = 0.1)
movej(p[0.41822385042045, 0.218315853781266, 0.306437438530921, -1.405, 0.76, -0.761], a = 0.2, v = 0.2, t = 0.1)
movej(p[0.418204336563918, 0.218308424640302, 0.306421812357851, -1.405, 0.76, -0.761], a = 0.2, v = 0.2, t = 0.1)
movej(p[0.418184084138654, 0.218301790958988, 0.306412005283867, -1.405, 0.76, -0.761], a = 0.2, v = 0.2, t = 0.1)
movej(p[0.418162523762767, 0.218293829688743, 0.306410857686934, -1.405, 0.76, -0.761], a = 0.2, v = 0.2, t = 0.1)
movej(p[0.418140879555767, 0.218285931312832, 0.306417837441392, -1.405, 0.76, -0.761], a = 0.2, v = 0.2, t = 0.1)
movej(p[0.418120857440072, 0.218279651340088, 0.306428531290625, -1.405, 0.76, -0.761], a = 0.2, v = 0.2, t = 0.1)
movej(p[0.4181054388124, 0.218275715784556, 0.306437600999791, -1.405, 0.76, -0.761], a = 0.2, v = 0.2, t = 0.1)
movej(p[0.418095372516832, 0.218274041122862, 0.306443972147471, -1.405, 0.76, -0.761], a = 0.2, v = 0.2, t = 0.1)
movej(p[0.418090459480628, 0.218274618621198, 0.306449633613441, -1.405, 0.76, -0.761], a = 0.2, v = 0.2, t = 0.1)
movej(p[0.418088040140021, 0.218276561261386, 0.3064577983271, -1.405, 0.76, -0.761], a = 0.2, v = 0.2, t = 0.1)
movej(p[0.418087295587479, 0.218280340461359, 0.306469374872831, -1.405, 0.76, -0.761], a = 0.2, v = 0.2, t = 0.1)
movej(p[0.41808840624823, 0.218285794739587, 0.306484579915012, -1.405, 0.76, -0.761], a = 0.2, v = 0.2, t = 0.1)
movej(p[0.418091901756096, 0.218291872543949, 0.306502603373306, -1.405, 0.76, -0.761], a = 0.2, v = 0.2, t = 0.1)
movej(p[0.418098324515591, 0.218297295651613, 0.306521589604231, -1.405, 0.76, -0.761], a = 0.2, v = 0.2, t = 0.1)
movej(p[0.418107468002406, 0.218302124440755, 0.306539874680148, -1.405, 0.76, -0.761], a = 0.2, v = 0.2, t = 0.1)
movej(p[0.418118101635223, 0.218307380601824, 0.306555225553085, -1.405, 0.76, -0.761], a = 0.2, v = 0.2, t = 0.1)
movej(p[0.418128238146762, 0.218314603084143, 0.306568832589683, -1.405, 0.76, -0.761], a = 0.2, v = 0.2, t = 0.1)
movej(p[0.418136659899662, 0.218323801759829, 0.30658330581136, -1.405, 0.76, -0.761], a = 0.2, v = 0.2, t = 0.1)
movej(p[0.41814337650055, 0.218334805711514, 0.30659948361955, -1.405, 0.76, -0.761], a = 0.2, v = 0.2, t = 0.1)
movej(p[0.418147857121372, 0.218345506186678, 0.306616237786265, -1.405, 0.76, -0.761], a = 0.2, v = 0.2, t = 0.1)
movej(p[0.418149752965146, 0.218354870215236, 0.306631423515834, -1.405, 0.76, -0.761], a = 0.2, v = 0.2, t = 0.1)
movej(p[0.418150713442181, 0.218363046317419, 0.306643686718758, -1.405, 0.76, -0.761], a = 0.2, v = 0.2, t = 0.1)
movej(p[0.418151996979117, 0.218369102892885, 0.306654337600438, -1.405, 0.76, -0.761], a = 0.2, v = 0.2, t = 0.1)
movej(p[0.418153957617451, 0.218373630510011, 0.306665776679487, -1.405, 0.76, -0.761], a = 0.2, v = 0.2, t = 0.1)
movej(p[0.418155772067212, 0.218378735108768, 0.306679151143536, -1.405, 0.76, -0.761], a = 0.2, v = 0.2, t = 0.1)
movej(p[0.418158315726392, 0.218385436688881, 0.306694916855412, -1.405, 0.76, -0.761], a = 0.2, v = 0.2, t = 0.1)
movej(p[0.418162151320579, 0.21839214006321, 0.306711498063897, -1.405, 0.76, -0.761], a = 0.2, v = 0.2, t = 0.1)
movej(p[0.418166381681584, 0.218397153208877, 0.306726932205153, -1.405, 0.76, -0.761], a = 0.2, v = 0.2, t = 0.1)
movej(p[0.41816968809424, 0.218402020476419, 0.306740056788004, -1.405, 0.76, -0.761], a = 0.2, v = 0.2, t = 0.1)
movej(p[0.418170593698716, 0.218406632417629, 0.306749993296586, -1.405, 0.76, -0.761], a = 0.2, v = 0.2, t = 0.1)
movej(p[0.418167742004621, 0.218410095982511, 0.306757135787405, -1.405, 0.76, -0.761], a = 0.2, v = 0.2, t = 0.1)
movej(p[0.418160754089965, 0.218411627334567, 0.306762820220591, -1.405, 0.76, -0.761], a = 0.2, v = 0.2, t = 0.1)
movej(p[0.418150539271339, 0.218410533620221, 0.306766401082967, -1.405, 0.76, -0.761], a = 0.2, v = 0.2, t = 0.1)
movej(p[0.418138476298683, 0.218406878284608, 0.306768139275495, -1.405, 0.76, -0.761], a = 0.2, v = 0.2, t = 0.1)
movej(p[0.418124363055149, 0.218401418639088, 0.306766617466783, -1.405, 0.76, -0.761], a = 0.2, v = 0.2, t = 0.1)
movej(p[0.418107580625941, 0.218395914775004, 0.306762656276684, -1.405, 0.76, -0.761], a = 0.2, v = 0.2, t = 0.1)
movej(p[0.418088836130018, 0.218389916814773, 0.306754262747112, -1.405, 0.76, -0.761], a = 0.2, v = 0.2, t = 0.1)
movej(p[0.418068922887574, 0.21838348094275, 0.306742729212152, -1.405, 0.76, -0.761], a = 0.2, v = 0.2, t = 0.1)
movej(p[0.418047664387966, 0.218376403389469, 0.306729836172016, -1.405, 0.76, -0.761], a = 0.2, v = 0.2, t = 0.1)
movej(p[0.418026421838469, 0.218368845207122, 0.306717092055669, -1.405, 0.76, -0.761], a = 0.2, v = 0.2, t = 0.1)
movej(p[0.418006196922177, 0.218361522424412, 0.306704190949926, -1.405, 0.76, -0.761], a = 0.2, v = 0.2, t = 0.1)
movej(p[0.417986585201127, 0.218353325342124, 0.306690929221327, -1.405, 0.76, -0.761], a = 0.2, v = 0.2, t = 0.1)
movej(p[0.417966590924213, 0.218343971700826, 0.306678702498172, -1.405, 0.76, -0.761], a = 0.2, v = 0.2, t = 0.1)
movej(p[0.417945999337853, 0.218332123881319, 0.306668943887147, -1.405, 0.76, -0.761], a = 0.2, v = 0.2, t = 0.1)
movej(p[0.417927218740494, 0.218320046859488, 0.306662148001073, -1.405, 0.76, -0.761], a = 0.2, v = 0.2, t = 0.1)
movej(p[0.417912887046407, 0.218310827306315, 0.306656515052033, -1.405, 0.76, -0.761], a = 0.2, v = 0.2, t = 0.1)
movej(p[0.417903100893234, 0.218304792808773, 0.306650731572503, -1.405, 0.76, -0.761], a = 0.2, v = 0.2, t = 0.1)
movej(p[0.417897435598008, 0.218301928137191, 0.30664314195672, -1.405, 0.76, -0.761], a = 0.2, v = 0.2, t = 0.1)
movej(p[0.41789614277632, 0.218301709795911, 0.306632335674326, -1.405, 0.76, -0.761], a = 0.2, v = 0.2, t = 0.1)
movej(p[0.417899262546176, 0.218303097704648, 0.306618118641465, -1.405, 0.76, -0.761], a = 0.2, v = 0.2, t = 0.1)
movej(p[0.417907493495236, 0.218304555332042, 0.306602039440926, -1.405, 0.76, -0.761], a = 0.2, v = 0.2, t = 0.1)
movej(p[0.417918920897076, 0.218304298435876, 0.306588791261332, -1.405, 0.76, -0.761], a = 0.2, v = 0.2, t = 0.1)
movej(p[0.417933054701413, 0.218303352139995, 0.306579923355994, -1.405, 0.76, -0.761], a = 0.2, v = 0.2, t = 0.1)
movej(p[0.417950276352244, 0.218303383208698, 0.306575542163875, -1.405, 0.76, -0.761], a = 0.2, v = 0.2, t = 0.1)
movej(p[0.417969678593669, 0.218306703852195, 0.30657269012032, -1.405, 0.76, -0.761], a = 0.2, v = 0.2, t = 0.1)
movej(p[0.417990377308241, 0.218313683245047, 0.306571742335291, -1.405, 0.76, -0.761], a = 0.2, v = 0.2, t = 0.1)
movej(p[0.418011535771767, 0.218324101089954, 0.306574197048663, -1.405, 0.76, -0.761], a = 0.2, v = 0.2, t = 0.1)
movej(p[0.418032582141144, 0.218336467783459, 0.306581324979134, -1.405, 0.76, -0.761], a = 0.2, v = 0.2, t = 0.1)
movej(p[0.418051488321482, 0.218348840401918, 0.306589818131112, -1.405, 0.76, -0.761], a = 0.2, v = 0.2, t = 0.1)
movej(p[0.418065750633162, 0.218360087393537, 0.306597136623515, -1.405, 0.76, -0.761], a = 0.2, v = 0.2, t = 0.1)
movej(p[0.418075771006688, 0.218368086313047, 0.306604983329198, -1.405, 0.76, -0.761], a = 0.2, v = 0.2, t = 0.1)
movej(p[0.418083334650554, 0.218372622904718, 0.306613056786541, -1.405, 0.76, -0.761], a = 0.2, v = 0.2, t = 0.1)
movej(p[0.418089378879262, 0.218373780964608, 0.306620875242758, -1.405, 0.76, -0.761], a = 0.2, v = 0.2, t = 0.1)
movej(p[0.418093701228931, 0.218373856907315, 0.306627624905271, -1.405, 0.76, -0.761], a = 0.2, v = 0.2, t = 0.1)
movej(p[0.418096438687246, 0.218373765840565, 0.306635180876805, -1.405, 0.76, -0.761], a = 0.2, v = 0.2, t = 0.1)
movej(p[0.418099106917651, 0.218375127894463, 0.306642434111028, -1.405, 0.76, -0.761], a = 0.2, v = 0.2, t = 0.1)
movej(p[0.418102361689098, 0.218378353042692, 0.306647038130438, -1.405, 0.76, -0.761], a = 0.2, v = 0.2, t = 0.1)
movej(p[0.418107414845752, 0.21838292944814, 0.306647728483974, -1.405, 0.76, -0.761], a = 0.2, v = 0.2, t = 0.1)
movej(p[0.418113858127986, 0.218387070079613, 0.306646767406945, -1.405, 0.76, -0.761], a = 0.2, v = 0.2, t = 0.1)
movej(p[0.418121511314886, 0.218390045647028, 0.306647421493202, -1.405, 0.76, -0.761], a = 0.2, v = 0.2, t = 0.1)
movej(p[0.418129537980182, 0.218392711982383, 0.306650695201649, -1.405, 0.76, -0.761], a = 0.2, v = 0.2, t = 0.1)
movej(p[0.418137407521491, 0.218395133728184, 0.306654329183607, -1.405, 0.76, -0.761], a = 0.2, v = 0.2, t = 0.1)
movej(p[0.41814428834314, 0.218396389958316, 0.306657637411575, -1.405, 0.76, -0.761], a = 0.2, v = 0.2, t = 0.1)
movej(p[0.418150410651683, 0.218395759691408, 0.306659863650271, -1.405, 0.76, -0.761], a = 0.2, v = 0.2, t = 0.1)
movej(p[0.418155769674531, 0.218393859546482, 0.306659739923272, -1.405, 0.76, -0.761], a = 0.2, v = 0.2, t = 0.1)
movej(p[0.418160061948897, 0.218390775165896, 0.306653384798791, -1.405, 0.76, -0.761], a = 0.2, v = 0.2, t = 0.1)
movej(p[0.418164313972466, 0.218387510074255, 0.306641740935766, -1.405, 0.76, -0.761], a = 0.2, v = 0.2, t = 0.1)
movej(p[0.418169170390759, 0.218384327731, 0.306627254008598, -1.405, 0.76, -0.761], a = 0.2, v = 0.2, t = 0.1)
movej(p[0.41817436459866, 0.218380556649427, 0.306614327245003, -1.405, 0.76, -0.761], a = 0.2, v = 0.2, t = 0.1)
movej(p[0.41817888780449, 0.218374533924529, 0.306604902717915, -1.405, 0.76, -0.761], a = 0.2, v = 0.2, t = 0.1)
movej(p[0.41818254752038, 0.218364647749043, 0.306598689726859, -1.405, 0.76, -0.761], a = 0.2, v = 0.2, t = 0.1)
movej(p[0.41818548275426, 0.218352062240544, 0.306594154027697, -1.405, 0.76, -0.761], a = 0.2, v = 0.2, t = 0.1)
movej(p[0.418186545796174, 0.218338520818864, 0.306590800342592, -1.405, 0.76, -0.761], a = 0.2, v = 0.2, t = 0.1)
movej(p[0.418184748384354, 0.218327013093525, 0.30658793484765, -1.405, 0.76, -0.761], a = 0.2, v = 0.2, t = 0.1)
movej(p[0.418180636698439, 0.21831717302097, 0.306586081349054, -1.405, 0.76, -0.761], a = 0.2, v = 0.2, t = 0.1)
movej(p[0.418173980082491, 0.218308665681883, 0.306583382198859, -1.405, 0.76, -0.761], a = 0.2, v = 0.2, t = 0.1)
movej(p[0.418164421768129, 0.218299943587167, 0.306582172996091, -1.405, 0.76, -0.761], a = 0.2, v = 0.2, t = 0.1)
movej(p[0.418152738350696, 0.218292014786934, 0.306582812974168, -1.405, 0.76, -0.761], a = 0.2, v = 0.2, t = 0.1)
movej(p[0.418138749635913, 0.218284678507339, 0.306584658766255, -1.405, 0.76, -0.761], a = 0.2, v = 0.2, t = 0.1)
movej(p[0.41811890901548, 0.218277031190582, 0.306584283697888, -1.405, 0.76, -0.761], a = 0.2, v = 0.2, t = 0.1)
movej(p[0.418094931118635, 0.218269224900799, 0.306580122551806, -1.405, 0.76, -0.761], a = 0.2, v = 0.2, t = 0.1)
movej(p[0.418070613925468, 0.218260403458319, 0.306572955841051, -1.405, 0.76, -0.761], a = 0.2, v = 0.2, t = 0.1)
movej(p[0.418050874354858, 0.218251651337828, 0.306561530989716, -1.405, 0.76, -0.761], a = 0.2, v = 0.2, t = 0.1)
movej(p[0.418034169845728, 0.218244609934955, 0.306547526866384, -1.405, 0.76, -0.761], a = 0.2, v = 0.2, t = 0.1)
movej(p[0.418020766854075, 0.218239630257788, 0.306532276781792, -1.405, 0.76, -0.761], a = 0.2, v = 0.2, t = 0.1)
movej(p[0.418011662480559, 0.218235987869148, 0.306518184761324, -1.405, 0.76, -0.761], a = 0.2, v = 0.2, t = 0.1)
movej(p[0.418005595081892, 0.21823431543432, 0.306505936233936, -1.405, 0.76, -0.761], a = 0.2, v = 0.2, t = 0.1)
movej(p[0.418000279132407, 0.218236263708375, 0.306494250338152, -1.405, 0.76, -0.761], a = 0.2, v = 0.2, t = 0.1)
movej(p[0.417995735422191, 0.218242616431307, 0.306484119209744, -1.405, 0.76, -0.761], a = 0.2, v = 0.2, t = 0.1)
movej(p[0.417992914340129, 0.218250423179237, 0.306476840315819, -1.405, 0.76, -0.761], a = 0.2, v = 0.2, t = 0.1)
movej(p[0.41799192986182, 0.218257783827872, 0.306472549377563, -1.405, 0.76, -0.761], a = 0.2, v = 0.2, t = 0.1)
movej(p[0.417992643699145, 0.218264568948673, 0.306469794972001, -1.405, 0.76, -0.761], a = 0.2, v = 0.2, t = 0.1)
movej(p[0.417996323125588, 0.218271428578368, 0.30646522503825, -1.405, 0.76, -0.761], a = 0.2, v = 0.2, t = 0.1)
movej(p[0.418002201765727, 0.218277551992348, 0.306459950674558, -1.405, 0.76, -0.761], a = 0.2, v = 0.2, t = 0.1)
movej(p[0.418005278898514, 0.21828122540043, 0.306454945390164, -1.405, 0.76, -0.761], a = 0.2, v = 0.2, t = 0.1)
movej(p[0.418005115482767, 0.218282714005854, 0.3064528395784, -1.405, 0.76, -0.761], a = 0.2, v = 0.2, t = 0.1)
movej(p[0.41800261041987, 0.218282743282637, 0.306451509517592, -1.405, 0.76, -0.761], a = 0.2, v = 0.2, t = 0.1)
movej(p[0.418001631635286, 0.218282998011715, 0.306446977870338, -1.405, 0.76, -0.761], a = 0.2, v = 0.2, t = 0.1)
movej(p[0.41800181249065, 0.218283125472369, 0.306437956971928, -1.405, 0.76, -0.761], a = 0.2, v = 0.2, t = 0.1)
movej(p[0.418004443962783, 0.218283738226089, 0.306428505909485, -1.405, 0.76, -0.761], a = 0.2, v = 0.2, t = 0.1)
movej(p[0.418012710922741, 0.218285721467911, 0.30642504821966, -1.405, 0.76, -0.761], a = 0.2, v = 0.2, t = 0.1)
movej(p[0.418026522146263, 0.218289775563173, 0.306428800665587, -1.405, 0.76, -0.761], a = 0.2, v = 0.2, t = 0.1)
movej(p[0.418044151697734, 0.218295243356895, 0.306436070466392, -1.405, 0.76, -0.761], a = 0.2, v = 0.2, t = 0.1)
movej(p[0.418062955976974, 0.218301544444118, 0.306444606995901, -1.405, 0.76, -0.761], a = 0.2, v = 0.2, t = 0.1)
movej(p[0.418080053895571, 0.218307919739478, 0.306452477374148, -1.405, 0.76, -0.761], a = 0.2, v = 0.2, t = 0.1)
movej(p[0.418094197755144, 0.218315221354774, 0.306461075653944, -1.405, 0.76, -0.761], a = 0.2, v = 0.2, t = 0.1)
movej(p[0.418104701603456, 0.218323222162157, 0.306470976577377, -1.405, 0.76, -0.761], a = 0.2, v = 0.2, t = 0.1)
movej(p[0.418112854795791, 0.218332224477152, 0.306480872920565, -1.405, 0.76, -0.761], a = 0.2, v = 0.2, t = 0.1)
movej(p[0.418120430072955, 0.218340604638806, 0.306490122670158, -1.405, 0.76, -0.761], a = 0.2, v = 0.2, t = 0.1)
movej(p[0.418128816207086, 0.218345848615908, 0.30649766454814, -1.405, 0.76, -0.761], a = 0.2, v = 0.2, t = 0.1)
movej(p[0.418138888687011, 0.218347749691523, 0.306503480294753, -1.405, 0.76, -0.761], a = 0.2, v = 0.2, t = 0.1)
movej(p[0.418149116748254, 0.218348483704705, 0.306507196795374, -1.405, 0.76, -0.761], a = 0.2, v = 0.2, t = 0.1)
movej(p[0.418156495365662, 0.218350184848788, 0.306509053600951, -1.405, 0.76, -0.761], a = 0.2, v = 0.2, t = 0.1)
movej(p[0.418159976190993, 0.218351811712302, 0.306509524387654, -1.405, 0.76, -0.761], a = 0.2, v = 0.2, t = 0.1)
movej(p[0.418160475134753, 0.218351513988002, 0.306508895756311, -1.405, 0.76, -0.761], a = 0.2, v = 0.2, t = 0.1)
movej(p[0.418160611987023, 0.21834897017037, 0.306510674192791, -1.405, 0.76, -0.761], a = 0.2, v = 0.2, t = 0.1)
movej(p[0.418161775170386, 0.218345765345025, 0.306519587274411, -1.405, 0.76, -0.761], a = 0.2, v = 0.2, t = 0.1)
movej(p[0.418163656416297, 0.218342009814677, 0.306534120955659, -1.405, 0.76, -0.761], a = 0.2, v = 0.2, t = 0.1)
movej(p[0.418164818360122, 0.218338281965915, 0.306544791322109, -1.405, 0.76, -0.761], a = 0.2, v = 0.2, t = 0.1)
movej(p[0.418165760282868, 0.218335299217495, 0.306547000248183, -1.405, 0.76, -0.761], a = 0.2, v = 0.2, t = 0.1)
movej(p[0.418167120738963, 0.218333249578032, 0.306545017215586, -1.405, 0.76, -0.761], a = 0.2, v = 0.2, t = 0.1)
movej(p[0.41816902862476, 0.218330994693668, 0.306549320913797, -1.405, 0.76, -0.761], a = 0.2, v = 0.2, t = 0.1)
movej(p[0.418169879484309, 0.218327846286621, 0.306559465631245, -1.405, 0.76, -0.761], a = 0.2, v = 0.2, t = 0.1)
movej(p[0.418168288835436, 0.218324078661406, 0.306572111232432, -1.405, 0.76, -0.761], a = 0.2, v = 0.2, t = 0.1)
movej(p[0.418164303409552, 0.218320088558091, 0.306584202580458, -1.405, 0.76, -0.761], a = 0.2, v = 0.2, t = 0.1)
movej(p[0.41815843303247, 0.218315510415119, 0.306594977538594, -1.405, 0.76, -0.761], a = 0.2, v = 0.2, t = 0.1)
movej(p[0.418151862563514, 0.21830968700324, 0.306602320554173, -1.405, 0.76, -0.761], a = 0.2, v = 0.2, t = 0.1)
movej(p[0.418144558041528, 0.218302981075319, 0.306605819585935, -1.405, 0.76, -0.761], a = 0.2, v = 0.2, t = 0.1)
movej(p[0.418136972546374, 0.21829695272699, 0.306605456461048, -1.405, 0.76, -0.761], a = 0.2, v = 0.2, t = 0.1)
movej(p[0.418129151181421, 0.218294616922875, 0.306601538042691, -1.405, 0.76, -0.761], a = 0.2, v = 0.2, t = 0.1)
movej(p[0.418121271546353, 0.218296482769467, 0.306594431838593, -1.405, 0.76, -0.761], a = 0.2, v = 0.2, t = 0.1)
movej(p[0.418113817250784, 0.218301275065812, 0.306583817058694, -1.405, 0.76, -0.761], a = 0.2, v = 0.2, t = 0.1)
movej(p[0.418105567954576, 0.218305693368022, 0.306572881778603, -1.405, 0.76, -0.761], a = 0.2, v = 0.2, t = 0.1)
movej(p[0.418096159608238, 0.218308552222849, 0.306561947305902, -1.405, 0.76, -0.761], a = 0.2, v = 0.2, t = 0.1)
movej(p[0.418086041965674, 0.218309375168798, 0.306552511917891, -1.405, 0.76, -0.761], a = 0.2, v = 0.2, t = 0.1)
movej(p[0.418076098540316, 0.218309958541677, 0.306543486339725, -1.405, 0.76, -0.761], a = 0.2, v = 0.2, t = 0.1)
movej(p[0.418066554946256, 0.218310281747081, 0.306532729296047, -1.405, 0.76, -0.761], a = 0.2, v = 0.2, t = 0.1)
movej(p[0.418058436666349, 0.218310231717255, 0.306517671793553, -1.405, 0.76, -0.761], a = 0.2, v = 0.2, t = 0.1)
movej(p[0.418053054948149, 0.218308398553484, 0.306500562795663, -1.405, 0.76, -0.761], a = 0.2, v = 0.2, t = 0.1)
movej(p[0.418053052163274, 0.218304692894738, 0.306484573443627, -1.405, 0.76, -0.761], a = 0.2, v = 0.2, t = 0.1)
movej(p[0.418059799044344, 0.218298557702376, 0.30647320807819, -1.405, 0.76, -0.761], a = 0.2, v = 0.2, t = 0.1)
movej(p[0.418072593426584, 0.218291568195829, 0.306466878701024, -1.405, 0.76, -0.761], a = 0.2, v = 0.2, t = 0.1)
movej(p[0.4180877897146, 0.218284204731946, 0.306464058679718, -1.405, 0.76, -0.761], a = 0.2, v = 0.2, t = 0.1)
movej(p[0.418101295686913, 0.218280094482052, 0.306463885958274, -1.405, 0.76, -0.761], a = 0.2, v = 0.2, t = 0.1)
movej(p[0.418113448086531, 0.218279235411348, 0.3064627066203, -1.405, 0.76, -0.761], a = 0.2, v = 0.2, t = 0.1)
movej(p[0.418125630167844, 0.218282721818086, 0.306460855981505, -1.405, 0.76, -0.761], a = 0.2, v = 0.2, t = 0.1)
movej(p[0.41813842471198, 0.218289583785692, 0.306459401282252, -1.405, 0.76, -0.761], a = 0.2, v = 0.2, t = 0.1)
movej(p[0.418151646462092, 0.218300585557217, 0.306457716868917, -1.405, 0.76, -0.761], a = 0.2, v = 0.2, t = 0.1)
movej(p[0.418163907522242, 0.218314302040809, 0.306454152075249, -1.405, 0.76, -0.761], a = 0.2, v = 0.2, t = 0.1)
movej(p[0.41817477687322, 0.218328802232886, 0.306448327467963, -1.405, 0.76, -0.761], a = 0.2, v = 0.2, t = 0.1)
movej(p[0.418184190357032, 0.218340451362876, 0.306442054080363, -1.405, 0.76, -0.761], a = 0.2, v = 0.2, t = 0.1)
movej(p[0.418192962262186, 0.218348215199098, 0.306437751204918, -1.405, 0.76, -0.761], a = 0.2, v = 0.2, t = 0.1)
movej(p[0.418201058998995, 0.218352453527074, 0.306434979725347, -1.405, 0.76, -0.761], a = 0.2, v = 0.2, t = 0.1)
movej(p[0.418207426305141, 0.218355171647791, 0.306433223777395, -1.405, 0.76, -0.761], a = 0.2, v = 0.2, t = 0.1)
movej(p[0.418211160252628, 0.21835688465661, 0.306430547804311, -1.405, 0.76, -0.761], a = 0.2, v = 0.2, t = 0.1)
movej(p[0.418211465670955, 0.218355983293949, 0.306425742826163, -1.405, 0.76, -0.761], a = 0.2, v = 0.2, t = 0.1)
movej(p[0.41821042650709, 0.218352740486552, 0.30641795164168, -1.405, 0.76, -0.761], a = 0.2, v = 0.2, t = 0.1)
movej(p[0.418210483361717, 0.218348985624496, 0.30640853433036, -1.405, 0.76, -0.761], a = 0.2, v = 0.2, t = 0.1)
movej(p[0.418212619836911, 0.218346052920965, 0.306403078488927, -1.405, 0.76, -0.761], a = 0.2, v = 0.2, t = 0.1)
movej(p[0.418215147745542, 0.218341651214968, 0.306404559721273, -1.405, 0.76, -0.761], a = 0.2, v = 0.2, t = 0.1)
movej(p[0.418218603284344, 0.218334744027273, 0.30641291866521, -1.405, 0.76, -0.761], a = 0.2, v = 0.2, t = 0.1)
movej(p[0.418221675983182, 0.218326034395325, 0.306425834659758, -1.405, 0.76, -0.761], a = 0.2, v = 0.2, t = 0.1)
movej(p[0.418224731164636, 0.218319377334853, 0.306441343812319, -1.405, 0.76, -0.761], a = 0.2, v = 0.2, t = 0.1)
movej(p[0.418227200446364, 0.21831670258065, 0.306456276954209, -1.405, 0.76, -0.761], a = 0.2, v = 0.2, t = 0.1)
movej(p[0.418230292449524, 0.218317348180139, 0.306465578658771, -1.405, 0.76, -0.761], a = 0.2, v = 0.2, t = 0.1)
movej(p[0.418233949184473, 0.21831805124305, 0.306470631660359, -1.405, 0.76, -0.761], a = 0.2, v = 0.2, t = 0.1)
movej(p[0.418237350355429, 0.2183174705522, 0.306473059009585, -1.405, 0.76, -0.761], a = 0.2, v = 0.2, t = 0.1)
movej(p[0.418241130011795, 0.218316712237673, 0.306476100417948, -1.405, 0.76, -0.761], a = 0.2, v = 0.2, t = 0.1)
movej(p[0.418244573084808, 0.21831838979157, 0.306480007159576, -1.405, 0.76, -0.761], a = 0.2, v = 0.2, t = 0.1)
movej(p[0.418243173195597, 0.218320958567756, 0.30648626748841, -1.405, 0.76, -0.761], a = 0.2, v = 0.2, t = 0.1)
movej(p[0.418236733877236, 0.218322734595593, 0.306493743637496, -1.405, 0.76, -0.761], a = 0.2, v = 0.2, t = 0.1)
movej(p[0.418226994569577, 0.21832242189415, 0.306501174657422, -1.405, 0.76, -0.761], a = 0.2, v = 0.2, t = 0.1)
movej(p[0.418216315450213, 0.218320303037832, 0.306506146671752, -1.405, 0.76, -0.761], a = 0.2, v = 0.2, t = 0.1)
movej(p[0.418204351799968, 0.218316743032731, 0.306508316591223, -1.405, 0.76, -0.761], a = 0.2, v = 0.2, t = 0.1)
movej(p[0.418191103025571, 0.218311898396291, 0.306508977575892, -1.405, 0.76, -0.761], a = 0.2, v = 0.2, t = 0.1)
movej(p[0.418178910998598, 0.218306826913741, 0.306508535834972, -1.405, 0.76, -0.761], a = 0.2, v = 0.2, t = 0.1)
movej(p[0.418167380892996, 0.218301006001063, 0.306508187231469, -1.405, 0.76, -0.761], a = 0.2, v = 0.2, t = 0.1)
movej(p[0.418154827201172, 0.21829382786013, 0.30650535309468, -1.405, 0.76, -0.761], a = 0.2, v = 0.2, t = 0.1)
movej(p[0.418140724926309, 0.218285107778343, 0.306497125027695, -1.405, 0.76, -0.761], a = 0.2, v = 0.2, t = 0.1)
movej(p[0.418124614084945, 0.218275707275575, 0.306484523628239, -1.405, 0.76, -0.761], a = 0.2, v = 0.2, t = 0.1)
movej(p[0.418106669123872, 0.218268508073869, 0.306470622347043, -1.405, 0.76, -0.761], a = 0.2, v = 0.2, t = 0.1)
movej(p[0.418087621916844, 0.218264550481748, 0.306458019405996, -1.405, 0.76, -0.761], a = 0.2, v = 0.2, t = 0.1)
movej(p[0.418069942405378, 0.218262287171991, 0.306446353954214, -1.405, 0.76, -0.761], a = 0.2, v = 0.2, t = 0.1)
movej(p[0.418053990228393, 0.218258661758612, 0.306435325527796, -1.405, 0.76, -0.761], a = 0.2, v = 0.2, t = 0.1)
movej(p[0.418038844508073, 0.218253289435569, 0.306424923813653, -1.405, 0.76, -0.761], a = 0.2, v = 0.2, t = 0.1)
movej(p[0.418024398804274, 0.218247226776878, 0.306414303022894, -1.405, 0.76, -0.761], a = 0.2, v = 0.2, t = 0.1)
movej(p[0.418012733329538, 0.218242344228336, 0.30640317881542, -1.405, 0.76, -0.761], a = 0.2, v = 0.2, t = 0.1)
movej(p[0.418004609475333, 0.218238878577592, 0.306391472860877, -1.405, 0.76, -0.761], a = 0.2, v = 0.2, t = 0.1)
movej(p[0.41800151298741, 0.218236889128666, 0.306383064710217, -1.405, 0.76, -0.761], a = 0.2, v = 0.2, t = 0.1)
movej(p[0.41800257754453, 0.218236885058673, 0.306379537456672, -1.405, 0.76, -0.761], a = 0.2, v = 0.2, t = 0.1)
movej(p[0.418007269037494, 0.218238813460419, 0.306382784453665, -1.405, 0.76, -0.761], a = 0.2, v = 0.2, t = 0.1)
movej(p[0.418014925708387, 0.218243720856644, 0.306391195020717, -1.405, 0.76, -0.761], a = 0.2, v = 0.2, t = 0.1)
movej(p[0.418025585920339, 0.218250933371834, 0.306403350243782, -1.405, 0.76, -0.761], a = 0.2, v = 0.2, t = 0.1)
movej(p[0.418038841350372, 0.218260023997569, 0.306417093832956, -1.405, 0.76, -0.761], a = 0.2, v = 0.2, t = 0.1)
movej(p[0.418053356175853, 0.218270787623183, 0.306430730588102, -1.405, 0.76, -0.761], a = 0.2, v = 0.2, t = 0.1)
movej(p[0.418068559119169, 0.218282921095814, 0.306444346800771, -1.405, 0.76, -0.761], a = 0.2, v = 0.2, t = 0.1)
movej(p[0.418083594799647, 0.218296027258322, 0.306458077789514, -1.405, 0.76, -0.761], a = 0.2, v = 0.2, t = 0.1)
movej(p[0.418098653640563, 0.218308680218403, 0.30647083003153, -1.405, 0.76, -0.761], a = 0.2, v = 0.2, t = 0.1)
movej(p[0.41811371781459, 0.218320874413723, 0.306479787126059, -1.405, 0.76, -0.761], a = 0.2, v = 0.2, t = 0.1)
movej(p[0.418128310903677, 0.218331907301736, 0.306484739090214, -1.405, 0.76, -0.761], a = 0.2, v = 0.2, t = 0.1)
movej(p[0.418141348198476, 0.218341479471752, 0.306486394714418, -1.405, 0.76, -0.761], a = 0.2, v = 0.2, t = 0.1)
movej(p[0.41815151198671, 0.218349350970368, 0.306486424450922, -1.405, 0.76, -0.761], a = 0.2, v = 0.2, t = 0.1)
movej(p[0.418158191213582, 0.218357309129865, 0.306486943141413, -1.405, 0.76, -0.761], a = 0.2, v = 0.2, t = 0.1)
movej(p[0.418161642246166, 0.21836481391429, 0.306489032842309, -1.405, 0.76, -0.761], a = 0.2, v = 0.2, t = 0.1)
movej(p[0.41816188425708, 0.218370433831255, 0.306491858719523, -1.405, 0.76, -0.761], a = 0.2, v = 0.2, t = 0.1)
movej(p[0.4181596926326, 0.218373925468646, 0.306494059825714, -1.405, 0.76, -0.761], a = 0.2, v = 0.2, t = 0.1)
movej(p[0.418154483917458, 0.218375850795136, 0.306492207418233, -1.405, 0.76, -0.761], a = 0.2, v = 0.2, t = 0.1)
movej(p[0.418147899018298, 0.218375339221741, 0.30648626972906, -1.405, 0.76, -0.761], a = 0.2, v = 0.2, t = 0.1)
movej(p[0.418141030254888, 0.218370905623169, 0.306478935200383, -1.405, 0.76, -0.761], a = 0.2, v = 0.2, t = 0.1)
movej(p[0.418134769382747, 0.2183630104632, 0.306474970288138, -1.405, 0.76, -0.761], a = 0.2, v = 0.2, t = 0.1)
movej(p[0.418127870899028, 0.218354225155986, 0.306477591317234, -1.405, 0.76, -0.761], a = 0.2, v = 0.2, t = 0.1)
movej(p[0.41811975225812, 0.218346937105264, 0.306487587183104, -1.405, 0.76, -0.761], a = 0.2, v = 0.2, t = 0.1)
movej(p[0.418110170473126, 0.218342300467702, 0.306502952161251, -1.405, 0.76, -0.761], a = 0.2, v = 0.2, t = 0.1)
movej(p[0.418101276166535, 0.218339077353094, 0.306521364744244, -1.405, 0.76, -0.761], a = 0.2, v = 0.2, t = 0.1)
movej(p[0.418095999503168, 0.218334021497145, 0.306540966549119, -1.405, 0.76, -0.761], a = 0.2, v = 0.2, t = 0.1)
movej(p[0.418093213690662, 0.218327254095968, 0.306558973452767, -1.405, 0.76, -0.761], a = 0.2, v = 0.2, t = 0.1)
movej(p[0.418090530833105, 0.218318909705859, 0.306573149102418, -1.405, 0.76, -0.761], a = 0.2, v = 0.2, t = 0.1)
movej(p[0.418085134215361, 0.218308078139382, 0.306580765615438, -1.405, 0.76, -0.761], a = 0.2, v = 0.2, t = 0.1)
movej(p[0.418078758358831, 0.218296095678157, 0.306584540556165, -1.405, 0.76, -0.761], a = 0.2, v = 0.2, t = 0.1)
movej(p[0.418074291149626, 0.218288493364937, 0.306586741633545, -1.405, 0.76, -0.761], a = 0.2, v = 0.2, t = 0.1)
movej(p[0.418073324718516, 0.218289185787589, 0.306589316085483, -1.405, 0.76, -0.761], a = 0.2, v = 0.2, t = 0.1)
movej(p[0.418076131173206, 0.218296811328686, 0.306591269026868, -1.405, 0.76, -0.761], a = 0.2, v = 0.2, t = 0.1)
movej(p[0.418083310964231, 0.218308282984632, 0.306593341850953, -1.405, 0.76, -0.761], a = 0.2, v = 0.2, t = 0.1)
movej(p[0.418095397700898, 0.218323369506123, 0.306595575200909, -1.405, 0.76, -0.761], a = 0.2, v = 0.2, t = 0.1)
movej(p[0.418111362568148, 0.218341143128573, 0.306596766079459, -1.405, 0.76, -0.761], a = 0.2, v = 0.2, t = 0.1)
movej(p[0.418128956687279, 0.218361110803469, 0.306597257114335, -1.405, 0.76, -0.761], a = 0.2, v = 0.2, t = 0.1)
movej(p[0.4181453633587, 0.218380701660375, 0.3065959098146, -1.405, 0.76, -0.761], a = 0.2, v = 0.2, t = 0.1)
movej(p[0.418162226444891, 0.218397339086025, 0.306592827239563, -1.405, 0.76, -0.761], a = 0.2, v = 0.2, t = 0.1)
movej(p[0.418179816972006, 0.218408986407706, 0.306588548121141, -1.405, 0.76, -0.761], a = 0.2, v = 0.2, t = 0.1)
movej(p[0.418196202268608, 0.218416109062823, 0.3065842182002, -1.405, 0.76, -0.761], a = 0.2, v = 0.2, t = 0.1)
movej(p[0.418208950446662, 0.218419289050829, 0.306582860027687, -1.405, 0.76, -0.761], a = 0.2, v = 0.2, t = 0.1)
movej(p[0.418217061083335, 0.218420196935173, 0.306583207279428, -1.405, 0.76, -0.761], a = 0.2, v = 0.2, t = 0.1)
movej(p[0.418220656319038, 0.218419542754927, 0.306583272605119, -1.405, 0.76, -0.761], a = 0.2, v = 0.2, t = 0.1)
movej(p[0.418220266520195, 0.218419113529475, 0.306578422521061, -1.405, 0.76, -0.761], a = 0.2, v = 0.2, t = 0.1)
movej(p[0.418216005855988, 0.218417976354394, 0.30656775219537, -1.405, 0.76, -0.761], a = 0.2, v = 0.2, t = 0.1)
movej(p[0.418206338021769, 0.218413662663702, 0.306549473315149, -1.405, 0.76, -0.761], a = 0.2, v = 0.2, t = 0.1)
movej(p[0.418193001413078, 0.218407476100193, 0.306529031726376, -1.405, 0.76, -0.761], a = 0.2, v = 0.2, t = 0.1)
movej(p[0.418177894128233, 0.218401072375952, 0.3065140755119, -1.405, 0.76, -0.761], a = 0.2, v = 0.2, t = 0.1)
movej(p[0.418166220096921, 0.218395713515615, 0.306511202975945, -1.405, 0.76, -0.761], a = 0.2, v = 0.2, t = 0.1)
movej(p[0.418159118711078, 0.218390124550196, 0.306517015913383, -1.405, 0.76, -0.761], a = 0.2, v = 0.2, t = 0.1)
movej(p[0.418156946040395, 0.218384211485154, 0.30652269960179, -1.405, 0.76, -0.761], a = 0.2, v = 0.2, t = 0.1)
movej(p[0.418158824227151, 0.218378814282461, 0.306523602501345, -1.405, 0.76, -0.761], a = 0.2, v = 0.2, t = 0.1)
movej(p[0.418162266355465, 0.218374013933957, 0.306519805530064, -1.405, 0.76, -0.761], a = 0.2, v = 0.2, t = 0.1)
movej(p[0.418165481955951, 0.218368728226993, 0.306513754269914, -1.405, 0.76, -0.761], a = 0.2, v = 0.2, t = 0.1)
movej(p[0.418167267186726, 0.218363012136774, 0.306508572178185, -1.405, 0.76, -0.761], a = 0.2, v = 0.2, t = 0.1)
movej(p[0.418167075334319, 0.218357602776799, 0.306507732664452, -1.405, 0.76, -0.761], a = 0.2, v = 0.2, t = 0.1)
movej(p[0.41816421647388, 0.2183529547385, 0.306509345602443, -1.405, 0.76, -0.761], a = 0.2, v = 0.2, t = 0.1)
movej(p[0.418159450058082, 0.218348755223561, 0.306509564284233, -1.405, 0.76, -0.761], a = 0.2, v = 0.2, t = 0.1)
movej(p[0.418152977031051, 0.21834399146277, 0.306506800894979, -1.405, 0.76, -0.761], a = 0.2, v = 0.2, t = 0.1)
movej(p[0.418144155336742, 0.21833676272513, 0.306501184099837, -1.405, 0.76, -0.761], a = 0.2, v = 0.2, t = 0.1)
movej(p[0.418131832932116, 0.218324652078907, 0.306493749942636, -1.405, 0.76, -0.761], a = 0.2, v = 0.2, t = 0.1)
movej(p[0.418116836364662, 0.218308867348083, 0.30648420479526, -1.405, 0.76, -0.761], a = 0.2, v = 0.2, t = 0.1)
movej(p[0.418100146576014, 0.218292681413567, 0.306473002088056, -1.405, 0.76, -0.761], a = 0.2, v = 0.2, t = 0.1)
movej(p[0.418084460066572, 0.218280266920322, 0.30646058326138, -1.405, 0.76, -0.761], a = 0.2, v = 0.2, t = 0.1)
movej(p[0.418070851341555, 0.218271729856735, 0.306448524662593, -1.405, 0.76, -0.761], a = 0.2, v = 0.2, t = 0.1)
movej(p[0.41805886453314, 0.218265519740687, 0.306436718608227, -1.405, 0.76, -0.761], a = 0.2, v = 0.2, t = 0.1)
movej(p[0.418044737052681, 0.218257588364519, 0.306424578385042, -1.405, 0.76, -0.761], a = 0.2, v = 0.2, t = 0.1)
movej(p[0.41802618828751, 0.218246268665613, 0.306411850274527, -1.405, 0.76, -0.761], a = 0.2, v = 0.2, t = 0.1)
movej(p[0.418003776279389, 0.218231250063753, 0.306398613386216, -1.405, 0.76, -0.761], a = 0.2, v = 0.2, t = 0.1)
movej(p[0.417982412187833, 0.218215264827853, 0.306382230447126, -1.405, 0.76, -0.761], a = 0.2, v = 0.2, t = 0.1)
movej(p[0.417964063366276, 0.218201233450017, 0.306365250438102, -1.405, 0.76, -0.761], a = 0.2, v = 0.2, t = 0.1)
movej(p[0.417949604083468, 0.218192701919805, 0.306349836445175, -1.405, 0.76, -0.761], a = 0.2, v = 0.2, t = 0.1)
movej(p[0.417940561055406, 0.218190950447538, 0.306341796083158, -1.405, 0.76, -0.761], a = 0.2, v = 0.2, t = 0.1)
movej(p[0.417936845738071, 0.218195886716782, 0.306338852162635, -1.405, 0.76, -0.761], a = 0.2, v = 0.2, t = 0.1)
movej(p[0.417938813280295, 0.218203970994542, 0.306342072254978, -1.405, 0.76, -0.761], a = 0.2, v = 0.2, t = 0.1)
movej(p[0.417944993740149, 0.218212279667682, 0.306354237865347, -1.405, 0.76, -0.761], a = 0.2, v = 0.2, t = 0.1)
movej(p[0.417954014352497, 0.218219011602569, 0.306374235851109, -1.405, 0.76, -0.761], a = 0.2, v = 0.2, t = 0.1)
movej(p[0.417964032455666, 0.218225414145795, 0.30639732144099, -1.405, 0.76, -0.761], a = 0.2, v = 0.2, t = 0.1)
movej(p[0.417974728362221, 0.218232518308347, 0.306414222321186, -1.405, 0.76, -0.761], a = 0.2, v = 0.2, t = 0.1)
movej(p[0.417987517238559, 0.21824007124888, 0.30642321568459, -1.405, 0.76, -0.761], a = 0.2, v = 0.2, t = 0.1)
movej(p[0.418002513220971, 0.218247045921708, 0.306427262894919, -1.405, 0.76, -0.761], a = 0.2, v = 0.2, t = 0.1)
movej(p[0.41801823965464, 0.218254202044229, 0.306430384747496, -1.405, 0.76, -0.761], a = 0.2, v = 0.2, t = 0.1)
movej(p[0.41803377810655, 0.218261644093842, 0.306433658907513, -1.405, 0.76, -0.761], a = 0.2, v = 0.2, t = 0.1)
movej(p[0.418049448947178, 0.218268586571164, 0.306439104832194, -1.405, 0.76, -0.761], a = 0.2, v = 0.2, t = 0.1)
movej(p[0.418065497451894, 0.218274868828975, 0.306448126502116, -1.405, 0.76, -0.761], a = 0.2, v = 0.2, t = 0.1)
movej(p[0.418081522357456, 0.218281628115474, 0.30646263812948, -1.405, 0.76, -0.761], a = 0.2, v = 0.2, t = 0.1)
movej(p[0.418096960320964, 0.218290401980758, 0.306480891878347, -1.405, 0.76, -0.761], a = 0.2, v = 0.2, t = 0.1)
movej(p[0.418110682966311, 0.218300844525788, 0.306500087575469, -1.405, 0.76, -0.761], a = 0.2, v = 0.2, t = 0.1)
movej(p[0.418122279725326, 0.218309645977099, 0.306515642979647, -1.405, 0.76, -0.761], a = 0.2, v = 0.2, t = 0.1)
movej(p[0.418131191422886, 0.218315346544117, 0.30652762423965, -1.405, 0.76, -0.761], a = 0.2, v = 0.2, t = 0.1)
movej(p[0.418137922057246, 0.218319254867329, 0.306537744559447, -1.405, 0.76, -0.761], a = 0.2, v = 0.2, t = 0.1)
movej(p[0.418142917386618, 0.218324550142799, 0.306547714512916, -1.405, 0.76, -0.761], a = 0.2, v = 0.2, t = 0.1)
movej(p[0.418147328797356, 0.218331157987084, 0.306556286175952, -1.405, 0.76, -0.761], a = 0.2, v = 0.2, t = 0.1)
movej(p[0.418150447340073, 0.218337678217306, 0.30656311596498, -1.405, 0.76, -0.761], a = 0.2, v = 0.2, t = 0.1)
movej(p[0.418150784440683, 0.218343020187845, 0.306568380439687, -1.405, 0.76, -0.761], a = 0.2, v = 0.2, t = 0.1)
movej(p[0.418148913989557, 0.218348441948324, 0.306572477055716, -1.405, 0.76, -0.761], a = 0.2, v = 0.2, t = 0.1)
movej(p[0.418146481986155, 0.218352589068114, 0.306577706549564, -1.405, 0.76, -0.761], a = 0.2, v = 0.2, t = 0.1)
movej(p[0.418143636661901, 0.218354604024916, 0.3065838555742, -1.405, 0.76, -0.761], a = 0.2, v = 0.2, t = 0.1)
movej(p[0.418141271861203, 0.218353452693011, 0.306591478797239, -1.405, 0.76, -0.761], a = 0.2, v = 0.2, t = 0.1)
movej(p[0.418137916948389, 0.218351228618926, 0.306598712413794, -1.405, 0.76, -0.761], a = 0.2, v = 0.2, t = 0.1)
movej(p[0.418134629947539, 0.218349248081836, 0.306603626829044, -1.405, 0.76, -0.761], a = 0.2, v = 0.2, t = 0.1)
movej(p[0.418129466193889, 0.218347475830766, 0.306606291413887, -1.405, 0.76, -0.761], a = 0.2, v = 0.2, t = 0.1)
movej(p[0.418122267954134, 0.218344820992753, 0.306607236524224, -1.405, 0.76, -0.761], a = 0.2, v = 0.2, t = 0.1)
movej(p[0.418113938316695, 0.218341509604669, 0.306608922388426, -1.405, 0.76, -0.761], a = 0.2, v = 0.2, t = 0.1)
movej(p[0.418103883889771, 0.218338619645244, 0.306611298548301, -1.405, 0.76, -0.761], a = 0.2, v = 0.2, t = 0.1)
movej(p[0.418091443980014, 0.218335048285885, 0.306613866021488, -1.405, 0.76, -0.761], a = 0.2, v = 0.2, t = 0.1)
movej(p[0.418077481035466, 0.218329105077702, 0.306615475945102, -1.405, 0.76, -0.761], a = 0.2, v = 0.2, t = 0.1)
movej(p[0.418063800320696, 0.218319174119982, 0.30661398437005, -1.405, 0.76, -0.761], a = 0.2, v = 0.2, t = 0.1)
movej(p[0.418053313280912, 0.218305567835597, 0.306604075380252, -1.405, 0.76, -0.761], a = 0.2, v = 0.2, t = 0.1)
movej(p[0.418043728470736, 0.218290938788011, 0.306588423128127, -1.405, 0.76, -0.761], a = 0.2, v = 0.2, t = 0.1)
movej(p[0.41803374024006, 0.218278953155192, 0.306569079548832, -1.405, 0.76, -0.761], a = 0.2, v = 0.2, t = 0.1)
movej(p[0.418021690392162, 0.218272509225331, 0.30655316363241, -1.405, 0.76, -0.761], a = 0.2, v = 0.2, t = 0.1)
movej(p[0.41800791248994, 0.218269640735555, 0.306541249615842, -1.405, 0.76, -0.761], a = 0.2, v = 0.2, t = 0.1)
movej(p[0.417992907312961, 0.218268557631913, 0.306533747054592, -1.405, 0.76, -0.761], a = 0.2, v = 0.2, t = 0.1)
movej(p[0.417976523088997, 0.218267602930925, 0.30653046375882, -1.405, 0.76, -0.761], a = 0.2, v = 0.2, t = 0.1)
movej(p[0.417960433379448, 0.218268259666221, 0.306526831274905, -1.405, 0.76, -0.761], a = 0.2, v = 0.2, t = 0.1)
movej(p[0.417946508020454, 0.218270583752974, 0.306520985067703, -1.405, 0.76, -0.761], a = 0.2, v = 0.2, t = 0.1)
movej(p[0.41793644520612, 0.21827398822974, 0.306511214207627, -1.405, 0.76, -0.761], a = 0.2, v = 0.2, t = 0.1)
movej(p[0.417931165310129, 0.218277896409748, 0.306498985844517, -1.405, 0.76, -0.761], a = 0.2, v = 0.2, t = 0.1)
movej(p[0.41793061955231, 0.218282517861749, 0.306484370302146, -1.405, 0.76, -0.761], a = 0.2, v = 0.2, t = 0.1)
movej(p[0.417934910933938, 0.218289835759828, 0.306469780635068, -1.405, 0.76, -0.761], a = 0.2, v = 0.2, t = 0.1)
movej(p[0.417942176615142, 0.218300054955902, 0.306457365729582, -1.405, 0.76, -0.761], a = 0.2, v = 0.2, t = 0.1)
movej(p[0.417950917123599, 0.218313550961058, 0.306447467661955, -1.405, 0.76, -0.761], a = 0.2, v = 0.2, t = 0.1)
movej(p[0.417962143645875, 0.218327831307748, 0.306437593124093, -1.405, 0.76, -0.761], a = 0.2, v = 0.2, t = 0.1)
movej(p[0.417977476277113, 0.218340331817547, 0.306428126256231, -1.405, 0.76, -0.761], a = 0.2, v = 0.2, t = 0.1)
movej(p[0.417996651889829, 0.218349218696446, 0.306420733898935, -1.405, 0.76, -0.761], a = 0.2, v = 0.2, t = 0.1)
movej(p[0.41801739297406, 0.218356196061568, 0.30641283708047, -1.405, 0.76, -0.761], a = 0.2, v = 0.2, t = 0.1)
movej(p[0.418037383972346, 0.218361365191915, 0.306404329404349, -1.405, 0.76, -0.761], a = 0.2, v = 0.2, t = 0.1)
movej(p[0.418055810413196, 0.218363329853071, 0.306396826697495, -1.405, 0.76, -0.761], a = 0.2, v = 0.2, t = 0.1)
movej(p[0.418073308296158, 0.218362358344853, 0.306391967337697, -1.405, 0.76, -0.761], a = 0.2, v = 0.2, t = 0.1)
movej(p[0.418089673194125, 0.218359558409399, 0.306388732378971, -1.405, 0.76, -0.761], a = 0.2, v = 0.2, t = 0.1)
movej(p[0.418104612909774, 0.218357015716815, 0.306385477559195, -1.405, 0.76, -0.761], a = 0.2, v = 0.2, t = 0.1)
movej(p[0.418115837468352, 0.218354538297447, 0.306382807161662, -1.405, 0.76, -0.761], a = 0.2, v = 0.2, t = 0.1)
movej(p[0.418122446530478, 0.218353885778507, 0.306381907192304, -1.405, 0.76, -0.761], a = 0.2, v = 0.2, t = 0.1)
movej(p[0.418124072348255, 0.218354897445651, 0.306382065714056, -1.405, 0.76, -0.761], a = 0.2, v = 0.2, t = 0.1)
movej(p[0.418123363345086, 0.21835723942583, 0.306383362044395, -1.405, 0.76, -0.761], a = 0.2, v = 0.2, t = 0.1)
movej(p[0.418122338059813, 0.218359702524279, 0.306385651397391, -1.405, 0.76, -0.761], a = 0.2, v = 0.2, t = 0.1)
movej(p[0.418122199706293, 0.218362104924268, 0.306389168545468, -1.405, 0.76, -0.761], a = 0.2, v = 0.2, t = 0.1)
movej(p[0.418122401921692, 0.218363713361685, 0.306392759505787, -1.405, 0.76, -0.761], a = 0.2, v = 0.2, t = 0.1)
movej(p[0.41812330766033, 0.218364176299863, 0.306394797205166, -1.405, 0.76, -0.761], a = 0.2, v = 0.2, t = 0.1)
movej(p[0.418123161076684, 0.218364031851309, 0.306395548125169, -1.405, 0.76, -0.761], a = 0.2, v = 0.2, t = 0.1)
movej(p[0.418120830145624, 0.2183633266457, 0.306397641298463, -1.405, 0.76, -0.761], a = 0.2, v = 0.2, t = 0.1)
movej(p[0.4181143790812, 0.218362251419381, 0.306401505678901, -1.405, 0.76, -0.761], a = 0.2, v = 0.2, t = 0.1)
movej(p[0.418103619719887, 0.218360014603221, 0.306406408818669, -1.405, 0.76, -0.761], a = 0.2, v = 0.2, t = 0.1)
movej(p[0.418087149027179, 0.218357337252645, 0.306410393386102, -1.405, 0.76, -0.761], a = 0.2, v = 0.2, t = 0.1)
movej(p[0.418066619763114, 0.218354059615237, 0.30641446292563, -1.405, 0.76, -0.761], a = 0.2, v = 0.2, t = 0.1)
movej(p[0.418044650403124, 0.218350628648768, 0.306417155219021, -1.405, 0.76, -0.761], a = 0.2, v = 0.2, t = 0.1)
movej(p[0.418025212141213, 0.218348203375734, 0.306417854125037, -1.405, 0.76, -0.761], a = 0.2, v = 0.2, t = 0.1)
movej(p[0.418010851136283, 0.218348499587285, 0.306415880696266, -1.405, 0.76, -0.761], a = 0.2, v = 0.2, t = 0.1)
movej(p[0.418001542622979, 0.21835196932344, 0.306413039933677, -1.405, 0.76, -0.761], a = 0.2, v = 0.2, t = 0.1)
movej(p[0.417995304523093, 0.218356301877016, 0.306411596816803, -1.405, 0.76, -0.761], a = 0.2, v = 0.2, t = 0.1)
movej(p[0.417988505891655, 0.218358021048598, 0.306412576470643, -1.405, 0.76, -0.761], a = 0.2, v = 0.2, t = 0.1)
movej(p[0.417982498632143, 0.218355964613145, 0.306418072186373, -1.405, 0.76, -0.761], a = 0.2, v = 0.2, t = 0.1)
movej(p[0.417978689616542, 0.218352577872481, 0.306429226772462, -1.405, 0.76, -0.761], a = 0.2, v = 0.2, t = 0.1)
movej(p[0.417977947359704, 0.218350205987373, 0.306442990988198, -1.405, 0.76, -0.761], a = 0.2, v = 0.2, t = 0.1)
movej(p[0.41797778921076, 0.218347275974127, 0.306455193215793, -1.405, 0.76, -0.761], a = 0.2, v = 0.2, t = 0.1)
movej(p[0.417977226328042, 0.218339590604928, 0.306459866083898, -1.405, 0.76, -0.761], a = 0.2, v = 0.2, t = 0.1)
movej(p[0.417977124100209, 0.21832575990032, 0.30645785058929, -1.405, 0.76, -0.761], a = 0.2, v = 0.2, t = 0.1)
movej(p[0.417978086959221, 0.218309651910253, 0.306451081751757, -1.405, 0.76, -0.761], a = 0.2, v = 0.2, t = 0.1)
movej(p[0.417978647795449, 0.218295996962461, 0.306443968340163, -1.405, 0.76, -0.761], a = 0.2, v = 0.2, t = 0.1)
movej(p[0.417977388333174, 0.218286240346652, 0.306438277277721, -1.405, 0.76, -0.761], a = 0.2, v = 0.2, t = 0.1)
movej(p[0.41797597650666, 0.218277793628643, 0.306433392400672, -1.405, 0.76, -0.761], a = 0.2, v = 0.2, t = 0.1)
movej(p[0.417975995669223, 0.218268121865215, 0.306426025704738, -1.405, 0.76, -0.761], a = 0.2, v = 0.2, t = 0.1)
movej(p[0.417978456306215, 0.218259119957578, 0.306416646498721, -1.405, 0.76, -0.761], a = 0.2, v = 0.2, t = 0.1)
movej(p[0.41798437339451, 0.218255753271798, 0.306410157238212, -1.405, 0.76, -0.761], a = 0.2, v = 0.2, t = 0.1)
movej(p[0.417994335783947, 0.218258895105155, 0.306414068105744, -1.405, 0.76, -0.761], a = 0.2, v = 0.2, t = 0.1)
movej(p[0.418007218950825, 0.218265952935406, 0.306430242670169, -1.405, 0.76, -0.761], a = 0.2, v = 0.2, t = 0.1)
movej(p[0.418022212735268, 0.218273912240626, 0.306454682566129, -1.405, 0.76, -0.761], a = 0.2, v = 0.2, t = 0.1)
movej(p[0.418037778481209, 0.218281642870761, 0.306483122127043, -1.405, 0.76, -0.761], a = 0.2, v = 0.2, t = 0.1)
movej(p[0.418052256964428, 0.218290125790691, 0.306508632930228, -1.405, 0.76, -0.761], a = 0.2, v = 0.2, t = 0.1)
movej(p[0.418065152085252, 0.21829874604285, 0.306526519153465, -1.405, 0.76, -0.761], a = 0.2, v = 0.2, t = 0.1)
movej(p[0.418076796100138, 0.218308242784328, 0.306532824201571, -1.405, 0.76, -0.761], a = 0.2, v = 0.2, t = 0.1)
movej(p[0.418086452184374, 0.21831802847818, 0.306530565531369, -1.405, 0.76, -0.761], a = 0.2, v = 0.2, t = 0.1)
movej(p[0.418092444387146, 0.218328555175556, 0.306521649255562, -1.405, 0.76, -0.761], a = 0.2, v = 0.2, t = 0.1)
movej(p[0.418095426042565, 0.218338762591669, 0.306511766114145, -1.405, 0.76, -0.761], a = 0.2, v = 0.2, t = 0.1)
movej(p[0.418097239963, 0.21834822929749, 0.306503246486304, -1.405, 0.76, -0.761], a = 0.2, v = 0.2, t = 0.1)
movej(p[0.418096173233032, 0.218356681190454, 0.306497183558916, -1.405, 0.76, -0.761], a = 0.2, v = 0.2, t = 0.1)
movej(p[0.418090029269621, 0.21836526615915, 0.306489914910824, -1.405, 0.76, -0.761], a = 0.2, v = 0.2, t = 0.1)
movej(p[0.418079597735262, 0.218373104831113, 0.306480391890412, -1.405, 0.76, -0.761], a = 0.2, v = 0.2, t = 0.1)
movej(p[0.41806808358357, 0.218378653672768, 0.306471348631258, -1.405, 0.76, -0.761], a = 0.2, v = 0.2, t = 0.1)
movej(p[0.418058993935685, 0.218381712755835, 0.306466365298024, -1.405, 0.76, -0.761], a = 0.2, v = 0.2, t = 0.1)
movej(p[0.418054452389996, 0.218384078719299, 0.306464045977298, -1.405, 0.76, -0.761], a = 0.2, v = 0.2, t = 0.1)
movej(p[0.418054363812009, 0.218386276189605, 0.306461396688866, -1.405, 0.76, -0.761], a = 0.2, v = 0.2, t = 0.1)
movej(p[0.418057836514827, 0.218388032597009, 0.306458499189743, -1.405, 0.76, -0.761], a = 0.2, v = 0.2, t = 0.1)
movej(p[0.418063024047729, 0.218389522409071, 0.30645433170412, -1.405, 0.76, -0.761], a = 0.2, v = 0.2, t = 0.1)
movej(p[0.418068163966998, 0.218391718198191, 0.306449548021016, -1.405, 0.76, -0.761], a = 0.2, v = 0.2, t = 0.1)
movej(p[0.418071562531053, 0.218394977272083, 0.30644537453174, -1.405, 0.76, -0.761], a = 0.2, v = 0.2, t = 0.1)
movej(p[0.418072469871545, 0.218398323696766, 0.306444426206336, -1.405, 0.76, -0.761], a = 0.2, v = 0.2, t = 0.1)
movej(p[0.418071775057939, 0.21840063144159, 0.306447554588967, -1.405, 0.76, -0.761], a = 0.2, v = 0.2, t = 0.1)
movej(p[0.418070261185116, 0.218400532725406, 0.306452703044968, -1.405, 0.76, -0.761], a = 0.2, v = 0.2, t = 0.1)
movej(p[0.41806728217862, 0.218398521407991, 0.306457969952841, -1.405, 0.76, -0.761], a = 0.2, v = 0.2, t = 0.1)
movej(p[0.418060356802123, 0.218394652328961, 0.306462851474411, -1.405, 0.76, -0.761], a = 0.2, v = 0.2, t = 0.1)
movej(p[0.4180498049657, 0.218390169962464, 0.306467305211122, -1.405, 0.76, -0.761], a = 0.2, v = 0.2, t = 0.1)
movej(p[0.41803804851633, 0.218385071928414, 0.3064698937387, -1.405, 0.76, -0.761], a = 0.2, v = 0.2, t = 0.1)
movej(p[0.418025231651289, 0.218380120592445, 0.306469685621811, -1.405, 0.76, -0.761], a = 0.2, v = 0.2, t = 0.1)
movej(p[0.418009978188733, 0.218374547563147, 0.306468269035246, -1.405, 0.76, -0.761], a = 0.2, v = 0.2, t = 0.1)
movej(p[0.417992105691539, 0.218369333016233, 0.306466934161268, -1.405, 0.76, -0.761], a = 0.2, v = 0.2, t = 0.1)
movej(p[0.417973283948783, 0.218364857241664, 0.306464654770861, -1.405, 0.76, -0.761], a = 0.2, v = 0.2, t = 0.1)
movej(p[0.417955480702104, 0.218362703328217, 0.306461621423112, -1.405, 0.76, -0.761], a = 0.2, v = 0.2, t = 0.1)
movej(p[0.417938544963254, 0.21836054164938, 0.30645901456788, -1.405, 0.76, -0.761], a = 0.2, v = 0.2, t = 0.1)
movej(p[0.417922208534981, 0.218356844573809, 0.30645604430282, -1.405, 0.76, -0.761], a = 0.2, v = 0.2, t = 0.1)
movej(p[0.417904916477393, 0.218350793678611, 0.306451414190548, -1.405, 0.76, -0.761], a = 0.2, v = 0.2, t = 0.1)
movej(p[0.417885661941998, 0.218342916360829, 0.306444370031174, -1.405, 0.76, -0.761], a = 0.2, v = 0.2, t = 0.1)
movej(p[0.417866876441047, 0.218334402024562, 0.306436527773976, -1.405, 0.76, -0.761], a = 0.2, v = 0.2, t = 0.1)
movej(p[0.417852006553015, 0.218325326888733, 0.306429993756178, -1.405, 0.76, -0.761], a = 0.2, v = 0.2, t = 0.1)
movej(p[0.41784192198244, 0.21831653905225, 0.306427726625994, -1.405, 0.76, -0.761], a = 0.2, v = 0.2, t = 0.1)
movej(p[0.417836836400271, 0.218309408853808, 0.306432497576233, -1.405, 0.76, -0.761], a = 0.2, v = 0.2, t = 0.1)
movej(p[0.417835440671351, 0.218305067363003, 0.306445061192686, -1.405, 0.76, -0.761], a = 0.2, v = 0.2, t = 0.1)
movej(p[0.417838378780543, 0.21830440737116, 0.306461322594506, -1.405, 0.76, -0.761], a = 0.2, v = 0.2, t = 0.1)
movej(p[0.417847121144297, 0.218307524879203, 0.306478514557762, -1.405, 0.76, -0.761], a = 0.2, v = 0.2, t = 0.1)
movej(p[0.417861814108395, 0.218313156153583, 0.306492657743007, -1.405, 0.76, -0.761], a = 0.2, v = 0.2, t = 0.1)
movej(p[0.417881237856327, 0.218320555362002, 0.306501686593933, -1.405, 0.76, -0.761], a = 0.2, v = 0.2, t = 0.1)
movej(p[0.417902159180289, 0.218329512645891, 0.306505702262249, -1.405, 0.76, -0.761], a = 0.2, v = 0.2, t = 0.1)
movej(p[0.417922035192338, 0.21833945624221, 0.306504422384815, -1.405, 0.76, -0.761], a = 0.2, v = 0.2, t = 0.1)
movej(p[0.417939226107086, 0.218348495732908, 0.306502084128192, -1.405, 0.76, -0.761], a = 0.2, v = 0.2, t = 0.1)
movej(p[0.417954254683563, 0.218355333888965, 0.306500673548236, -1.405, 0.76, -0.761], a = 0.2, v = 0.2, t = 0.1)
movej(p[0.417968471360311, 0.218360292412573, 0.306501178531299, -1.405, 0.76, -0.761], a = 0.2, v = 0.2, t = 0.1)
movej(p[0.417983281022817, 0.218364775994144, 0.306502903627453, -1.405, 0.76, -0.761], a = 0.2, v = 0.2, t = 0.1)
movej(p[0.417997650346004, 0.218370129653816, 0.306504488358429, -1.405, 0.76, -0.761], a = 0.2, v = 0.2, t = 0.1)
movej(p[0.418009195137188, 0.218376994720968, 0.306505620085658, -1.405, 0.76, -0.761], a = 0.2, v = 0.2, t = 0.1)
movej(p[0.418016813363315, 0.218383854764236, 0.306503599398637, -1.405, 0.76, -0.761], a = 0.2, v = 0.2, t = 0.1)
movej(p[0.418021435241555, 0.218389554830856, 0.306498945583529, -1.405, 0.76, -0.761], a = 0.2, v = 0.2, t = 0.1)
movej(p[0.418024096054703, 0.21839370031171, 0.306491809130147, -1.405, 0.76, -0.761], a = 0.2, v = 0.2, t = 0.1)
movej(p[0.418026150397562, 0.218398446445055, 0.306484202626371, -1.405, 0.76, -0.761], a = 0.2, v = 0.2, t = 0.1)
movej(p[0.418027683076063, 0.218402588041337, 0.306475928684031, -1.405, 0.76, -0.761], a = 0.2, v = 0.2, t = 0.1)
movej(p[0.418027857924014, 0.218406217908449, 0.306467536591565, -1.405, 0.76, -0.761], a = 0.2, v = 0.2, t = 0.1)
movej(p[0.418026065084576, 0.21840807210146, 0.306461405294718, -1.405, 0.76, -0.761], a = 0.2, v = 0.2, t = 0.1)
movej(p[0.418023047603026, 0.218408682999319, 0.306459296870211, -1.405, 0.76, -0.761], a = 0.2, v = 0.2, t = 0.1)
movej(p[0.418019992672139, 0.218408124162668, 0.306462603328872, -1.405, 0.76, -0.761], a = 0.2, v = 0.2, t = 0.1)
movej(p[0.418016620582431, 0.218407990152444, 0.306468907701106, -1.405, 0.76, -0.761], a = 0.2, v = 0.2, t = 0.1)
movej(p[0.418011967086598, 0.21840992924485, 0.306476670516972, -1.405, 0.76, -0.761], a = 0.2, v = 0.2, t = 0.1)
movej(p[0.418005613835996, 0.218414427971432, 0.306484324128402, -1.405, 0.76, -0.761], a = 0.2, v = 0.2, t = 0.1)
movej(p[0.41799800840317, 0.218421081152342, 0.306488986859824, -1.405, 0.76, -0.761], a = 0.2, v = 0.2, t = 0.1)
movej(p[0.41798847692193, 0.218429087495873, 0.306489452410712, -1.405, 0.76, -0.761], a = 0.2, v = 0.2, t = 0.1)
movej(p[0.417975235200366, 0.218437884995183, 0.30648592890253, -1.405, 0.76, -0.761], a = 0.2, v = 0.2, t = 0.1)
movej(p[0.417957655595472, 0.218444611976996, 0.306482123826384, -1.405, 0.76, -0.761], a = 0.2, v = 0.2, t = 0.1)
movej(p[0.417935394397294, 0.21844779082288, 0.306477032378699, -1.405, 0.76, -0.761], a = 0.2, v = 0.2, t = 0.1)
movej(p[0.41791000296255, 0.218444218856088, 0.30646780753383, -1.405, 0.76, -0.761], a = 0.2, v = 0.2, t = 0.1)
movej(p[0.417884828861703, 0.218432748020944, 0.306453678366918, -1.405, 0.76, -0.761], a = 0.2, v = 0.2, t = 0.1)
movej(p[0.417861709343719, 0.218415783410766, 0.306438525456316, -1.405, 0.76, -0.761], a = 0.2, v = 0.2, t = 0.1)
movej(p[0.417842447533723, 0.218400277677039, 0.306425779082351, -1.405, 0.76, -0.761], a = 0.2, v = 0.2, t = 0.1)
movej(p[0.417825658705533, 0.218388526464491, 0.306414901836713, -1.405, 0.76, -0.761], a = 0.2, v = 0.2, t = 0.1)
movej(p[0.417809699105441, 0.218380879609844, 0.30640441860754, -1.405, 0.76, -0.761], a = 0.2, v = 0.2, t = 0.1)
movej(p[0.417793145997665, 0.218375320540812, 0.306395099194872, -1.405, 0.76, -0.761], a = 0.2, v = 0.2, t = 0.1)
movej(p[0.417776350715826, 0.218369972734539, 0.306385501450084, -1.405, 0.76, -0.761], a = 0.2, v = 0.2, t = 0.1)
movej(p[0.417760342269425, 0.218361265854991, 0.306374491363011, -1.405, 0.76, -0.761], a = 0.2, v = 0.2, t = 0.1)
movej(p[0.417747011894475, 0.2183448204324, 0.306363510221927, -1.405, 0.76, -0.761], a = 0.2, v = 0.2, t = 0.1)
movej(p[0.417736303603836, 0.218324211494011, 0.306356785202443, -1.405, 0.76, -0.761], a = 0.2, v = 0.2, t = 0.1)
movej(p[0.417725750128141, 0.218304069638302, 0.306355693327294, -1.405, 0.76, -0.761], a = 0.2, v = 0.2, t = 0.1)
movej(p[0.417713543100675, 0.218288452642589, 0.306358482702916, -1.405, 0.76, -0.761], a = 0.2, v = 0.2, t = 0.1)
movej(p[0.417701181720065, 0.218277396707813, 0.306362031946448, -1.405, 0.76, -0.761], a = 0.2, v = 0.2, t = 0.1)
movej(p[0.417692095417671, 0.218271016894837, 0.306362309833441, -1.405, 0.76, -0.761], a = 0.2, v = 0.2, t = 0.1)
movej(p[0.417687953471012, 0.21826927463154, 0.306357746043625, -1.405, 0.76, -0.761], a = 0.2, v = 0.2, t = 0.1)
movej(p[0.417687355994558, 0.218272182659704, 0.306352590847597, -1.405, 0.76, -0.761], a = 0.2, v = 0.2, t = 0.1)
movej(p[0.417688758583385, 0.218278094403731, 0.30634925976502, -1.405, 0.76, -0.761], a = 0.2, v = 0.2, t = 0.1)
movej(p[0.417692305081678, 0.218284940232476, 0.306347998953908, -1.405, 0.76, -0.761], a = 0.2, v = 0.2, t = 0.1)
movej(p[0.417698805592035, 0.218291138453323, 0.30634893489056, -1.405, 0.76, -0.761], a = 0.2, v = 0.2, t = 0.1)
movej(p[0.417708364764045, 0.218295761066663, 0.30635154187146, -1.405, 0.76, -0.761], a = 0.2, v = 0.2, t = 0.1)
movej(p[0.417720964242286, 0.218299738159692, 0.30635407996446, -1.405, 0.76, -0.761], a = 0.2, v = 0.2, t = 0.1)
movej(p[0.417734778912171, 0.218303153655367, 0.30635216730812, -1.405, 0.76, -0.761], a = 0.2, v = 0.2, t = 0.1)
movej(p[0.417748621023108, 0.218306430847725, 0.306344518648888, -1.405, 0.76, -0.761], a = 0.2, v = 0.2, t = 0.1)
movej(p[0.417761451031557, 0.218309117036132, 0.306331302561266, -1.405, 0.76, -0.761], a = 0.2, v = 0.2, t = 0.1)
movej(p[0.417773359957155, 0.218309811334027, 0.306316907802966, -1.405, 0.76, -0.761], a = 0.2, v = 0.2, t = 0.1)
movej(p[0.417784409714611, 0.218306391637295, 0.306304113134449, -1.405, 0.76, -0.761], a = 0.2, v = 0.2, t = 0.1)
movej(p[0.417794220396956, 0.218298856940284, 0.3062934096674, -1.405, 0.76, -0.761], a = 0.2, v = 0.2, t = 0.1)
movej(p[0.417803989702979, 0.218290978157602, 0.306282420425876, -1.405, 0.76, -0.761], a = 0.2, v = 0.2, t = 0.1)
movej(p[0.417814118537628, 0.21828370960186, 0.306268641336461, -1.405, 0.76, -0.761], a = 0.2, v = 0.2, t = 0.1)
movej(p[0.417823769383177, 0.218274046854803, 0.30624621622771, -1.405, 0.76, -0.761], a = 0.2, v = 0.2, t = 0.1)
movej(p[0.417831049435588, 0.21825907651194, 0.306218806553315, -1.405, 0.76, -0.761], a = 0.2, v = 0.2, t = 0.1)
movej(p[0.417835120649744, 0.218239920154907, 0.306191562542496, -1.405, 0.76, -0.761], a = 0.2, v = 0.2, t = 0.1)
movej(p[0.417837587249892, 0.218223055686786, 0.306171042777738, -1.405, 0.76, -0.761], a = 0.2, v = 0.2, t = 0.1)
movej(p[0.41783966021036, 0.218210915251799, 0.306155492093051, -1.405, 0.76, -0.761], a = 0.2, v = 0.2, t = 0.1)
movej(p[0.417840291781272, 0.218202509578774, 0.306143665772906, -1.405, 0.76, -0.761], a = 0.2, v = 0.2, t = 0.1)
movej(p[0.417838479328487, 0.218197494803155, 0.306134604036627, -1.405, 0.76, -0.761], a = 0.2, v = 0.2, t = 0.1)
movej(p[0.417834034694635, 0.218194200527796, 0.306128183920056, -1.405, 0.76, -0.761], a = 0.2, v = 0.2, t = 0.1)
movej(p[0.417825995211578, 0.218191640371652, 0.30612480550879, -1.405, 0.76, -0.761], a = 0.2, v = 0.2, t = 0.1)
movej(p[0.417814274376317, 0.218187450672868, 0.306125502251846, -1.405, 0.76, -0.761], a = 0.2, v = 0.2, t = 0.1)
movej(p[0.417798202142052, 0.218180883779692, 0.306130512695115, -1.405, 0.76, -0.761], a = 0.2, v = 0.2, t = 0.1)
movej(p[0.417779748449258, 0.218173310348008, 0.306137610527304, -1.405, 0.76, -0.761], a = 0.2, v = 0.2, t = 0.1)
movej(p[0.417761707299132, 0.218164114132525, 0.306144622509117, -1.405, 0.76, -0.761], a = 0.2, v = 0.2, t = 0.1)
movej(p[0.417744966131997, 0.218154702158386, 0.306150157119471, -1.405, 0.76, -0.761], a = 0.2, v = 0.2, t = 0.1)
movej(p[0.417730352731999, 0.218145867252039, 0.306154096017202, -1.405, 0.76, -0.761], a = 0.2, v = 0.2, t = 0.1)
movej(p[0.417719701792037, 0.218137570994798, 0.306157996228955, -1.405, 0.76, -0.761], a = 0.2, v = 0.2, t = 0.1)
movej(p[0.417714683524039, 0.218130760410628, 0.306160162660713, -1.405, 0.76, -0.761], a = 0.2, v = 0.2, t = 0.1)
movej(p[0.417713152308766, 0.218125117751725, 0.306163816503934, -1.405, 0.76, -0.761], a = 0.2, v = 0.2, t = 0.1)
movej(p[0.417713495361805, 0.218120321091667, 0.306172720125271, -1.405, 0.76, -0.761], a = 0.2, v = 0.2, t = 0.1)
movej(p[0.417716417650691, 0.218115937663986, 0.306189770735097, -1.405, 0.76, -0.761], a = 0.2, v = 0.2, t = 0.1)
movej(p[0.417722989101013, 0.218114128786729, 0.306209449522984, -1.405, 0.76, -0.761], a = 0.2, v = 0.2, t = 0.1)
movej(p[0.417730760686926, 0.218119317685796, 0.306223639378546, -1.405, 0.76, -0.761], a = 0.2, v = 0.2, t = 0.1)
movej(p[0.417736935388372, 0.218132480689699, 0.306229627206976, -1.405, 0.76, -0.761], a = 0.2, v = 0.2, t = 0.1)
movej(p[0.417741970957032, 0.218152176423068, 0.30623197474363, -1.405, 0.76, -0.761], a = 0.2, v = 0.2, t = 0.1)
movej(p[0.417747131011705, 0.218174874594178, 0.306235832343142, -1.405, 0.76, -0.761], a = 0.2, v = 0.2, t = 0.1)
movej(p[0.417755008086187, 0.218195732654595, 0.306241855389487, -1.405, 0.76, -0.761], a = 0.2, v = 0.2, t = 0.1)
movej(p[0.417765534860037, 0.21821176934621, 0.306247737786817, -1.405, 0.76, -0.761], a = 0.2, v = 0.2, t = 0.1)
movej(p[0.417778402914255, 0.21822387071947, 0.306253364307844, -1.405, 0.76, -0.761], a = 0.2, v = 0.2, t = 0.1)
movej(p[0.41779231113331, 0.218235509792618, 0.306259872053994, -1.405, 0.76, -0.761], a = 0.2, v = 0.2, t = 0.1)
movej(p[0.417807696372709, 0.218248206288466, 0.306267034607856, -1.405, 0.76, -0.761], a = 0.2, v = 0.2, t = 0.1)
movej(p[0.417823445002419, 0.218261854933093, 0.306273816317676, -1.405, 0.76, -0.761], a = 0.2, v = 0.2, t = 0.1)
movej(p[0.417836179110414, 0.218275791262119, 0.306279385343074, -1.405, 0.76, -0.761], a = 0.2, v = 0.2, t = 0.1)
movej(p[0.417844223215157, 0.218289578074999, 0.306283131894487, -1.405, 0.76, -0.761], a = 0.2, v = 0.2, t = 0.1)
movej(p[0.417847105977017, 0.218302398212716, 0.306286237861965, -1.405, 0.76, -0.761], a = 0.2, v = 0.2, t = 0.1)
movej(p[0.417846753572986, 0.218313077043899, 0.306289691464281, -1.405, 0.76, -0.761], a = 0.2, v = 0.2, t = 0.1)
movej(p[0.41784374695703, 0.218321571932308, 0.306294095630652, -1.405, 0.76, -0.761], a = 0.2, v = 0.2, t = 0.1)
movej(p[0.417838152004358, 0.218327495669007, 0.30630011634208, -1.405, 0.76, -0.761], a = 0.2, v = 0.2, t = 0.1)
movej(p[0.417830589108931, 0.218330627743496, 0.306307669601851, -1.405, 0.76, -0.761], a = 0.2, v = 0.2, t = 0.1)
movej(p[0.417823134546365, 0.218332059056815, 0.306316292555239, -1.405, 0.76, -0.761], a = 0.2, v = 0.2, t = 0.1)
movej(p[0.417817480895902, 0.218332432337697, 0.306324621345477, -1.405, 0.76, -0.761], a = 0.2, v = 0.2, t = 0.1)
movej(p[0.417814604654038, 0.218333117771285, 0.306330545500989, -1.405, 0.76, -0.761], a = 0.2, v = 0.2, t = 0.1)
movej(p[0.417812733668711, 0.218335579593913, 0.30633443217981, -1.405, 0.76, -0.761], a = 0.2, v = 0.2, t = 0.1)
movej(p[0.417809640091202, 0.218339875668687, 0.306338714056587, -1.405, 0.76, -0.761], a = 0.2, v = 0.2, t = 0.1)
movej(p[0.417803388073626, 0.218342553938177, 0.306348371785242, -1.405, 0.76, -0.761], a = 0.2, v = 0.2, t = 0.1)
movej(p[0.417794348705722, 0.21834070993458, 0.306361816166546, -1.405, 0.76, -0.761], a = 0.2, v = 0.2, t = 0.1)
movej(p[0.417784845833624, 0.218335703519363, 0.306373400079467, -1.405, 0.76, -0.761], a = 0.2, v = 0.2, t = 0.1)
movej(p[0.417776810158779, 0.218329356402402, 0.306377183974692, -1.405, 0.76, -0.761], a = 0.2, v = 0.2, t = 0.1)
movej(p[0.417769498676454, 0.218321384434965, 0.306373210295868, -1.405, 0.76, -0.761], a = 0.2, v = 0.2, t = 0.1)
movej(p[0.417761388834282, 0.218313228317238, 0.306364366884277, -1.405, 0.76, -0.761], a = 0.2, v = 0.2, t = 0.1)
movej(p[0.417752420171325, 0.218307306537954, 0.306353028883224, -1.405, 0.76, -0.761], a = 0.2, v = 0.2, t = 0.1)
movej(p[0.417743745324116, 0.218302389563273, 0.306339217589625, -1.405, 0.76, -0.761], a = 0.2, v = 0.2, t = 0.1)
movej(p[0.417737422698498, 0.218289830977424, 0.306321565783775, -1.405, 0.76, -0.761], a = 0.2, v = 0.2, t = 0.1)
movej(p[0.417729919745653, 0.218266576593425, 0.306301311934772, -1.405, 0.76, -0.761], a = 0.2, v = 0.2, t = 0.1)
movej(p[0.417718621173167, 0.21823576241113, 0.30628081518812, -1.405, 0.76, -0.761], a = 0.2, v = 0.2, t = 0.1)
movej(p[0.417700648875, 0.21820379637076, 0.306260936866494, -1.405, 0.76, -0.761], a = 0.2, v = 0.2, t = 0.1)
movej(p[0.417678338581348, 0.218176008307761, 0.306242886210387, -1.405, 0.76, -0.761], a = 0.2, v = 0.2, t = 0.1)
movej(p[0.41765529538997, 0.218154804515313, 0.306228395513443, -1.405, 0.76, -0.761], a = 0.2, v = 0.2, t = 0.1)
movej(p[0.417636767163737, 0.218142622506837, 0.306220029925289, -1.405, 0.76, -0.761], a = 0.2, v = 0.2, t = 0.1)
movej(p[0.417623070068963, 0.218135872250518, 0.306216970620894, -1.405, 0.76, -0.761], a = 0.2, v = 0.2, t = 0.1)
movej(p[0.417611730763262, 0.218132597082919, 0.306216083431846, -1.405, 0.76, -0.761], a = 0.2, v = 0.2, t = 0.1)
movej(p[0.417601132501388, 0.218131200281276, 0.306216196778344, -1.405, 0.76, -0.761], a = 0.2, v = 0.2, t = 0.1)
movej(p[0.417591580907987, 0.218129950246577, 0.306217281843202, -1.405, 0.76, -0.761], a = 0.2, v = 0.2, t = 0.1)
movej(p[0.417583388920859, 0.218127753317901, 0.306218045497763, -1.405, 0.76, -0.761], a = 0.2, v = 0.2, t = 0.1)
movej(p[0.417575310546718, 0.218125180903197, 0.306219137920224, -1.405, 0.76, -0.761], a = 0.2, v = 0.2, t = 0.1)
movej(p[0.417566683765184, 0.218123058420245, 0.306220537791462, -1.405, 0.76, -0.761], a = 0.2, v = 0.2, t = 0.1)
movej(p[0.417557904316066, 0.218121355807538, 0.306222050585618, -1.405, 0.76, -0.761], a = 0.2, v = 0.2, t = 0.1)
movej(p[0.417550711294458, 0.218118063260695, 0.306219730518285, -1.405, 0.76, -0.761], a = 0.2, v = 0.2, t = 0.1)
movej(p[0.417548874026698, 0.218113599210676, 0.306212889263605, -1.405, 0.76, -0.761], a = 0.2, v = 0.2, t = 0.1)
movej(p[0.417553273812232, 0.218108554733308, 0.306204386521851, -1.405, 0.76, -0.761], a = 0.2, v = 0.2, t = 0.1)
movej(p[0.417559996364721, 0.218103424091756, 0.306197834305257, -1.405, 0.76, -0.761], a = 0.2, v = 0.2, t = 0.1)
movej(p[0.417565936376926, 0.218099278674648, 0.306192996577071, -1.405, 0.76, -0.761], a = 0.2, v = 0.2, t = 0.1)
movej(p[0.417571718193189, 0.218097634436609, 0.306188964070161, -1.405, 0.76, -0.761], a = 0.2, v = 0.2, t = 0.1)
movej(p[0.417578660396723, 0.218100993356092, 0.306185626298599, -1.405, 0.76, -0.761], a = 0.2, v = 0.2, t = 0.1)
movej(p[0.417586556313022, 0.218108283200545, 0.306184763866778, -1.405, 0.76, -0.761], a = 0.2, v = 0.2, t = 0.1)
movej(p[0.417595174834598, 0.218115553302727, 0.306186062356719, -1.405, 0.76, -0.761], a = 0.2, v = 0.2, t = 0.1)
movej(p[0.417608796497965, 0.218121093680612, 0.30619134792329, -1.405, 0.76, -0.761], a = 0.2, v = 0.2, t = 0.1)
movej(p[0.417625831243645, 0.218126691887708, 0.306199362176526, -1.405, 0.76, -0.761], a = 0.2, v = 0.2, t = 0.1)
movej(p[0.417643074888585, 0.218134295250064, 0.30620854295215, -1.405, 0.76, -0.761], a = 0.2, v = 0.2, t = 0.1)
movej(p[0.417653458788499, 0.218142295884503, 0.306212557120081, -1.405, 0.76, -0.761], a = 0.2, v = 0.2, t = 0.1)
movej(p[0.417658860537854, 0.21814855288512, 0.30620738061236, -1.405, 0.76, -0.761], a = 0.2, v = 0.2, t = 0.1)
movej(p[0.417662137451436, 0.218150889975619, 0.306193148060714, -1.405, 0.76, -0.761], a = 0.2, v = 0.2, t = 0.1)
movej(p[0.417665447910379, 0.218150692314037, 0.306175759978431, -1.405, 0.76, -0.761], a = 0.2, v = 0.2, t = 0.1)
movej(p[0.417667082458027, 0.218148489069574, 0.306161168336857, -1.405, 0.76, -0.761], a = 0.2, v = 0.2, t = 0.1)
movej(p[0.417665735406039, 0.218146524359504, 0.306151776639604, -1.405, 0.76, -0.761], a = 0.2, v = 0.2, t = 0.1)
movej(p[0.417661738629868, 0.218145565989928, 0.306147075226519, -1.405, 0.76, -0.761], a = 0.2, v = 0.2, t = 0.1)
movej(p[0.417656398339879, 0.218145253227588, 0.306145488351428, -1.405, 0.76, -0.761], a = 0.2, v = 0.2, t = 0.1)
movej(p[0.417650086895055, 0.218143829126343, 0.306145777041352, -1.405, 0.76, -0.761], a = 0.2, v = 0.2, t = 0.1)
movej(p[0.417644086414829, 0.218141153213668, 0.306147657902172, -1.405, 0.76, -0.761], a = 0.2, v = 0.2, t = 0.1)
movej(p[0.417638878203049, 0.218136424995841, 0.306151032397576, -1.405, 0.76, -0.761], a = 0.2, v = 0.2, t = 0.1)
movej(p[0.417634177408225, 0.218128812997025, 0.306154774709833, -1.405, 0.76, -0.761], a = 0.2, v = 0.2, t = 0.1)
movej(p[0.41762713255056, 0.218115985546241, 0.306155536720902, -1.405, 0.76, -0.761], a = 0.2, v = 0.2, t = 0.1)
movej(p[0.417617999336727, 0.21810032486087, 0.306150640063284, -1.405, 0.76, -0.761], a = 0.2, v = 0.2, t = 0.1)
movej(p[0.41760887084047, 0.218084766846572, 0.306140361917918, -1.405, 0.76, -0.761], a = 0.2, v = 0.2, t = 0.1)
movej(p[0.417602411794473, 0.218071453568621, 0.306127085094502, -1.405, 0.76, -0.761], a = 0.2, v = 0.2, t = 0.1)
movej(p[0.417597792025389, 0.218059817829165, 0.306113750262148, -1.405, 0.76, -0.761], a = 0.2, v = 0.2, t = 0.1)
movej(p[0.417592982135756, 0.218049333526828, 0.306102736929898, -1.405, 0.76, -0.761], a = 0.2, v = 0.2, t = 0.1)
movej(p[0.417588029363081, 0.218042511316882, 0.30609572759225, -1.405, 0.76, -0.761], a = 0.2, v = 0.2, t = 0.1)
movej(p[0.417583987709425, 0.218040686203834, 0.306093518042276, -1.405, 0.76, -0.761], a = 0.2, v = 0.2, t = 0.1)
movej(p[0.417580641216788, 0.218042364891583, 0.306094057419206, -1.405, 0.76, -0.761], a = 0.2, v = 0.2, t = 0.1)
movej(p[0.417577683116967, 0.218044849492423, 0.306093667631935, -1.405, 0.76, -0.761], a = 0.2, v = 0.2, t = 0.1)
movej(p[0.41757366318693, 0.218046406421628, 0.306090393794746, -1.405, 0.76, -0.761], a = 0.2, v = 0.2, t = 0.1)
movej(p[0.41756812876821, 0.218047242066719, 0.30608360253531, -1.405, 0.76, -0.761], a = 0.2, v = 0.2, t = 0.1)
movej(p[0.417561556371656, 0.218047657105476, 0.306075193973699, -1.405, 0.76, -0.761], a = 0.2, v = 0.2, t = 0.1)
movej(p[0.417554758580467, 0.21804762905219, 0.306067612265583, -1.405, 0.76, -0.761], a = 0.2, v = 0.2, t = 0.1)
movej(p[0.417548853448042, 0.218047766936066, 0.306062414200936, -1.405, 0.76, -0.761], a = 0.2, v = 0.2, t = 0.1)
movej(p[0.417544889885636, 0.218047569530264, 0.306060168087625, -1.405, 0.76, -0.761], a = 0.2, v = 0.2, t = 0.1)
movej(p[0.417541960993427, 0.218048123236743, 0.306060100238055, -1.405, 0.76, -0.761], a = 0.2, v = 0.2, t = 0.1)
movej(p[0.417539186778157, 0.218048928838479, 0.306060621603067, -1.405, 0.76, -0.761], a = 0.2, v = 0.2, t = 0.1)
movej(p[0.417534712313887, 0.218050564888045, 0.306060290676614, -1.405, 0.76, -0.761], a = 0.2, v = 0.2, t = 0.1)
movej(p[0.417527834204374, 0.218049730294611, 0.30605866905356, -1.405, 0.76, -0.761], a = 0.2, v = 0.2, t = 0.1)
movej(p[0.417517599304916, 0.218046866319384, 0.306057336070072, -1.405, 0.76, -0.761], a = 0.2, v = 0.2, t = 0.1)
movej(p[0.417503115026365, 0.218041981649219, 0.306056870290885, -1.405, 0.76, -0.761], a = 0.2, v = 0.2, t = 0.1)
movej(p[0.417487794304312, 0.21803821042265, 0.306056848844487, -1.405, 0.76, -0.761], a = 0.2, v = 0.2, t = 0.1)
movej(p[0.417473974976516, 0.218034051337698, 0.306058316727524, -1.405, 0.76, -0.761], a = 0.2, v = 0.2, t = 0.1)
movej(p[0.41746450515793, 0.21802680097032, 0.306063492773392, -1.405, 0.76, -0.761], a = 0.2, v = 0.2, t = 0.1)
movej(p[0.41745953296094, 0.218015647622801, 0.306073386163216, -1.405, 0.76, -0.761], a = 0.2, v = 0.2, t = 0.1)
movej(p[0.41745959382621, 0.218003045168914, 0.30608601719126, -1.405, 0.76, -0.761], a = 0.2, v = 0.2, t = 0.1)
movej(p[0.417464845592703, 0.217994076135219, 0.306098311771379, -1.405, 0.76, -0.761], a = 0.2, v = 0.2, t = 0.1)
movej(p[0.417475229863646, 0.217990751646101, 0.306108645994237, -1.405, 0.76, -0.761], a = 0.2, v = 0.2, t = 0.1)
movej(p[0.417490583823106, 0.217992507752514, 0.306117863698354, -1.405, 0.76, -0.761], a = 0.2, v = 0.2, t = 0.1)
movej(p[0.417509906317935, 0.217996158945118, 0.306127251885139, -1.405, 0.76, -0.761], a = 0.2, v = 0.2, t = 0.1)
movej(p[0.417531068036393, 0.218001134865906, 0.30613631963989, -1.405, 0.76, -0.761], a = 0.2, v = 0.2, t = 0.1)
movej(p[0.417552390627127, 0.218006897951171, 0.306144924937944, -1.405, 0.76, -0.761], a = 0.2, v = 0.2, t = 0.1)
movej(p[0.417573372363949, 0.218014603458785, 0.306153507541825, -1.405, 0.76, -0.761], a = 0.2, v = 0.2, t = 0.1)
movej(p[0.417592671527361, 0.218022573829464, 0.3061615898705, -1.405, 0.76, -0.761], a = 0.2, v = 0.2, t = 0.1)
movej(p[0.417609992833612, 0.218029570842417, 0.306169258813421, -1.405, 0.76, -0.761], a = 0.2, v = 0.2, t = 0.1)
movej(p[0.4176252752082, 0.218034762253301, 0.306176161789734, -1.405, 0.76, -0.761], a = 0.2, v = 0.2, t = 0.1)
movej(p[0.417638332984436, 0.21803838255431, 0.306183598344473, -1.405, 0.76, -0.761], a = 0.2, v = 0.2, t = 0.1)
movej(p[0.417649040964836, 0.218042473576717, 0.306190950774915, -1.405, 0.76, -0.761], a = 0.2, v = 0.2, t = 0.1)
movej(p[0.41765565950495, 0.218046494648844, 0.306199094542269, -1.405, 0.76, -0.761], a = 0.2, v = 0.2, t = 0.1)
movej(p[0.417658598006092, 0.218051073976832, 0.306206215242881, -1.405, 0.76, -0.761], a = 0.2, v = 0.2, t = 0.1)
movej(p[0.417657747041793, 0.218055550631922, 0.306212111752354, -1.405, 0.76, -0.761], a = 0.2, v = 0.2, t = 0.1)
movej(p[0.417654536074323, 0.218056709550082, 0.30621675216641, -1.405, 0.76, -0.761], a = 0.2, v = 0.2, t = 0.1)
movej(p[0.417649364111579, 0.218052443691555, 0.30622352830199, -1.405, 0.76, -0.761], a = 0.2, v = 0.2, t = 0.1)
movej(p[0.417644713667166, 0.21804491529205, 0.306231183690657, -1.405, 0.76, -0.761], a = 0.2, v = 0.2, t = 0.1)
movej(p[0.417642257288076, 0.218040605269007, 0.306238941203283, -1.405, 0.76, -0.761], a = 0.2, v = 0.2, t = 0.1)
movej(p[0.417641627618579, 0.218040310982322, 0.306242316134641, -1.405, 0.76, -0.761], a = 0.2, v = 0.2, t = 0.1)
movej(p[0.417641238918913, 0.218043332270017, 0.306238343817529, -1.405, 0.76, -0.761], a = 0.2, v = 0.2, t = 0.1)
movej(p[0.417640261789982, 0.218049748778029, 0.306225907708773, -1.405, 0.76, -0.761], a = 0.2, v = 0.2, t = 0.1)
movej(p[0.417638854436119, 0.218059210192074, 0.306210421627107, -1.405, 0.76, -0.761], a = 0.2, v = 0.2, t = 0.1)
movej(p[0.417637169376108, 0.218071029105466, 0.306195544717113, -1.405, 0.76, -0.761], a = 0.2, v = 0.2, t = 0.1)
movej(p[0.417634294535643, 0.21808398439789, 0.306183075709353, -1.405, 0.76, -0.761], a = 0.2, v = 0.2, t = 0.1)
movej(p[0.417630001355473, 0.218094927215981, 0.306171544718404, -1.405, 0.76, -0.761], a = 0.2, v = 0.2, t = 0.1)
movej(p[0.417623984530294, 0.218102220287682, 0.306158710229403, -1.405, 0.76, -0.761], a = 0.2, v = 0.2, t = 0.1)
movej(p[0.417616127448773, 0.218106817249389, 0.306142312370578, -1.405, 0.76, -0.761], a = 0.2, v = 0.2, t = 0.1)
movej(p[0.417607951598514, 0.218111137854522, 0.306124160113698, -1.405, 0.76, -0.761], a = 0.2, v = 0.2, t = 0.1)
movej(p[0.417600816710516, 0.21811457863318, 0.306106724178636, -1.405, 0.76, -0.761], a = 0.2, v = 0.2, t = 0.1)
movej(p[0.417594235470879, 0.218117678966879, 0.306091364322263, -1.405, 0.76, -0.761], a = 0.2, v = 0.2, t = 0.1)
movej(p[0.417586972819975, 0.218121218239634, 0.306078359640021, -1.405, 0.76, -0.761], a = 0.2, v = 0.2, t = 0.1)
movej(p[0.417577297126125, 0.21812617547556, 0.306067447146151, -1.405, 0.76, -0.761], a = 0.2, v = 0.2, t = 0.1)
movej(p[0.417564581419609, 0.218131220535976, 0.306059479437307, -1.405, 0.76, -0.761], a = 0.2, v = 0.2, t = 0.1)
movej(p[0.417548422962044, 0.218134350523163, 0.306055590313971, -1.405, 0.76, -0.761], a = 0.2, v = 0.2, t = 0.1)
movej(p[0.417529140214665, 0.218135411144267, 0.306053863661022, -1.405, 0.76, -0.761], a = 0.2, v = 0.2, t = 0.1)
movej(p[0.417509266943132, 0.21813582270113, 0.306052253891929, -1.405, 0.76, -0.761], a = 0.2, v = 0.2, t = 0.1)
movej(p[0.417491574965662, 0.218135856365688, 0.306049988929261, -1.405, 0.76, -0.761], a = 0.2, v = 0.2, t = 0.1)
movej(p[0.417476487891637, 0.218136430667364, 0.306047794340929, -1.405, 0.76, -0.761], a = 0.2, v = 0.2, t = 0.1)
movej(p[0.417463390170869, 0.218136928446658, 0.30604648968908, -1.405, 0.76, -0.761], a = 0.2, v = 0.2, t = 0.1)
movej(p[0.417452613422936, 0.218137142151916, 0.306045844394521, -1.405, 0.76, -0.761], a = 0.2, v = 0.2, t = 0.1)
movej(p[0.417444664218401, 0.21813761731325, 0.306045012747986, -1.405, 0.76, -0.761], a = 0.2, v = 0.2, t = 0.1)
movej(p[0.417439575430979, 0.21813889449663, 0.306043228662172, -1.405, 0.76, -0.761], a = 0.2, v = 0.2, t = 0.1)
movej(p[0.417435608962095, 0.218141966815038, 0.306039630178298, -1.405, 0.76, -0.761], a = 0.2, v = 0.2, t = 0.1)
movej(p[0.41743352898674, 0.218147619287963, 0.306038612581448, -1.405, 0.76, -0.761], a = 0.2, v = 0.2, t = 0.1)
movej(p[0.417433397189755, 0.218156814364191, 0.306043668684861, -1.405, 0.76, -0.761], a = 0.2, v = 0.2, t = 0.1)
movej(p[0.417436144782374, 0.218168632185222, 0.306053711747087, -1.405, 0.76, -0.761], a = 0.2, v = 0.2, t = 0.1)
movej(p[0.417442714437058, 0.218180229268793, 0.306065192879391, -1.405, 0.76, -0.761], a = 0.2, v = 0.2, t = 0.1)
movej(p[0.41745292769187, 0.218189433959466, 0.30607597467821, -1.405, 0.76, -0.761], a = 0.2, v = 0.2, t = 0.1)
movej(p[0.417466728226939, 0.21819710850811, 0.306084082020124, -1.405, 0.76, -0.761], a = 0.2, v = 0.2, t = 0.1)
movej(p[0.417483290814048, 0.218205048308036, 0.306088994126636, -1.405, 0.76, -0.761], a = 0.2, v = 0.2, t = 0.1)
movej(p[0.417502050625, 0.21821480680057, 0.306091997629841, -1.405, 0.76, -0.761], a = 0.2, v = 0.2, t = 0.1)
movej(p[0.417523189499736, 0.218227143031806, 0.306096735193224, -1.405, 0.76, -0.761], a = 0.2, v = 0.2, t = 0.1)
movej(p[0.417545667496758, 0.218240778978472, 0.30610508153442, -1.405, 0.76, -0.761], a = 0.2, v = 0.2, t = 0.1)
movej(p[0.417568044291318, 0.218253994568337, 0.306116911889138, -1.405, 0.76, -0.761], a = 0.2, v = 0.2, t = 0.1)
movej(p[0.417588703244456, 0.218264827338408, 0.306128562133679, -1.405, 0.76, -0.761], a = 0.2, v = 0.2, t = 0.1)
movej(p[0.417607003343069, 0.2182724662777, 0.306136888463917, -1.405, 0.76, -0.761], a = 0.2, v = 0.2, t = 0.1)
movej(p[0.417623090771217, 0.218276504001918, 0.306139810444018, -1.405, 0.76, -0.761], a = 0.2, v = 0.2, t = 0.1)
movej(p[0.417634336701603, 0.218277166586517, 0.306137199454665, -1.405, 0.76, -0.761], a = 0.2, v = 0.2, t = 0.1)
movej(p[0.417639156952779, 0.218275617548551, 0.306130769546969, -1.405, 0.76, -0.761], a = 0.2, v = 0.2, t = 0.1)
movej(p[0.417636452286736, 0.21827204099683, 0.306124066769681, -1.405, 0.76, -0.761], a = 0.2, v = 0.2, t = 0.1)
movej(p[0.417628224252697, 0.21826687580736, 0.306119952107168, -1.405, 0.76, -0.761], a = 0.2, v = 0.2, t = 0.1)
movej(p[0.417616381756272, 0.218260546828552, 0.306117428567854, -1.405, 0.76, -0.761], a = 0.2, v = 0.2, t = 0.1)
movej(p[0.417603141026657, 0.218252497848616, 0.306113747446116, -1.405, 0.76, -0.761], a = 0.2, v = 0.2, t = 0.1)
movej(p[0.417588676404382, 0.21824228302113, 0.306107782122079, -1.405, 0.76, -0.761], a = 0.2, v = 0.2, t = 0.1)
movej(p[0.417572769773889, 0.218230199387186, 0.306100339005187, -1.405, 0.76, -0.761], a = 0.2, v = 0.2, t = 0.1)
movej(p[0.417555413419515, 0.218217206636636, 0.306089954104368, -1.405, 0.76, -0.761], a = 0.2, v = 0.2, t = 0.1)
movej(p[0.417537766452795, 0.218202945405007, 0.306076843409498, -1.405, 0.76, -0.761], a = 0.2, v = 0.2, t = 0.1)
movej(p[0.41751969135373, 0.218186066636394, 0.306061665498907, -1.405, 0.76, -0.761], a = 0.2, v = 0.2, t = 0.1)
movej(p[0.417502429619169, 0.218166846184281, 0.306043546047466, -1.405, 0.76, -0.761], a = 0.2, v = 0.2, t = 0.1)
movej(p[0.417485429613199, 0.218146413744206, 0.306023448743826, -1.405, 0.76, -0.761], a = 0.2, v = 0.2, t = 0.1)
movej(p[0.417469696976761, 0.218125821304329, 0.306002246087964, -1.405, 0.76, -0.761], a = 0.2, v = 0.2, t = 0.1)
movej(p[0.417455456915743, 0.218106482765511, 0.305984783214415, -1.405, 0.76, -0.761], a = 0.2, v = 0.2, t = 0.1)
movej(p[0.417444798292165, 0.218090347901055, 0.305972579431418, -1.405, 0.76, -0.761], a = 0.2, v = 0.2, t = 0.1)
movej(p[0.417439260953462, 0.218077812341661, 0.305966233742507, -1.405, 0.76, -0.761], a = 0.2, v = 0.2, t = 0.1)
movej(p[0.417441047729776, 0.218068446714001, 0.305963346385421, -1.405, 0.76, -0.761], a = 0.2, v = 0.2, t = 0.1)
movej(p[0.417448936531571, 0.218061220238109, 0.305960804665054, -1.405, 0.76, -0.761], a = 0.2, v = 0.2, t = 0.1)
movej(p[0.41746145662848, 0.218055065065193, 0.30595657210451, -1.405, 0.76, -0.761], a = 0.2, v = 0.2, t = 0.1)
movej(p[0.417476473132976, 0.21804988547283, 0.305948922463232, -1.405, 0.76, -0.761], a = 0.2, v = 0.2, t = 0.1)
movej(p[0.417493561284376, 0.218047909161148, 0.305938853039323, -1.405, 0.76, -0.761], a = 0.2, v = 0.2, t = 0.1)
movej(p[0.417512984646266, 0.218049659805082, 0.305927539122022, -1.405, 0.76, -0.761], a = 0.2, v = 0.2, t = 0.1)
movej(p[0.417533977101124, 0.218053473910691, 0.305915430445527, -1.405, 0.76, -0.761], a = 0.2, v = 0.2, t = 0.1)
movej(p[0.417555419541581, 0.218057896686217, 0.305904038371358, -1.405, 0.76, -0.761], a = 0.2, v = 0.2, t = 0.1)
movej(p[0.417575303088205, 0.218063187603175, 0.305893889540716, -1.405, 0.76, -0.761], a = 0.2, v = 0.2, t = 0.1)
movej(p[0.417593377111406, 0.218070537933327, 0.305884039392646, -1.405, 0.76, -0.761], a = 0.2, v = 0.2, t = 0.1)
movej(p[0.417609108649921, 0.218078842829409, 0.305872422018675, -1.405, 0.76, -0.761], a = 0.2, v = 0.2, t = 0.1)
movej(p[0.417622831158082, 0.218086395182315, 0.305859680795603, -1.405, 0.76, -0.761], a = 0.2, v = 0.2, t = 0.1)
movej(p[0.417633969736167, 0.21809306357334, 0.305848892116194, -1.405, 0.76, -0.761], a = 0.2, v = 0.2, t = 0.1)
movej(p[0.417642998539875, 0.218099722466814, 0.305845520917549, -1.405, 0.76, -0.761], a = 0.2, v = 0.2, t = 0.1)
movej(p[0.417649231114407, 0.218106451759535, 0.305847343154408, -1.405, 0.76, -0.761], a = 0.2, v = 0.2, t = 0.1)
movej(p[0.417652563499416, 0.218112442286817, 0.305849487564128, -1.405, 0.76, -0.761], a = 0.2, v = 0.2, t = 0.1)
movej(p[0.417652685398722, 0.218117079553568, 0.305846866659011, -1.405, 0.76, -0.761], a = 0.2, v = 0.2, t = 0.1)
movej(p[0.417649589375357, 0.218120769300617, 0.305840062128899, -1.405, 0.76, -0.761], a = 0.2, v = 0.2, t = 0.1)
movej(p[0.417643262808864, 0.218123809792549, 0.305831896880268, -1.405, 0.76, -0.761], a = 0.2, v = 0.2, t = 0.1)
movej(p[0.417634086095594, 0.218125568232207, 0.305826337485108, -1.405, 0.76, -0.761], a = 0.2, v = 0.2, t = 0.1)
movej(p[0.417623800492711, 0.218124203032979, 0.305823096499087, -1.405, 0.76, -0.761], a = 0.2, v = 0.2, t = 0.1)
movej(p[0.417612435035686, 0.218119793987906, 0.305819545226898, -1.405, 0.76, -0.761], a = 0.2, v = 0.2, t = 0.1)
movej(p[0.417598801283787, 0.218113547541884, 0.305814693996203, -1.405, 0.76, -0.761], a = 0.2, v = 0.2, t = 0.1)
movej(p[0.417581365532944, 0.21810810006142, 0.305810477367796, -1.405, 0.76, -0.761], a = 0.2, v = 0.2, t = 0.1)
movej(p[0.417560138826355, 0.218103334958327, 0.305812304720499, -1.405, 0.76, -0.761], a = 0.2, v = 0.2, t = 0.1)
movej(p[0.417536209884855, 0.218098866001399, 0.305818836905179, -1.405, 0.76, -0.761], a = 0.2, v = 0.2, t = 0.1)
movej(p[0.417510812356583, 0.218094317290376, 0.305826293045581, -1.405, 0.76, -0.761], a = 0.2, v = 0.2, t = 0.1)
movej(p[0.41748592279393, 0.218089866177521, 0.305831144279165, -1.405, 0.76, -0.761], a = 0.2, v = 0.2, t = 0.1)
movej(p[0.417463358519746, 0.218084258044351, 0.305831563459215, -1.405, 0.76, -0.761], a = 0.2, v = 0.2, t = 0.1)
movej(p[0.417444512213945, 0.218076457111475, 0.305829052185451, -1.405, 0.76, -0.761], a = 0.2, v = 0.2, t = 0.1)
movej(p[0.417430305134284, 0.218065323271509, 0.305825170357001, -1.405, 0.76, -0.761], a = 0.2, v = 0.2, t = 0.1)
movej(p[0.41742037575252, 0.218052075376018, 0.305823426224026, -1.405, 0.76, -0.761], a = 0.2, v = 0.2, t = 0.1)
movej(p[0.417412321794089, 0.2180392635523, 0.305823229852895, -1.405, 0.76, -0.761], a = 0.2, v = 0.2, t = 0.1)
movej(p[0.417403780635424, 0.218028413625379, 0.305822209009879, -1.405, 0.76, -0.761], a = 0.2, v = 0.2, t = 0.1)
movej(p[0.417394391066975, 0.218019412222918, 0.305817137039839, -1.405, 0.76, -0.761], a = 0.2, v = 0.2, t = 0.1)
movej(p[0.417384370837272, 0.218011509113203, 0.305807366891809, -1.405, 0.76, -0.761], a = 0.2, v = 0.2, t = 0.1)
movej(p[0.417374975367416, 0.218004947249322, 0.305793917343319, -1.405, 0.76, -0.761], a = 0.2, v = 0.2, t = 0.1)
movej(p[0.417367201161474, 0.217999658620432, 0.305779096868143, -1.405, 0.76, -0.761], a = 0.2, v = 0.2, t = 0.1)
movej(p[0.417362730356236, 0.217993988883524, 0.305765294637276, -1.405, 0.76, -0.761], a = 0.2, v = 0.2, t = 0.1)
movej(p[0.417362809244945, 0.217986034606408, 0.305754136876114, -1.405, 0.76, -0.761], a = 0.2, v = 0.2, t = 0.1)
movej(p[0.417367697513024, 0.217977446109915, 0.305747186552873, -1.405, 0.76, -0.761], a = 0.2, v = 0.2, t = 0.1)
movej(p[0.417376498406971, 0.217970815757821, 0.305744056796517, -1.405, 0.76, -0.761], a = 0.2, v = 0.2, t = 0.1)
movej(p[0.417387322643208, 0.217969905424252, 0.305742460459559, -1.405, 0.76, -0.761], a = 0.2, v = 0.2, t = 0.1)
movej(p[0.417399324430253, 0.217974380506125, 0.305740844845137, -1.405, 0.76, -0.761], a = 0.2, v = 0.2, t = 0.1)
movej(p[0.417411804208294, 0.217981340136049, 0.3057394242835, -1.405, 0.76, -0.761], a = 0.2, v = 0.2, t = 0.1)
movej(p[0.417424621955499, 0.217988551433791, 0.305737558985814, -1.405, 0.76, -0.761], a = 0.2, v = 0.2, t = 0.1)
movej(p[0.417436409899007, 0.217995996365854, 0.305731248897429, -1.405, 0.76, -0.761], a = 0.2, v = 0.2, t = 0.1)
movej(p[0.417446831274372, 0.21800343522459, 0.305721738345856, -1.405, 0.76, -0.761], a = 0.2, v = 0.2, t = 0.1)
movej(p[0.417455733098009, 0.218008577522718, 0.305709994599951, -1.405, 0.76, -0.761], a = 0.2, v = 0.2, t = 0.1)
movej(p[0.417463611522819, 0.21801028927359, 0.3056992076562, -1.405, 0.76, -0.761], a = 0.2, v = 0.2, t = 0.1)
movej(p[0.417471270614544, 0.21801121325081, 0.305688629285388, -1.405, 0.76, -0.761], a = 0.2, v = 0.2, t = 0.1)
movej(p[0.417479066081693, 0.218014291179034, 0.305678401686316, -1.405, 0.76, -0.761], a = 0.2, v = 0.2, t = 0.1)
movej(p[0.41748644726605, 0.218019964429838, 0.30566914819169, -1.405, 0.76, -0.761], a = 0.2, v = 0.2, t = 0.1)
movej(p[0.417492316515817, 0.218025758371277, 0.305658969129367, -1.405, 0.76, -0.761], a = 0.2, v = 0.2, t = 0.1)
movej(p[0.417496385796901, 0.218030998920805, 0.305648017822819, -1.405, 0.76, -0.761], a = 0.2, v = 0.2, t = 0.1)
movej(p[0.417500101847499, 0.218035213524253, 0.30563817902194, -1.405, 0.76, -0.761], a = 0.2, v = 0.2, t = 0.1)
movej(p[0.417502487939377, 0.21803772836226, 0.305629748963854, -1.405, 0.76, -0.761], a = 0.2, v = 0.2, t = 0.1)
movej(p[0.417502045000772, 0.218037728982183, 0.305622978614158, -1.405, 0.76, -0.761], a = 0.2, v = 0.2, t = 0.1)
movej(p[0.417497728940574, 0.218033766703275, 0.305615174932961, -1.405, 0.76, -0.761], a = 0.2, v = 0.2, t = 0.1)
movej(p[0.41748930182475, 0.218026248955565, 0.305605694139889, -1.405, 0.76, -0.761], a = 0.2, v = 0.2, t = 0.1)
movej(p[0.417476590134057, 0.218016284406942, 0.305594047915803, -1.405, 0.76, -0.761], a = 0.2, v = 0.2, t = 0.1)
movej(p[0.417460932308318, 0.218006314567774, 0.305581706190961, -1.405, 0.76, -0.761], a = 0.2, v = 0.2, t = 0.1)
movej(p[0.417443564229864, 0.217996395688395, 0.305569036838662, -1.405, 0.76, -0.761], a = 0.2, v = 0.2, t = 0.1)
movej(p[0.417424761316392, 0.217987157634582, 0.305557007735549, -1.405, 0.76, -0.761], a = 0.2, v = 0.2, t = 0.1)
movej(p[0.41740404731176, 0.217977025475002, 0.305547063919815, -1.405, 0.76, -0.761], a = 0.2, v = 0.2, t = 0.1)
movej(p[0.41738152767948, 0.217964504707351, 0.305540127860601, -1.405, 0.76, -0.761], a = 0.2, v = 0.2, t = 0.1)
movej(p[0.417357572094828, 0.217945416586587, 0.305536814075655, -1.405, 0.76, -0.761], a = 0.2, v = 0.2, t = 0.1)
movej(p[0.417336680234992, 0.21792498154835, 0.305533449167651, -1.405, 0.76, -0.761], a = 0.2, v = 0.2, t = 0.1)
movej(p[0.417322319428421, 0.217909610187784, 0.305528451885393, -1.405, 0.76, -0.761], a = 0.2, v = 0.2, t = 0.1)
movej(p[0.417317082962054, 0.217905905956042, 0.305520777119456, -1.405, 0.76, -0.761], a = 0.2, v = 0.2, t = 0.1)
movej(p[0.41731763213841, 0.217911112685036, 0.305514021810987, -1.405, 0.76, -0.761], a = 0.2, v = 0.2, t = 0.1)
movej(p[0.417320729652017, 0.217920940213897, 0.30551077767737, -1.405, 0.76, -0.761], a = 0.2, v = 0.2, t = 0.1)
movej(p[0.417324366257133, 0.217933947230441, 0.305510458809282, -1.405, 0.76, -0.761], a = 0.2, v = 0.2, t = 0.1)
movej(p[0.417328783905285, 0.217949669970183, 0.305513380590557, -1.405, 0.76, -0.761], a = 0.2, v = 0.2, t = 0.1)
movej(p[0.417334224762122, 0.217967771357265, 0.305518378855113, -1.405, 0.76, -0.761], a = 0.2, v = 0.2, t = 0.1)
movej(p[0.41734122945668, 0.217986725162242, 0.305523750138855, -1.405, 0.76, -0.761], a = 0.2, v = 0.2, t = 0.1)
movej(p[0.417351031156799, 0.2180047169046, 0.305527908414183, -1.405, 0.76, -0.761], a = 0.2, v = 0.2, t = 0.1)
movej(p[0.417364492991659, 0.21802115358922, 0.305530401982295, -1.405, 0.76, -0.761], a = 0.2, v = 0.2, t = 0.1)
movej(p[0.417380666418897, 0.218036382372052, 0.305531388498304, -1.405, 0.76, -0.761], a = 0.2, v = 0.2, t = 0.1)
movej(p[0.417397534419874, 0.218049791753697, 0.305529373199588, -1.405, 0.76, -0.761], a = 0.2, v = 0.2, t = 0.1)
movej(p[0.41741333485451, 0.218061416335066, 0.305524573583526, -1.405, 0.76, -0.761], a = 0.2, v = 0.2, t = 0.1)
movej(p[0.417427212022055, 0.218071132276152, 0.305517040383559, -1.405, 0.76, -0.761], a = 0.2, v = 0.2, t = 0.1)
movej(p[0.417439724233977, 0.21807990227375, 0.305509177614077, -1.405, 0.76, -0.761], a = 0.2, v = 0.2, t = 0.1)
movej(p[0.417451545589085, 0.218088256973275, 0.305501680003974, -1.405, 0.76, -0.761], a = 0.2, v = 0.2, t = 0.1)
movej(p[0.417463783642261, 0.218098062311245, 0.305493800021248, -1.405, 0.76, -0.761], a = 0.2, v = 0.2, t = 0.1)
movej(p[0.417475761511703, 0.218110106527002, 0.305485973439655, -1.405, 0.76, -0.761], a = 0.2, v = 0.2, t = 0.1)
movej(p[0.417486811140985, 0.218122411271023, 0.305478404775156, -1.405, 0.76, -0.761], a = 0.2, v = 0.2, t = 0.1)
movej(p[0.417496012974271, 0.218131784074824, 0.305469285813424, -1.405, 0.76, -0.761], a = 0.2, v = 0.2, t = 0.1)
movej(p[0.417502880166268, 0.218137902513922, 0.305456083551872, -1.405, 0.76, -0.761], a = 0.2, v = 0.2, t = 0.1)
movej(p[0.417506410678912, 0.218141054055984, 0.305437701066591, -1.405, 0.76, -0.761], a = 0.2, v = 0.2, t = 0.1)
movej(p[0.417505865187007, 0.218141661380249, 0.305417904896511, -1.405, 0.76, -0.761], a = 0.2, v = 0.2, t = 0.1)
movej(p[0.417501955838792, 0.218140124231626, 0.30539926587455, -1.405, 0.76, -0.761], a = 0.2, v = 0.2, t = 0.1)
movej(p[0.417496377486728, 0.218137634921888, 0.305382398869621, -1.405, 0.76, -0.761], a = 0.2, v = 0.2, t = 0.1)
movej(p[0.417490849509096, 0.218135425694552, 0.305366239402864, -1.405, 0.76, -0.761], a = 0.2, v = 0.2, t = 0.1)
movej(p[0.417484606650635, 0.218133702811078, 0.305350465062124, -1.405, 0.76, -0.761], a = 0.2, v = 0.2, t = 0.1)
movej(p[0.417476831464934, 0.218132353922528, 0.305333796872391, -1.405, 0.76, -0.761], a = 0.2, v = 0.2, t = 0.1)
movej(p[0.417468500079343, 0.21812930732626, 0.305312774635324, -1.405, 0.76, -0.761], a = 0.2, v = 0.2, t = 0.1)
movej(p[0.41746130401243, 0.218122220781297, 0.305288818056927, -1.405, 0.76, -0.761], a = 0.2, v = 0.2, t = 0.1)
movej(p[0.417454717470606, 0.218110502880487, 0.305263786880379, -1.405, 0.76, -0.761], a = 0.2, v = 0.2, t = 0.1)
movej(p[0.417448786568942, 0.218094980769962, 0.305240732357171, -1.405, 0.76, -0.761], a = 0.2, v = 0.2, t = 0.1)
movej(p[0.417442050218399, 0.218077949719362, 0.305223607702845, -1.405, 0.76, -0.761], a = 0.2, v = 0.2, t = 0.1)
movej(p[0.41743416084645, 0.21806187230684, 0.305208987161546, -1.405, 0.76, -0.761], a = 0.2, v = 0.2, t = 0.1)
movej(p[0.417425556153086, 0.218049548337505, 0.30519180376139, -1.405, 0.76, -0.761], a = 0.2, v = 0.2, t = 0.1)
movej(p[0.417416072562335, 0.218040980402492, 0.305171781290162, -1.405, 0.76, -0.761], a = 0.2, v = 0.2, t = 0.1)
movej(p[0.417406250612985, 0.218033492402625, 0.305151428690869, -1.405, 0.76, -0.761], a = 0.2, v = 0.2, t = 0.1)
movej(p[0.4173961060665, 0.218025384260394, 0.305132702769338, -1.405, 0.76, -0.761], a = 0.2, v = 0.2, t = 0.1)
movej(p[0.417386004844778, 0.218016777431817, 0.305114967017436, -1.405, 0.76, -0.761], a = 0.2, v = 0.2, t = 0.1)
movej(p[0.417376973655004, 0.21800754479581, 0.305100193791767, -1.405, 0.76, -0.761], a = 0.2, v = 0.2, t = 0.1)
movej(p[0.417369031111721, 0.217997038711713, 0.305090345775209, -1.405, 0.76, -0.761], a = 0.2, v = 0.2, t = 0.1)
movej(p[0.41736127312668, 0.217985701002344, 0.305086008604199, -1.405, 0.76, -0.761], a = 0.2, v = 0.2, t = 0.1)
movej(p[0.417352864879052, 0.217975163483611, 0.305085218983544, -1.405, 0.76, -0.761], a = 0.2, v = 0.2, t = 0.1)
movej(p[0.417344497990756, 0.217966190444641, 0.305085787331032, -1.405, 0.76, -0.761], a = 0.2, v = 0.2, t = 0.1)
movej(p[0.417336960536681, 0.217957989155941, 0.305088568716792, -1.405, 0.76, -0.761], a = 0.2, v = 0.2, t = 0.1)
movej(p[0.417330441443343, 0.21794884786988, 0.305094063436546, -1.405, 0.76, -0.761], a = 0.2, v = 0.2, t = 0.1)
movej(p[0.417324362354169, 0.217937280951456, 0.30510330212812, -1.405, 0.76, -0.761], a = 0.2, v = 0.2, t = 0.1)
movej(p[0.41731852979703, 0.217924068360032, 0.305114048809194, -1.405, 0.76, -0.761], a = 0.2, v = 0.2, t = 0.1)
movej(p[0.41731243357806, 0.217911541504466, 0.305124452046281, -1.405, 0.76, -0.761], a = 0.2, v = 0.2, t = 0.1)
movej(p[0.417305728556411, 0.217901963603707, 0.305134025488908, -1.405, 0.76, -0.761], a = 0.2, v = 0.2, t = 0.1)
movej(p[0.417297410780902, 0.217895005075067, 0.305140202086575, -1.405, 0.76, -0.761], a = 0.2, v = 0.2, t = 0.1)
movej(p[0.417286257123941, 0.217890378103282, 0.305143459980758, -1.405, 0.76, -0.761], a = 0.2, v = 0.2, t = 0.1)
movej(p[0.417272893038091, 0.217887889888594, 0.305145177432082, -1.405, 0.76, -0.761], a = 0.2, v = 0.2, t = 0.1)
movej(p[0.417259140143025, 0.217888552513035, 0.305147715379707, -1.405, 0.76, -0.761], a = 0.2, v = 0.2, t = 0.1)
movej(p[0.417246525862939, 0.217891818309737, 0.305151837461198, -1.405, 0.76, -0.761], a = 0.2, v = 0.2, t = 0.1)
movej(p[0.417236171402666, 0.217898012361815, 0.305155197376127, -1.405, 0.76, -0.761], a = 0.2, v = 0.2, t = 0.1)
movej(p[0.417229209359969, 0.217906021615791, 0.305155613096249, -1.405, 0.76, -0.761], a = 0.2, v = 0.2, t = 0.1)
movej(p[0.41722553636348, 0.217914121280592, 0.30515250433188, -1.405, 0.76, -0.761], a = 0.2, v = 0.2, t = 0.1)
movej(p[0.417223671334687, 0.217920860731253, 0.305148834268748, -1.405, 0.76, -0.761], a = 0.2, v = 0.2, t = 0.1)
movej(p[0.417222370219516, 0.217926248956248, 0.305145079774413, -1.405, 0.76, -0.761], a = 0.2, v = 0.2, t = 0.1)
movej(p[0.417222112635942, 0.217930678415016, 0.305142283861909, -1.405, 0.76, -0.761], a = 0.2, v = 0.2, t = 0.1)
movej(p[0.41722410981395, 0.21793499803324, 0.305140513673669, -1.405, 0.76, -0.761], a = 0.2, v = 0.2, t = 0.1)
